P3
400 225
255
204 226 255
204 226 255
204 226 255
204 226 255
204 226 255
204 226 255
204 226 255
204 226 255
204 226 255
204 226 255
204 226 255
204 226 255
204 226 255
204 226 255
204 226 255
203 226 255
203 226 255
203 226 255
203 226 255
203 226 255
203 226 255
203 226 255
203 226 255
203 225 255
203 225 255
203 225 255
203 225 255
203 225 255
203 225 255
203 225 255
203 225 255
203 225 255
202 225 255
202 225 255
202 225 255
202 225 255
202 225 255
202 225 255
202 225 255
202 225 255
202 225 255
202 225 255
202 225 255
202 225 255
202 225 255
202 225 255
202 225 255
202 225 255
201 225 255
201 225 255
201 225 255
201 225 255
201 224 255
201 224 255
201 224 255
201 224 255
201 224 255
201 224 255
201 224 255
201 224 255
201 224 255
201 224 255
201 224 255
200 224 255
200 224 255
200 224 255
200 224 255
200 224 255
200 224 255
200 224 255
200 224 255
200 224 255
200 224 255
200 224 255
200 224 255
200 224 255
200 224 255
200 224 255
199 224 255
199 224 255
199 223 255
199 223 255
199 223 255
199 223 255
199 223 255
199 223 255
199 223 255
199 223 255
199 223 255
199 223 255
199 223 255
199 223 255
198 223 255
198 223 255
198 223 255
198 223 255
198 223 255
198 223 255
198 223 255
198 223 255
198 223 255
198 223 255
198 223 255
198 223 255
198 223 255
198 223 255
197 223 255
197 222 255
197 222 255
197 222 255
197 222 255
197 222 255
197 222 255
197 222 255
197 222 255
197 222 255
197 222 255
197 222 255
197 222 255
197 222 255
197 222 255
196 222 255
196 222 255
196 222 255
196 222 255
196 222 255
196 222 255
196 222 255
196 222 255
196 222 255
196 222 255
196 222 255
196 222 255
196 222 255
196 222 255
196 221 255
196 221 255
195 221 255
195 221 255
195 221 255
195 221 255
195 221 255
195 221 255
195 221 255
195 221 255
195 221 255
195 221 255
195 221 255
195 221 255
195 221 255
195 221 255
195 221 255
195 221 255
195 221 255
195 221 255
194 221 255
194 221 255
194 221 255
194 221 255
194 221 255
194 221 255
194 221 255
194 221 255
194 221 255
194 221 255
194 221 255
194 221 255
194 221 255
194 221 255
194 221 255
194 221 255
194 221 255
194 221 255
194 221 255
194 221 255
194 221 255
194 221 255
194 220 255
194 220 255
194 220 255
194 220 255
194 220 255
194 220 255
194 220 255
194 220 255
194 220 255
193 220 255
193 220 255
193 220 255
193 220 255
193 220 255
193 220 255
193 220 255
193 220 255
193 220 255
193 220 255
193 220 255
193 220 255
193 220 255
193 220 255
193 220 255
193 220 255
193 220 255
193 220 255
193 220 255
193 220 255
193 220 255
193 220 255
193 220 255
193 220 255
193 220 255
193 220 255
193 220 255
193 220 255
194 220 255
194 220 255
194 220 255
194 220 255
194 220 255
194 220 255
194 220 255
194 220 255
194 220 255
194 221 255
194 221 255
194 221 255
194 221 255
194 221 255
194 221 255
194 221 255
194 221 255
194 221 255
194 221 255
194 221 255
194 221 255
194 221 255
194 221 255
194 221 255
194 221 255
194 221 255
194 221 255
194 221 255
194 221 255
194 221 255
194 221 255
195 221 255
195 221 255
195 221 255
195 221 255
195 221 255
195 221 255
195 221 255
195 221 255
195 221 255
195 221 255
195 221 255
195 221 255
195 221 255
195 221 255
195 221 255
195 221 255
195 221 255
195 221 255
196 221 255
196 221 255
196 222 255
196 222 255
196 222 255
196 222 255
196 222 255
196 222 255
196 222 255
196 222 255
196 222 255
196 222 255
196 222 255
196 222 255
196 222 255
196 222 255
197 222 255
197 222 255
197 222 255
197 222 255
197 222 255
197 222 255
197 222 255
197 222 255
197 222 255
197 222 255
197 222 255
197 222 255
197 222 255
197 222 255
197 223 255
198 223 255
198 223 255
198 223 255
198 223 255
198 223 255
198 223 255
198 223 255
198 223 255
198 223 255
198 223 255
198 223 255
198 223 255
198 223 255
198 223 255
199 223 255
199 223 255
199 223 255
199 223 255
199 223 255
199 223 255
199 223 255
199 223 255
199 223 255
199 223 255
199 223 255
199 223 255
199 224 255
199 224 255
199 224 255
200 224 255
200 224 255
200 224 255
200 224 255
200 224 255
200 224 255
200 224 255
200 224 255
200 224 255
200 224 255
200 224 255
200 224 255
200 224 255
200 224 255
201 224 255
201 224 255
201 224 255
201 224 255
201 224 255
201 224 255
201 224 255
201 224 255
201 224 255
201 224 255
201 225 255
201 225 255
201 225 255
201 225 255
201 225 255
202 225 255
202 225 255
202 225 255
202 225 255
202 225 255
202 225 255
202 225 255
202 225 255
202 225 255
202 225 255
202 225 255
202 225 255
202 225 255
202 225 255
202 225 255
202 225 255
203 225 255
203 225 255
203 225 255
203 225 255
203 225 255
203 225 255
203 225 255
203 225 255
203 225 255
203 226 255
203 226 255
203 226 255
203 226 255
203 226 255
203 226 255
203 226 255
203 226 255
204 226 255
204 226 255
204 226 255
204 226 255
204 226 255
204 226 255
204 226 255
204 226 255
204 226 255
204 226 255
204 226 255
204 226 255
204 226 255
204 226 255
204 226 255
204 226 255
204 226 255
204 226 255
204 226 255
204 226 255
204 226 255
204 226 255
204 226 255
204 226 255
204 226 255
204 226 255
204 226 255
204 226 255
204 226 255
204 226 255
204 226 255
204 226 255
204 226 255
203 226 255
203 226 255
203 226 255
203 226 255
203 226 255
203 226 255
203 226 255
203 225 255
203 225 255
203 225 255
203 225 255
203 225 255
203 225 255
203 225 255
203 225 255
203 225 255
202 225 255
202 225 255
202 225 255
202 225 255
202 225 255
202 225 255
202 225 255
202 225 255
202 225 255
202 225 255
202 225 255
202 225 255
202 225 255
202 225 255
202 225 255
202 225 255
201 225 255
201 225 255
201 225 255
201 225 255
201 225 255
201 224 255
201 224 255
201 224 255
201 224 255
201 224 255
201 224 255
201 224 255
201 224 255
201 224 255
201 224 255
200 224 255
200 224 255
200 224 255
200 224 255
200 224 255
200 224 255
200 224 255
200 224 255
200 224 255
200 224 255
200 224 255
200 224 255
200 224 255
200 224 255
200 224 255
199 224 255
199 224 255
199 223 255
199 223 255
199 223 255
199 223 255
199 223 255
199 223 255
199 223 255
199 223 255
199 223 255
199 223 255
199 223 255
199 223 255
198 223 255
198 223 255
198 223 255
198 223 255
198 223 255
198 223 255
198 223 255
198 223 255
198 223 255
198 223 255
198 223 255
198 223 255
198 223 255
198 223 255
197 223 255
197 222 255
197 222 255
197 222 255
197 222 255
197 222 255
197 222 255
197 222 255
197 222 255
197 222 255
197 222 255
197 222 255
197 222 255
197 222 255
197 222 255
196 222 255
196 222 255
196 222 255
196 222 255
196 222 255
196 222 255
196 222 255
196 222 255
196 222 255
196 222 255
196 222 255
196 222 255
196 222 255
196 222 255
196 222 255
196 221 255
195 221 255
195 221 255
195 221 255
195 221 255
195 221 255
195 221 255
195 221 255
195 221 255
195 221 255
195 221 255
195 221 255
195 221 255
195 221 255
195 221 255
195 221 255
195 221 255
195 221 255
195 221 255
195 221 255
194 221 255
194 221 255
194 221 255
194 221 255
194 221 255
194 221 255
194 221 255
194 221 255
194 221 255
194 221 255
194 221 255
194 221 255
194 221 255
194 221 255
194 221 255
194 221 255
194 221 255
194 221 255
194 221 255
194 221 255
194 221 255
194 221 255
194 221 255
194 221 255
194 221 255
194 220 255
194 220 255
194 220 255
194 220 255
194 220 255
194 220 255
194 220 255
194 220 255
194 220 255
194 220 255
194 220 255
194 220 255
194 220 255
194 220 255
194 220 255
194 220 255
194 220 255
194 220 255
194 220 255
194 220 255
194 220 255
194 220 255
194 220 255
194 220 255
194 220 255
194 220 255
194 220 255
194 220 255
194 220 255
194 220 255
194 220 255
194 220 255
194 220 255
194 220 255
194 221 255
194 221 255
194 221 255
194 221 255
194 221 255
194 221 255
194 221 255
194 221 255
194 221 255
194 221 255
194 221 255
194 221 255
194 221 255
194 221 255
194 221 255
194 221 255
194 221 255
194 221 255
194 221 255
194 221 255
194 221 255
194 221 255
194 221 255
194 221 255
194 221 255
195 221 255
195 221 255
195 221 255
195 221 255
195 221 255
195 221 255
195 221 255
195 221 255
195 221 255
195 221 255
195 221 255
195 221 255
195 221 255
195 221 255
195 221 255
195 221 255
195 221 255
195 221 255
195 221 255
196 221 255
196 222 255
196 222 255
196 222 255
196 222 255
196 222 255
196 222 255
196 222 255
196 222 255
196 222 255
196 222 255
196 222 255
196 222 255
196 222 255
196 222 255
196 222 255
197 222 255
197 222 255
197 222 255
197 222 255
197 222 255
197 222 255
197 222 255
197 222 255
197 222 255
197 222 255
197 222 255
197 222 255
197 222 255
197 222 255
197 223 255
198 223 255
198 223 255
198 223 255
198 223 255
198 223 255
198 223 255
198 223 255
198 223 255
198 223 255
198 223 255
198 223 255
198 223 255
198 223 255
198 223 255
199 223 255
199 223 255
199 223 255
199 223 255
199 223 255
199 223 255
199 223 255
199 223 255
199 223 255
199 223 255
199 223 255
199 223 255
199 224 255
199 224 255
199 224 255
200 224 255
200 224 255
200 224 255
200 224 255
200 224 255
200 224 255
200 224 255
200 224 255
200 224 255
200 224 255
200 224 255
200 224 255
200 224 255
200 224 255
201 224 255
201 224 255
201 224 255
201 224 255
201 224 255
201 224 255
201 224 255
201 224 255
201 224 255
201 224 255
201 225 255
201 225 255
201 225 255
201 225 255
201 225 255
202 225 255
202 225 255
202 225 255
202 225 255
202 225 255
202 225 255
202 225 255
202 225 255
202 225 255
202 225 255
202 225 255
202 225 255
202 225 255
202 225 255
202 225 255
202 225 255
203 225 255
203 225 255
203 225 255
203 225 255
203 225 255
203 225 255
203 225 255
203 225 255
203 225 255
203 226 255
203 226 255
203 226 255
203 226 255
203 226 255
203 226 255
203 226 255
204 226 255
204 226 255
204 226 255
204 226 255
204 226 255
204 226 255
204 226 255
204 226 255
204 226 255
204 226 255
204 226 255
204 226 255
204 226 255
204 226 255
204 226 255
204 226 255
204 226 255
204 226 255
205 226 255
205 226 255
204 226 255
204 226 255
204 226 255
204 226 255
204 226 255
204 226 255
204 226 255
204 226 255
204 226 255
204 226 255
204 226 255
204 226 255
204 226 255
204 226 255
204 226 255
204 226 255
204 226 255
204 226 255
203 226 255
203 226 255
203 226 255
203 226 255
203 226 255
203 226 255
203 226 255
203 225 255
203 225 255
203 225 255
203 225 255
203 225 255
203 225 255
203 225 255
203 225 255
203 225 255
203 225 255
202 225 255
202 225 255
202 225 255
202 225 255
202 225 255
202 225 255
202 225 255
202 225 255
202 225 255
202 225 255
202 225 255
202 225 255
202 225 255
202 225 255
202 225 255
201 225 255
201 225 255
201 225 255
201 225 255
201 225 255
201 224 255
201 224 255
201 224 255
201 224 255
201 224 255
201 224 255
201 224 255
201 224 255
201 224 255
201 224 255
200 224 255
200 224 255
200 224 255
200 224 255
200 224 255
200 224 255
200 224 255
200 224 255
200 224 255
200 224 255
200 224 255
200 224 255
200 224 255
200 224 255
200 224 255
199 224 255
199 224 255
199 223 255
199 223 255
199 223 255
199 223 255
199 223 255
199 223 255
199 223 255
199 223 255
199 223 255
199 223 255
199 223 255
199 223 255
198 223 255
198 223 255
198 223 255
198 223 255
198 223 255
198 223 255
198 223 255
198 223 255
198 223 255
198 223 255
198 223 255
198 223 255
198 223 255
198 223 255
197 223 255
197 222 255
197 222 255
197 222 255
197 222 255
197 222 255
197 222 255
197 222 255
197 222 255
197 222 255
197 222 255
197 222 255
197 222 255
197 222 255
197 222 255
196 222 255
196 222 255
196 222 255
196 222 255
196 222 255
196 222 255
196 222 255
196 222 255
196 222 255
196 222 255
196 222 255
196 222 255
196 222 255
196 222 255
196 222 255
196 221 255
196 221 255
195 221 255
195 221 255
195 221 255
195 221 255
195 221 255
195 221 255
195 221 255
195 221 255
195 221 255
195 221 255
195 221 255
195 221 255
195 221 255
195 221 255
195 221 255
195 221 255
195 221 255
195 221 255
195 221 255
195 221 255
194 221 255
194 221 255
194 221 255
194 221 255
194 221 255
194 221 255
194 221 255
194 221 255
194 221 255
194 221 255
194 221 255
194 221 255
194 221 255
194 221 255
194 221 255
194 221 255
194 221 255
194 221 255
194 221 255
194 221 255
194 221 255
194 221 255
194 221 255
194 221 255
194 221 255
194 221 255
194 221 255
194 221 255
194 221 255
194 221 255
194 220 255
194 220 255
194 220 255
194 220 255
194 220 255
194 220 255
194 220 255
194 220 255
194 220 255
194 220 255
194 220 255
194 220 255
194 220 255
194 220 255
194 220 255
194 220 255
194 221 255
194 221 255
194 221 255
194 221 255
194 221 255
194 221 255
194 221 255
194 221 255
194 221 255
194 221 255
194 221 255
194 221 255
194 221 255
194 221 255
194 221 255
194 221 255
194 221 255
194 221 255
194 221 255
194 221 255
194 221 255
194 221 255
194 221 255
194 221 255
194 221 255
194 221 255
194 221 255
194 221 255
194 221 255
194 221 255
194 221 255
195 221 255
195 221 255
195 221 255
195 221 255
195 221 255
195 221 255
195 221 255
195 221 255
195 221 255
195 221 255
195 221 255
195 221 255
195 221 255
195 221 255
195 221 255
195 221 255
195 221 255
195 221 255
195 221 255
195 221 255
196 221 255
196 222 255
196 222 255
196 222 255
196 222 255
196 222 255
196 222 255
196 222 255
196 222 255
196 222 255
196 222 255
196 222 255
196 222 255
196 222 255
196 222 255
196 222 255
197 222 255
197 222 255
197 222 255
197 222 255
197 222 255
197 222 255
197 222 255
197 222 255
197 222 255
197 222 255
197 222 255
197 222 255
197 222 255
197 222 255
197 223 255
198 223 255
198 223 255
198 223 255
198 223 255
198 223 255
198 223 255
198 223 255
198 223 255
198 223 255
198 223 255
198 223 255
198 223 255
198 223 255
198 223 255
199 223 255
199 223 255
199 223 255
199 223 255
199 223 255
199 223 255
199 223 255
199 223 255
199 223 255
199 223 255
199 223 255
199 223 255
199 224 255
199 224 255
200 224 255
200 224 255
200 224 255
200 224 255
200 224 255
200 224 255
200 224 255
200 224 255
200 224 255
200 224 255
200 224 255
200 224 255
200 224 255
200 224 255
200 224 255
201 224 255
201 224 255
201 224 255
201 224 255
201 224 255
201 224 255
201 224 255
201 224 255
201 224 255
201 224 255
201 225 255
201 225 255
201 225 255
201 225 255
201 225 255
202 225 255
202 225 255
202 225 255
202 225 255
202 225 255
202 225 255
202 225 255
202 225 255
202 225 255
202 225 255
202 225 255
202 225 255
202 225 255
202 225 255
202 225 255
202 225 255
203 225 255
203 225 255
203 225 255
203 225 255
203 225 255
203 225 255
203 225 255
203 225 255
203 225 255
203 226 255
203 226 255
203 226 255
203 226 255
203 226 255
203 226 255
203 226 255
204 226 255
204 226 255
204 226 255
204 226 255
204 226 255
204 226 255
204 226 255
204 226 255
204 226 255
204 226 255
204 226 255
204 226 255
204 226 255
204 226 255
204 226 255
204 226 255
204 226 255
204 226 255
205 226 255
205 226 255
205 226 255
205 226 255
205 226 255
205 226 255
204 226 255
204 226 255
204 226 255
204 226 255
204 226 255
204 226 255
204 226 255
204 226 255
204 226 255
204 226 255
204 226 255
204 226 255
204 226 255
204 226 255
204 226 255
204 226 255
204 226 255
204 226 255
203 226 255
203 226 255
203 226 255
203 226 255
203 226 255
203 226 255
203 226 255
203 226 255
203 225 255
203 225 255
203 225 255
203 225 255
203 225 255
203 225 255
203 225 255
203 225 255
203 225 255
202 225 255
202 225 255
202 225 255
202 225 255
202 225 255
202 225 255
202 225 255
202 225 255
202 225 255
202 225 255
202 225 255
202 225 255
202 225 255
202 225 255
202 225 255
201 225 255
201 225 255
201 225 255
201 225 255
201 225 255
201 224 255
201 224 255
201 224 255
201 224 255
201 224 255
201 224 255
201 224 255
201 224 255
201 224 255
201 224 255
200 224 255
200 224 255
200 224 255
200 224 255
200 224 255
200 224 255
200 224 255
200 224 255
200 224 255
200 224 255
200 224 255
200 224 255
200 224 255
200 224 255
200 224 255
199 224 255
199 224 255
199 223 255
199 223 255
199 223 255
199 223 255
199 223 255
199 223 255
199 223 255
199 223 255
199 223 255
199 223 255
199 223 255
199 223 255
198 223 255
198 223 255
198 223 255
198 223 255
198 223 255
198 223 255
198 223 255
198 223 255
198 223 255
198 223 255
198 223 255
198 223 255
198 223 255
198 223 255
197 223 255
197 222 255
197 222 255
197 222 255
197 222 255
197 222 255
197 222 255
197 222 255
197 222 255
197 222 255
197 222 255
197 222 255
197 222 255
197 222 255
197 222 255
196 222 255
196 222 255
196 222 255
196 222 255
196 222 255
196 222 255
196 222 255
196 222 255
196 222 255
196 222 255
196 222 255
196 222 255
196 222 255
196 222 255
196 222 255
196 222 255
196 221 255
195 221 255
195 221 255
195 221 255
195 221 255
195 221 255
195 221 255
195 221 255
195 221 255
195 221 255
195 221 255
195 221 255
195 221 255
195 221 255
195 221 255
195 221 255
195 221 255
195 221 255
195 221 255
195 221 255
195 221 255
195 221 255
194 221 255
194 221 255
194 221 255
194 221 255
194 221 255
194 221 255
194 221 255
194 221 255
194 221 255
194 221 255
194 221 255
194 221 255
194 221 255
194 221 255
194 221 255
194 221 255
194 221 255
194 221 255
194 221 255
194 221 255
194 221 255
194 221 255
194 221 255
194 221 255
194 221 255
194 221 255
194 221 255
194 221 255
194 221 255
194 221 255
194 221 255
194 221 255
194 221 255
194 221 255
194 221 255
194 221 255
194 221 255
194 221 255
194 221 255
194 221 255
194 221 255
194 221 255
194 221 255
194 221 255
194 221 255
194 221 255
194 221 255
194 221 255
194 221 255
194 221 255
194 221 255
194 221 255
194 221 255
194 221 255
194 221 255
194 221 255
194 221 255
194 221 255
194 221 255
194 221 255
194 221 255
194 221 255
194 221 255
194 221 255
194 221 255
194 221 255
194 221 255
194 221 255
194 221 255
194 221 255
195 221 255
195 221 255
195 221 255
195 221 255
195 221 255
195 221 255
195 221 255
195 221 255
195 221 255
195 221 255
195 221 255
195 221 255
195 221 255
195 221 255
195 221 255
195 221 255
195 221 255
195 221 255
195 221 255
195 221 255
195 221 255
196 221 255
196 221 255
196 222 255
196 222 255
196 222 255
196 222 255
196 222 255
196 222 255
196 222 255
196 222 255
196 222 255
196 222 255
196 222 255
196 222 255
196 222 255
196 222 255
196 222 255
197 222 255
197 222 255
197 222 255
197 222 255
197 222 255
197 222 255
197 222 255
197 222 255
197 222 255
197 222 255
197 222 255
197 222 255
197 222 255
197 222 255
197 223 255
198 223 255
198 223 255
198 223 255
198 223 255
198 223 255
198 223 255
198 223 255
198 223 255
198 223 255
198 223 255
198 223 255
198 223 255
198 223 255
198 223 255
199 223 255
199 223 255
199 223 255
199 223 255
199 223 255
199 223 255
199 223 255
199 223 255
199 223 255
199 223 255
199 223 255
199 223 255
199 224 255
199 224 255
200 224 255
200 224 255
200 224 255
200 224 255
200 224 255
200 224 255
200 224 255
200 224 255
200 224 255
200 224 255
200 224 255
200 224 255
200 224 255
200 224 255
200 224 255
201 224 255
201 224 255
201 224 255
201 224 255
201 224 255
201 224 255
201 224 255
201 224 255
201 224 255
201 224 255
201 225 255
201 225 255
201 225 255
201 225 255
201 225 255
202 225 255
202 225 255
202 225 255
202 225 255
202 225 255
202 225 255
202 225 255
202 225 255
202 225 255
202 225 255
202 225 255
202 225 255
202 225 255
202 225 255
202 225 255
203 225 255
203 225 255
203 225 255
203 225 255
203 225 255
203 225 255
203 225 255
203 225 255
203 225 255
203 226 255
203 226 255
203 226 255
203 226 255
203 226 255
203 226 255
203 226 255
203 226 255
204 226 255
204 226 255
204 226 255
204 226 255
204 226 255
204 226 255
204 226 255
204 226 255
204 226 255
204 226 255
204 226 255
204 226 255
204 226 255
204 226 255
204 226 255
204 226 255
204 226 255
204 226 255
205 226 255
205 226 255
205 226 255
205 226 255
205 226 255
205 226 255
205 226 255
205 226 255
205 226 255
205 226 255
205 226 255
204 226 255
204 226 255
204 226 255
204 226 255
204 226 255
204 226 255
204 226 255
204 226 255
204 226 255
204 226 255
204 226 255
204 226 255
204 226 255
204 226 255
204 226 255
204 226 255
204 226 255
204 226 255
203 226 255
203 226 255
203 226 255
203 226 255
203 226 255
203 226 255
203 226 255
203 225 255
203 225 255
203 225 255
203 225 255
203 225 255
203 225 255
203 225 255
203 225 255
203 225 255
202 225 255
202 225 255
202 225 255
202 225 255
202 225 255
202 225 255
202 225 255
202 225 255
202 225 255
202 225 255
202 225 255
202 225 255
202 225 255
202 225 255
202 225 255
202 225 255
201 225 255
201 225 255
201 225 255
201 225 255
201 224 255
201 224 255
201 224 255
201 224 255
201 224 255
201 224 255
201 224 255
201 224 255
201 224 255
201 224 255
200 224 255
200 224 255
200 224 255
200 224 255
200 224 255
200 224 255
200 224 255
200 224 255
200 224 255
200 224 255
200 224 255
200 224 255
200 224 255
200 224 255
200 224 255
199 224 255
199 224 255
199 223 255
199 223 255
199 223 255
199 223 255
199 223 255
199 223 255
199 223 255
199 223 255
199 223 255
199 223 255
199 223 255
199 223 255
198 223 255
198 223 255
198 223 255
198 223 255
198 223 255
198 223 255
198 223 255
198 223 255
198 223 255
198 223 255
198 223 255
198 223 255
198 223 255
198 223 255
197 223 255
197 222 255
197 222 255
197 222 255
197 222 255
197 222 255
197 222 255
197 222 255
197 222 255
197 222 255
197 222 255
197 222 255
197 222 255
197 222 255
197 222 255
197 222 255
196 222 255
196 222 255
196 222 255
196 222 255
196 222 255
196 222 255
196 222 255
196 222 255
196 222 255
196 222 255
196 222 255
196 222 255
196 222 255
196 222 255
196 222 255
196 221 255
196 221 255
195 221 255
195 221 255
195 221 255
195 221 255
195 221 255
195 221 255
195 221 255
195 221 255
195 221 255
195 221 255
195 221 255
195 221 255
195 221 255
195 221 255
195 221 255
195 221 255
195 221 255
195 221 255
195 221 255
195 221 255
195 221 255
195 221 255
194 221 255
194 221 255
194 221 255
194 221 255
194 221 255
194 221 255
194 221 255
194 221 255
194 221 255
194 221 255
194 221 255
194 221 255
194 221 255
194 221 255
194 221 255
194 221 255
194 221 255
194 221 255
194 221 255
194 221 255
194 221 255
194 221 255
194 221 255
194 221 255
194 221 255
194 221 255
194 221 255
194 221 255
194 221 255
194 221 255
194 221 255
194 221 255
194 221 255
194 221 255
194 221 255
194 221 255
194 221 255
194 221 255
194 221 255
194 221 255
194 221 255
194 221 255
194 221 255
194 221 255
194 221 255
194 221 255
194 221 255
194 221 255
194 221 255
194 221 255
194 221 255
194 221 255
194 221 255
194 221 255
194 221 255
194 221 255
194 221 255
194 221 255
194 221 255
194 221 255
194 221 255
194 221 255
195 221 255
195 221 255
195 221 255
195 221 255
195 221 255
195 221 255
195 221 255
195 221 255
195 221 255
195 221 255
195 221 255
195 221 255
195 221 255
195 221 255
195 221 255
195 221 255
195 221 255
195 221 255
195 221 255
195 221 255
195 221 255
195 221 255
196 221 255
196 221 255
196 222 255
196 222 255
196 222 255
196 222 255
196 222 255
196 222 255
196 222 255
196 222 255
196 222 255
196 222 255
196 222 255
196 222 255
196 222 255
196 222 255
196 222 255
197 222 255
197 222 255
197 222 255
197 222 255
197 222 255
197 222 255
197 222 255
197 222 255
197 222 255
197 222 255
197 222 255
197 222 255
197 222 255
197 222 255
197 222 255
197 223 255
198 223 255
198 223 255
198 223 255
198 223 255
198 223 255
198 223 255
198 223 255
198 223 255
198 223 255
198 223 255
198 223 255
198 223 255
198 223 255
198 223 255
199 223 255
199 223 255
199 223 255
199 223 255
199 223 255
199 223 255
199 223 255
199 223 255
199 223 255
199 223 255
199 223 255
199 223 255
199 224 255
199 224 255
200 224 255
200 224 255
200 224 255
200 224 255
200 224 255
200 224 255
200 224 255
200 224 255
200 224 255
200 224 255
200 224 255
200 224 255
200 224 255
200 224 255
200 224 255
201 224 255
201 224 255
201 224 255
201 224 255
201 224 255
201 224 255
201 224 255
201 224 255
201 224 255
201 224 255
201 225 255
201 225 255
201 225 255
201 225 255
201 225 255
202 225 255
202 225 255
202 225 255
202 225 255
202 225 255
202 225 255
202 225 255
202 225 255
202 225 255
202 225 255
202 225 255
202 225 255
202 225 255
202 225 255
202 225 255
203 225 255
203 225 255
203 225 255
203 225 255
203 225 255
203 225 255
203 225 255
203 225 255
203 225 255
203 226 255
203 226 255
203 226 255
203 226 255
203 226 255
203 226 255
203 226 255
203 226 255
204 226 255
204 226 255
204 226 255
204 226 255
204 226 255
204 226 255
204 226 255
204 226 255
204 226 255
204 226 255
204 226 255
204 226 255
204 226 255
204 226 255
204 226 255
204 226 255
204 226 255
205 226 255
205 226 255
205 226 255
205 226 255
205 226 255
205 226 255
205 226 255
205 227 255
205 227 255
205 226 255
205 226 255
205 226 255
205 226 255
205 226 255
205 226 255
205 226 255
204 226 255
204 226 255
204 226 255
204 226 255
204 226 255
204 226 255
204 226 255
204 226 255
204 226 255
204 226 255
204 226 255
204 226 255
204 226 255
204 226 255
204 226 255
204 226 255
204 226 255
204 226 255
203 226 255
203 226 255
203 226 255
203 226 255
203 226 255
203 226 255
203 226 255
203 225 255
203 225 255
203 225 255
203 225 255
203 225 255
203 225 255
203 225 255
203 225 255
203 225 255
202 225 255
202 225 255
202 225 255
202 225 255
202 225 255
202 225 255
202 225 255
202 225 255
202 225 255
202 225 255
202 225 255
202 225 255
202 225 255
202 225 255
202 225 255
201 225 255
201 225 255
201 225 255
201 225 255
201 225 255
201 224 255
201 224 255
201 224 255
201 224 255
201 224 255
201 224 255
201 224 255
201 224 255
201 224 255
201 224 255
200 224 255
200 224 255
200 224 255
200 224 255
200 224 255
200 224 255
200 224 255
200 224 255
200 224 255
200 224 255
200 224 255
200 224 255
200 224 255
200 224 255
200 224 255
199 224 255
199 224 255
199 223 255
199 223 255
199 223 255
199 223 255
199 223 255
199 223 255
199 223 255
199 223 255
199 223 255
199 223 255
199 223 255
199 223 255
198 223 255
198 223 255
198 223 255
198 223 255
198 223 255
198 223 255
198 223 255
198 223 255
198 223 255
198 223 255
198 223 255
198 223 255
198 223 255
198 223 255
198 223 255
197 222 255
197 222 255
197 222 255
197 222 255
197 222 255
197 222 255
197 222 255
197 222 255
197 222 255
197 222 255
197 222 255
197 222 255
197 222 255
197 222 255
197 222 255
196 222 255
196 222 255
196 222 255
196 222 255
196 222 255
196 222 255
196 222 255
196 222 255
196 222 255
196 222 255
196 222 255
196 222 255
196 222 255
196 222 255
196 222 255
196 222 255
196 221 255
195 221 255
195 221 255
195 221 255
195 221 255
195 221 255
195 221 255
195 221 255
195 221 255
195 221 255
195 221 255
195 221 255
195 221 255
195 221 255
195 221 255
195 221 255
195 221 255
195 221 255
195 221 255
195 221 255
195 221 255
195 221 255
195 221 255
195 221 255
195 221 255
194 221 255
194 221 255
194 221 255
194 221 255
194 221 255
194 221 255
194 221 255
194 221 255
194 221 255
194 221 255
194 221 255
194 221 255
194 221 255
194 221 255
194 221 255
194 221 255
194 221 255
194 221 255
194 221 255
194 221 255
194 221 255
194 221 255
194 221 255
194 221 255
194 221 255
194 221 255
194 221 255
194 221 255
194 221 255
194 221 255
194 221 255
194 221 255
194 221 255
194 221 255
194 221 255
194 221 255
194 221 255
194 221 255
194 221 255
194 221 255
194 221 255
194 221 255
194 221 255
194 221 255
194 221 255
194 221 255
194 221 255
194 221 255
194 221 255
194 221 255
194 221 255
194 221 255
194 221 255
194 221 255
195 221 255
195 221 255
195 221 255
195 221 255
195 221 255
195 221 255
195 221 255
195 221 255
195 221 255
195 221 255
195 221 255
195 221 255
195 221 255
195 221 255
195 221 255
195 221 255
195 221 255
195 221 255
195 221 255
195 221 255
195 221 255
195 221 255
195 221 255
195 221 255
196 221 255
196 222 255
196 222 255
196 222 255
196 222 255
196 222 255
196 222 255
196 222 255
196 222 255
196 222 255
196 222 255
196 222 255
196 222 255
196 222 255
196 222 255
196 222 255
196 222 255
197 222 255
197 222 255
197 222 255
197 222 255
197 222 255
197 222 255
197 222 255
197 222 255
197 222 255
197 222 255
197 222 255
197 222 255
197 222 255
197 222 255
197 222 255
198 223 255
198 223 255
198 223 255
198 223 255
198 223 255
198 223 255
198 223 255
198 223 255
198 223 255
198 223 255
198 223 255
198 223 255
198 223 255
198 223 255
198 223 255
199 223 255
199 223 255
199 223 255
199 223 255
199 223 255
199 223 255
199 223 255
199 223 255
199 223 255
199 223 255
199 223 255
199 223 255
199 224 255
199 224 255
200 224 255
200 224 255
200 224 255
200 224 255
200 224 255
200 224 255
200 224 255
200 224 255
200 224 255
200 224 255
200 224 255
200 224 255
200 224 255
200 224 255
200 224 255
201 224 255
201 224 255
201 224 255
201 224 255
201 224 255
201 224 255
201 224 255
201 224 255
201 224 255
201 224 255
201 225 255
201 225 255
201 225 255
201 225 255
202 225 255
202 225 255
202 225 255
202 225 255
202 225 255
202 225 255
202 225 255
202 225 255
202 225 255
202 225 255
202 225 255
202 225 255
202 225 255
202 225 255
202 225 255
202 225 255
203 225 255
203 225 255
203 225 255
203 225 255
203 225 255
203 225 255
203 225 255
203 225 255
203 225 255
203 226 255
203 226 255
203 226 255
203 226 255
203 226 255
203 226 255
203 226 255
204 226 255
204 226 255
204 226 255
204 226 255
204 226 255
204 226 255
204 226 255
204 226 255
204 226 255
204 226 255
204 226 255
204 226 255
204 226 255
204 226 255
204 226 255
204 226 255
204 226 255
204 226 255
205 226 255
205 226 255
205 226 255
205 226 255
205 226 255
205 226 255
205 226 255
205 227 255
205 227 255
205 227 255
205 227 255
205 227 255
205 227 255
205 226 255
205 226 255
205 226 255
205 226 255
205 226 255
205 226 255
205 226 255
205 226 255
204 226 255
204 226 255
204 226 255
204 226 255
204 226 255
204 226 255
204 226 255
204 226 255
204 226 255
204 226 255
204 226 255
204 226 255
204 226 255
204 226 255
204 226 255
204 226 255
204 226 255
203 226 255
203 226 255
203 226 255
203 226 255
203 226 255
203 226 255
203 226 255
203 225 255
203 225 255
203 225 255
203 225 255
203 225 255
203 225 255
203 225 255
203 225 255
203 225 255
202 225 255
202 225 255
202 225 255
202 225 255
202 225 255
202 225 255
202 225 255
202 225 255
202 225 255
202 225 255
202 225 255
202 225 255
202 225 255
202 225 255
202 225 255
202 225 255
201 225 255
201 225 255
201 225 255
201 225 255
201 224 255
201 224 255
201 224 255
201 224 255
201 224 255
201 224 255
201 224 255
201 224 255
201 224 255
201 224 255
200 224 255
200 224 255
200 224 255
200 224 255
200 224 255
200 224 255
200 224 255
200 224 255
200 224 255
200 224 255
200 224 255
200 224 255
200 224 255
200 224 255
200 224 255
199 224 255
199 224 255
199 223 255
199 223 255
199 223 255
199 223 255
199 223 255
199 223 255
199 223 255
199 223 255
199 223 255
199 223 255
199 223 255
199 223 255
198 223 255
198 223 255
198 223 255
198 223 255
198 223 255
198 223 255
198 223 255
198 223 255
198 223 255
198 223 255
198 223 255
198 223 255
198 223 255
198 223 255
198 223 255
197 222 255
197 222 255
197 222 255
197 222 255
197 222 255
197 222 255
197 222 255
197 222 255
197 222 255
197 222 255
197 222 255
197 222 255
197 222 255
197 222 255
197 222 255
197 222 255
196 222 255
196 222 255
196 222 255
196 222 255
196 222 255
196 222 255
196 222 255
196 222 255
196 222 255
196 222 255
196 222 255
196 222 255
196 222 255
196 222 255
196 222 255
196 222 255
196 221 255
195 221 255
195 221 255
195 221 255
195 221 255
195 221 255
195 221 255
195 221 255
195 221 255
195 221 255
195 221 255
195 221 255
195 221 255
195 221 255
195 221 255
195 221 255
195 221 255
195 221 255
195 221 255
195 221 255
195 221 255
195 221 255
195 221 255
195 221 255
195 221 255
195 221 255
195 221 255
194 221 255
194 221 255
194 221 255
194 221 255
194 221 255
194 221 255
194 221 255
194 221 255
194 221 255
194 221 255
194 221 255
194 221 255
194 221 255
194 221 255
194 221 255
194 221 255
194 221 255
194 221 255
194 221 255
194 221 255
194 221 255
194 221 255
194 221 255
194 221 255
194 221 255
194 221 255
194 221 255
194 221 255
194 221 255
194 221 255
194 221 255
194 221 255
194 221 255
194 221 255
194 221 255
194 221 255
194 221 255
194 221 255
194 221 255
194 221 255
194 221 255
194 221 255
194 221 255
194 221 255
195 221 255
195 221 255
195 221 255
195 221 255
195 221 255
195 221 255
195 221 255
195 221 255
195 221 255
195 221 255
195 221 255
195 221 255
195 221 255
195 221 255
195 221 255
195 221 255
195 221 255
195 221 255
195 221 255
195 221 255
195 221 255
195 221 255
195 221 255
195 221 255
195 221 255
195 221 255
196 221 255
196 222 255
196 222 255
196 222 255
196 222 255
196 222 255
196 222 255
196 222 255
196 222 255
196 222 255
196 222 255
196 222 255
196 222 255
196 222 255
196 222 255
196 222 255
196 222 255
196 222 255
197 222 255
197 222 255
197 222 255
197 222 255
197 222 255
197 222 255
197 222 255
197 222 255
197 222 255
197 222 255
197 222 255
197 222 255
197 222 255
197 222 255
197 222 255
198 223 255
198 223 255
198 223 255
198 223 255
198 223 255
198 223 255
198 223 255
198 223 255
198 223 255
198 223 255
198 223 255
198 223 255
198 223 255
198 223 255
198 223 255
199 223 255
199 223 255
199 223 255
199 223 255
199 223 255
199 223 255
199 223 255
199 223 255
199 223 255
199 223 255
199 223 255
199 223 255
199 224 255
199 224 255
200 224 255
200 224 255
200 224 255
200 224 255
200 224 255
200 224 255
200 224 255
200 224 255
200 224 255
200 224 255
200 224 255
200 224 255
200 224 255
200 224 255
200 224 255
201 224 255
201 224 255
201 224 255
201 224 255
201 224 255
201 224 255
201 224 255
201 224 255
201 224 255
201 224 255
201 225 255
201 225 255
201 225 255
201 225 255
202 225 255
202 225 255
202 225 255
202 225 255
202 225 255
202 225 255
202 225 255
202 225 255
202 225 255
202 225 255
202 225 255
202 225 255
202 225 255
202 225 255
202 225 255
202 225 255
203 225 255
203 225 255
203 225 255
203 225 255
203 225 255
203 225 255
203 225 255
203 225 255
203 226 255
203 226 255
203 226 255
203 226 255
203 226 255
203 226 255
203 226 255
203 226 255
204 226 255
204 226 255
204 226 255
204 226 255
204 226 255
204 226 255
204 226 255
204 226 255
204 226 255
204 226 255
204 226 255
204 226 255
204 226 255
204 226 255
204 226 255
204 226 255
204 226 255
205 226 255
205 226 255
205 226 255
205 226 255
205 226 255
205 226 255
205 226 255
205 226 255
205 227 255
205 227 255
205 227 255
205 227 255
205 227 255
205 227 255
205 227 255
205 227 255
205 227 255
205 227 255
205 227 255
205 226 255
205 226 255
205 226 255
205 226 255
205 226 255
205 226 255
205 226 255
204 226 255
204 226 255
204 226 255
204 226 255
204 226 255
204 226 255
204 226 255
204 226 255
204 226 255
204 226 255
204 226 255
204 226 255
204 226 255
204 226 255
204 226 255
204 226 255
204 226 255
203 226 255
203 226 255
203 226 255
203 226 255
203 226 255
203 226 255
203 226 255
203 226 255
203 225 255
203 225 255
203 225 255
203 225 255
203 225 255
203 225 255
203 225 255
203 225 255
203 225 255
202 225 255
202 225 255
202 225 255
202 225 255
202 225 255
202 225 255
202 225 255
202 225 255
202 225 255
202 225 255
202 225 255
202 225 255
202 225 255
202 225 255
202 225 255
201 225 255
201 225 255
201 225 255
201 225 255
201 224 255
201 224 255
201 224 255
201 224 255
201 224 255
201 224 255
201 224 255
201 224 255
201 224 255
201 224 255
201 224 255
200 224 255
200 224 255
200 224 255
200 224 255
200 224 255
200 224 255
200 224 255
200 224 255
200 224 255
200 224 255
200 224 255
200 224 255
200 224 255
200 224 255
199 224 255
199 224 255
199 223 255
199 223 255
199 223 255
199 223 255
199 223 255
199 223 255
199 223 255
199 223 255
199 223 255
199 223 255
199 223 255
199 223 255
198 223 255
198 223 255
198 223 255
198 223 255
198 223 255
198 223 255
198 223 255
198 223 255
198 223 255
198 223 255
198 223 255
198 223 255
198 223 255
198 223 255
198 223 255
197 223 255
197 222 255
197 222 255
197 222 255
197 222 255
197 222 255
197 222 255
197 222 255
197 222 255
197 222 255
197 222 255
197 222 255
197 222 255
197 222 255
197 222 255
197 222 255
196 222 255
196 222 255
196 222 255
196 222 255
196 222 255
196 222 255
196 222 255
196 222 255
196 222 255
196 222 255
196 222 255
196 222 255
196 222 255
196 222 255
196 222 255
196 222 255
196 222 255
196 221 255
195 221 255
195 221 255
195 221 255
195 221 255
195 221 255
195 221 255
195 221 255
195 221 255
195 221 255
195 221 255
195 221 255
195 221 255
195 221 255
195 221 255
195 221 255
195 221 255
195 221 255
195 221 255
195 221 255
195 221 255
195 221 255
195 221 255
195 221 255
195 221 255
195 221 255
195 221 255
195 221 255
195 221 255
195 221 255
195 221 255
194 221 255
194 221 255
194 221 255
194 221 255
194 221 255
194 221 255
194 221 255
194 221 255
194 221 255
194 221 255
194 221 255
194 221 255
194 221 255
194 221 255
194 221 255
194 221 255
194 221 255
194 221 255
194 221 255
194 221 255
194 221 255
194 221 255
194 221 255
194 221 255
194 221 255
194 221 255
194 221 255
194 221 255
194 221 255
194 221 255
195 221 255
195 221 255
195 221 255
195 221 255
195 221 255
195 221 255
195 221 255
195 221 255
195 221 255
195 221 255
195 221 255
195 221 255
195 221 255
195 221 255
195 221 255
195 221 255
195 221 255
195 221 255
195 221 255
195 221 255
195 221 255
195 221 255
195 221 255
195 221 255
195 221 255
195 221 255
195 221 255
195 221 255
195 221 255
195 221 255
196 221 255
196 221 255
196 222 255
196 222 255
196 222 255
196 222 255
196 222 255
196 222 255
196 222 255
196 222 255
196 222 255
196 222 255
196 222 255
196 222 255
196 222 255
196 222 255
196 222 255
196 222 255
197 222 255
197 222 255
197 222 255
197 222 255
197 222 255
197 222 255
197 222 255
197 222 255
197 222 255
197 222 255
197 222 255
197 222 255
197 222 255
197 222 255
197 222 255
197 223 255
198 223 255
198 223 255
198 223 255
198 223 255
198 223 255
198 223 255
198 223 255
198 223 255
198 223 255
198 223 255
198 223 255
198 223 255
198 223 255
198 223 255
198 223 255
199 223 255
199 223 255
199 223 255
199 223 255
199 223 255
199 223 255
199 223 255
199 223 255
199 223 255
199 223 255
199 223 255
199 223 255
199 224 255
199 224 255
200 224 255
200 224 255
200 224 255
200 224 255
200 224 255
200 224 255
200 224 255
200 224 255
200 224 255
200 224 255
200 224 255
200 224 255
200 224 255
200 224 255
201 224 255
201 224 255
201 224 255
201 224 255
201 224 255
201 224 255
201 224 255
201 224 255
201 224 255
201 224 255
201 224 255
201 225 255
201 225 255
201 225 255
201 225 255
202 225 255
202 225 255
202 225 255
202 225 255
202 225 255
202 225 255
202 225 255
202 225 255
202 225 255
202 225 255
202 225 255
202 225 255
202 225 255
202 225 255
202 225 255
203 225 255
203 225 255
203 225 255
203 225 255
203 225 255
203 225 255
203 225 255
203 225 255
203 225 255
203 226 255
203 226 255
203 226 255
203 226 255
203 226 255
203 226 255
203 226 255
203 226 255
204 226 255
204 226 255
204 226 255
204 226 255
204 226 255
204 226 255
204 226 255
204 226 255
204 226 255
204 226 255
204 226 255
204 226 255
204 226 255
204 226 255
204 226 255
204 226 255
204 226 255
205 226 255
205 226 255
205 226 255
205 226 255
205 226 255
205 226 255
205 226 255
205 227 255
205 227 255
205 227 255
205 227 255
205 227 255
205 227 255
205 227 255
205 227 255
205 227 255
205 227 255
205 227 255
205 227 255
205 227 255
205 227 255
205 227 255
205 227 255
205 226 255
205 226 255
205 226 255
205 226 255
205 226 255
205 226 255
205 226 255
205 226 255
204 226 255
204 226 255
204 226 255
204 226 255
204 226 255
204 226 255
204 226 255
204 226 255
204 226 255
204 226 255
204 226 255
204 226 255
204 226 255
204 226 255
204 226 255
204 226 255
204 226 255
203 226 255
203 226 255
203 226 255
203 226 255
203 226 255
203 226 255
203 226 255
203 225 255
203 225 255
203 225 255
203 225 255
203 225 255
203 225 255
203 225 255
203 225 255
203 225 255
202 225 255
202 225 255
202 225 255
202 225 255
202 225 255
202 225 255
202 225 255
202 225 255
202 225 255
202 225 255
202 225 255
202 225 255
202 225 255
202 225 255
202 225 255
201 225 255
201 225 255
201 225 255
201 225 255
201 225 255
201 224 255
201 224 255
201 224 255
201 224 255
201 224 255
201 224 255
201 224 255
201 224 255
201 224 255
201 224 255
200 224 255
200 224 255
200 224 255
200 224 255
200 224 255
200 224 255
200 224 255
200 224 255
200 224 255
200 224 255
200 224 255
200 224 255
200 224 255
200 224 255
199 224 255
199 224 255
199 224 255
199 223 255
199 223 255
199 223 255
199 223 255
199 223 255
199 223 255
199 223 255
199 223 255
199 223 255
199 223 255
199 223 255
199 223 255
198 223 255
198 223 255
198 223 255
198 223 255
198 223 255
198 223 255
198 223 255
198 223 255
198 223 255
198 223 255
198 223 255
198 223 255
198 223 255
198 223 255
197 223 255
197 222 255
197 222 255
197 222 255
197 222 255
197 222 255
197 222 255
197 222 255
197 222 255
197 222 255
197 222 255
197 222 255
197 222 255
197 222 255
197 222 255
197 222 255
196 222 255
196 222 255
196 222 255
196 222 255
196 222 255
196 222 255
196 222 255
196 222 255
196 222 255
196 222 255
196 222 255
196 222 255
196 222 255
196 222 255
196 222 255
196 222 255
196 222 255
196 222 255
196 221 255
196 221 255
195 221 255
195 221 255
195 221 255
195 221 255
195 221 255
195 221 255
195 221 255
195 221 255
195 221 255
195 221 255
195 221 255
195 221 255
195 221 255
195 221 255
195 221 255
195 221 255
195 221 255
195 221 255
195 221 255
195 221 255
195 221 255
195 221 255
195 221 255
195 221 255
195 221 255
195 221 255
195 221 255
195 221 255
195 221 255
195 221 255
195 221 255
195 221 255
195 221 255
195 221 255
195 221 255
195 221 255
195 221 255
195 221 255
195 221 255
195 221 255
195 221 255
195 221 255
195 221 255
195 221 255
195 221 255
195 221 255
195 221 255
195 221 255
195 221 255
195 221 255
195 221 255
195 221 255
195 221 255
195 221 255
195 221 255
195 221 255
195 221 255
195 221 255
195 221 255
195 221 255
195 221 255
195 221 255
195 221 255
195 221 255
195 221 255
195 221 255
195 221 255
195 221 255
195 221 255
195 221 255
195 221 255
195 221 255
195 221 255
195 221 255
195 221 255
195 221 255
195 221 255
195 221 255
195 221 255
195 221 255
195 221 255
195 221 255
196 221 255
196 221 255
196 222 255
196 222 255
196 222 255
196 222 255
196 222 255
196 222 255
196 222 255
196 222 255
196 222 255
196 222 255
196 222 255
196 222 255
196 222 255
196 222 255
196 222 255
196 222 255
196 222 255
196 222 255
197 222 255
197 222 255
197 222 255
197 222 255
197 222 255
197 222 255
197 222 255
197 222 255
197 222 255
197 222 255
197 222 255
197 222 255
197 222 255
197 222 255
197 222 255
197 223 255
198 223 255
198 223 255
198 223 255
198 223 255
198 223 255
198 223 255
198 223 255
198 223 255
198 223 255
198 223 255
198 223 255
198 223 255
198 223 255
198 223 255
199 223 255
199 223 255
199 223 255
199 223 255
199 223 255
199 223 255
199 223 255
199 223 255
199 223 255
199 223 255
199 223 255
199 223 255
199 224 255
199 224 255
199 224 255
200 224 255
200 224 255
200 224 255
200 224 255
200 224 255
200 224 255
200 224 255
200 224 255
200 224 255
200 224 255
200 224 255
200 224 255
200 224 255
200 224 255
201 224 255
201 224 255
201 224 255
201 224 255
201 224 255
201 224 255
201 224 255
201 224 255
201 224 255
201 224 255
201 225 255
201 225 255
201 225 255
201 225 255
201 225 255
202 225 255
202 225 255
202 225 255
202 225 255
202 225 255
202 225 255
202 225 255
202 225 255
202 225 255
202 225 255
202 225 255
202 225 255
202 225 255
202 225 255
202 225 255
203 225 255
203 225 255
203 225 255
203 225 255
203 225 255
203 225 255
203 225 255
203 225 255
203 225 255
203 226 255
203 226 255
203 226 255
203 226 255
203 226 255
203 226 255
203 226 255
204 226 255
204 226 255
204 226 255
204 226 255
204 226 255
204 226 255
204 226 255
204 226 255
204 226 255
204 226 255
204 226 255
204 226 255
204 226 255
204 226 255
204 226 255
204 226 255
204 226 255
204 226 255
205 226 255
205 226 255
205 226 255
205 226 255
205 226 255
205 226 255
205 226 255
205 227 255
205 227 255
205 227 255
205 227 255
205 227 255
205 227 255
205 227 255
205 227 255
205 227 255
205 227 255
205 227 255
205 227 255
205 227 255
205 227 255
205 227 255
205 227 255
205 227 255
205 227 255
205 227 255
205 227 255
205 227 255
205 226 255
205 226 255
205 226 255
205 226 255
205 226 255
205 226 255
205 226 255
204 226 255
204 226 255
204 226 255
204 226 255
204 226 255
204 226 255
204 226 255
204 226 255
204 226 255
204 226 255
204 226 255
204 226 255
204 226 255
204 226 255
204 226 255
204 226 255
204 226 255
203 226 255
203 226 255
203 226 255
203 226 255
203 226 255
203 226 255
203 226 255
203 225 255
203 225 255
203 225 255
203 225 255
203 225 255
203 225 255
203 225 255
203 225 255
203 225 255
202 225 255
202 225 255
202 225 255
202 225 255
202 225 255
202 225 255
202 225 255
202 225 255
202 225 255
202 225 255
202 225 255
202 225 255
202 225 255
202 225 255
202 225 255
201 225 255
201 225 255
201 225 255
201 225 255
201 225 255
201 224 255
201 224 255
201 224 255
201 224 255
201 224 255
201 224 255
201 224 255
201 224 255
201 224 255
201 224 255
200 224 255
200 224 255
200 224 255
200 224 255
200 224 255
200 224 255
200 224 255
200 224 255
200 224 255
200 224 255
200 224 255
200 224 255
200 224 255
200 224 255
199 224 255
199 224 255
199 224 255
199 223 255
199 223 255
199 223 255
199 223 255
199 223 255
199 223 255
199 223 255
199 223 255
199 223 255
199 223 255
199 223 255
199 223 255
198 223 255
198 223 255
198 223 255
198 223 255
198 223 255
198 223 255
198 223 255
198 223 255
198 223 255
198 223 255
198 223 255
198 223 255
198 223 255
198 223 255
198 223 255
197 222 255
197 222 255
197 222 255
197 222 255
197 222 255
197 222 255
197 222 255
197 222 255
197 222 255
197 222 255
197 222 255
197 222 255
197 222 255
197 222 255
197 222 255
197 222 255
196 222 255
196 222 255
196 222 255
196 222 255
196 222 255
196 222 255
196 222 255
196 222 255
196 222 255
196 222 255
196 222 255
196 222 255
196 222 255
196 222 255
196 222 255
196 222 255
196 222 255
196 222 255
196 221 255
196 221 255
195 221 255
195 221 255
195 221 255
195 221 255
195 221 255
195 221 255
195 221 255
195 221 255
195 221 255
195 221 255
195 221 255
195 221 255
195 221 255
195 221 255
195 221 255
195 221 255
195 221 255
195 221 255
195 221 255
195 221 255
195 221 255
195 221 255
195 221 255
195 221 255
195 221 255
195 221 255
195 221 255
195 221 255
195 221 255
195 221 255
195 221 255
195 221 255
195 221 255
195 221 255
195 221 255
195 221 255
195 221 255
195 221 255
195 221 255
195 221 255
195 221 255
195 221 255
195 221 255
195 221 255
195 221 255
195 221 255
195 221 255
195 221 255
195 221 255
195 221 255
195 221 255
195 221 255
195 221 255
195 221 255
195 221 255
195 221 255
195 221 255
195 221 255
195 221 255
195 221 255
195 221 255
195 221 255
195 221 255
195 221 255
195 221 255
195 221 255
195 221 255
195 221 255
195 221 255
195 221 255
195 221 255
195 221 255
195 221 255
195 221 255
195 221 255
195 221 255
196 221 255
196 221 255
196 222 255
196 222 255
196 222 255
196 222 255
196 222 255
196 222 255
196 222 255
196 222 255
196 222 255
196 222 255
196 222 255
196 222 255
196 222 255
196 222 255
196 222 255
196 222 255
196 222 255
196 222 255
197 222 255
197 222 255
197 222 255
197 222 255
197 222 255
197 222 255
197 222 255
197 222 255
197 222 255
197 222 255
197 222 255
197 222 255
197 222 255
197 222 255
197 222 255
197 222 255
198 223 255
198 223 255
198 223 255
198 223 255
198 223 255
198 223 255
198 223 255
198 223 255
198 223 255
198 223 255
198 223 255
198 223 255
198 223 255
198 223 255
198 223 255
199 223 255
199 223 255
199 223 255
199 223 255
199 223 255
199 223 255
199 223 255
199 223 255
199 223 255
199 223 255
199 223 255
199 223 255
199 224 255
199 224 255
199 224 255
200 224 255
200 224 255
200 224 255
200 224 255
200 224 255
200 224 255
200 224 255
200 224 255
200 224 255
200 224 255
200 224 255
200 224 255
200 224 255
200 224 255
201 224 255
201 224 255
201 224 255
201 224 255
201 224 255
201 224 255
201 224 255
201 224 255
201 224 255
201 224 255
201 225 255
201 225 255
201 225 255
201 225 255
201 225 255
202 225 255
202 225 255
202 225 255
202 225 255
202 225 255
202 225 255
202 225 255
202 225 255
202 225 255
202 225 255
202 225 255
202 225 255
202 225 255
202 225 255
202 225 255
203 225 255
203 225 255
203 225 255
203 225 255
203 225 255
203 225 255
203 225 255
203 225 255
203 225 255
203 226 255
203 226 255
203 226 255
203 226 255
203 226 255
203 226 255
203 226 255
204 226 255
204 226 255
204 226 255
204 226 255
204 226 255
204 226 255
204 226 255
204 226 255
204 226 255
204 226 255
204 226 255
204 226 255
204 226 255
204 226 255
204 226 255
204 226 255
204 226 255
205 226 255
205 226 255
205 226 255
205 226 255
205 226 255
205 226 255
205 226 255
205 227 255
205 227 255
205 227 255
205 227 255
205 227 255
205 227 255
205 227 255
205 227 255
205 227 255
205 227 255
205 227 255
205 227 255
206 227 255
206 227 255
206 227 255
205 227 255
205 227 255
205 227 255
205 227 255
205 227 255
205 227 255
205 227 255
205 227 255
205 227 255
205 227 255
205 227 255
205 226 255
205 226 255
205 226 255
205 226 255
205 226 255
205 226 255
205 226 255
204 226 255
204 226 255
204 226 255
204 226 255
204 226 255
204 226 255
204 226 255
204 226 255
204 226 255
204 226 255
204 226 255
204 226 255
204 226 255
204 226 255
204 226 255
204 226 255
204 226 255
203 226 255
203 226 255
203 226 255
203 226 255
203 226 255
203 226 255
203 226 255
203 226 255
203 225 255
203 225 255
203 225 255
203 225 255
203 225 255
203 225 255
203 225 255
203 225 255
202 225 255
202 225 255
202 225 255
202 225 255
202 225 255
202 225 255
202 225 255
202 225 255
202 225 255
202 225 255
202 225 255
202 225 255
202 225 255
202 225 255
202 225 255
202 225 255
201 225 255
201 225 255
201 225 255
201 225 255
201 224 255
201 224 255
201 224 255
201 224 255
201 224 255
201 224 255
201 224 255
201 224 255
201 224 255
201 224 255
200 224 255
200 224 255
200 224 255
200 224 255
200 224 255
200 224 255
200 224 255
200 224 255
200 224 255
200 224 255
200 224 255
200 224 255
200 224 255
200 224 255
200 224 255
199 224 255
199 224 255
199 223 255
199 223 255
199 223 255
199 223 255
199 223 255
199 223 255
199 223 255
199 223 255
199 223 255
199 223 255
199 223 255
199 223 255
198 223 255
198 223 255
198 223 255
198 223 255
198 223 255
198 223 255
198 223 255
198 223 255
198 223 255
198 223 255
198 223 255
198 223 255
198 223 255
198 223 255
198 223 255
197 223 255
197 222 255
197 222 255
197 222 255
197 222 255
197 222 255
197 222 255
197 222 255
197 222 255
197 222 255
197 222 255
197 222 255
197 222 255
197 222 255
197 222 255
197 222 255
197 222 255
196 222 255
196 222 255
196 222 255
196 222 255
196 222 255
196 222 255
196 222 255
196 222 255
196 222 255
196 222 255
196 222 255
196 222 255
196 222 255
196 222 255
196 222 255
196 222 255
196 222 255
196 222 255
196 222 255
196 221 255
196 221 255
195 221 255
195 221 255
195 221 255
195 221 255
195 221 255
195 221 255
195 221 255
195 221 255
195 221 255
195 221 255
195 221 255
195 221 255
195 221 255
195 221 255
195 221 255
195 221 255
195 221 255
195 221 255
195 221 255
195 221 255
195 221 255
195 221 255
195 221 255
195 221 255
195 221 255
195 221 255
195 221 255
195 221 255
195 221 255
195 221 255
195 221 255
195 221 255
195 221 255
195 221 255
195 221 255
195 221 255
195 221 255
195 221 255
195 221 255
195 221 255
195 221 255
195 221 255
195 221 255
195 221 255
195 221 255
195 221 255
195 221 255
195 221 255
195 221 255
195 221 255
195 221 255
195 221 255
195 221 255
195 221 255
195 221 255
195 221 255
195 221 255
195 221 255
195 221 255
195 221 255
195 221 255
195 221 255
195 221 255
195 221 255
195 221 255
195 221 255
195 221 255
195 221 255
196 221 255
196 221 255
196 222 255
196 222 255
196 222 255
196 222 255
196 222 255
196 222 255
196 222 255
196 222 255
196 222 255
196 222 255
196 222 255
196 222 255
196 222 255
196 222 255
196 222 255
196 222 255
196 222 255
196 222 255
196 222 255
197 222 255
197 222 255
197 222 255
197 222 255
197 222 255
197 222 255
197 222 255
197 222 255
197 222 255
197 222 255
197 222 255
197 222 255
197 222 255
197 222 255
197 222 255
197 222 255
197 223 255
198 223 255
198 223 255
198 223 255
198 223 255
198 223 255
198 223 255
198 223 255
198 223 255
198 223 255
198 223 255
198 223 255
198 223 255
198 223 255
198 223 255
198 223 255
199 223 255
199 223 255
199 223 255
199 223 255
199 223 255
199 223 255
199 223 255
199 223 255
199 223 255
199 223 255
199 223 255
199 223 255
199 224 255
199 224 255
200 224 255
200 224 255
200 224 255
200 224 255
200 224 255
200 224 255
200 224 255
200 224 255
200 224 255
200 224 255
200 224 255
200 224 255
200 224 255
200 224 255
200 224 255
201 224 255
201 224 255
201 224 255
201 224 255
201 224 255
201 224 255
201 224 255
201 224 255
201 224 255
201 224 255
201 225 255
201 225 255
201 225 255
201 225 255
202 225 255
202 225 255
202 225 255
202 225 255
202 225 255
202 225 255
202 225 255
202 225 255
202 225 255
202 225 255
202 225 255
202 225 255
202 225 255
202 225 255
202 225 255
202 225 255
203 225 255
203 225 255
203 225 255
203 225 255
203 225 255
203 225 255
203 225 255
203 225 255
203 226 255
203 226 255
203 226 255
203 226 255
203 226 255
203 226 255
203 226 255
203 226 255
204 226 255
204 226 255
204 226 255
204 226 255
204 226 255
204 226 255
204 226 255
204 226 255
204 226 255
204 226 255
204 226 255
204 226 255
204 226 255
204 226 255
204 226 255
204 226 255
204 226 255
205 226 255
205 226 255
205 226 255
205 226 255
205 226 255
205 226 255
205 226 255
205 227 255
205 227 255
205 227 255
205 227 255
205 227 255
205 227 255
205 227 255
205 227 255
205 227 255
205 227 255
205 227 255
206 227 255
206 227 255
206 227 255
206 227 255
206 227 255
206 227 255
206 227 255
206 227 255
205 227 255
205 227 255
205 227 255
205 227 255
205 227 255
205 227 255
205 227 255
205 227 255
205 227 255
205 227 255
205 227 255
205 227 255
205 226 255
205 226 255
205 226 255
205 226 255
205 226 255
205 226 255
205 226 255
204 226 255
204 226 255
204 226 255
204 226 255
204 226 255
204 226 255
204 226 255
204 226 255
204 226 255
204 226 255
204 226 255
204 226 255
204 226 255
204 226 255
204 226 255
204 226 255
204 226 255
203 226 255
203 226 255
203 226 255
203 226 255
203 226 255
203 226 255
203 226 255
203 225 255
203 225 255
203 225 255
203 225 255
203 225 255
203 225 255
203 225 255
203 225 255
203 225 255
202 225 255
202 225 255
202 225 255
202 225 255
202 225 255
202 225 255
202 225 255
202 225 255
202 225 255
202 225 255
202 225 255
202 225 255
202 225 255
202 225 255
202 225 255
201 225 255
201 225 255
201 225 255
201 225 255
201 224 255
201 224 255
201 224 255
201 224 255
201 224 255
201 224 255
201 224 255
201 224 255
201 224 255
201 224 255
200 224 255
200 224 255
200 224 255
200 224 255
200 224 255
200 224 255
200 224 255
200 224 255
200 224 255
200 224 255
200 224 255
200 224 255
200 224 255
200 224 255
200 224 255
199 224 255
199 224 255
199 223 255
199 223 255
199 223 255
199 223 255
199 223 255
199 223 255
199 223 255
199 223 255
199 223 255
199 223 255
199 223 255
199 223 255
198 223 255
198 223 255
198 223 255
198 223 255
198 223 255
198 223 255
198 223 255
198 223 255
198 223 255
198 223 255
198 223 255
198 223 255
198 223 255
198 223 255
198 223 255
198 223 255
197 222 255
197 222 255
197 222 255
197 222 255
197 222 255
197 222 255
197 222 255
197 222 255
197 222 255
197 222 255
197 222 255
197 222 255
197 222 255
197 222 255
197 222 255
197 222 255
197 222 255
196 222 255
196 222 255
196 222 255
196 222 255
196 222 255
196 222 255
196 222 255
196 222 255
196 222 255
196 222 255
196 222 255
196 222 255
196 222 255
196 222 255
196 222 255
196 222 255
196 222 255
196 222 255
196 222 255
196 222 255
196 221 255
196 221 255
195 221 255
195 221 255
195 221 255
195 221 255
195 221 255
195 221 255
195 221 255
195 221 255
195 221 255
195 221 255
195 221 255
195 221 255
195 221 255
195 221 255
195 221 255
195 221 255
195 221 255
195 221 255
195 221 255
195 221 255
195 221 255
195 221 255
195 221 255
195 221 255
195 221 255
195 221 255
195 221 255
195 221 255
195 221 255
195 221 255
195 221 255
195 221 255
195 221 255
195 221 255
195 221 255
195 221 255
195 221 255
195 221 255
195 221 255
195 221 255
195 221 255
195 221 255
195 221 255
195 221 255
195 221 255
195 221 255
195 221 255
195 221 255
195 221 255
195 221 255
195 221 255
195 221 255
195 221 255
195 221 255
195 221 255
195 221 255
195 221 255
195 221 255
195 221 255
195 221 255
196 221 255
196 221 255
196 222 255
196 222 255
196 222 255
196 222 255
196 222 255
196 222 255
196 222 255
196 222 255
196 222 255
196 222 255
196 222 255
196 222 255
196 222 255
196 222 255
196 222 255
196 222 255
196 222 255
196 222 255
196 222 255
196 222 255
197 222 255
197 222 255
197 222 255
197 222 255
197 222 255
197 222 255
197 222 255
197 222 255
197 222 255
197 222 255
197 222 255
197 222 255
197 222 255
197 222 255
197 222 255
197 222 255
197 222 255
198 223 255
198 223 255
198 223 255
198 223 255
198 223 255
198 223 255
198 223 255
198 223 255
198 223 255
198 223 255
198 223 255
198 223 255
198 223 255
198 223 255
198 223 255
198 223 255
199 223 255
199 223 255
199 223 255
199 223 255
199 223 255
199 223 255
199 223 255
199 223 255
199 223 255
199 223 255
199 223 255
199 223 255
199 224 255
199 224 255
200 224 255
200 224 255
200 224 255
200 224 255
200 224 255
200 224 255
200 224 255
200 224 255
200 224 255
200 224 255
200 224 255
200 224 255
200 224 255
200 224 255
200 224 255
201 224 255
201 224 255
201 224 255
201 224 255
201 224 255
201 224 255
201 224 255
201 224 255
201 224 255
201 224 255
201 225 255
201 225 255
201 225 255
201 225 255
202 225 255
202 225 255
202 225 255
202 225 255
202 225 255
202 225 255
202 225 255
202 225 255
202 225 255
202 225 255
202 225 255
202 225 255
202 225 255
202 225 255
202 225 255
203 225 255
203 225 255
203 225 255
203 225 255
203 225 255
203 225 255
203 225 255
203 225 255
203 225 255
203 226 255
203 226 255
203 226 255
203 226 255
203 226 255
203 226 255
203 226 255
204 226 255
204 226 255
204 226 255
204 226 255
204 226 255
204 226 255
204 226 255
204 226 255
204 226 255
204 226 255
204 226 255
204 226 255
204 226 255
204 226 255
204 226 255
204 226 255
204 226 255
205 226 255
205 226 255
205 226 255
205 226 255
205 226 255
205 226 255
205 226 255
205 227 255
205 227 255
205 227 255
205 227 255
205 227 255
205 227 255
205 227 255
205 227 255
205 227 255
205 227 255
205 227 255
205 227 255
206 227 255
206 227 255
206 227 255
206 227 255
206 227 255
206 227 255
206 227 255
206 227 255
206 227 255
206 227 255
206 227 255
206 227 255
206 227 255
205 227 255
205 227 255
205 227 255
205 227 255
205 227 255
205 227 255
205 227 255
205 227 255
205 227 255
205 227 255
205 227 255
205 226 255
205 226 255
205 226 255
205 226 255
205 226 255
205 226 255
205 226 255
204 226 255
204 226 255
204 226 255
204 226 255
204 226 255
204 226 255
204 226 255
204 226 255
204 226 255
204 226 255
204 226 255
204 226 255
204 226 255
204 226 255
204 226 255
204 226 255
204 226 255
203 226 255
203 226 255
203 226 255
203 226 255
203 226 255
203 226 255
203 226 255
203 225 255
203 225 255
203 225 255
203 225 255
203 225 255
203 225 255
203 225 255
203 225 255
203 225 255
202 225 255
202 225 255
202 225 255
202 225 255
202 225 255
202 225 255
202 225 255
202 225 255
202 225 255
202 225 255
202 225 255
202 225 255
202 225 255
202 225 255
202 225 255
201 225 255
201 225 255
201 225 255
201 225 255
201 224 255
201 224 255
201 224 255
201 224 255
201 224 255
201 224 255
201 224 255
201 224 255
201 224 255
201 224 255
201 224 255
200 224 255
200 224 255
200 224 255
200 224 255
200 224 255
200 224 255
200 224 255
200 224 255
200 224 255
200 224 255
200 224 255
200 224 255
200 224 255
200 224 255
199 224 255
199 224 255
199 223 255
199 223 255
199 223 255
199 223 255
199 223 255
199 223 255
199 223 255
199 223 255
199 223 255
199 223 255
199 223 255
199 223 255
199 223 255
198 223 255
198 223 255
198 223 255
198 223 255
198 223 255
198 223 255
198 223 255
198 223 255
198 223 255
198 223 255
198 223 255
198 223 255
198 223 255
198 223 255
198 223 255
197 223 255
197 222 255
197 222 255
197 222 255
197 222 255
197 222 255
197 222 255
197 222 255
197 222 255
197 222 255
197 222 255
197 222 255
197 222 255
197 222 255
197 222 255
197 222 255
197 222 255
197 222 255
196 222 255
196 222 255
196 222 255
196 222 255
196 222 255
196 222 255
196 222 255
196 222 255
196 222 255
196 222 255
196 222 255
196 222 255
196 222 255
196 222 255
196 222 255
196 222 255
196 222 255
196 222 255
196 222 255
196 222 255
196 222 255
196 221 255
196 221 255
196 221 255
195 221 255
195 221 255
195 221 255
195 221 255
195 221 255
195 221 255
195 221 255
195 221 255
195 221 255
195 221 255
195 221 255
195 221 255
195 221 255
195 221 255
195 221 255
195 221 255
195 221 255
195 221 255
195 221 255
195 221 255
195 221 255
195 221 255
195 221 255
195 221 255
195 221 255
195 221 255
195 221 255
195 221 255
195 221 255
195 221 255
195 221 255
195 221 255
195 221 255
195 221 255
195 221 255
195 221 255
195 221 255
195 221 255
195 221 255
195 221 255
195 221 255
195 221 255
195 221 255
195 221 255
195 221 255
195 221 255
195 221 255
195 221 255
195 221 255
195 221 255
196 221 255
196 221 255
196 221 255
196 222 255
196 222 255
196 222 255
196 222 255
196 222 255
196 222 255
196 222 255
196 222 255
196 222 255
196 222 255
196 222 255
196 222 255
196 222 255
196 222 255
196 222 255
196 222 255
196 222 255
196 222 255
196 222 255
196 222 255
196 222 255
197 222 255
197 222 255
197 222 255
197 222 255
197 222 255
197 222 255
197 222 255
197 222 255
197 222 255
197 222 255
197 222 255
197 222 255
197 222 255
197 222 255
197 222 255
197 222 255
197 222 255
197 223 255
198 223 255
198 223 255
198 223 255
198 223 255
198 223 255
198 223 255
198 223 255
198 223 255
198 223 255
198 223 255
198 223 255
198 223 255
198 223 255
198 223 255
198 223 255
199 223 255
199 223 255
199 223 255
199 223 255
199 223 255
199 223 255
199 223 255
199 223 255
199 223 255
199 223 255
199 223 255
199 223 255
199 223 255
199 224 255
199 224 255
200 224 255
200 224 255
200 224 255
200 224 255
200 224 255
200 224 255
200 224 255
200 224 255
200 224 255
200 224 255
200 224 255
200 224 255
200 224 255
200 224 255
201 224 255
201 224 255
201 224 255
201 224 255
201 224 255
201 224 255
201 224 255
201 224 255
201 224 255
201 224 255
201 224 255
201 225 255
201 225 255
201 225 255
201 225 255
202 225 255
202 225 255
202 225 255
202 225 255
202 225 255
202 225 255
202 225 255
202 225 255
202 225 255
202 225 255
202 225 255
202 225 255
202 225 255
202 225 255
202 225 255
203 225 255
203 225 255
203 225 255
203 225 255
203 225 255
203 225 255
203 225 255
203 225 255
203 225 255
203 226 255
203 226 255
203 226 255
203 226 255
203 226 255
203 226 255
203 226 255
204 226 255
204 226 255
204 226 255
204 226 255
204 226 255
204 226 255
204 226 255
204 226 255
204 226 255
204 226 255
204 226 255
204 226 255
204 226 255
204 226 255
204 226 255
204 226 255
204 226 255
205 226 255
205 226 255
205 226 255
205 226 255
205 226 255
205 226 255
205 226 255
205 227 255
205 227 255
205 227 255
205 227 255
205 227 255
205 227 255
205 227 255
205 227 255
205 227 255
205 227 255
205 227 255
206 227 255
206 227 255
206 227 255
206 227 255
206 227 255
206 227 255
206 227 255
206 227 255
206 227 255
206 227 255
206 227 255
206 227 255
206 227 255
206 227 255
206 227 255
206 227 255
206 227 255
206 227 255
206 227 255
205 227 255
205 227 255
205 227 255
205 227 255
205 227 255
205 227 255
205 227 255
205 227 255
205 227 255
205 227 255
205 227 255
205 226 255
205 226 255
205 226 255
205 226 255
205 226 255
205 226 255
205 226 255
204 226 255
204 226 255
204 226 255
204 226 255
204 226 255
204 226 255
204 226 255
204 226 255
204 226 255
204 226 255
204 226 255
204 226 255
204 226 255
204 226 255
204 226 255
204 226 255
203 226 255
203 226 255
203 226 255
203 226 255
203 226 255
203 226 255
203 226 255
203 226 255
203 225 255
203 225 255
203 225 255
203 225 255
203 225 255
203 225 255
203 225 255
203 225 255
202 225 255
202 225 255
202 225 255
202 225 255
202 225 255
202 225 255
202 225 255
202 225 255
202 225 255
202 225 255
202 225 255
202 225 255
202 225 255
202 225 255
202 225 255
201 225 255
201 225 255
201 225 255
201 225 255
201 225 255
201 224 255
201 224 255
201 224 255
201 224 255
201 224 255
201 224 255
201 224 255
201 224 255
201 224 255
201 224 255
200 224 255
200 224 255
200 224 255
200 224 255
200 224 255
200 224 255
200 224 255
200 224 255
200 224 255
200 224 255
200 224 255
200 224 255
200 224 255
200 224 255
199 224 255
199 224 255
199 224 255
199 223 255
199 223 255
199 223 255
199 223 255
199 223 255
199 223 255
199 223 255
199 223 255
199 223 255
199 223 255
199 223 255
199 223 255
198 223 255
198 223 255
198 223 255
198 223 255
198 223 255
198 223 255
198 223 255
198 223 255
198 223 255
198 223 255
198 223 255
198 223 255
198 223 255
198 223 255
198 223 255
198 223 255
197 222 255
197 222 255
197 222 255
197 222 255
197 222 255
197 222 255
197 222 255
197 222 255
197 222 255
197 222 255
197 222 255
197 222 255
197 222 255
197 222 255
197 222 255
197 222 255
197 222 255
197 222 255
196 222 255
196 222 255
196 222 255
196 222 255
196 222 255
196 222 255
196 222 255
196 222 255
196 222 255
196 222 255
196 222 255
196 222 255
196 222 255
196 222 255
196 222 255
196 222 255
196 222 255
196 222 255
196 222 255
196 222 255
196 222 255
196 222 255
196 222 255
196 221 255
196 221 255
196 221 255
196 221 255
195 221 255
195 221 255
195 221 255
195 221 255
195 221 255
195 221 255
195 221 255
195 221 255
195 221 255
195 221 255
195 221 255
195 221 255
195 221 255
195 221 255
195 221 255
195 221 255
195 221 255
195 221 255
195 221 255
195 221 255
195 221 255
195 221 255
195 221 255
195 221 255
195 221 255
195 221 255
195 221 255
195 221 255
195 221 255
195 221 255
195 221 255
195 221 255
195 221 255
195 221 255
195 221 255
195 221 255
195 221 255
195 221 255
196 221 255
196 221 255
196 221 255
196 222 255
196 222 255
196 222 255
196 222 255
196 222 255
196 222 255
196 222 255
196 222 255
196 222 255
196 222 255
196 222 255
196 222 255
196 222 255
196 222 255
196 222 255
196 222 255
196 222 255
196 222 255
196 222 255
196 222 255
196 222 255
196 222 255
196 222 255
196 222 255
197 222 255
197 222 255
197 222 255
197 222 255
197 222 255
197 222 255
197 222 255
197 222 255
197 222 255
197 222 255
197 222 255
197 222 255
197 222 255
197 222 255
197 222 255
197 222 255
197 222 255
197 222 255
198 223 255
198 223 255
198 223 255
198 223 255
198 223 255
198 223 255
198 223 255
198 223 255
198 223 255
198 223 255
198 223 255
198 223 255
198 223 255
198 223 255
198 223 255
198 223 255
199 223 255
199 223 255
199 223 255
199 223 255
199 223 255
199 223 255
199 223 255
199 223 255
199 223 255
199 223 255
199 223 255
199 223 255
199 224 255
199 224 255
199 224 255
200 224 255
200 224 255
200 224 255
200 224 255
200 224 255
200 224 255
200 224 255
200 224 255
200 224 255
200 224 255
200 224 255
200 224 255
200 224 255
200 224 255
201 224 255
201 224 255
201 224 255
201 224 255
201 224 255
201 224 255
201 224 255
201 224 255
201 224 255
201 224 255
201 225 255
201 225 255
201 225 255
201 225 255
201 225 255
202 225 255
202 225 255
202 225 255
202 225 255
202 225 255
202 225 255
202 225 255
202 225 255
202 225 255
202 225 255
202 225 255
202 225 255
202 225 255
202 225 255
202 225 255
203 225 255
203 225 255
203 225 255
203 225 255
203 225 255
203 225 255
203 225 255
203 225 255
203 226 255
203 226 255
203 226 255
203 226 255
203 226 255
203 226 255
203 226 255
203 226 255
204 226 255
204 226 255
204 226 255
204 226 255
204 226 255
204 226 255
204 226 255
204 226 255
204 226 255
204 226 255
204 226 255
204 226 255
204 226 255
204 226 255
204 226 255
204 226 255
205 226 255
205 226 255
205 226 255
205 226 255
205 226 255
205 226 255
205 226 255
205 227 255
205 227 255
205 227 255
205 227 255
205 227 255
205 227 255
205 227 255
205 227 255
205 227 255
205 227 255
205 227 255
206 227 255
206 227 255
206 227 255
206 227 255
206 227 255
206 227 255
206 227 255
206 227 255
206 227 255
206 227 255
206 227 255
206 227 255
206 227 255
206 227 255
206 227 255
206 227 255
206 227 255
206 227 255
206 227 255
206 227 255
206 227 255
206 227 255
206 227 255
206 227 255
205 227 255
205 227 255
205 227 255
205 227 255
205 227 255
205 227 255
205 227 255
205 227 255
205 227 255
205 227 255
205 227 255
205 226 255
205 226 255
205 226 255
205 226 255
205 226 255
205 226 255
205 226 255
204 226 255
204 226 255
204 226 255
204 226 255
204 226 255
204 226 255
204 226 255
204 226 255
204 226 255
204 226 255
204 226 255
204 226 255
204 226 255
204 226 255
204 226 255
204 226 255
204 226 255
203 226 255
203 226 255
203 226 255
203 226 255
203 226 255
203 226 255
203 226 255
203 225 255
203 225 255
203 225 255
203 225 255
203 225 255
203 225 255
203 225 255
203 225 255
203 225 255
202 225 255
202 225 255
202 225 255
202 225 255
202 225 255
202 225 255
202 225 255
202 225 255
202 225 255
202 225 255
202 225 255
202 225 255
202 225 255
202 225 255
202 225 255
201 225 255
201 225 255
201 225 255
201 225 255
201 224 255
201 224 255
201 224 255
201 224 255
201 224 255
201 224 255
201 224 255
201 224 255
201 224 255
201 224 255
200 224 255
200 224 255
200 224 255
200 224 255
200 224 255
200 224 255
200 224 255
200 224 255
200 224 255
200 224 255
200 224 255
200 224 255
200 224 255
200 224 255
200 224 255
199 224 255
199 224 255
199 223 255
199 223 255
199 223 255
199 223 255
199 223 255
199 223 255
199 223 255
199 223 255
199 223 255
199 223 255
199 223 255
199 223 255
199 223 255
198 223 255
198 223 255
198 223 255
198 223 255
198 223 255
198 223 255
198 223 255
198 223 255
198 223 255
198 223 255
198 223 255
198 223 255
198 223 255
198 223 255
198 223 255
197 223 255
197 222 255
197 222 255
197 222 255
197 222 255
197 222 255
197 222 255
197 222 255
197 222 255
197 222 255
197 222 255
197 222 255
197 222 255
197 222 255
197 222 255
197 222 255
197 222 255
197 222 255
197 222 255
196 222 255
196 222 255
196 222 255
196 222 255
196 222 255
196 222 255
196 222 255
196 222 255
196 222 255
196 222 255
196 222 255
196 222 255
196 222 255
196 222 255
196 222 255
196 222 255
196 222 255
196 222 255
196 222 255
196 222 255
196 222 255
196 222 255
196 222 255
196 222 255
196 222 255
196 222 255
196 222 255
196 221 255
196 221 255
196 221 255
196 221 255
196 221 255
196 221 255
195 221 255
195 221 255
195 221 255
195 221 255
195 221 255
195 221 255
195 221 255
195 221 255
195 221 255
195 221 255
195 221 255
195 221 255
195 221 255
195 221 255
195 221 255
195 221 255
195 221 255
195 221 255
195 221 255
195 221 255
196 221 255
196 221 255
196 221 255
196 221 255
196 221 255
196 221 255
196 222 255
196 222 255
196 222 255
196 222 255
196 222 255
196 222 255
196 222 255
196 222 255
196 222 255
196 222 255
196 222 255
196 222 255
196 222 255
196 222 255
196 222 255
196 222 255
196 222 255
196 222 255
196 222 255
196 222 255
196 222 255
196 222 255
196 222 255
196 222 255
196 222 255
196 222 255
196 222 255
197 222 255
197 222 255
197 222 255
197 222 255
197 222 255
197 222 255
197 222 255
197 222 255
197 222 255
197 222 255
197 222 255
197 222 255
197 222 255
197 222 255
197 222 255
197 222 255
197 222 255
197 222 255
198 223 255
198 223 255
198 223 255
198 223 255
198 223 255
198 223 255
198 223 255
198 223 255
198 223 255
198 223 255
198 223 255
198 223 255
198 223 255
198 223 255
198 223 255
198 223 255
198 223 255
199 223 255
199 223 255
199 223 255
199 223 255
199 223 255
199 223 255
199 223 255
199 223 255
199 223 255
199 223 255
199 223 255
199 223 255
199 224 255
199 224 255
200 224 255
200 224 255
200 224 255
200 224 255
200 224 255
200 224 255
200 224 255
200 224 255
200 224 255
200 224 255
200 224 255
200 224 255
200 224 255
200 224 255
200 224 255
201 224 255
201 224 255
201 224 255
201 224 255
201 224 255
201 224 255
201 224 255
201 224 255
201 224 255
201 224 255
201 225 255
201 225 255
201 225 255
201 225 255
202 225 255
202 225 255
202 225 255
202 225 255
202 225 255
202 225 255
202 225 255
202 225 255
202 225 255
202 225 255
202 225 255
202 225 255
202 225 255
202 225 255
202 225 255
202 225 255
203 225 255
203 225 255
203 225 255
203 225 255
203 225 255
203 225 255
203 225 255
203 225 255
203 226 255
203 226 255
203 226 255
203 226 255
203 226 255
203 226 255
203 226 255
204 226 255
204 226 255
204 226 255
204 226 255
204 226 255
204 226 255
204 226 255
204 226 255
204 226 255
204 226 255
204 226 255
204 226 255
204 226 255
204 226 255
204 226 255
204 226 255
204 226 255
205 226 255
205 226 255
205 226 255
205 226 255
205 226 255
205 226 255
205 226 255
205 227 255
205 227 255
205 227 255
205 227 255
205 227 255
205 227 255
205 227 255
205 227 255
205 227 255
205 227 255
205 227 255
206 227 255
206 227 255
206 227 255
206 227 255
206 227 255
206 227 255
206 227 255
206 227 255
206 227 255
206 227 255
206 227 255
206 227 255
206 227 255
206 227 255
206 227 255
206 227 255
206 227 255
206 227 255
206 227 255
206 227 255
206 227 255
206 227 255
206 227 255
206 227 255
206 227 255
206 227 255
206 227 255
206 227 255
206 227 255
205 227 255
205 227 255
205 227 255
205 227 255
205 227 255
205 227 255
205 227 255
205 227 255
205 227 255
205 227 255
205 227 255
205 226 255
205 226 255
205 226 255
205 226 255
205 226 255
205 226 255
205 226 255
204 226 255
204 226 255
204 226 255
204 226 255
204 226 255
204 226 255
204 226 255
204 226 255
204 226 255
204 226 255
204 226 255
204 226 255
204 226 255
204 226 255
204 226 255
204 226 255
203 226 255
203 226 255
203 226 255
203 226 255
203 226 255
203 226 255
203 226 255
203 225 255
203 225 255
203 225 255
203 225 255
203 225 255
203 225 255
203 225 255
203 225 255
203 225 255
202 225 255
202 225 255
202 225 255
202 225 255
202 225 255
202 225 255
202 225 255
202 225 255
202 225 255
202 225 255
202 225 255
202 225 255
202 225 255
202 225 255
202 225 255
201 225 255
201 225 255
201 225 255
201 225 255
201 224 255
201 224 255
201 224 255
201 224 255
201 224 255
201 224 255
201 224 255
201 224 255
201 224 255
201 224 255
201 224 255
200 224 255
200 224 255
200 224 255
200 224 255
200 224 255
200 224 255
200 224 255
200 224 255
200 224 255
200 224 255
200 224 255
200 224 255
200 224 255
200 224 255
199 224 255
199 224 255
199 223 255
199 223 255
199 223 255
199 223 255
199 223 255
199 223 255
199 223 255
199 223 255
199 223 255
199 223 255
199 223 255
199 223 255
199 223 255
198 223 255
198 223 255
198 223 255
198 223 255
198 223 255
198 223 255
198 223 255
198 223 255
198 223 255
198 223 255
198 223 255
198 223 255
198 223 255
198 223 255
198 223 255
198 223 255
197 223 255
197 222 255
197 222 255
197 222 255
197 222 255
197 222 255
197 222 255
197 222 255
197 222 255
197 222 255
197 222 255
197 222 255
197 222 255
197 222 255
197 222 255
197 222 255
197 222 255
197 222 255
197 222 255
197 222 255
196 222 255
196 222 255
196 222 255
196 222 255
196 222 255
196 222 255
196 222 255
196 222 255
196 222 255
196 222 255
196 222 255
196 222 255
196 222 255
196 222 255
196 222 255
196 222 255
196 222 255
196 222 255
196 222 255
196 222 255
196 222 255
196 222 255
196 222 255
196 222 255
196 222 255
196 222 255
196 222 255
196 222 255
196 222 255
196 222 255
196 222 255
196 222 255
196 222 255
196 222 255
196 222 255
196 222 255
196 222 255
196 222 255
196 222 255
196 222 255
196 222 255
196 222 255
196 222 255
196 222 255
196 222 255
196 222 255
196 222 255
196 222 255
196 222 255
196 222 255
196 222 255
196 222 255
196 222 255
196 222 255
196 222 255
196 222 255
196 222 255
196 222 255
196 222 255
196 222 255
196 222 255
196 222 255
196 222 255
196 222 255
196 222 255
196 222 255
196 222 255
196 222 255
196 222 255
196 222 255
196 222 255
196 222 255
196 222 255
196 222 255
196 222 255
196 222 255
196 222 255
196 222 255
197 222 255
197 222 255
197 222 255
197 222 255
197 222 255
197 222 255
197 222 255
197 222 255
197 222 255
197 222 255
197 222 255
197 222 255
197 222 255
197 222 255
197 222 255
197 222 255
197 222 255
197 222 255
197 222 255
197 223 255
198 223 255
198 223 255
198 223 255
198 223 255
198 223 255
198 223 255
198 223 255
198 223 255
198 223 255
198 223 255
198 223 255
198 223 255
198 223 255
198 223 255
198 223 255
198 223 255
199 223 255
199 223 255
199 223 255
199 223 255
199 223 255
199 223 255
199 223 255
199 223 255
199 223 255
199 223 255
199 223 255
199 223 255
199 223 255
199 224 255
199 224 255
200 224 255
200 224 255
200 224 255
200 224 255
200 224 255
200 224 255
200 224 255
200 224 255
200 224 255
200 224 255
200 224 255
200 224 255
200 224 255
200 224 255
200 224 255
201 224 255
201 224 255
201 224 255
201 224 255
201 224 255
201 224 255
201 224 255
201 224 255
201 224 255
201 224 255
201 225 255
201 225 255
201 225 255
201 225 255
202 225 255
202 225 255
202 225 255
202 225 255
202 225 255
202 225 255
202 225 255
202 225 255
202 225 255
202 225 255
202 225 255
202 225 255
202 225 255
202 225 255
202 225 255
203 225 255
203 225 255
203 225 255
203 225 255
203 225 255
203 225 255
203 225 255
203 225 255
203 225 255
203 226 255
203 226 255
203 226 255
203 226 255
203 226 255
203 226 255
203 226 255
204 226 255
204 226 255
204 226 255
204 226 255
204 226 255
204 226 255
204 226 255
204 226 255
204 226 255
204 226 255
204 226 255
204 226 255
204 226 255
204 226 255
204 226 255
204 226 255
205 226 255
205 226 255
205 226 255
205 226 255
205 226 255
205 226 255
205 226 255
205 227 255
205 227 255
205 227 255
205 227 255
205 227 255
205 227 255
205 227 255
205 227 255
205 227 255
205 227 255
205 227 255
206 227 255
206 227 255
206 227 255
206 227 255
206 227 255
206 227 255
206 227 255
206 227 255
206 227 255
206 227 255
206 227 255
206 227 255
206 227 255
206 227 255
206 227 255
206 227 255
206 227 255
206 227 255
206 227 255
206 227 255
206 227 255
206 227 255
206 227 255
206 227 255
206 227 255
206 227 255
206 227 255
206 227 255
206 227 255
206 227 255
206 227 255
206 227 255
206 227 255
206 227 255
205 227 255
205 227 255
205 227 255
205 227 255
205 227 255
205 227 255
205 227 255
205 227 255
205 227 255
205 227 255
205 227 255
205 226 255
205 226 255
205 226 255
205 226 255
205 226 255
205 226 255
205 226 255
204 226 255
204 226 255
204 226 255
204 226 255
204 226 255
204 226 255
204 226 255
204 226 255
204 226 255
204 226 255
204 226 255
204 226 255
204 226 255
204 226 255
204 226 255
204 226 255
204 226 255
203 226 255
203 226 255
203 226 255
203 226 255
203 226 255
203 226 255
203 226 255
203 225 255
203 225 255
203 225 255
203 225 255
203 225 255
203 225 255
203 225 255
203 225 255
202 225 255
202 225 255
202 225 255
202 225 255
202 225 255
202 225 255
202 225 255
202 225 255
202 225 255
202 225 255
202 225 255
202 225 255
202 225 255
202 225 255
202 225 255
201 225 255
201 225 255
201 225 255
201 225 255
201 225 255
201 224 255
201 224 255
201 224 255
201 224 255
201 224 255
201 224 255
201 224 255
201 224 255
201 224 255
201 224 255
200 224 255
200 224 255
200 224 255
200 224 255
200 224 255
200 224 255
200 224 255
200 224 255
200 224 255
200 224 255
200 224 255
200 224 255
200 224 255
200 224 255
199 224 255
199 224 255
199 224 255
199 223 255
199 223 255
199 223 255
199 223 255
199 223 255
199 223 255
199 223 255
199 223 255
199 223 255
199 223 255
199 223 255
199 223 255
199 223 255
198 223 255
198 223 255
198 223 255
198 223 255
198 223 255
198 223 255
198 223 255
198 223 255
198 223 255
198 223 255
198 223 255
198 223 255
198 223 255
198 223 255
198 223 255
198 223 255
197 223 255
197 222 255
197 222 255
197 222 255
197 222 255
197 222 255
197 222 255
197 222 255
197 222 255
197 222 255
197 222 255
197 222 255
197 222 255
197 222 255
197 222 255
197 222 255
197 222 255
197 222 255
197 222 255
197 222 255
197 222 255
196 222 255
196 222 255
196 222 255
196 222 255
196 222 255
196 222 255
196 222 255
196 222 255
196 222 255
196 222 255
196 222 255
196 222 255
196 222 255
196 222 255
196 222 255
196 222 255
196 222 255
196 222 255
196 222 255
196 222 255
196 222 255
196 222 255
196 222 255
196 222 255
196 222 255
196 222 255
196 222 255
196 222 255
196 222 255
196 222 255
196 222 255
196 222 255
196 222 255
196 222 255
196 222 255
196 222 255
196 222 255
196 222 255
196 222 255
196 222 255
196 222 255
196 222 255
196 222 255
196 222 255
196 222 255
196 222 255
196 222 255
196 222 255
196 222 255
196 222 255
196 222 255
196 222 255
196 222 255
196 222 255
196 222 255
196 222 255
196 222 255
196 222 255
196 222 255
196 222 255
196 222 255
196 222 255
196 222 255
196 222 255
196 222 255
196 222 255
196 222 255
196 222 255
196 222 255
196 222 255
196 222 255
197 222 255
197 222 255
197 222 255
197 222 255
197 222 255
197 222 255
197 222 255
197 222 255
197 222 255
197 222 255
197 222 255
197 222 255
197 222 255
197 222 255
197 222 255
197 222 255
197 222 255
197 222 255
197 222 255
197 223 255
198 223 255
198 223 255
198 223 255
198 223 255
198 223 255
198 223 255
198 223 255
198 223 255
198 223 255
198 223 255
198 223 255
198 223 255
198 223 255
198 223 255
198 223 255
198 223 255
199 223 255
199 223 255
199 223 255
199 223 255
199 223 255
199 223 255
199 223 255
199 223 255
199 223 255
199 223 255
199 223 255
199 223 255
199 223 255
199 224 255
199 224 255
200 224 255
200 224 255
200 224 255
200 224 255
200 224 255
200 224 255
200 224 255
200 224 255
200 224 255
200 224 255
200 224 255
200 224 255
200 224 255
200 224 255
200 224 255
201 224 255
201 224 255
201 224 255
201 224 255
201 224 255
201 224 255
201 224 255
201 224 255
201 224 255
201 224 255
201 225 255
201 225 255
201 225 255
201 225 255
201 225 255
202 225 255
202 225 255
202 225 255
202 225 255
202 225 255
202 225 255
202 225 255
202 225 255
202 225 255
202 225 255
202 225 255
202 225 255
202 225 255
202 225 255
202 225 255
203 225 255
203 225 255
203 225 255
203 225 255
203 225 255
203 225 255
203 225 255
203 225 255
203 226 255
203 226 255
203 226 255
203 226 255
203 226 255
203 226 255
203 226 255
204 226 255
204 226 255
204 226 255
204 226 255
204 226 255
204 226 255
204 226 255
204 226 255
204 226 255
204 226 255
204 226 255
204 226 255
204 226 255
204 226 255
204 226 255
204 226 255
204 226 255
205 226 255
205 226 255
205 226 255
205 226 255
205 226 255
205 226 255
205 226 255
205 227 255
205 227 255
205 227 255
205 227 255
205 227 255
205 227 255
205 227 255
205 227 255
205 227 255
205 227 255
205 227 255
206 227 255
206 227 255
206 227 255
206 227 255
206 227 255
206 227 255
206 227 255
206 227 255
206 227 255
206 227 255
206 227 255
206 227 255
206 227 255
206 227 255
206 227 255
206 227 255
206 227 255
206 227 255
207 227 255
207 227 255
206 227 255
206 227 255
206 227 255
206 227 255
206 227 255
206 227 255
206 227 255
206 227 255
206 227 255
206 227 255
206 227 255
206 227 255
206 227 255
206 227 255
206 227 255
206 227 255
206 227 255
206 227 255
206 227 255
205 227 255
205 227 255
205 227 255
205 227 255
205 227 255
205 227 255
205 227 255
205 227 255
205 227 255
205 227 255
205 227 255
205 226 255
205 226 255
205 226 255
205 226 255
205 226 255
205 226 255
205 226 255
204 226 255
204 226 255
204 226 255
204 226 255
204 226 255
204 226 255
204 226 255
204 226 255
204 226 255
204 226 255
204 226 255
204 226 255
204 226 255
204 226 255
204 226 255
204 226 255
203 226 255
203 226 255
203 226 255
203 226 255
203 226 255
203 226 255
203 226 255
203 225 255
203 225 255
203 225 255
203 225 255
203 225 255
203 225 255
203 225 255
203 225 255
203 225 255
202 225 255
202 225 255
202 225 255
202 225 255
202 225 255
202 225 255
202 225 255
202 225 255
202 225 255
202 225 255
202 225 255
202 225 255
202 225 255
202 225 255
202 225 255
201 225 255
201 225 255
201 225 255
201 225 255
201 224 255
201 224 255
201 224 255
201 224 255
201 224 255
201 224 255
201 224 255
201 224 255
201 224 255
201 224 255
200 224 255
200 224 255
200 224 255
200 224 255
200 224 255
200 224 255
200 224 255
200 224 255
200 224 255
200 224 255
200 224 255
200 224 255
200 224 255
200 224 255
200 224 255
199 224 255
199 224 255
199 223 255
199 223 255
199 223 255
199 223 255
199 223 255
199 223 255
199 223 255
199 223 255
199 223 255
199 223 255
199 223 255
199 223 255
199 223 255
198 223 255
198 223 255
198 223 255
198 223 255
198 223 255
198 223 255
198 223 255
198 223 255
198 223 255
198 223 255
198 223 255
198 223 255
198 223 255
198 223 255
198 223 255
198 223 255
198 223 255
197 223 255
197 222 255
197 222 255
197 222 255
197 222 255
197 222 255
197 222 255
197 222 255
197 222 255
197 222 255
197 222 255
197 222 255
197 222 255
197 222 255
197 222 255
197 222 255
197 222 255
197 222 255
197 222 255
197 222 255
197 222 255
197 222 255
196 222 255
196 222 255
196 222 255
196 222 255
196 222 255
196 222 255
196 222 255
196 222 255
196 222 255
196 222 255
196 222 255
196 222 255
196 222 255
196 222 255
196 222 255
196 222 255
196 222 255
196 222 255
196 222 255
196 222 255
196 222 255
196 222 255
196 222 255
196 222 255
196 222 255
196 222 255
196 222 255
196 222 255
196 222 255
196 222 255
196 222 255
196 222 255
196 222 255
196 222 255
196 222 255
196 222 255
196 222 255
196 222 255
196 222 255
196 222 255
196 222 255
196 222 255
196 222 255
196 222 255
196 222 255
196 222 255
196 222 255
196 222 255
196 222 255
196 222 255
196 222 255
196 222 255
196 222 255
196 222 255
196 222 255
196 222 255
196 222 255
196 222 255
196 222 255
196 222 255
196 222 255
196 222 255
197 222 255
197 222 255
197 222 255
197 222 255
197 222 255
197 222 255
197 222 255
197 222 255
197 222 255
197 222 255
197 222 255
197 222 255
197 222 255
197 222 255
197 222 255
197 222 255
197 222 255
197 222 255
197 222 255
197 222 255
197 222 255
197 223 255
198 223 255
198 223 255
198 223 255
198 223 255
198 223 255
198 223 255
198 223 255
198 223 255
198 223 255
198 223 255
198 223 255
198 223 255
198 223 255
198 223 255
198 223 255
198 223 255
198 223 255
199 223 255
199 223 255
199 223 255
199 223 255
199 223 255
199 223 255
199 223 255
199 223 255
199 223 255
199 223 255
199 223 255
199 223 255
199 223 255
199 224 255
199 224 255
200 224 255
200 224 255
200 224 255
200 224 255
200 224 255
200 224 255
200 224 255
200 224 255
200 224 255
200 224 255
200 224 255
200 224 255
200 224 255
200 224 255
200 224 255
201 224 255
201 224 255
201 224 255
201 224 255
201 224 255
201 224 255
201 224 255
201 224 255
201 224 255
201 224 255
201 225 255
201 225 255
201 225 255
201 225 255
202 225 255
202 225 255
202 225 255
202 225 255
202 225 255
202 225 255
202 225 255
202 225 255
202 225 255
202 225 255
202 225 255
202 225 255
202 225 255
202 225 255
202 225 255
203 225 255
203 225 255
203 225 255
203 225 255
203 225 255
203 225 255
203 225 255
203 225 255
203 225 255
203 226 255
203 226 255
203 226 255
203 226 255
203 226 255
203 226 255
203 226 255
204 226 255
204 226 255
204 226 255
204 226 255
204 226 255
204 226 255
204 226 255
204 226 255
204 226 255
204 226 255
204 226 255
204 226 255
204 226 255
204 226 255
204 226 255
204 226 255
205 226 255
205 226 255
205 226 255
205 226 255
205 226 255
205 226 255
205 226 255
205 227 255
205 227 255
205 227 255
205 227 255
205 227 255
205 227 255
205 227 255
205 227 255
205 227 255
205 227 255
205 227 255
206 227 255
206 227 255
206 227 255
206 227 255
206 227 255
206 227 255
206 227 255
206 227 255
206 227 255
206 227 255
206 227 255
206 227 255
206 227 255
206 227 255
206 227 255
206 227 255
206 227 255
206 227 255
206 227 255
207 227 255
207 227 255
207 227 255
207 227 255
207 227 255
207 227 255
207 227 255
206 227 255
206 227 255
206 227 255
206 227 255
206 227 255
206 227 255
206 227 255
206 227 255
206 227 255
206 227 255
206 227 255
206 227 255
206 227 255
206 227 255
206 227 255
206 227 255
206 227 255
206 227 255
206 227 255
205 227 255
205 227 255
205 227 255
205 227 255
205 227 255
205 227 255
205 227 255
205 227 255
205 227 255
205 227 255
205 226 255
205 226 255
205 226 255
205 226 255
205 226 255
205 226 255
205 226 255
204 226 255
204 226 255
204 226 255
204 226 255
204 226 255
204 226 255
204 226 255
204 226 255
204 226 255
204 226 255
204 226 255
204 226 255
204 226 255
204 226 255
204 226 255
204 226 255
204 226 255
203 226 255
203 226 255
203 226 255
203 226 255
203 226 255
203 226 255
203 226 255
203 225 255
203 225 255
203 225 255
203 225 255
203 225 255
203 225 255
203 225 255
203 225 255
202 225 255
202 225 255
202 225 255
202 225 255
202 225 255
202 225 255
202 225 255
202 225 255
202 225 255
202 225 255
202 225 255
202 225 255
202 225 255
202 225 255
202 225 255
201 225 255
201 225 255
201 225 255
201 225 255
201 224 255
201 224 255
201 224 255
201 224 255
201 224 255
201 224 255
201 224 255
201 224 255
201 224 255
201 224 255
201 224 255
200 224 255
200 224 255
200 224 255
200 224 255
200 224 255
200 224 255
200 224 255
200 224 255
200 224 255
200 224 255
200 224 255
200 224 255
200 224 255
200 224 255
199 224 255
199 224 255
199 224 255
199 223 255
199 223 255
199 223 255
199 223 255
199 223 255
199 223 255
199 223 255
199 223 255
199 223 255
199 223 255
199 223 255
199 223 255
199 223 255
198 223 255
198 223 255
198 223 255
198 223 255
198 223 255
198 223 255
198 223 255
198 223 255
198 223 255
198 223 255
198 223 255
198 223 255
198 223 255
198 223 255
198 223 255
198 223 255
198 223 255
197 223 255
197 222 255
197 222 255
197 222 255
197 222 255
197 222 255
197 222 255
197 222 255
197 222 255
197 222 255
197 222 255
197 222 255
197 222 255
197 222 255
197 222 255
197 222 255
197 222 255
197 222 255
197 222 255
197 222 255
197 222 255
197 222 255
197 222 255
197 222 255
196 222 255
196 222 255
196 222 255
196 222 255
196 222 255
196 222 255
196 222 255
196 222 255
196 222 255
196 222 255
196 222 255
196 222 255
196 222 255
196 222 255
196 222 255
196 222 255
196 222 255
196 222 255
196 222 255
196 222 255
196 222 255
196 222 255
196 222 255
196 222 255
196 222 255
196 222 255
196 222 255
196 222 255
196 222 255
196 222 255
196 222 255
196 222 255
196 222 255
196 222 255
196 222 255
196 222 255
196 222 255
196 222 255
196 222 255
196 222 255
196 222 255
196 222 255
196 222 255
196 222 255
196 222 255
196 222 255
196 222 255
196 222 255
196 222 255
196 222 255
196 222 255
196 222 255
197 222 255
197 222 255
197 222 255
197 222 255
197 222 255
197 222 255
197 222 255
197 222 255
197 222 255
197 222 255
197 222 255
197 222 255
197 222 255
197 222 255
197 222 255
197 222 255
197 222 255
197 222 255
197 222 255
197 222 255
197 222 255
197 222 255
197 222 255
197 223 255
198 223 255
198 223 255
198 223 255
198 223 255
198 223 255
198 223 255
198 223 255
198 223 255
198 223 255
198 223 255
198 223 255
198 223 255
198 223 255
198 223 255
198 223 255
198 223 255
198 223 255
199 223 255
199 223 255
199 223 255
199 223 255
199 223 255
199 223 255
199 223 255
199 223 255
199 223 255
199 223 255
199 223 255
199 223 255
199 223 255
199 224 255
199 224 255
199 224 255
200 224 255
200 224 255
200 224 255
200 224 255
200 224 255
200 224 255
200 224 255
200 224 255
200 224 255
200 224 255
200 224 255
200 224 255
200 224 255
200 224 255
201 224 255
201 224 255
201 224 255
201 224 255
201 224 255
201 224 255
201 224 255
201 224 255
201 224 255
201 224 255
201 224 255
201 225 255
201 225 255
201 225 255
201 225 255
202 225 255
202 225 255
202 225 255
202 225 255
202 225 255
202 225 255
202 225 255
202 225 255
202 225 255
202 225 255
202 225 255
202 225 255
202 225 255
202 225 255
202 225 255
203 225 255
203 225 255
203 225 255
203 225 255
203 225 255
203 225 255
203 225 255
203 225 255
203 226 255
203 226 255
203 226 255
203 226 255
203 226 255
203 226 255
203 226 255
203 226 255
204 226 255
204 226 255
204 226 255
204 226 255
204 226 255
204 226 255
204 226 255
204 226 255
204 226 255
204 226 255
204 226 255
204 226 255
204 226 255
204 226 255
204 226 255
204 226 255
205 226 255
205 226 255
205 226 255
205 226 255
205 226 255
205 226 255
205 226 255
205 227 255
205 227 255
205 227 255
205 227 255
205 227 255
205 227 255
205 227 255
205 227 255
205 227 255
205 227 255
206 227 255
206 227 255
206 227 255
206 227 255
206 227 255
206 227 255
206 227 255
206 227 255
206 227 255
206 227 255
206 227 255
206 227 255
206 227 255
206 227 255
206 227 255
206 227 255
206 227 255
206 227 255
206 227 255
207 227 255
207 227 255
207 227 255
207 227 255
207 227 255
207 228 255
207 228 255
207 227 255
207 227 255
207 227 255
207 227 255
207 227 255
206 227 255
206 227 255
206 227 255
206 227 255
206 227 255
206 227 255
206 227 255
206 227 255
206 227 255
206 227 255
206 227 255
206 227 255
206 227 255
206 227 255
206 227 255
206 227 255
206 227 255
206 227 255
206 227 255
206 227 255
205 227 255
205 227 255
205 227 255
205 227 255
205 227 255
205 227 255
205 227 255
205 227 255
205 227 255
205 227 255
205 226 255
205 226 255
205 226 255
205 226 255
205 226 255
205 226 255
205 226 255
204 226 255
204 226 255
204 226 255
204 226 255
204 226 255
204 226 255
204 226 255
204 226 255
204 226 255
204 226 255
204 226 255
204 226 255
204 226 255
204 226 255
204 226 255
204 226 255
203 226 255
203 226 255
203 226 255
203 226 255
203 226 255
203 226 255
203 226 255
203 225 255
203 225 255
203 225 255
203 225 255
203 225 255
203 225 255
203 225 255
203 225 255
203 225 255
202 225 255
202 225 255
202 225 255
202 225 255
202 225 255
202 225 255
202 225 255
202 225 255
202 225 255
202 225 255
202 225 255
202 225 255
202 225 255
202 225 255
201 225 255
201 225 255
201 225 255
201 225 255
201 225 255
201 224 255
201 224 255
201 224 255
201 224 255
201 224 255
201 224 255
201 224 255
201 224 255
201 224 255
201 224 255
200 224 255
200 224 255
200 224 255
200 224 255
200 224 255
200 224 255
200 224 255
200 224 255
200 224 255
200 224 255
200 224 255
200 224 255
200 224 255
200 224 255
200 224 255
199 224 255
199 224 255
199 223 255
199 223 255
199 223 255
199 223 255
199 223 255
199 223 255
199 223 255
199 223 255
199 223 255
199 223 255
199 223 255
199 223 255
199 223 255
199 223 255
198 223 255
198 223 255
198 223 255
198 223 255
198 223 255
198 223 255
198 223 255
198 223 255
198 223 255
198 223 255
198 223 255
198 223 255
198 223 255
198 223 255
198 223 255
198 223 255
198 223 255
197 223 255
197 223 255
197 222 255
197 222 255
197 222 255
197 222 255
197 222 255
197 222 255
197 222 255
197 222 255
197 222 255
197 222 255
197 222 255
197 222 255
197 222 255
197 222 255
197 222 255
197 222 255
197 222 255
197 222 255
197 222 255
197 222 255
197 222 255
197 222 255
197 222 255
197 222 255
197 222 255
196 222 255
196 222 255
196 222 255
196 222 255
196 222 255
196 222 255
196 222 255
196 222 255
196 222 255
196 222 255
196 222 255
196 222 255
196 222 255
196 222 255
196 222 255
196 222 255
196 222 255
196 222 255
196 222 255
196 222 255
196 222 255
196 222 255
196 222 255
196 222 255
196 222 255
196 222 255
196 222 255
196 222 255
196 222 255
196 222 255
196 222 255
196 222 255
196 222 255
196 222 255
196 222 255
196 222 255
196 222 255
196 222 255
196 222 255
196 222 255
197 222 255
197 222 255
197 222 255
197 222 255
197 222 255
197 222 255
197 222 255
197 222 255
197 222 255
197 222 255
197 222 255
197 222 255
197 222 255
197 222 255
197 222 255
197 222 255
197 222 255
197 222 255
197 222 255
197 222 255
197 222 255
197 222 255
197 222 255
197 222 255
197 222 255
197 222 255
197 223 255
198 223 255
198 223 255
198 223 255
198 223 255
198 223 255
198 223 255
198 223 255
198 223 255
198 223 255
198 223 255
198 223 255
198 223 255
198 223 255
198 223 255
198 223 255
198 223 255
198 223 255
199 223 255
199 223 255
199 223 255
199 223 255
199 223 255
199 223 255
199 223 255
199 223 255
199 223 255
199 223 255
199 223 255
199 223 255
199 223 255
199 223 255
199 224 255
199 224 255
200 224 255
200 224 255
200 224 255
200 224 255
200 224 255
200 224 255
200 224 255
200 224 255
200 224 255
200 224 255
200 224 255
200 224 255
200 224 255
200 224 255
200 224 255
201 224 255
201 224 255
201 224 255
201 224 255
201 224 255
201 224 255
201 224 255
201 224 255
201 224 255
201 224 255
201 225 255
201 225 255
201 225 255
201 225 255
201 225 255
202 225 255
202 225 255
202 225 255
202 225 255
202 225 255
202 225 255
202 225 255
202 225 255
202 225 255
202 225 255
202 225 255
202 225 255
202 225 255
202 225 255
203 225 255
203 225 255
203 225 255
203 225 255
203 225 255
203 225 255
203 225 255
203 225 255
203 225 255
203 226 255
203 226 255
203 226 255
203 226 255
203 226 255
203 226 255
203 226 255
204 226 255
204 226 255
204 226 255
204 226 255
204 226 255
204 226 255
204 226 255
204 226 255
204 226 255
204 226 255
204 226 255
204 226 255
204 226 255
204 226 255
204 226 255
204 226 255
205 226 255
205 226 255
205 226 255
205 226 255
205 226 255
205 226 255
205 226 255
205 227 255
205 227 255
205 227 255
205 227 255
205 227 255
205 227 255
205 227 255
205 227 255
205 227 255
205 227 255
205 227 255
206 227 255
206 227 255
206 227 255
206 227 255
206 227 255
206 227 255
206 227 255
206 227 255
206 227 255
206 227 255
206 227 255
206 227 255
206 227 255
206 227 255
206 227 255
206 227 255
206 227 255
206 227 255
206 227 255
207 227 255
207 227 255
207 227 255
207 227 255
207 227 255
207 228 255
207 228 255
207 228 255
207 228 255
207 228 255
207 228 255
207 228 255
207 227 255
207 227 255
207 227 255
207 227 255
207 227 255
206 227 255
206 227 255
206 227 255
206 227 255
206 227 255
206 227 255
206 227 255
206 227 255
206 227 255
206 227 255
206 227 255
206 227 255
206 227 255
206 227 255
206 227 255
206 227 255
206 227 255
206 227 255
206 227 255
205 227 255
205 227 255
205 227 255
205 227 255
205 227 255
205 227 255
205 227 255
205 227 255
205 227 255
205 227 255
205 226 255
205 226 255
205 226 255
205 226 255
205 226 255
205 226 255
205 226 255
204 226 255
204 226 255
204 226 255
204 226 255
204 226 255
204 226 255
204 226 255
204 226 255
204 226 255
204 226 255
204 226 255
204 226 255
204 226 255
204 226 255
204 226 255
204 226 255
204 226 255
203 226 255
203 226 255
203 226 255
203 226 255
203 226 255
203 226 255
203 225 255
203 225 255
203 225 255
203 225 255
203 225 255
203 225 255
203 225 255
203 225 255
203 225 255
202 225 255
202 225 255
202 225 255
202 225 255
202 225 255
202 225 255
202 225 255
202 225 255
202 225 255
202 225 255
202 225 255
202 225 255
202 225 255
202 225 255
202 225 255
201 225 255
201 225 255
201 225 255
201 225 255
201 224 255
201 224 255
201 224 255
201 224 255
201 224 255
201 224 255
201 224 255
201 224 255
201 224 255
201 224 255
201 224 255
200 224 255
200 224 255
200 224 255
200 224 255
200 224 255
200 224 255
200 224 255
200 224 255
200 224 255
200 224 255
200 224 255
200 224 255
200 224 255
200 224 255
200 224 255
199 224 255
199 224 255
199 223 255
199 223 255
199 223 255
199 223 255
199 223 255
199 223 255
199 223 255
199 223 255
199 223 255
199 223 255
199 223 255
199 223 255
199 223 255
198 223 255
198 223 255
198 223 255
198 223 255
198 223 255
198 223 255
198 223 255
198 223 255
198 223 255
198 223 255
198 223 255
198 223 255
198 223 255
198 223 255
198 223 255
198 223 255
198 223 255
198 223 255
198 223 255
197 223 255
197 222 255
197 222 255
197 222 255
197 222 255
197 222 255
197 222 255
197 222 255
197 222 255
197 222 255
197 222 255
197 222 255
197 222 255
197 222 255
197 222 255
197 222 255
197 222 255
197 222 255
197 222 255
197 222 255
197 222 255
197 222 255
197 222 255
197 222 255
197 222 255
197 222 255
197 222 255
197 222 255
197 222 255
197 222 255
197 222 255
197 222 255
196 222 255
196 222 255
196 222 255
196 222 255
196 222 255
196 222 255
196 222 255
196 222 255
196 222 255
196 222 255
196 222 255
196 222 255
196 222 255
196 222 255
196 222 255
196 222 255
196 222 255
196 222 255
196 222 255
196 222 255
196 222 255
196 222 255
197 222 255
197 222 255
197 222 255
197 222 255
197 222 255
197 222 255
197 222 255
197 222 255
197 222 255
197 222 255
197 222 255
197 222 255
197 222 255
197 222 255
197 222 255
197 222 255
197 222 255
197 222 255
197 222 255
197 222 255
197 222 255
197 222 255
197 222 255
197 222 255
197 222 255
197 222 255
197 222 255
197 222 255
197 222 255
197 222 255
197 222 255
197 223 255
198 223 255
198 223 255
198 223 255
198 223 255
198 223 255
198 223 255
198 223 255
198 223 255
198 223 255
198 223 255
198 223 255
198 223 255
198 223 255
198 223 255
198 223 255
198 223 255
198 223 255
198 223 255
198 223 255
199 223 255
199 223 255
199 223 255
199 223 255
199 223 255
199 223 255
199 223 255
199 223 255
199 223 255
199 223 255
199 223 255
199 223 255
199 223 255
199 224 255
199 224 255
200 224 255
200 224 255
200 224 255
200 224 255
200 224 255
200 224 255
200 224 255
200 224 255
200 224 255
200 224 255
200 224 255
200 224 255
200 224 255
200 224 255
200 224 255
201 224 255
201 224 255
201 224 255
201 224 255
201 224 255
201 224 255
201 224 255
201 224 255
201 224 255
201 224 255
201 224 255
201 225 255
201 225 255
201 225 255
201 225 255
202 225 255
202 225 255
202 225 255
202 225 255
202 225 255
202 225 255
202 225 255
202 225 255
202 225 255
202 225 255
202 225 255
202 225 255
202 225 255
202 225 255
202 225 255
203 225 255
203 225 255
203 225 255
203 225 255
203 225 255
203 225 255
203 225 255
203 225 255
203 225 255
203 226 255
203 226 255
203 226 255
203 226 255
203 226 255
203 226 255
204 226 255
204 226 255
204 226 255
204 226 255
204 226 255
204 226 255
204 226 255
204 226 255
204 226 255
204 226 255
204 226 255
204 226 255
204 226 255
204 226 255
204 226 255
204 226 255
204 226 255
205 226 255
205 226 255
205 226 255
205 226 255
205 226 255
205 226 255
205 226 255
205 227 255
205 227 255
205 227 255
205 227 255
205 227 255
205 227 255
205 227 255
205 227 255
205 227 255
205 227 255
206 227 255
206 227 255
206 227 255
206 227 255
206 227 255
206 227 255
206 227 255
206 227 255
206 227 255
206 227 255
206 227 255
206 227 255
206 227 255
206 227 255
206 227 255
206 227 255
206 227 255
206 227 255
206 227 255
207 227 255
207 227 255
207 227 255
207 227 255
207 227 255
207 228 255
207 228 255
207 228 255
207 228 255
207 228 255
207 228 255
207 228 255
207 228 255
207 228 255
207 228 255
207 228 255
207 228 255
207 228 255
207 227 255
207 227 255
207 227 255
207 227 255
207 227 255
206 227 255
206 227 255
206 227 255
206 227 255
206 227 255
206 227 255
206 227 255
206 227 255
206 227 255
206 227 255
206 227 255
206 227 255
206 227 255
206 227 255
206 227 255
206 227 255
206 227 255
206 227 255
206 227 255
205 227 255
205 227 255
205 227 255
205 227 255
205 227 255
205 227 255
205 227 255
205 227 255
205 227 255
205 227 255
205 226 255
205 226 255
205 226 255
205 226 255
205 226 255
205 226 255
205 226 255
204 226 255
204 226 255
204 226 255
204 226 255
204 226 255
204 226 255
204 226 255
204 226 255
204 226 255
204 226 255
204 226 255
204 226 255
204 226 255
204 226 255
204 226 255
204 226 255
203 226 255
203 226 255
203 226 255
203 226 255
203 226 255
203 226 255
203 226 255
203 225 255
203 225 255
203 225 255
203 225 255
203 225 255
203 225 255
203 225 255
203 225 255
202 225 255
202 225 255
202 225 255
202 225 255
202 225 255
202 225 255
202 225 255
202 225 255
202 225 255
202 225 255
202 225 255
202 225 255
202 225 255
202 225 255
202 225 255
201 225 255
201 225 255
201 225 255
201 225 255
201 225 255
201 224 255
201 224 255
201 224 255
201 224 255
201 224 255
201 224 255
201 224 255
201 224 255
201 224 255
201 224 255
200 224 255
200 224 255
200 224 255
200 224 255
200 224 255
200 224 255
200 224 255
200 224 255
200 224 255
200 224 255
200 224 255
200 224 255
200 224 255
200 224 255
200 224 255
199 224 255
199 224 255
199 224 255
199 223 255
199 223 255
199 223 255
199 223 255
199 223 255
199 223 255
199 223 255
199 223 255
199 223 255
199 223 255
199 223 255
199 223 255
199 223 255
199 223 255
198 223 255
198 223 255
198 223 255
198 223 255
198 223 255
198 223 255
198 223 255
198 223 255
198 223 255
198 223 255
198 223 255
198 223 255
198 223 255
198 223 255
198 223 255
198 223 255
198 223 255
198 223 255
198 223 255
197 223 255
197 222 255
197 222 255
197 222 255
197 222 255
197 222 255
197 222 255
197 222 255
197 222 255
197 222 255
197 222 255
197 222 255
197 222 255
197 222 255
197 222 255
197 222 255
197 222 255
197 222 255
197 222 255
197 222 255
197 222 255
197 222 255
197 222 255
197 222 255
197 222 255
197 222 255
197 222 255
197 222 255
197 222 255
197 222 255
197 222 255
197 222 255
197 222 255
197 222 255
197 222 255
197 222 255
197 222 255
197 222 255
197 222 255
197 222 255
197 222 255
197 222 255
197 222 255
197 222 255
197 222 255
197 222 255
197 222 255
197 222 255
197 222 255
197 222 255
197 222 255
197 222 255
197 222 255
197 222 255
197 222 255
197 222 255
197 222 255
197 222 255
197 222 255
197 222 255
197 222 255
197 222 255
197 222 255
197 222 255
197 222 255
197 222 255
197 222 255
197 222 255
197 222 255
197 222 255
197 222 255
197 222 255
197 222 255
197 222 255
197 222 255
197 222 255
197 222 255
197 223 255
198 223 255
198 223 255
198 223 255
198 223 255
198 223 255
198 223 255
198 223 255
198 223 255
198 223 255
198 223 255
198 223 255
198 223 255
198 223 255
198 223 255
198 223 255
198 223 255
198 223 255
198 223 255
198 223 255
198 223 255
199 223 255
199 223 255
199 223 255
199 223 255
199 223 255
199 223 255
199 223 255
199 223 255
199 223 255
199 223 255
199 223 255
199 223 255
199 223 255
199 224 255
199 224 255
199 224 255
200 224 255
200 224 255
200 224 255
200 224 255
200 224 255
200 224 255
200 224 255
200 224 255
200 224 255
200 224 255
200 224 255
200 224 255
200 224 255
200 224 255
200 224 255
201 224 255
201 224 255
201 224 255
201 224 255
201 224 255
201 224 255
201 224 255
201 224 255
201 224 255
201 224 255
201 225 255
201 225 255
201 225 255
201 225 255
201 225 255
202 225 255
202 225 255
202 225 255
202 225 255
202 225 255
202 225 255
202 225 255
202 225 255
202 225 255
202 225 255
202 225 255
202 225 255
202 225 255
202 225 255
203 225 255
203 225 255
203 225 255
203 225 255
203 225 255
203 225 255
203 225 255
203 225 255
203 225 255
203 226 255
203 226 255
203 226 255
203 226 255
203 226 255
203 226 255
203 226 255
204 226 255
204 226 255
204 226 255
204 226 255
204 226 255
204 226 255
204 226 255
204 226 255
204 226 255
204 226 255
204 226 255
204 226 255
204 226 255
204 226 255
204 226 255
204 226 255
205 226 255
205 226 255
205 226 255
205 226 255
205 226 255
205 226 255
205 226 255
205 227 255
205 227 255
205 227 255
205 227 255
205 227 255
205 227 255
205 227 255
205 227 255
205 227 255
205 227 255
206 227 255
206 227 255
206 227 255
206 227 255
206 227 255
206 227 255
206 227 255
206 227 255
206 227 255
206 227 255
206 227 255
206 227 255
206 227 255
206 227 255
206 227 255
206 227 255
206 227 255
206 227 255
206 227 255
207 227 255
207 227 255
207 227 255
207 227 255
207 227 255
207 228 255
207 228 255
207 228 255
207 228 255
207 228 255
207 228 255
207 228 255
207 228 255
207 228 255
207 228 255
207 228 255
207 228 255
207 228 255
207 228 255
207 228 255
207 228 255
207 228 255
207 228 255
207 228 255
207 227 255
207 227 255
207 227 255
207 227 255
207 227 255
206 227 255
206 227 255
206 227 255
206 227 255
206 227 255
206 227 255
206 227 255
206 227 255
206 227 255
206 227 255
206 227 255
206 227 255
206 227 255
206 227 255
206 227 255
206 227 255
206 227 255
206 227 255
205 227 255
205 227 255
205 227 255
205 227 255
205 227 255
205 227 255
205 227 255
205 227 255
205 227 255
205 227 255
205 227 255
205 226 255
205 226 255
205 226 255
205 226 255
205 226 255
205 226 255
205 226 255
204 226 255
204 226 255
204 226 255
204 226 255
204 226 255
204 226 255
204 226 255
204 226 255
204 226 255
204 226 255
204 226 255
204 226 255
204 226 255
204 226 255
204 226 255
204 226 255
203 226 255
203 226 255
203 226 255
203 226 255
203 226 255
203 226 255
203 226 255
203 225 255
203 225 255
203 225 255
203 225 255
203 225 255
203 225 255
203 225 255
203 225 255
202 225 255
202 225 255
202 225 255
202 225 255
202 225 255
202 225 255
202 225 255
202 225 255
202 225 255
202 225 255
202 225 255
202 225 255
202 225 255
202 225 255
202 225 255
201 225 255
201 225 255
201 225 255
201 225 255
201 224 255
201 224 255
201 224 255
201 224 255
201 224 255
201 224 255
201 224 255
201 224 255
201 224 255
201 224 255
201 224 255
200 224 255
200 224 255
200 224 255
200 224 255
200 224 255
200 224 255
200 224 255
200 224 255
200 224 255
200 224 255
200 224 255
200 224 255
200 224 255
200 224 255
200 224 255
199 224 255
199 224 255
199 223 255
199 223 255
199 223 255
199 223 255
199 223 255
199 223 255
199 223 255
199 223 255
199 223 255
199 223 255
199 223 255
199 223 255
199 223 255
199 223 255
198 223 255
198 223 255
198 223 255
198 223 255
198 223 255
198 223 255
198 223 255
198 223 255
198 223 255
198 223 255
198 223 255
198 223 255
198 223 255
198 223 255
198 223 255
198 223 255
198 223 255
198 223 255
198 223 255
198 223 255
198 223 255
197 223 255
197 222 255
197 222 255
197 222 255
197 222 255
197 222 255
197 222 255
197 222 255
197 222 255
197 222 255
197 222 255
197 222 255
197 222 255
197 222 255
197 222 255
197 222 255
197 222 255
197 222 255
197 222 255
197 222 255
197 222 255
197 222 255
197 222 255
197 222 255
197 222 255
197 222 255
197 222 255
197 222 255
197 222 255
197 222 255
197 222 255
197 222 255
197 222 255
197 222 255
197 222 255
197 222 255
197 222 255
197 222 255
197 222 255
197 222 255
197 222 255
197 222 255
197 222 255
197 222 255
197 222 255
197 222 255
197 222 255
197 222 255
197 222 255
197 222 255
197 222 255
197 222 255
197 222 255
197 222 255
197 222 255
197 222 255
197 222 255
197 222 255
197 222 255
197 222 255
197 222 255
197 222 255
197 222 255
197 222 255
197 222 255
197 222 255
197 222 255
197 222 255
197 222 255
197 223 255
198 223 255
198 223 255
198 223 255
198 223 255
198 223 255
198 223 255
198 223 255
198 223 255
198 223 255
198 223 255
198 223 255
198 223 255
198 223 255
198 223 255
198 223 255
198 223 255
198 223 255
198 223 255
198 223 255
198 223 255
199 223 255
199 223 255
199 223 255
199 223 255
199 223 255
199 223 255
199 223 255
199 223 255
199 223 255
199 223 255
199 223 255
199 223 255
199 223 255
199 223 255
199 223 255
199 224 255
199 224 255
200 224 255
200 224 255
200 224 255
200 224 255
200 224 255
200 224 255
200 224 255
200 224 255
200 224 255
200 224 255
200 224 255
200 224 255
200 224 255
200 224 255
200 224 255
201 224 255
201 224 255
201 224 255
201 224 255
201 224 255
201 224 255
201 224 255
201 224 255
201 224 255
201 224 255
201 224 255
201 225 255
201 225 255
201 225 255
201 225 255
202 225 255
202 225 255
202 225 255
202 225 255
202 225 255
202 225 255
202 225 255
202 225 255
202 225 255
202 225 255
202 225 255
202 225 255
202 225 255
202 225 255
202 225 255
203 225 255
203 225 255
203 225 255
203 225 255
203 225 255
203 225 255
203 225 255
203 225 255
203 226 255
203 226 255
203 226 255
203 226 255
203 226 255
203 226 255
203 226 255
204 226 255
204 226 255
204 226 255
204 226 255
204 226 255
204 226 255
204 226 255
204 226 255
204 226 255
204 226 255
204 226 255
204 226 255
204 226 255
204 226 255
204 226 255
204 226 255
205 226 255
205 226 255
205 226 255
205 226 255
205 226 255
205 226 255
205 226 255
205 227 255
205 227 255
205 227 255
205 227 255
205 227 255
205 227 255
205 227 255
205 227 255
205 227 255
205 227 255
205 227 255
206 227 255
206 227 255
206 227 255
206 227 255
206 227 255
206 227 255
206 227 255
206 227 255
206 227 255
206 227 255
206 227 255
206 227 255
206 227 255
206 227 255
206 227 255
206 227 255
206 227 255
206 227 255
207 227 255
207 227 255
207 227 255
207 227 255
207 227 255
207 228 255
207 228 255
207 228 255
207 228 255
207 228 255
207 228 255
207 228 255
207 228 255
207 228 255
207 228 255
207 228 255
207 228 255
207 228 255
207 228 255
207 228 255
207 228 255
207 228 255
207 228 255
207 228 255
207 228 255
207 228 255
207 228 255
207 228 255
207 228 255
207 228 255
207 227 255
207 227 255
207 227 255
207 227 255
207 227 255
206 227 255
206 227 255
206 227 255
206 227 255
206 227 255
206 227 255
206 227 255
206 227 255
206 227 255
206 227 255
206 227 255
206 227 255
206 227 255
206 227 255
206 227 255
206 227 255
206 227 255
206 227 255
205 227 255
205 227 255
205 227 255
205 227 255
205 227 255
205 227 255
205 227 255
205 227 255
205 227 255
205 227 255
205 226 255
205 226 255
205 226 255
205 226 255
205 226 255
205 226 255
205 226 255
204 226 255
204 226 255
204 226 255
204 226 255
204 226 255
204 226 255
204 226 255
204 226 255
204 226 255
204 226 255
204 226 255
204 226 255
204 226 255
204 226 255
204 226 255
204 226 255
203 226 255
203 226 255
203 226 255
203 226 255
203 226 255
203 226 255
203 226 255
203 225 255
203 225 255
203 225 255
203 225 255
203 225 255
203 225 255
203 225 255
203 225 255
203 225 255
202 225 255
202 225 255
202 225 255
202 225 255
202 225 255
202 225 255
202 225 255
202 225 255
202 225 255
202 225 255
202 225 255
202 225 255
202 225 255
202 225 255
201 225 255
201 225 255
201 225 255
201 225 255
201 225 255
201 224 255
201 224 255
201 224 255
201 224 255
201 224 255
201 224 255
201 224 255
201 224 255
201 224 255
201 224 255
200 224 255
200 224 255
200 224 255
200 224 255
200 224 255
200 224 255
200 224 255
200 224 255
200 224 255
200 224 255
200 224 255
200 224 255
200 224 255
200 224 255
200 224 255
200 224 255
199 224 255
199 224 255
199 223 255
199 223 255
199 223 255
199 223 255
199 223 255
199 223 255
199 223 255
199 223 255
199 223 255
199 223 255
199 223 255
199 223 255
199 223 255
199 223 255
199 223 255
198 223 255
198 223 255
198 223 255
198 223 255
198 223 255
198 223 255
198 223 255
198 223 255
198 223 255
198 223 255
198 223 255
198 223 255
198 223 255
198 223 255
198 223 255
198 223 255
198 223 255
198 223 255
198 223 255
198 223 255
198 223 255
198 223 255
197 223 255
197 222 255
197 222 255
197 222 255
197 222 255
197 222 255
197 222 255
197 222 255
197 222 255
197 222 255
197 222 255
197 222 255
197 222 255
197 222 255
197 222 255
197 222 255
197 222 255
197 222 255
197 222 255
197 222 255
197 222 255
197 222 255
197 222 255
197 222 255
197 222 255
197 222 255
197 222 255
197 222 255
197 222 255
197 222 255
197 222 255
197 222 255
197 222 255
197 222 255
197 222 255
197 222 255
197 222 255
197 222 255
197 222 255
197 222 255
197 222 255
197 222 255
197 222 255
197 222 255
197 222 255
197 222 255
197 222 255
197 222 255
197 222 255
197 222 255
197 222 255
197 222 255
197 222 255
197 222 255
197 222 255
197 222 255
197 222 255
197 222 255
197 222 255
197 223 255
198 223 255
198 223 255
198 223 255
198 223 255
198 223 255
198 223 255
198 223 255
198 223 255
198 223 255
198 223 255
198 223 255
198 223 255
198 223 255
198 223 255
198 223 255
198 223 255
198 223 255
198 223 255
198 223 255
198 223 255
198 223 255
198 223 255
199 223 255
199 223 255
199 223 255
199 223 255
199 223 255
199 223 255
199 223 255
199 223 255
199 223 255
199 223 255
199 223 255
199 223 255
199 223 255
199 223 255
199 223 255
199 224 255
199 224 255
200 224 255
200 224 255
200 224 255
200 224 255
200 224 255
200 224 255
200 224 255
200 224 255
200 224 255
200 224 255
200 224 255
200 224 255
200 224 255
200 224 255
200 224 255
200 224 255
201 224 255
201 224 255
201 224 255
201 224 255
201 224 255
201 224 255
201 224 255
201 224 255
201 224 255
201 224 255
201 225 255
201 225 255
201 225 255
201 225 255
201 225 255
202 225 255
202 225 255
202 225 255
202 225 255
202 225 255
202 225 255
202 225 255
202 225 255
202 225 255
202 225 255
202 225 255
202 225 255
202 225 255
202 225 255
202 225 255
203 225 255
203 225 255
203 225 255
203 225 255
203 225 255
203 225 255
203 225 255
203 225 255
203 226 255
203 226 255
203 226 255
203 226 255
203 226 255
203 226 255
203 226 255
204 226 255
204 226 255
204 226 255
204 226 255
204 226 255
204 226 255
204 226 255
204 226 255
204 226 255
204 226 255
204 226 255
204 226 255
204 226 255
204 226 255
204 226 255
204 226 255
205 226 255
205 226 255
205 226 255
205 226 255
205 226 255
205 226 255
205 226 255
205 227 255
205 227 255
205 227 255
205 227 255
205 227 255
205 227 255
205 227 255
205 227 255
205 227 255
205 227 255
206 227 255
206 227 255
206 227 255
206 227 255
206 227 255
206 227 255
206 227 255
206 227 255
206 227 255
206 227 255
206 227 255
206 227 255
206 227 255
206 227 255
206 227 255
206 227 255
206 227 255
206 227 255
207 227 255
207 227 255
207 227 255
207 227 255
207 227 255
207 228 255
207 228 255
207 228 255
207 228 255
207 228 255
207 228 255
207 228 255
207 228 255
207 228 255
207 228 255
207 228 255
207 228 255
207 228 255
207 228 255
208 228 255
207 228 255
207 228 255
207 228 255
207 228 255
207 228 255
207 228 255
207 228 255
207 228 255
207 228 255
207 228 255
207 228 255
207 228 255
207 228 255
207 228 255
207 228 255
207 228 255
207 227 255
207 227 255
207 227 255
207 227 255
206 227 255
206 227 255
206 227 255
206 227 255
206 227 255
206 227 255
206 227 255
206 227 255
206 227 255
206 227 255
206 227 255
206 227 255
206 227 255
206 227 255
206 227 255
206 227 255
206 227 255
206 227 255
206 227 255
205 227 255
205 227 255
205 227 255
205 227 255
205 227 255
205 227 255
205 227 255
205 227 255
205 227 255
205 227 255
205 226 255
205 226 255
205 226 255
205 226 255
205 226 255
205 226 255
205 226 255
204 226 255
204 226 255
204 226 255
204 226 255
204 226 255
204 226 255
204 226 255
204 226 255
204 226 255
204 226 255
204 226 255
204 226 255
204 226 255
204 226 255
204 226 255
204 226 255
203 226 255
203 226 255
203 226 255
203 226 255
203 226 255
203 226 255
203 225 255
203 225 255
203 225 255
203 225 255
203 225 255
203 225 255
203 225 255
203 225 255
203 225 255
202 225 255
202 225 255
202 225 255
202 225 255
202 225 255
202 225 255
202 225 255
202 225 255
202 225 255
202 225 255
202 225 255
202 225 255
202 225 255
202 225 255
202 225 255
201 225 255
201 225 255
201 225 255
201 225 255
201 224 255
201 224 255
201 224 255
201 224 255
201 224 255
201 224 255
201 224 255
201 224 255
201 224 255
201 224 255
201 224 255
200 224 255
200 224 255
200 224 255
200 224 255
200 224 255
200 224 255
200 224 255
200 224 255
200 224 255
200 224 255
200 224 255
200 224 255
200 224 255
200 224 255
200 224 255
199 224 255
199 224 255
199 224 255
199 223 255
199 223 255
199 223 255
199 223 255
199 223 255
199 223 255
199 223 255
199 223 255
199 223 255
199 223 255
199 223 255
199 223 255
199 223 255
199 223 255
199 223 255
198 223 255
198 223 255
198 223 255
198 223 255
198 223 255
198 223 255
198 223 255
198 223 255
198 223 255
198 223 255
198 223 255
198 223 255
198 223 255
198 223 255
198 223 255
198 223 255
198 223 255
198 223 255
198 223 255
198 223 255
198 223 255
198 223 255
198 223 255
198 223 255
197 223 255
197 222 255
197 222 255
197 222 255
197 222 255
197 222 255
197 222 255
197 222 255
197 222 255
197 222 255
197 222 255
197 222 255
197 222 255
197 222 255
197 222 255
197 222 255
197 222 255
197 222 255
197 222 255
197 222 255
197 222 255
197 222 255
197 222 255
197 222 255
197 222 255
197 222 255
197 222 255
197 222 255
197 222 255
197 222 255
197 222 255
197 222 255
197 222 255
197 222 255
197 222 255
197 222 255
197 222 255
197 222 255
197 222 255
197 222 255
197 222 255
197 222 255
197 222 255
197 222 255
197 222 255
197 222 255
197 222 255
197 222 255
197 223 255
197 223 255
198 223 255
198 223 255
198 223 255
198 223 255
198 223 255
198 223 255
198 223 255
198 223 255
198 223 255
198 223 255
198 223 255
198 223 255
198 223 255
198 223 255
198 223 255
198 223 255
198 223 255
198 223 255
198 223 255
198 223 255
198 223 255
198 223 255
198 223 255
198 223 255
199 223 255
199 223 255
199 223 255
199 223 255
199 223 255
199 223 255
199 223 255
199 223 255
199 223 255
199 223 255
199 223 255
199 223 255
199 223 255
199 223 255
199 223 255
199 224 255
199 224 255
199 224 255
200 224 255
200 224 255
200 224 255
200 224 255
200 224 255
200 224 255
200 224 255
200 224 255
200 224 255
200 224 255
200 224 255
200 224 255
200 224 255
200 224 255
200 224 255
201 224 255
201 224 255
201 224 255
201 224 255
201 224 255
201 224 255
201 224 255
201 224 255
201 224 255
201 224 255
201 224 255
201 225 255
201 225 255
201 225 255
201 225 255
202 225 255
202 225 255
202 225 255
202 225 255
202 225 255
202 225 255
202 225 255
202 225 255
202 225 255
202 225 255
202 225 255
202 225 255
202 225 255
202 225 255
202 225 255
203 225 255
203 225 255
203 225 255
203 225 255
203 225 255
203 225 255
203 225 255
203 225 255
203 226 255
203 226 255
203 226 255
203 226 255
203 226 255
203 226 255
203 226 255
204 226 255
204 226 255
204 226 255
204 226 255
204 226 255
204 226 255
204 226 255
204 226 255
204 226 255
204 226 255
204 226 255
204 226 255
204 226 255
204 226 255
204 226 255
204 226 255
205 226 255
205 226 255
205 226 255
205 226 255
205 226 255
205 226 255
205 226 255
205 227 255
205 227 255
205 227 255
205 227 255
205 227 255
205 227 255
205 227 255
205 227 255
205 227 255
205 227 255
206 227 255
206 227 255
206 227 255
206 227 255
206 227 255
206 227 255
206 227 255
206 227 255
206 227 255
206 227 255
206 227 255
206 227 255
206 227 255
206 227 255
206 227 255
206 227 255
206 227 255
206 227 255
206 227 255
207 227 255
207 227 255
207 227 255
207 227 255
207 228 255
207 228 255
207 228 255
207 228 255
207 228 255
207 228 255
207 228 255
207 228 255
207 228 255
207 228 255
207 228 255
207 228 255
207 228 255
207 228 255
207 228 255
207 228 255
208 228 255
208 228 255
208 228 255
208 228 255
208 228 255
207 228 255
207 228 255
207 228 255
207 228 255
207 228 255
207 228 255
207 228 255
207 228 255
207 228 255
207 228 255
207 228 255
207 228 255
207 228 255
207 228 255
207 228 255
207 228 255
207 227 255
207 227 255
207 227 255
207 227 255
206 227 255
206 227 255
206 227 255
206 227 255
206 227 255
206 227 255
206 227 255
206 227 255
206 227 255
206 227 255
206 227 255
206 227 255
206 227 255
206 227 255
206 227 255
206 227 255
206 227 255
206 227 255
205 227 255
205 227 255
205 227 255
205 227 255
205 227 255
205 227 255
205 227 255
205 227 255
205 227 255
205 227 255
205 227 255
205 226 255
205 226 255
205 226 255
205 226 255
205 226 255
205 226 255
204 226 255
204 226 255
204 226 255
204 226 255
204 226 255
204 226 255
204 226 255
204 226 255
204 226 255
204 226 255
204 226 255
204 226 255
204 226 255
204 226 255
204 226 255
204 226 255
203 226 255
203 226 255
203 226 255
203 226 255
203 226 255
203 226 255
203 226 255
203 225 255
203 225 255
203 225 255
203 225 255
203 225 255
203 225 255
203 225 255
203 225 255
202 225 255
202 225 255
202 225 255
202 225 255
202 225 255
202 225 255
202 225 255
202 225 255
202 225 255
202 225 255
202 225 255
202 225 255
202 225 255
202 225 255
202 225 255
202 225 255
201 225 255
201 225 255
201 225 255
201 225 255
201 224 255
201 224 255
201 224 255
201 224 255
201 224 255
201 224 255
201 224 255
201 224 255
201 224 255
201 224 255
201 224 255
200 224 255
200 224 255
200 224 255
200 224 255
200 224 255
200 224 255
200 224 255
200 224 255
200 224 255
200 224 255
200 224 255
200 224 255
200 224 255
200 224 255
200 224 255
200 224 255
199 224 255
199 224 255
199 223 255
199 223 255
199 223 255
199 223 255
199 223 255
199 223 255
199 223 255
199 223 255
199 223 255
199 223 255
199 223 255
199 223 255
199 223 255
199 223 255
199 223 255
199 223 255
198 223 255
198 223 255
198 223 255
198 223 255
198 223 255
198 223 255
198 223 255
198 223 255
198 223 255
198 223 255
198 223 255
198 223 255
198 223 255
198 223 255
198 223 255
198 223 255
198 223 255
198 223 255
198 223 255
198 223 255
198 223 255
198 223 255
198 223 255
198 223 255
198 223 255
198 223 255
198 223 255
198 223 255
197 223 255
197 223 255
197 222 255
197 222 255
197 222 255
197 222 255
197 222 255
197 222 255
197 222 255
197 222 255
197 222 255
197 222 255
197 222 255
197 222 255
197 222 255
197 222 255
197 222 255
197 222 255
197 222 255
197 222 255
197 222 255
197 222 255
197 222 255
197 222 255
197 222 255
197 222 255
197 222 255
197 222 255
197 222 255
197 222 255
197 222 255
197 222 255
197 222 255
197 223 255
198 223 255
198 223 255
198 223 255
198 223 255
198 223 255
198 223 255
198 223 255
198 223 255
198 223 255
198 223 255
198 223 255
198 223 255
198 223 255
198 223 255
198 223 255
198 223 255
198 223 255
198 223 255
198 223 255
198 223 255
198 223 255
198 223 255
198 223 255
198 223 255
198 223 255
198 223 255
198 223 255
198 223 255
199 223 255
199 223 255
199 223 255
199 223 255
199 223 255
199 223 255
199 223 255
199 223 255
199 223 255
199 223 255
199 223 255
199 223 255
199 223 255
199 223 255
199 223 255
199 223 255
199 224 255
199 224 255
199 224 255
200 224 255
200 224 255
200 224 255
200 224 255
200 224 255
200 224 255
200 224 255
200 224 255
200 224 255
200 224 255
200 224 255
200 224 255
200 224 255
200 224 255
200 224 255
201 224 255
201 224 255
201 224 255
201 224 255
201 224 255
201 224 255
201 224 255
201 224 255
201 224 255
201 224 255
201 224 255
201 225 255
201 225 255
201 225 255
201 225 255
201 225 255
202 225 255
202 225 255
202 225 255
202 225 255
202 225 255
202 225 255
202 225 255
202 225 255
202 225 255
202 225 255
202 225 255
202 225 255
202 225 255
202 225 255
203 225 255
203 225 255
203 225 255
203 225 255
203 225 255
203 225 255
203 225 255
203 225 255
203 225 255
203 226 255
203 226 255
203 226 255
203 226 255
203 226 255
203 226 255
203 226 255
204 226 255
204 226 255
204 226 255
204 226 255
204 226 255
204 226 255
204 226 255
204 226 255
204 226 255
204 226 255
204 226 255
204 226 255
204 226 255
204 226 255
204 226 255
204 226 255
205 226 255
205 226 255
205 226 255
205 226 255
205 226 255
205 226 255
205 227 255
205 227 255
205 227 255
205 227 255
205 227 255
205 227 255
205 227 255
205 227 255
205 227 255
205 227 255
206 227 255
206 227 255
206 227 255
206 227 255
206 227 255
206 227 255
206 227 255
206 227 255
206 227 255
206 227 255
206 227 255
206 227 255
206 227 255
206 227 255
206 227 255
206 227 255
206 227 255
206 227 255
206 227 255
207 227 255
207 227 255
207 227 255
207 227 255
207 227 255
207 228 255
207 228 255
207 228 255
207 228 255
207 228 255
207 228 255
207 228 255
207 228 255
207 228 255
207 228 255
207 228 255
207 228 255
207 228 255
207 228 255
207 228 255
208 228 255
208 228 255
208 228 255
208 228 255
208 228 255
208 228 255
208 228 255
208 228 255
208 228 255
208 228 255
208 228 255
207 228 255
207 228 255
207 228 255
207 228 255
207 228 255
207 228 255
207 228 255
207 228 255
207 228 255
207 228 255
207 228 255
207 228 255
207 228 255
207 228 255
207 228 255
207 227 255
207 227 255
207 227 255
207 227 255
207 227 255
206 227 255
206 227 255
206 227 255
206 227 255
206 227 255
206 227 255
206 227 255
206 227 255
206 227 255
206 227 255
206 227 255
206 227 255
206 227 255
206 227 255
206 227 255
206 227 255
206 227 255
206 227 255
205 227 255
205 227 255
205 227 255
205 227 255
205 227 255
205 227 255
205 227 255
205 227 255
205 227 255
205 227 255
205 227 255
205 226 255
205 226 255
205 226 255
205 226 255
205 226 255
205 226 255
204 226 255
204 226 255
204 226 255
204 226 255
204 226 255
204 226 255
204 226 255
204 226 255
204 226 255
204 226 255
204 226 255
204 226 255
204 226 255
204 226 255
204 226 255
204 226 255
203 226 255
203 226 255
203 226 255
203 226 255
203 226 255
203 226 255
203 226 255
203 225 255
203 225 255
203 225 255
203 225 255
203 225 255
203 225 255
203 225 255
203 225 255
202 225 255
202 225 255
202 225 255
202 225 255
202 225 255
202 225 255
202 225 255
202 225 255
202 225 255
202 225 255
202 225 255
202 225 255
202 225 255
202 225 255
202 225 255
201 225 255
201 225 255
201 225 255
201 225 255
201 225 255
201 224 255
201 224 255
201 224 255
201 224 255
201 224 255
201 224 255
201 224 255
201 224 255
201 224 255
201 224 255
200 224 255
200 224 255
200 224 255
200 224 255
200 224 255
200 224 255
200 224 255
200 224 255
200 224 255
200 224 255
200 224 255
200 224 255
200 224 255
200 224 255
200 224 255
200 224 255
199 224 255
199 224 255
199 224 255
199 223 255
199 223 255
199 223 255
199 223 255
199 223 255
199 223 255
199 223 255
199 223 255
199 223 255
199 223 255
199 223 255
199 223 255
199 223 255
199 223 255
199 223 255
199 223 255
199 223 255
198 223 255
198 223 255
198 223 255
198 223 255
198 223 255
198 223 255
198 223 255
198 223 255
198 223 255
198 223 255
198 223 255
198 223 255
198 223 255
198 223 255
198 223 255
198 223 255
198 223 255
198 223 255
198 223 255
198 223 255
198 223 255
198 223 255
198 223 255
198 223 255
198 223 255
198 223 255
198 223 255
198 223 255
198 223 255
198 223 255
198 223 255
198 223 255
198 223 255
198 223 255
198 223 255
198 223 255
198 223 255
197 223 255
197 223 255
197 223 255
197 223 255
197 223 255
197 223 255
197 223 255
197 223 255
197 223 255
198 223 255
198 223 255
198 223 255
198 223 255
198 223 255
198 223 255
198 223 255
198 223 255
198 223 255
198 223 255
198 223 255
198 223 255
198 223 255
198 223 255
198 223 255
198 223 255
198 223 255
198 223 255
198 223 255
198 223 255
198 223 255
198 223 255
198 223 255
198 223 255
198 223 255
198 223 255
198 223 255
198 223 255
198 223 255
198 223 255
198 223 255
198 223 255
198 223 255
198 223 255
198 223 255
198 223 255
199 223 255
199 223 255
199 223 255
199 223 255
199 223 255
199 223 255
199 223 255
199 223 255
199 223 255
199 223 255
199 223 255
199 223 255
199 223 255
199 223 255
199 223 255
199 223 255
199 223 255
199 224 255
199 224 255
200 224 255
200 224 255
200 224 255
200 224 255
200 224 255
200 224 255
200 224 255
200 224 255
200 224 255
200 224 255
200 224 255
200 224 255
200 224 255
200 224 255
200 224 255
200 224 255
200 224 255
201 224 255
201 224 255
201 224 255
201 224 255
201 224 255
201 224 255
201 224 255
201 224 255
201 224 255
201 224 255
201 225 255
201 225 255
201 225 255
201 225 255
201 225 255
202 225 255
202 225 255
202 225 255
202 225 255
202 225 255
202 225 255
202 225 255
202 225 255
202 225 255
202 225 255
202 225 255
202 225 255
202 225 255
202 225 255
202 225 255
203 225 255
203 225 255
203 225 255
203 225 255
203 225 255
203 225 255
203 225 255
203 225 255
203 226 255
203 226 255
203 226 255
203 226 255
203 226 255
203 226 255
203 226 255
204 226 255
204 226 255
204 226 255
204 226 255
204 226 255
204 226 255
204 226 255
204 226 255
204 226 255
204 226 255
204 226 255
204 226 255
204 226 255
204 226 255
204 226 255
204 226 255
205 226 255
205 226 255
205 226 255
205 226 255
205 226 255
205 226 255
205 226 255
205 227 255
205 227 255
205 227 255
205 227 255
205 227 255
205 227 255
205 227 255
205 227 255
205 227 255
205 227 255
206 227 255
206 227 255
206 227 255
206 227 255
206 227 255
206 227 255
206 227 255
206 227 255
206 227 255
206 227 255
206 227 255
206 227 255
206 227 255
206 227 255
206 227 255
206 227 255
206 227 255
206 227 255
207 227 255
207 227 255
207 227 255
207 227 255
207 228 255
207 228 255
207 228 255
207 228 255
207 228 255
207 228 255
207 228 255
207 228 255
207 228 255
207 228 255
207 228 255
207 228 255
207 228 255
207 228 255
207 228 255
207 228 255
208 228 255
208 228 255
208 228 255
208 228 255
208 228 255
208 228 255
208 228 255
208 228 255
208 228 255
208 228 255
208 228 255
208 228 255
208 228 255
208 228 255
208 228 255
208 228 255
208 228 255
207 228 255
207 228 255
207 228 255
207 228 255
207 228 255
207 228 255
207 228 255
207 228 255
207 228 255
207 228 255
207 228 255
207 228 255
207 228 255
207 228 255
207 228 255
207 227 255
207 227 255
207 227 255
207 227 255
207 227 255
206 227 255
206 227 255
206 227 255
206 227 255
206 227 255
206 227 255
206 227 255
206 227 255
206 227 255
206 227 255
206 227 255
206 227 255
206 227 255
206 227 255
206 227 255
206 227 255
206 227 255
206 227 255
205 227 255
205 227 255
205 227 255
205 227 255
205 227 255
205 227 255
205 227 255
205 227 255
205 227 255
205 227 255
205 226 255
205 226 255
205 226 255
205 226 255
205 226 255
205 226 255
205 226 255
204 226 255
204 226 255
204 226 255
204 226 255
204 226 255
204 226 255
204 226 255
204 226 255
204 226 255
204 226 255
204 226 255
204 226 255
204 226 255
204 226 255
204 226 255
204 226 255
203 226 255
203 226 255
203 226 255
203 226 255
203 226 255
203 226 255
203 225 255
203 225 255
203 225 255
203 225 255
203 225 255
203 225 255
203 225 255
203 225 255
203 225 255
202 225 255
202 225 255
202 225 255
202 225 255
202 225 255
202 225 255
202 225 255
202 225 255
202 225 255
202 225 255
202 225 255
202 225 255
202 225 255
202 225 255
202 225 255
201 225 255
201 225 255
201 225 255
201 225 255
201 224 255
201 224 255
201 224 255
201 224 255
201 224 255
201 224 255
201 224 255
201 224 255
201 224 255
201 224 255
201 224 255
200 224 255
200 224 255
200 224 255
200 224 255
200 224 255
200 224 255
200 224 255
200 224 255
200 224 255
200 224 255
200 224 255
200 224 255
200 224 255
200 224 255
200 224 255
200 224 255
200 224 255
199 224 255
199 224 255
199 224 255
199 223 255
199 223 255
199 223 255
199 223 255
199 223 255
199 223 255
199 223 255
199 223 255
199 223 255
199 223 255
199 223 255
199 223 255
199 223 255
199 223 255
199 223 255
199 223 255
199 223 255
198 223 255
198 223 255
198 223 255
198 223 255
198 223 255
198 223 255
198 223 255
198 223 255
198 223 255
198 223 255
198 223 255
198 223 255
198 223 255
198 223 255
198 223 255
198 223 255
198 223 255
198 223 255
198 223 255
198 223 255
198 223 255
198 223 255
198 223 255
198 223 255
198 223 255
198 223 255
198 223 255
198 223 255
198 223 255
198 223 255
198 223 255
198 223 255
198 223 255
198 223 255
198 223 255
198 223 255
198 223 255
198 223 255
198 223 255
198 223 255
198 223 255
198 223 255
198 223 255
198 223 255
198 223 255
198 223 255
198 223 255
198 223 255
198 223 255
198 223 255
198 223 255
198 223 255
198 223 255
198 223 255
198 223 255
198 223 255
198 223 255
198 223 255
198 223 255
198 223 255
198 223 255
198 223 255
198 223 255
198 223 255
198 223 255
198 223 255
198 223 255
198 223 255
198 223 255
198 223 255
198 223 255
198 223 255
198 223 255
198 223 255
199 223 255
199 223 255
199 223 255
199 223 255
199 223 255
199 223 255
199 223 255
199 223 255
199 223 255
199 223 255
199 223 255
199 223 255
199 223 255
199 223 255
199 223 255
199 223 255
199 223 255
199 224 255
199 224 255
199 224 255
200 224 255
200 224 255
200 224 255
200 224 255
200 224 255
200 224 255
200 224 255
200 224 255
200 224 255
200 224 255
200 224 255
200 224 255
200 224 255
200 224 255
200 224 255
200 224 255
200 224 255
201 224 255
201 224 255
201 224 255
201 224 255
201 224 255
201 224 255
201 224 255
201 224 255
201 224 255
201 224 255
201 224 255
201 225 255
201 225 255
201 225 255
201 225 255
202 225 255
202 225 255
202 225 255
202 225 255
202 225 255
202 225 255
202 225 255
202 225 255
202 225 255
202 225 255
202 225 255
202 225 255
202 225 255
202 225 255
202 225 255
203 225 255
203 225 255
203 225 255
203 225 255
203 225 255
203 225 255
203 225 255
203 225 255
203 225 255
203 226 255
203 226 255
203 226 255
203 226 255
203 226 255
203 226 255
203 226 255
204 226 255
204 226 255
204 226 255
204 226 255
204 226 255
204 226 255
204 226 255
204 226 255
204 226 255
204 226 255
204 226 255
204 226 255
204 226 255
204 226 255
204 226 255
205 226 255
205 226 255
205 226 255
205 226 255
205 226 255
205 226 255
205 226 255
205 227 255
205 227 255
205 227 255
205 227 255
205 227 255
205 227 255
205 227 255
205 227 255
205 227 255
205 227 255
206 227 255
206 227 255
206 227 255
206 227 255
206 227 255
206 227 255
206 227 255
206 227 255
206 227 255
206 227 255
206 227 255
206 227 255
206 227 255
206 227 255
206 227 255
206 227 255
206 227 255
206 227 255
207 227 255
207 227 255
207 227 255
207 227 255
207 227 255
207 228 255
207 228 255
207 228 255
207 228 255
207 228 255
207 228 255
207 228 255
207 228 255
207 228 255
207 228 255
207 228 255
207 228 255
207 228 255
207 228 255
207 228 255
208 228 255
208 228 255
208 228 255
208 228 255
208 228 255
208 228 255
208 228 255
208 228 255
208 228 255
208 228 255
208 228 255
208 228 255
208 228 255
208 228 255
208 228 255
208 228 255
208 228 255
208 228 255
208 228 255
208 228 255
208 228 255
208 228 255
208 228 255
207 228 255
207 228 255
207 228 255
207 228 255
207 228 255
207 228 255
207 228 255
207 228 255
207 228 255
207 228 255
207 228 255
207 228 255
207 228 255
207 228 255
207 228 255
207 227 255
207 227 255
207 227 255
207 227 255
207 227 255
206 227 255
206 227 255
206 227 255
206 227 255
206 227 255
206 227 255
206 227 255
206 227 255
206 227 255
206 227 255
206 227 255
206 227 255
206 227 255
206 227 255
206 227 255
206 227 255
206 227 255
206 227 255
205 227 255
205 227 255
205 227 255
205 227 255
205 227 255
205 227 255
205 227 255
205 227 255
205 227 255
205 227 255
205 226 255
205 226 255
205 226 255
205 226 255
205 226 255
205 226 255
204 226 255
204 226 255
204 226 255
204 226 255
204 226 255
204 226 255
204 226 255
204 226 255
204 226 255
204 226 255
204 226 255
204 226 255
204 226 255
204 226 255
204 226 255
204 226 255
203 226 255
203 226 255
203 226 255
203 226 255
203 226 255
203 226 255
203 226 255
203 225 255
203 225 255
203 225 255
203 225 255
203 225 255
203 225 255
203 225 255
203 225 255
202 225 255
202 225 255
202 225 255
202 225 255
202 225 255
202 225 255
202 225 255
202 225 255
202 225 255
202 225 255
202 225 255
202 225 255
202 225 255
202 225 255
202 225 255
202 225 255
201 225 255
201 225 255
201 225 255
201 225 255
201 224 255
201 224 255
201 224 255
201 224 255
201 224 255
201 224 255
201 224 255
201 224 255
201 224 255
201 224 255
201 224 255
200 224 255
200 224 255
200 224 255
200 224 255
200 224 255
200 224 255
200 224 255
200 224 255
200 224 255
200 224 255
200 224 255
200 224 255
200 224 255
200 224 255
200 224 255
200 224 255
200 224 255
199 224 255
199 224 255
199 224 255
199 223 255
199 223 255
199 223 255
199 223 255
199 223 255
199 223 255
199 223 255
199 223 255
199 223 255
199 223 255
199 223 255
199 223 255
199 223 255
199 223 255
199 223 255
199 223 255
199 223 255
199 223 255
198 223 255
198 223 255
198 223 255
198 223 255
198 223 255
198 223 255
198 223 255
198 223 255
198 223 255
198 223 255
198 223 255
198 223 255
198 223 255
198 223 255
198 223 255
198 223 255
198 223 255
198 223 255
198 223 255
198 223 255
198 223 255
198 223 255
198 223 255
198 223 255
198 223 255
198 223 255
198 223 255
198 223 255
198 223 255
198 223 255
198 223 255
198 223 255
198 223 255
198 223 255
198 223 255
198 223 255
198 223 255
198 223 255
198 223 255
198 223 255
198 223 255
198 223 255
198 223 255
198 223 255
198 223 255
198 223 255
198 223 255
198 223 255
198 223 255
198 223 255
198 223 255
198 223 255
198 223 255
198 223 255
198 223 255
198 223 255
198 223 255
198 223 255
198 223 255
198 223 255
198 223 255
198 223 255
198 223 255
198 223 255
198 223 255
199 223 255
199 223 255
199 223 255
199 223 255
199 223 255
199 223 255
199 223 255
199 223 255
199 223 255
199 223 255
199 223 255
199 223 255
199 223 255
199 223 255
199 223 255
199 223 255
199 223 255
199 223 255
199 223 255
199 224 255
199 224 255
199 224 255
200 224 255
200 224 255
200 224 255
200 224 255
200 224 255
200 224 255
200 224 255
200 224 255
200 224 255
200 224 255
200 224 255
200 224 255
200 224 255
200 224 255
200 224 255
200 224 255
200 224 255
201 224 255
201 224 255
201 224 255
201 224 255
201 224 255
201 224 255
201 224 255
201 224 255
201 224 255
201 224 255
201 224 255
201 225 255
201 225 255
201 225 255
201 225 255
202 225 255
202 225 255
202 225 255
202 225 255
202 225 255
202 225 255
202 225 255
202 225 255
202 225 255
202 225 255
202 225 255
202 225 255
202 225 255
202 225 255
202 225 255
203 225 255
203 225 255
203 225 255
203 225 255
203 225 255
203 225 255
203 225 255
203 225 255
203 225 255
203 226 255
203 226 255
203 226 255
203 226 255
203 226 255
203 226 255
203 226 255
204 226 255
204 226 255
204 226 255
204 226 255
204 226 255
204 226 255
204 226 255
204 226 255
204 226 255
204 226 255
204 226 255
204 226 255
204 226 255
204 226 255
204 226 255
204 226 255
205 226 255
205 226 255
205 226 255
205 226 255
205 226 255
205 226 255
205 227 255
205 227 255
205 227 255
205 227 255
205 227 255
205 227 255
205 227 255
205 227 255
205 227 255
205 227 255
206 227 255
206 227 255
206 227 255
206 227 255
206 227 255
206 227 255
206 227 255
206 227 255
206 227 255
206 227 255
206 227 255
206 227 255
206 227 255
206 227 255
206 227 255
206 227 255
206 227 255
206 227 255
207 227 255
207 227 255
207 227 255
207 227 255
207 227 255
207 228 255
207 228 255
207 228 255
207 228 255
207 228 255
207 228 255
207 228 255
207 228 255
207 228 255
207 228 255
207 228 255
207 228 255
207 228 255
207 228 255
207 228 255
208 228 255
208 228 255
208 228 255
208 228 255
208 228 255
208 228 255
208 228 255
208 228 255
208 228 255
208 228 255
208 228 255
208 228 255
208 228 255
208 228 255
208 228 255
208 228 255
208 228 255
208 228 255
208 228 255
208 228 255
208 228 255
208 228 255
208 228 255
208 228 255
208 228 255
208 228 255
208 228 255
208 228 255
208 228 255
207 228 255
207 228 255
207 228 255
207 228 255
207 228 255
207 228 255
207 228 255
207 228 255
207 228 255
207 228 255
207 228 255
207 228 255
207 228 255
207 228 255
207 228 255
207 227 255
207 227 255
207 227 255
207 227 255
207 227 255
206 227 255
206 227 255
206 227 255
206 227 255
206 227 255
206 227 255
206 227 255
206 227 255
206 227 255
206 227 255
206 227 255
206 227 255
206 227 255
206 227 255
206 227 255
206 227 255
206 227 255
205 227 255
205 227 255
205 227 255
205 227 255
205 227 255
205 227 255
205 227 255
205 227 255
205 227 255
205 227 255
205 227 255
205 226 255
205 226 255
205 226 255
205 226 255
205 226 255
205 226 255
204 226 255
204 226 255
204 226 255
204 226 255
204 226 255
204 226 255
204 226 255
204 226 255
204 226 255
204 226 255
204 226 255
204 226 255
204 226 255
204 226 255
204 226 255
204 226 255
203 226 255
203 226 255
203 226 255
203 226 255
203 226 255
203 226 255
203 226 255
203 225 255
203 225 255
203 225 255
203 225 255
203 225 255
203 225 255
203 225 255
203 225 255
202 225 255
202 225 255
202 225 255
202 225 255
202 225 255
202 225 255
202 225 255
202 225 255
202 225 255
202 225 255
202 225 255
202 225 255
202 225 255
202 225 255
202 225 255
202 225 255
201 225 255
201 225 255
201 225 255
201 225 255
201 224 255
201 224 255
201 224 255
201 224 255
201 224 255
201 224 255
201 224 255
201 224 255
201 224 255
201 224 255
201 224 255
200 224 255
200 224 255
200 224 255
200 224 255
200 224 255
200 224 255
200 224 255
200 224 255
200 224 255
200 224 255
200 224 255
200 224 255
200 224 255
200 224 255
200 224 255
200 224 255
200 224 255
200 224 255
199 224 255
199 224 255
199 224 255
199 223 255
199 223 255
199 223 255
199 223 255
199 223 255
199 223 255
199 223 255
199 223 255
199 223 255
199 223 255
199 223 255
199 223 255
199 223 255
199 223 255
199 223 255
199 223 255
199 223 255
199 223 255
199 223 255
199 223 255
198 223 255
198 223 255
198 223 255
198 223 255
198 223 255
198 223 255
198 223 255
198 223 255
198 223 255
198 223 255
198 223 255
198 223 255
198 223 255
198 223 255
198 223 255
198 223 255
198 223 255
198 223 255
198 223 255
198 223 255
198 223 255
198 223 255
198 223 255
198 223 255
198 223 255
198 223 255
198 223 255
198 223 255
198 223 255
198 223 255
198 223 255
198 223 255
198 223 255
198 223 255
198 223 255
198 223 255
198 223 255
198 223 255
198 223 255
198 223 255
198 223 255
198 223 255
198 223 255
198 223 255
198 223 255
198 223 255
198 223 255
198 223 255
198 223 255
198 223 255
198 223 255
198 223 255
198 223 255
198 223 255
199 223 255
199 223 255
199 223 255
199 223 255
199 223 255
199 223 255
199 223 255
199 223 255
199 223 255
199 223 255
199 223 255
199 223 255
199 223 255
199 223 255
199 223 255
199 223 255
199 223 255
199 223 255
199 223 255
199 223 255
199 224 255
199 224 255
199 224 255
200 224 255
200 224 255
200 224 255
200 224 255
200 224 255
200 224 255
200 224 255
200 224 255
200 224 255
200 224 255
200 224 255
200 224 255
200 224 255
200 224 255
200 224 255
200 224 255
200 224 255
200 224 255
201 224 255
201 224 255
201 224 255
201 224 255
201 224 255
201 224 255
201 224 255
201 224 255
201 224 255
201 224 255
201 224 255
201 225 255
201 225 255
201 225 255
201 225 255
201 225 255
202 225 255
202 225 255
202 225 255
202 225 255
202 225 255
202 225 255
202 225 255
202 225 255
202 225 255
202 225 255
202 225 255
202 225 255
202 225 255
202 225 255
202 225 255
203 225 255
203 225 255
203 225 255
203 225 255
203 225 255
203 225 255
203 225 255
203 225 255
203 226 255
203 226 255
203 226 255
203 226 255
203 226 255
203 226 255
203 226 255
204 226 255
204 226 255
204 226 255
204 226 255
204 226 255
204 226 255
204 226 255
204 226 255
204 226 255
204 226 255
204 226 255
204 226 255
204 226 255
204 226 255
204 226 255
204 226 255
205 226 255
205 226 255
205 226 255
205 226 255
205 226 255
205 226 255
205 227 255
205 227 255
205 227 255
205 227 255
205 227 255
205 227 255
205 227 255
205 227 255
205 227 255
205 227 255
205 227 255
206 227 255
206 227 255
206 227 255
206 227 255
206 227 255
206 227 255
206 227 255
206 227 255
206 227 255
206 227 255
206 227 255
206 227 255
206 227 255
206 227 255
206 227 255
206 227 255
206 227 255
207 227 255
207 227 255
207 227 255
207 227 255
207 227 255
207 228 255
207 228 255
207 228 255
207 228 255
207 228 255
207 228 255
207 228 255
207 228 255
207 228 255
207 228 255
207 228 255
207 228 255
207 228 255
207 228 255
207 228 255
208 228 255
208 228 255
208 228 255
208 228 255
208 228 255
208 228 255
208 228 255
208 228 255
208 228 255
208 228 255
208 228 255
208 228 255
208 228 255
208 228 255
208 228 255
208 228 255
208 228 255
208 228 255
208 228 255
208 228 255
208 228 255
208 228 255
208 228 255
208 228 255
208 228 255
208 228 255
208 228 255
208 228 255
208 228 255
208 228 255
208 228 255
208 228 255
208 228 255
208 228 255
208 228 255
207 228 255
207 228 255
207 228 255
207 228 255
207 228 255
207 228 255
207 228 255
207 228 255
207 228 255
207 228 255
207 228 255
207 228 255
207 228 255
207 228 255
207 228 255
207 227 255
207 227 255
207 227 255
207 227 255
207 227 255
206 227 255
206 227 255
206 227 255
206 227 255
206 227 255
206 227 255
206 227 255
206 227 255
206 227 255
206 227 255
206 227 255
206 227 255
206 227 255
206 227 255
206 227 255
206 227 255
206 227 255
205 227 255
205 227 255
205 227 255
205 227 255
205 227 255
205 227 255
205 227 255
205 227 255
205 227 255
205 227 255
205 226 255
205 226 255
205 226 255
205 226 255
205 226 255
205 226 255
205 226 255
204 226 255
204 226 255
204 226 255
204 226 255
204 226 255
204 226 255
204 226 255
204 226 255
204 226 255
204 226 255
204 226 255
204 226 255
204 226 255
204 226 255
204 226 255
204 226 255
203 226 255
203 226 255
203 226 255
203 226 255
203 226 255
203 226 255
203 225 255
203 225 255
203 225 255
203 225 255
203 225 255
203 225 255
203 225 255
203 225 255
203 225 255
202 225 255
202 225 255
202 225 255
202 225 255
202 225 255
202 225 255
202 225 255
202 225 255
202 225 255
202 225 255
202 225 255
202 225 255
202 225 255
202 225 255
202 225 255
201 225 255
201 225 255
201 225 255
201 225 255
201 225 255
201 224 255
201 224 255
201 224 255
201 224 255
201 224 255
201 224 255
201 224 255
201 224 255
201 224 255
201 224 255
201 224 255
200 224 255
200 224 255
200 224 255
200 224 255
200 224 255
200 224 255
200 224 255
200 224 255
200 224 255
200 224 255
200 224 255
200 224 255
200 224 255
200 224 255
200 224 255
200 224 255
200 224 255
200 224 255
200 224 255
199 224 255
199 224 255
199 224 255
199 223 255
199 223 255
199 223 255
199 223 255
199 223 255
199 223 255
199 223 255
199 223 255
199 223 255
199 223 255
199 223 255
199 223 255
199 223 255
199 223 255
199 223 255
199 223 255
199 223 255
199 223 255
199 223 255
199 223 255
199 223 255
199 223 255
199 223 255
198 223 255
198 223 255
198 223 255
198 223 255
198 223 255
198 223 255
198 223 255
198 223 255
198 223 255
198 223 255
198 223 255
198 223 255
198 223 255
198 223 255
198 223 255
198 223 255
198 223 255
198 223 255
198 223 255
198 223 255
198 223 255
198 223 255
198 223 255
198 223 255
198 223 255
198 223 255
198 223 255
198 223 255
198 223 255
198 223 255
198 223 255
198 223 255
198 223 255
198 223 255
198 223 255
198 223 255
198 223 255
198 223 255
198 223 255
198 223 255
199 223 255
199 223 255
199 223 255
199 223 255
199 223 255
199 223 255
199 223 255
199 223 255
199 223 255
199 223 255
199 223 255
199 223 255
199 223 255
199 223 255
199 223 255
199 223 255
199 223 255
199 223 255
199 223 255
199 223 255
199 223 255
199 223 255
199 223 255
199 224 255
199 224 255
199 224 255
200 224 255
200 224 255
200 224 255
200 224 255
200 224 255
200 224 255
200 224 255
200 224 255
200 224 255
200 224 255
200 224 255
200 224 255
200 224 255
200 224 255
200 224 255
200 224 255
200 224 255
200 224 255
200 224 255
201 224 255
201 224 255
201 224 255
201 224 255
201 224 255
201 224 255
201 224 255
201 224 255
201 224 255
201 224 255
201 224 255
201 225 255
201 225 255
201 225 255
201 225 255
201 225 255
202 225 255
202 225 255
202 225 255
202 225 255
202 225 255
202 225 255
202 225 255
202 225 255
202 225 255
202 225 255
202 225 255
202 225 255
202 225 255
202 225 255
202 225 255
203 225 255
203 225 255
203 225 255
203 225 255
203 225 255
203 225 255
203 225 255
203 225 255
203 225 255
203 226 255
203 226 255
203 226 255
203 226 255
203 226 255
203 226 255
204 226 255
204 226 255
204 226 255
204 226 255
204 226 255
204 226 255
204 226 255
204 226 255
204 226 255
204 226 255
204 226 255
204 226 255
204 226 255
204 226 255
204 226 255
204 226 255
205 226 255
205 226 255
205 226 255
205 226 255
205 226 255
205 226 255
205 226 255
205 227 255
205 227 255
205 227 255
205 227 255
205 227 255
205 227 255
205 227 255
205 227 255
205 227 255
205 227 255
206 227 255
206 227 255
206 227 255
206 227 255
206 227 255
206 227 255
206 227 255
206 227 255
206 227 255
206 227 255
206 227 255
206 227 255
206 227 255
206 227 255
206 227 255
206 227 255
206 227 255
207 227 255
207 227 255
207 227 255
207 227 255
207 227 255
207 228 255
207 228 255
207 228 255
207 228 255
207 228 255
207 228 255
207 228 255
207 228 255
207 228 255
207 228 255
207 228 255
207 228 255
207 228 255
207 228 255
207 228 255
208 228 255
208 228 255
208 228 255
208 228 255
208 228 255
208 228 255
208 228 255
208 228 255
208 228 255
208 228 255
208 228 255
208 228 255
208 228 255
208 228 255
208 228 255
208 228 255
208 228 255
208 228 255
208 228 255
209 228 255
208 228 255
208 228 255
208 228 255
208 228 255
208 228 255
208 228 255
208 228 255
208 228 255
208 228 255
208 228 255
208 228 255
208 228 255
208 228 255
208 228 255
208 228 255
208 228 255
208 228 255
208 228 255
208 228 255
208 228 255
208 228 255
207 228 255
207 228 255
207 228 255
207 228 255
207 228 255
207 228 255
207 228 255
207 228 255
207 228 255
207 228 255
207 228 255
207 228 255
207 228 255
207 228 255
207 228 255
207 227 255
207 227 255
207 227 255
207 227 255
206 227 255
206 227 255
206 227 255
206 227 255
206 227 255
206 227 255
206 227 255
206 227 255
206 227 255
206 227 255
206 227 255
206 227 255
206 227 255
206 227 255
206 227 255
206 227 255
206 227 255
206 227 255
205 227 255
205 227 255
205 227 255
205 227 255
205 227 255
205 227 255
205 227 255
205 227 255
205 227 255
205 227 255
205 226 255
205 226 255
205 226 255
205 226 255
205 226 255
205 226 255
205 226 255
204 226 255
204 226 255
204 226 255
204 226 255
204 226 255
204 226 255
204 226 255
204 226 255
204 226 255
204 226 255
204 226 255
204 226 255
204 226 255
204 226 255
204 226 255
203 226 255
203 226 255
203 226 255
203 226 255
203 226 255
203 226 255
203 226 255
203 225 255
203 225 255
203 225 255
203 225 255
203 225 255
203 225 255
203 225 255
203 225 255
203 225 255
202 225 255
202 225 255
202 225 255
202 225 255
202 225 255
202 225 255
202 225 255
202 225 255
202 225 255
202 225 255
202 225 255
202 225 255
202 225 255
202 225 255
202 225 255
201 225 255
201 225 255
201 225 255
201 225 255
201 225 255
201 224 255
201 224 255
201 224 255
201 224 255
201 224 255
201 224 255
201 224 255
201 224 255
201 224 255
201 224 255
201 224 255
200 224 255
200 224 255
200 224 255
200 224 255
200 224 255
200 224 255
200 224 255
200 224 255
200 224 255
200 224 255
200 224 255
200 224 255
200 224 255
200 224 255
200 224 255
200 224 255
200 224 255
200 224 255
200 224 255
200 224 255
199 224 255
199 224 255
199 224 255
199 223 255
199 223 255
199 223 255
199 223 255
199 223 255
199 223 255
199 223 255
199 223 255
199 223 255
199 223 255
199 223 255
199 223 255
199 223 255
199 223 255
199 223 255
199 223 255
199 223 255
199 223 255
199 223 255
199 223 255
199 223 255
199 223 255
199 223 255
199 223 255
199 223 255
199 223 255
199 223 255
199 223 255
199 223 255
198 223 255
198 223 255
198 223 255
198 223 255
198 223 255
198 223 255
198 223 255
198 223 255
198 223 255
198 223 255
198 223 255
198 223 255
198 223 255
198 223 255
198 223 255
198 223 255
198 223 255
198 223 255
198 223 255
198 223 255
199 223 255
199 223 255
199 223 255
199 223 255
199 223 255
199 223 255
199 223 255
199 223 255
199 223 255
199 223 255
199 223 255
199 223 255
199 223 255
199 223 255
199 223 255
199 223 255
199 223 255
199 223 255
199 223 255
199 223 255
199 223 255
199 223 255
199 223 255
199 223 255
199 223 255
199 223 255
199 223 255
199 223 255
199 223 255
199 224 255
199 224 255
199 224 255
199 224 255
200 224 255
200 224 255
200 224 255
200 224 255
200 224 255
200 224 255
200 224 255
200 224 255
200 224 255
200 224 255
200 224 255
200 224 255
200 224 255
200 224 255
200 224 255
200 224 255
200 224 255
200 224 255
200 224 255
201 224 255
201 224 255
201 224 255
201 224 255
201 224 255
201 224 255
201 224 255
201 224 255
201 224 255
201 224 255
201 224 255
201 225 255
201 225 255
201 225 255
201 225 255
201 225 255
202 225 255
202 225 255
202 225 255
202 225 255
202 225 255
202 225 255
202 225 255
202 225 255
202 225 255
202 225 255
202 225 255
202 225 255
202 225 255
202 225 255
202 225 255
203 225 255
203 225 255
203 225 255
203 225 255
203 225 255
203 225 255
203 225 255
203 225 255
203 225 255
203 226 255
203 226 255
203 226 255
203 226 255
203 226 255
203 226 255
203 226 255
204 226 255
204 226 255
204 226 255
204 226 255
204 226 255
204 226 255
204 226 255
204 226 255
204 226 255
204 226 255
204 226 255
204 226 255
204 226 255
204 226 255
204 226 255
205 226 255
205 226 255
205 226 255
205 226 255
205 226 255
205 226 255
205 226 255
205 227 255
205 227 255
205 227 255
205 227 255
205 227 255
205 227 255
205 227 255
205 227 255
205 227 255
205 227 255
206 227 255
206 227 255
206 227 255
206 227 255
206 227 255
206 227 255
206 227 255
206 227 255
206 227 255
206 227 255
206 227 255
206 227 255
206 227 255
206 227 255
206 227 255
206 227 255
206 227 255
207 227 255
207 227 255
207 227 255
207 227 255
207 227 255
207 228 255
207 228 255
207 228 255
207 228 255
207 228 255
207 228 255
207 228 255
207 228 255
207 228 255
207 228 255
207 228 255
207 228 255
207 228 255
207 228 255
207 228 255
208 228 255
208 228 255
208 228 255
208 228 255
208 228 255
208 228 255
208 228 255
208 228 255
208 228 255
208 228 255
208 228 255
208 228 255
208 228 255
208 228 255
208 228 255
208 228 255
208 228 255
208 228 255
208 228 255
208 228 255
208 228 255
209 228 255
209 229 255
209 229 255
209 229 255
209 228 255
208 228 255
208 228 255
208 228 255
208 228 255
208 228 255
208 228 255
208 228 255
208 228 255
208 228 255
208 228 255
208 228 255
208 228 255
208 228 255
208 228 255
208 228 255
208 228 255
208 228 255
208 228 255
208 228 255
208 228 255
208 228 255
207 228 255
207 228 255
207 228 255
207 228 255
207 228 255
207 228 255
207 228 255
207 228 255
207 228 255
207 228 255
207 228 255
207 228 255
207 228 255
207 228 255
207 228 255
207 227 255
207 227 255
207 227 255
207 227 255
207 227 255
206 227 255
206 227 255
206 227 255
206 227 255
206 227 255
206 227 255
206 227 255
206 227 255
206 227 255
206 227 255
206 227 255
206 227 255
206 227 255
206 227 255
206 227 255
206 227 255
206 227 255
205 227 255
205 227 255
205 227 255
205 227 255
205 227 255
205 227 255
205 227 255
205 227 255
205 227 255
205 227 255
205 226 255
205 226 255
205 226 255
205 226 255
205 226 255
205 226 255
205 226 255
204 226 255
204 226 255
204 226 255
204 226 255
204 226 255
204 226 255
204 226 255
204 226 255
204 226 255
204 226 255
204 226 255
204 226 255
204 226 255
204 226 255
204 226 255
203 226 255
203 226 255
203 226 255
203 226 255
203 226 255
203 226 255
203 226 255
203 225 255
203 225 255
203 225 255
203 225 255
203 225 255
203 225 255
203 225 255
203 225 255
202 225 255
202 225 255
202 225 255
202 225 255
202 225 255
202 225 255
202 225 255
202 225 255
202 225 255
202 225 255
202 225 255
202 225 255
202 225 255
202 225 255
202 225 255
202 225 255
201 225 255
201 225 255
201 225 255
201 225 255
201 225 255
201 224 255
201 224 255
201 224 255
201 224 255
201 224 255
201 224 255
201 224 255
201 224 255
201 224 255
201 224 255
201 224 255
201 224 255
200 224 255
200 224 255
200 224 255
200 224 255
200 224 255
200 224 255
200 224 255
200 224 255
200 224 255
200 224 255
200 224 255
200 224 255
200 224 255
200 224 255
200 224 255
200 224 255
200 224 255
200 224 255
200 224 255
200 224 255
199 224 255
199 224 255
199 224 255
199 224 255
199 223 255
199 223 255
199 223 255
199 223 255
199 223 255
199 223 255
199 223 255
199 223 255
199 223 255
199 223 255
199 223 255
199 223 255
199 223 255
199 223 255
199 223 255
199 223 255
199 223 255
199 223 255
199 223 255
199 223 255
199 223 255
199 223 255
199 223 255
199 223 255
199 223 255
199 223 255
199 223 255
199 223 255
199 223 255
199 223 255
199 223 255
199 223 255
199 223 255
199 223 255
199 223 255
199 223 255
199 223 255
199 223 255
199 223 255
199 223 255
199 223 255
199 223 255
199 223 255
199 223 255
199 223 255
199 223 255
199 223 255
199 223 255
199 223 255
199 223 255
199 223 255
199 223 255
199 223 255
199 223 255
199 223 255
199 223 255
199 223 255
199 223 255
199 223 255
199 223 255
199 223 255
199 223 255
199 223 255
199 223 255
199 223 255
199 223 255
199 223 255
199 223 255
199 224 255
199 224 255
199 224 255
199 224 255
200 224 255
200 224 255
200 224 255
200 224 255
200 224 255
200 224 255
200 224 255
200 224 255
200 224 255
200 224 255
200 224 255
200 224 255
200 224 255
200 224 255
200 224 255
200 224 255
200 224 255
200 224 255
200 224 255
200 224 255
201 224 255
201 224 255
201 224 255
201 224 255
201 224 255
201 224 255
201 224 255
201 224 255
201 224 255
201 224 255
201 224 255
201 224 255
201 225 255
201 225 255
201 225 255
201 225 255
201 225 255
202 225 255
202 225 255
202 225 255
202 225 255
202 225 255
202 225 255
202 225 255
202 225 255
202 225 255
202 225 255
202 225 255
202 225 255
202 225 255
202 225 255
202 225 255
203 225 255
203 225 255
203 225 255
203 225 255
203 225 255
203 225 255
203 225 255
203 225 255
203 225 255
203 226 255
203 226 255
203 226 255
203 226 255
203 226 255
203 226 255
203 226 255
204 226 255
204 226 255
204 226 255
204 226 255
204 226 255
204 226 255
204 226 255
204 226 255
204 226 255
204 226 255
204 226 255
204 226 255
204 226 255
204 226 255
204 226 255
204 226 255
205 226 255
205 226 255
205 226 255
205 226 255
205 226 255
205 226 255
205 227 255
205 227 255
205 227 255
205 227 255
205 227 255
205 227 255
205 227 255
205 227 255
205 227 255
205 227 255
206 227 255
206 227 255
206 227 255
206 227 255
206 227 255
206 227 255
206 227 255
206 227 255
206 227 255
206 227 255
206 227 255
206 227 255
206 227 255
206 227 255
206 227 255
206 227 255
206 227 255
206 227 255
207 227 255
207 227 255
207 227 255
207 227 255
207 228 255
207 228 255
207 228 255
207 228 255
207 228 255
207 228 255
207 228 255
207 228 255
207 228 255
207 228 255
207 228 255
207 228 255
207 228 255
207 228 255
207 228 255
208 228 255
208 228 255
208 228 255
208 228 255
208 228 255
208 228 255
208 228 255
208 228 255
208 228 255
208 228 255
208 228 255
208 228 255
208 228 255
208 228 255
208 228 255
208 228 255
208 228 255
208 228 255
208 228 255
208 228 255
208 228 255
209 228 255
209 229 255
209 229 255
209 229 255
209 229 255
209 229 255
209 229 255
209 229 255
209 229 255
209 229 255
209 228 255
209 228 255
208 228 255
208 228 255
208 228 255
208 228 255
208 228 255
208 228 255
208 228 255
208 228 255
208 228 255
208 228 255
208 228 255
208 228 255
208 228 255
208 228 255
208 228 255
208 228 255
208 228 255
208 228 255
208 228 255
208 228 255
208 228 255
207 228 255
207 228 255
207 228 255
207 228 255
207 228 255
207 228 255
207 228 255
207 228 255
207 228 255
207 228 255
207 228 255
207 228 255
207 228 255
207 228 255
207 227 255
207 227 255
207 227 255
207 227 255
206 227 255
206 227 255
206 227 255
206 227 255
206 227 255
206 227 255
206 227 255
206 227 255
206 227 255
206 227 255
206 227 255
206 227 255
206 227 255
206 227 255
206 227 255
206 227 255
206 227 255
206 227 255
205 227 255
205 227 255
205 227 255
205 227 255
205 227 255
205 227 255
205 227 255
205 227 255
205 227 255
205 227 255
205 226 255
205 226 255
205 226 255
205 226 255
205 226 255
205 226 255
204 226 255
204 226 255
204 226 255
204 226 255
204 226 255
204 226 255
204 226 255
204 226 255
204 226 255
204 226 255
204 226 255
204 226 255
204 226 255
204 226 255
204 226 255
204 226 255
203 226 255
203 226 255
203 226 255
203 226 255
203 226 255
203 226 255
203 226 255
203 225 255
203 225 255
203 225 255
203 225 255
203 225 255
203 225 255
203 225 255
203 225 255
203 225 255
202 225 255
202 225 255
202 225 255
202 225 255
202 225 255
202 225 255
202 225 255
202 225 255
202 225 255
202 225 255
202 225 255
202 225 255
202 225 255
202 225 255
202 225 255
201 225 255
201 225 255
201 225 255
201 225 255
201 225 255
201 224 255
201 224 255
201 224 255
201 224 255
201 224 255
201 224 255
201 224 255
201 224 255
201 224 255
201 224 255
201 224 255
201 224 255
200 224 255
200 224 255
200 224 255
200 224 255
200 224 255
200 224 255
200 224 255
200 224 255
200 224 255
200 224 255
200 224 255
200 224 255
200 224 255
200 224 255
200 224 255
200 224 255
200 224 255
200 224 255
200 224 255
200 224 255
200 224 255
200 224 255
199 224 255
199 224 255
199 224 255
199 224 255
199 223 255
199 223 255
199 223 255
199 223 255
199 223 255
199 223 255
199 223 255
199 223 255
199 223 255
199 223 255
199 223 255
199 223 255
199 223 255
199 223 255
199 223 255
199 223 255
199 223 255
199 223 255
199 223 255
199 223 255
199 223 255
199 223 255
199 223 255
199 223 255
199 223 255
199 223 255
199 223 255
199 223 255
199 223 255
199 223 255
199 223 255
199 223 255
199 223 255
199 223 255
199 223 255
199 223 255
199 223 255
199 223 255
199 223 255
199 223 255
199 223 255
199 223 255
199 223 255
199 223 255
199 223 255
199 223 255
199 223 255
199 223 255
199 223 255
199 223 255
199 223 255
199 223 255
199 223 255
199 223 255
199 223 255
199 223 255
199 223 255
199 224 255
199 224 255
199 224 255
199 224 255
199 224 255
200 224 255
200 224 255
200 224 255
200 224 255
200 224 255
200 224 255
200 224 255
200 224 255
200 224 255
200 224 255
200 224 255
200 224 255
200 224 255
200 224 255
200 224 255
200 224 255
200 224 255
200 224 255
200 224 255
200 224 255
200 224 255
200 224 255
201 224 255
201 224 255
201 224 255
201 224 255
201 224 255
201 224 255
201 224 255
201 224 255
201 224 255
201 224 255
201 224 255
201 224 255
201 225 255
201 225 255
201 225 255
201 225 255
201 225 255
202 225 255
202 225 255
202 225 255
202 225 255
202 225 255
202 225 255
202 225 255
202 225 255
202 225 255
202 225 255
202 225 255
202 225 255
202 225 255
202 225 255
202 225 255
203 225 255
203 225 255
203 225 255
203 225 255
203 225 255
203 225 255
203 225 255
203 225 255
203 225 255
203 226 255
203 226 255
203 226 255
203 226 255
203 226 255
203 226 255
203 226 255
204 226 255
204 226 255
204 226 255
204 226 255
204 226 255
204 226 255
204 226 255
204 226 255
204 226 255
204 226 255
204 226 255
204 226 255
204 226 255
204 226 255
204 226 255
204 226 255
205 226 255
205 226 255
205 226 255
205 226 255
205 226 255
205 226 255
205 227 255
205 227 255
205 227 255
205 227 255
205 227 255
205 227 255
205 227 255
205 227 255
205 227 255
205 227 255
206 227 255
206 227 255
206 227 255
206 227 255
206 227 255
206 227 255
206 227 255
206 227 255
206 227 255
206 227 255
206 227 255
206 227 255
206 227 255
206 227 255
206 227 255
206 227 255
206 227 255
206 227 255
207 227 255
207 227 255
207 227 255
207 227 255
207 228 255
207 228 255
207 228 255
207 228 255
207 228 255
207 228 255
207 228 255
207 228 255
207 228 255
207 228 255
207 228 255
207 228 255
207 228 255
207 228 255
207 228 255
208 228 255
208 228 255
208 228 255
208 228 255
208 228 255
208 228 255
208 228 255
208 228 255
208 228 255
208 228 255
208 228 255
208 228 255
208 228 255
208 228 255
208 228 255
208 228 255
208 228 255
208 228 255
208 228 255
208 228 255
209 228 255
209 228 255
209 229 255
209 229 255
209 229 255
209 229 255
209 229 255
209 229 255
209 229 255
209 229 255
209 229 255
209 229 255
209 229 255
209 229 255
209 229 255
209 229 255
209 229 255
209 228 255
209 228 255
208 228 255
208 228 255
208 228 255
208 228 255
208 228 255
208 228 255
208 228 255
208 228 255
208 228 255
208 228 255
208 228 255
208 228 255
208 228 255
208 228 255
208 228 255
208 228 255
208 228 255
208 228 255
208 228 255
208 228 255
208 228 255
207 228 255
207 228 255
207 228 255
207 228 255
207 228 255
207 228 255
207 228 255
207 228 255
207 228 255
207 228 255
207 228 255
207 228 255
207 228 255
207 228 255
207 227 255
207 227 255
207 227 255
207 227 255
206 227 255
206 227 255
206 227 255
206 227 255
206 227 255
206 227 255
206 227 255
206 227 255
206 227 255
206 227 255
206 227 255
206 227 255
206 227 255
206 227 255
206 227 255
206 227 255
206 227 255
206 227 255
205 227 255
205 227 255
205 227 255
205 227 255
205 227 255
205 227 255
205 227 255
205 227 255
205 227 255
205 227 255
205 226 255
205 226 255
205 226 255
205 226 255
205 226 255
205 226 255
204 226 255
204 226 255
204 226 255
204 226 255
204 226 255
204 226 255
204 226 255
204 226 255
204 226 255
204 226 255
204 226 255
204 226 255
204 226 255
204 226 255
204 226 255
204 226 255
203 226 255
203 226 255
203 226 255
203 226 255
203 226 255
203 226 255
203 226 255
203 225 255
203 225 255
203 225 255
203 225 255
203 225 255
203 225 255
203 225 255
203 225 255
203 225 255
202 225 255
202 225 255
202 225 255
202 225 255
202 225 255
202 225 255
202 225 255
202 225 255
202 225 255
202 225 255
202 225 255
202 225 255
202 225 255
202 225 255
202 225 255
202 225 255
201 225 255
201 225 255
201 225 255
201 225 255
201 225 255
201 224 255
201 224 255
201 224 255
201 224 255
201 224 255
201 224 255
201 224 255
201 224 255
201 224 255
201 224 255
201 224 255
201 224 255
200 224 255
200 224 255
200 224 255
200 224 255
200 224 255
200 224 255
200 224 255
200 224 255
200 224 255
200 224 255
200 224 255
200 224 255
200 224 255
200 224 255
200 224 255
200 224 255
200 224 255
200 224 255
200 224 255
200 224 255
200 224 255
200 224 255
200 224 255
199 224 255
199 224 255
199 224 255
199 224 255
199 224 255
199 224 255
199 223 255
199 223 255
199 223 255
199 223 255
199 223 255
199 223 255
199 223 255
199 223 255
199 223 255
199 223 255
199 223 255
199 223 255
199 223 255
199 223 255
199 223 255
199 223 255
199 223 255
199 223 255
199 223 255
199 223 255
199 223 255
199 223 255
199 223 255
199 223 255
199 223 255
199 223 255
199 223 255
199 223 255
199 223 255
199 223 255
199 223 255
199 223 255
199 223 255
199 223 255
199 223 255
199 223 255
199 223 255
199 223 255
199 223 255
199 223 255
199 223 255
199 223 255
199 223 255
199 223 255
199 224 255
199 224 255
199 224 255
199 224 255
199 224 255
199 224 255
200 224 255
200 224 255
200 224 255
200 224 255
200 224 255
200 224 255
200 224 255
200 224 255
200 224 255
200 224 255
200 224 255
200 224 255
200 224 255
200 224 255
200 224 255
200 224 255
200 224 255
200 224 255
200 224 255
200 224 255
200 224 255
200 224 255
200 224 255
201 224 255
201 224 255
201 224 255
201 224 255
201 224 255
201 224 255
201 224 255
201 224 255
201 224 255
201 224 255
201 224 255
201 224 255
201 225 255
201 225 255
201 225 255
201 225 255
201 225 255
202 225 255
202 225 255
202 225 255
202 225 255
202 225 255
202 225 255
202 225 255
202 225 255
202 225 255
202 225 255
202 225 255
202 225 255
202 225 255
202 225 255
202 225 255
202 225 255
203 225 255
203 225 255
203 225 255
203 225 255
203 225 255
203 225 255
203 225 255
203 225 255
203 225 255
203 226 255
203 226 255
203 226 255
203 226 255
203 226 255
203 226 255
203 226 255
204 226 255
204 226 255
204 226 255
204 226 255
204 226 255
204 226 255
204 226 255
204 226 255
204 226 255
204 226 255
204 226 255
204 226 255
204 226 255
204 226 255
204 226 255
204 226 255
205 226 255
205 226 255
205 226 255
205 226 255
205 226 255
205 226 255
205 227 255
205 227 255
205 227 255
205 227 255
205 227 255
205 227 255
205 227 255
205 227 255
205 227 255
205 227 255
206 227 255
206 227 255
206 227 255
206 227 255
206 227 255
206 227 255
206 227 255
206 227 255
206 227 255
206 227 255
206 227 255
206 227 255
206 227 255
206 227 255
206 227 255
206 227 255
206 227 255
207 227 255
207 227 255
207 227 255
207 227 255
207 227 255
207 228 255
207 228 255
207 228 255
207 228 255
207 228 255
207 228 255
207 228 255
207 228 255
207 228 255
207 228 255
207 228 255
207 228 255
207 228 255
207 228 255
207 228 255
208 228 255
208 228 255
208 228 255
208 228 255
208 228 255
208 228 255
208 228 255
208 228 255
208 228 255
208 228 255
208 228 255
208 228 255
208 228 255
208 228 255
208 228 255
208 228 255
208 228 255
208 228 255
208 228 255
208 228 255
209 228 255
209 228 255
209 229 255
209 229 255
209 229 255
209 229 255
209 229 255
209 229 255
209 229 255
209 229 255
209 229 255
209 229 255
209 229 255
209 229 255
209 229 255
209 229 255
209 229 255
209 229 255
209 229 255
209 229 255
209 229 255
209 229 255
209 229 255
209 229 255
209 228 255
208 228 255
208 228 255
208 228 255
208 228 255
208 228 255
208 228 255
208 228 255
208 228 255
208 228 255
208 228 255
208 228 255
208 228 255
208 228 255
208 228 255
208 228 255
208 228 255
208 228 255
208 228 255
208 228 255
208 228 255
208 228 255
207 228 255
207 228 255
207 228 255
207 228 255
207 228 255
207 228 255
207 228 255
207 228 255
207 228 255
207 228 255
207 228 255
207 228 255
207 228 255
207 228 255
207 227 255
207 227 255
207 227 255
207 227 255
206 227 255
206 227 255
206 227 255
206 227 255
206 227 255
206 227 255
206 227 255
206 227 255
206 227 255
206 227 255
206 227 255
206 227 255
206 227 255
206 227 255
206 227 255
206 227 255
206 227 255
206 227 255
205 227 255
205 227 255
205 227 255
205 227 255
205 227 255
205 227 255
205 227 255
205 227 255
205 227 255
205 227 255
205 226 255
205 226 255
205 226 255
205 226 255
205 226 255
205 226 255
204 226 255
204 226 255
204 226 255
204 226 255
204 226 255
204 226 255
204 226 255
204 226 255
204 226 255
204 226 255
204 226 255
204 226 255
204 226 255
204 226 255
204 226 255
204 226 255
203 226 255
203 226 255
203 226 255
203 226 255
203 226 255
203 226 255
203 226 255
203 225 255
203 225 255
203 225 255
203 225 255
203 225 255
203 225 255
203 225 255
203 225 255
202 225 255
202 225 255
202 225 255
202 225 255
202 225 255
202 225 255
202 225 255
202 225 255
202 225 255
202 225 255
202 225 255
202 225 255
202 225 255
202 225 255
202 225 255
202 225 255
202 225 255
201 225 255
201 225 255
201 225 255
201 225 255
201 225 255
201 224 255
201 224 255
201 224 255
201 224 255
201 224 255
201 224 255
201 224 255
201 224 255
201 224 255
201 224 255
201 224 255
201 224 255
201 224 255
200 224 255
200 224 255
200 224 255
200 224 255
200 224 255
200 224 255
200 224 255
200 224 255
200 224 255
200 224 255
200 224 255
200 224 255
200 224 255
200 224 255
200 224 255
200 224 255
200 224 255
200 224 255
200 224 255
200 224 255
200 224 255
200 224 255
200 224 255
200 224 255
200 224 255
200 224 255
200 224 255
199 224 255
199 224 255
199 224 255
199 224 255
199 224 255
199 224 255
199 224 255
199 224 255
199 223 255
199 223 255
199 223 255
199 223 255
199 223 255
199 223 255
199 223 255
199 223 255
199 223 255
199 223 255
199 223 255
199 223 255
199 223 255
199 223 255
199 223 255
199 223 255
199 223 255
199 223 255
199 223 255
199 223 255
199 223 255
199 223 255
199 223 255
199 223 255
199 224 255
199 224 255
199 224 255
199 224 255
199 224 255
199 224 255
199 224 255
199 224 255
199 224 255
200 224 255
200 224 255
200 224 255
200 224 255
200 224 255
200 224 255
200 224 255
200 224 255
200 224 255
200 224 255
200 224 255
200 224 255
200 224 255
200 224 255
200 224 255
200 224 255
200 224 255
200 224 255
200 224 255
200 224 255
200 224 255
200 224 255
200 224 255
200 224 255
200 224 255
200 224 255
201 224 255
201 224 255
201 224 255
201 224 255
201 224 255
201 224 255
201 224 255
201 224 255
201 224 255
201 224 255
201 224 255
201 224 255
201 224 255
201 225 255
201 225 255
201 225 255
201 225 255
201 225 255
202 225 255
202 225 255
202 225 255
202 225 255
202 225 255
202 225 255
202 225 255
202 225 255
202 225 255
202 225 255
202 225 255
202 225 255
202 225 255
202 225 255
202 225 255
202 225 255
203 225 255
203 225 255
203 225 255
203 225 255
203 225 255
203 225 255
203 225 255
203 225 255
203 225 255
203 226 255
203 226 255
203 226 255
203 226 255
203 226 255
203 226 255
203 226 255
204 226 255
204 226 255
204 226 255
204 226 255
204 226 255
204 226 255
204 226 255
204 226 255
204 226 255
204 226 255
204 226 255
204 226 255
204 226 255
204 226 255
204 226 255
204 226 255
205 226 255
205 226 255
205 226 255
205 226 255
205 226 255
205 226 255
205 227 255
205 227 255
205 227 255
205 227 255
205 227 255
205 227 255
205 227 255
205 227 255
205 227 255
205 227 255
206 227 255
206 227 255
206 227 255
206 227 255
206 227 255
206 227 255
206 227 255
206 227 255
206 227 255
206 227 255
206 227 255
206 227 255
206 227 255
206 227 255
206 227 255
206 227 255
206 227 255
207 227 255
207 227 255
207 227 255
207 227 255
207 227 255
207 228 255
207 228 255
207 228 255
207 228 255
207 228 255
207 228 255
207 228 255
207 228 255
207 228 255
207 228 255
207 228 255
207 228 255
207 228 255
207 228 255
208 228 255
208 228 255
208 228 255
208 228 255
208 228 255
208 228 255
208 228 255
208 228 255
208 228 255
208 228 255
208 228 255
208 228 255
208 228 255
208 228 255
208 228 255
208 228 255
208 228 255
208 228 255
208 228 255
208 228 255
208 228 255
209 228 255
209 229 255
209 229 255
209 229 255
209 229 255
209 229 255
209 229 255
209 229 255
209 229 255
209 229 255
209 229 255
209 229 255
209 229 255
209 229 255
209 229 255
209 229 255
209 229 255
209 229 255
209 229 255
209 229 255
209 229 255
209 229 255
209 229 255
209 229 255
209 229 255
209 229 255
209 229 255
209 229 255
209 229 255
209 229 255
209 228 255
208 228 255
208 228 255
208 228 255
208 228 255
208 228 255
208 228 255
208 228 255
208 228 255
208 228 255
208 228 255
208 228 255
208 228 255
208 228 255
208 228 255
208 228 255
208 228 255
208 228 255
208 228 255
208 228 255
208 228 255
208 228 255
207 228 255
207 228 255
207 228 255
207 228 255
207 228 255
207 228 255
207 228 255
207 228 255
207 228 255
207 228 255
207 228 255
207 228 255
207 228 255
207 228 255
207 227 255
207 227 255
207 227 255
207 227 255
207 227 255
206 227 255
206 227 255
206 227 255
206 227 255
206 227 255
206 227 255
206 227 255
206 227 255
206 227 255
206 227 255
206 227 255
206 227 255
206 227 255
206 227 255
206 227 255
206 227 255
206 227 255
205 227 255
205 227 255
205 227 255
205 227 255
205 227 255
205 227 255
205 227 255
205 227 255
205 227 255
205 227 255
205 226 255
205 226 255
205 226 255
205 226 255
205 226 255
205 226 255
204 226 255
204 226 255
204 226 255
204 226 255
204 226 255
204 226 255
204 226 255
204 226 255
204 226 255
204 226 255
204 226 255
204 226 255
204 226 255
204 226 255
204 226 255
204 226 255
203 226 255
203 226 255
203 226 255
203 226 255
203 226 255
203 226 255
203 226 255
203 225 255
203 225 255
203 225 255
203 225 255
203 225 255
203 225 255
203 225 255
203 225 255
203 225 255
202 225 255
202 225 255
202 225 255
202 225 255
202 225 255
202 225 255
202 225 255
202 225 255
202 225 255
202 225 255
202 225 255
202 225 255
202 225 255
202 225 255
202 225 255
202 225 255
201 225 255
201 225 255
201 225 255
201 225 255
201 225 255
201 224 255
201 224 255
201 224 255
201 224 255
201 224 255
201 224 255
201 224 255
201 224 255
201 224 255
201 224 255
201 224 255
201 224 255
201 224 255
201 224 255
200 224 255
200 224 255
200 224 255
200 224 255
200 224 255
200 224 255
200 224 255
200 224 255
200 224 255
200 224 255
200 224 255
200 224 255
200 224 255
200 224 255
200 224 255
200 224 255
200 224 255
200 224 255
200 224 255
200 224 255
200 224 255
200 224 255
200 224 255
200 224 255
200 224 255
200 224 255
200 224 255
200 224 255
200 224 255
200 224 255
200 224 255
200 224 255
200 224 255
200 224 255
199 224 255
199 224 255
199 224 255
199 224 255
199 224 255
199 224 255
199 224 255
199 224 255
199 224 255
199 224 255
199 224 255
199 224 255
199 224 255
199 224 255
199 224 255
199 224 255
200 224 255
199 224 255
200 224 255
200 224 255
200 224 255
200 224 255
200 224 255
200 224 255
200 224 255
200 224 255
200 224 255
200 224 255
200 224 255
200 224 255
200 224 255
200 224 255
200 224 255
200 224 255
200 224 255
200 224 255
200 224 255
200 224 255
200 224 255
200 224 255
200 224 255
200 224 255
200 224 255
200 224 255
200 224 255
200 224 255
200 224 255
200 224 255
200 224 255
200 224 255
200 224 255
200 224 255
201 224 255
201 224 255
201 224 255
201 224 255
201 224 255
201 224 255
201 224 255
201 224 255
201 224 255
201 224 255
201 224 255
201 224 255
201 224 255
201 225 255
201 225 255
201 225 255
201 225 255
201 225 255
201 225 255
202 225 255
202 225 255
202 225 255
202 225 255
202 225 255
202 225 255
202 225 255
202 225 255
202 225 255
202 225 255
202 225 255
202 225 255
202 225 255
202 225 255
202 225 255
202 225 255
203 225 255
203 225 255
203 225 255
203 225 255
203 225 255
203 225 255
203 225 255
203 225 255
203 225 255
203 226 255
203 226 255
203 226 255
203 226 255
203 226 255
203 226 255
203 226 255
204 226 255
204 226 255
204 226 255
204 226 255
204 226 255
204 226 255
204 226 255
204 226 255
204 226 255
204 226 255
204 226 255
204 226 255
204 226 255
204 226 255
204 226 255
204 226 255
205 226 255
205 226 255
205 226 255
205 226 255
205 226 255
205 226 255
205 226 255
205 227 255
205 227 255
205 227 255
205 227 255
205 227 255
205 227 255
205 227 255
205 227 255
205 227 255
206 227 255
206 227 255
206 227 255
206 227 255
206 227 255
206 227 255
206 227 255
206 227 255
206 227 255
206 227 255
206 227 255
206 227 255
206 227 255
206 227 255
206 227 255
206 227 255
206 227 255
206 227 255
207 227 255
207 227 255
207 227 255
207 227 255
207 228 255
207 228 255
207 228 255
207 228 255
207 228 255
207 228 255
207 228 255
207 228 255
207 228 255
207 228 255
207 228 255
207 228 255
207 228 255
207 228 255
208 228 255
208 228 255
208 228 255
208 228 255
208 228 255
208 228 255
208 228 255
208 228 255
208 228 255
208 228 255
208 228 255
208 228 255
208 228 255
208 228 255
208 228 255
208 228 255
208 228 255
208 228 255
208 228 255
208 228 255
208 228 255
209 228 255
209 229 255
209 229 255
209 229 255
209 229 255
209 229 255
209 229 255
209 229 255
209 229 255
209 229 255
209 229 255
209 229 255
209 229 255
209 229 255
209 229 255
209 229 255
209 229 255
209 229 255
209 229 255
209 229 255
209 229 255
209 229 255
209 229 255
209 229 255
209 229 255
209 229 255
209 229 255
209 229 255
209 229 255
209 229 255
209 229 255
209 229 255
209 229 255
209 229 255
209 229 255
209 229 255
209 228 255
209 228 255
208 228 255
208 228 255
208 228 255
208 228 255
208 228 255
208 228 255
208 228 255
208 228 255
208 228 255
208 228 255
208 228 255
208 228 255
208 228 255
208 228 255
208 228 255
208 228 255
208 228 255
208 228 255
208 228 255
208 228 255
207 228 255
207 228 255
207 228 255
207 228 255
207 228 255
207 228 255
207 228 255
207 228 255
207 228 255
207 228 255
207 228 255
207 228 255
207 228 255
207 228 255
207 227 255
207 227 255
207 227 255
207 227 255
207 227 255
206 227 255
206 227 255
206 227 255
206 227 255
206 227 255
206 227 255
206 227 255
206 227 255
206 227 255
206 227 255
206 227 255
206 227 255
206 227 255
206 227 255
206 227 255
206 227 255
206 227 255
205 227 255
205 227 255
205 227 255
205 227 255
205 227 255
205 227 255
205 227 255
205 227 255
205 227 255
205 226 255
205 226 255
205 226 255
205 226 255
205 226 255
205 226 255
205 226 255
204 226 255
204 226 255
204 226 255
204 226 255
204 226 255
204 226 255
204 226 255
204 226 255
204 226 255
204 226 255
204 226 255
204 226 255
204 226 255
204 226 255
204 226 255
204 226 255
203 226 255
203 226 255
203 226 255
203 226 255
203 226 255
203 226 255
203 226 255
203 225 255
203 225 255
203 225 255
203 225 255
203 225 255
203 225 255
203 225 255
203 225 255
203 225 255
202 225 255
202 225 255
202 225 255
202 225 255
202 225 255
202 225 255
202 225 255
202 225 255
202 225 255
202 225 255
202 225 255
202 225 255
202 225 255
202 225 255
202 225 255
202 225 255
202 225 255
201 225 255
201 225 255
201 225 255
201 225 255
201 225 255
201 224 255
201 224 255
201 224 255
201 224 255
201 224 255
201 224 255
201 224 255
201 224 255
201 224 255
201 224 255
201 224 255
201 224 255
201 224 255
201 224 255
201 224 255
200 224 255
200 224 255
200 224 255
200 224 255
200 224 255
200 224 255
200 224 255
200 224 255
200 224 255
200 224 255
200 224 255
200 224 255
200 224 255
200 224 255
200 224 255
200 224 255
200 224 255
200 224 255
200 224 255
200 224 255
200 224 255
200 224 255
200 224 255
200 224 255
200 224 255
200 224 255
200 224 255
200 224 255
200 224 255
200 224 255
200 224 255
200 224 255
200 224 255
200 224 255
200 224 255
200 224 255
200 224 255
200 224 255
200 224 255
200 224 255
200 224 255
200 224 255
200 224 255
200 224 255
200 224 255
200 224 255
200 224 255
200 224 255
200 224 255
200 224 255
200 224 255
200 224 255
200 224 255
200 224 255
200 224 255
200 224 255
200 224 255
200 224 255
200 224 255
200 224 255
200 224 255
200 224 255
200 224 255
200 224 255
200 224 255
200 224 255
200 224 255
200 224 255
200 224 255
200 224 255
200 224 255
200 224 255
200 224 255
200 224 255
200 224 255
200 224 255
201 224 255
201 224 255
201 224 255
201 224 255
201 224 255
201 224 255
201 224 255
201 224 255
201 224 255
201 224 255
201 224 255
201 224 255
201 224 255
201 224 255
201 224 255
201 225 255
201 225 255
201 225 255
201 225 255
201 225 255
202 225 255
202 225 255
202 225 255
202 225 255
202 225 255
202 225 255
202 225 255
202 225 255
202 225 255
202 225 255
202 225 255
202 225 255
202 225 255
202 225 255
202 225 255
202 225 255
202 225 255
203 225 255
203 225 255
203 225 255
203 225 255
203 225 255
203 225 255
203 225 255
203 225 255
203 225 255
203 226 255
203 226 255
203 226 255
203 226 255
203 226 255
203 226 255
203 226 255
204 226 255
204 226 255
204 226 255
204 226 255
204 226 255
204 226 255
204 226 255
204 226 255
204 226 255
204 226 255
204 226 255
204 226 255
204 226 255
204 226 255
204 226 255
204 226 255
205 226 255
205 226 255
205 226 255
205 226 255
205 226 255
205 226 255
205 226 255
205 227 255
205 227 255
205 227 255
205 227 255
205 227 255
205 227 255
205 227 255
205 227 255
205 227 255
206 227 255
206 227 255
206 227 255
206 227 255
206 227 255
206 227 255
206 227 255
206 227 255
206 227 255
206 227 255
206 227 255
206 227 255
206 227 255
206 227 255
206 227 255
206 227 255
206 227 255
207 227 255
207 227 255
207 227 255
207 227 255
207 227 255
207 228 255
207 228 255
207 228 255
207 228 255
207 228 255
207 228 255
207 228 255
207 228 255
207 228 255
207 228 255
207 228 255
207 228 255
207 228 255
207 228 255
208 228 255
208 228 255
208 228 255
208 228 255
208 228 255
208 228 255
208 228 255
208 228 255
208 228 255
208 228 255
208 228 255
208 228 255
208 228 255
208 228 255
208 228 255
208 228 255
208 228 255
208 228 255
208 228 255
208 228 255
208 228 255
209 228 255
209 229 255
209 229 255
209 229 255
209 229 255
209 229 255
209 229 255
209 229 255
209 229 255
209 229 255
209 229 255
209 229 255
209 229 255
209 229 255
209 229 255
209 229 255
209 229 255
209 229 255
209 229 255
209 229 255
210 229 255
209 229 255
209 229 255
209 229 255
209 229 255
209 229 255
209 229 255
209 229 255
209 229 255
209 229 255
209 229 255
209 229 255
209 229 255
209 229 255
209 229 255
209 229 255
209 229 255
209 229 255
209 229 255
209 229 255
209 229 255
209 229 255
209 228 255
209 228 255
208 228 255
208 228 255
208 228 255
208 228 255
208 228 255
208 228 255
208 228 255
208 228 255
208 228 255
208 228 255
208 228 255
208 228 255
208 228 255
208 228 255
208 228 255
208 228 255
208 228 255
208 228 255
208 228 255
208 228 255
207 228 255
207 228 255
207 228 255
207 228 255
207 228 255
207 228 255
207 228 255
207 228 255
207 228 255
207 228 255
207 228 255
207 228 255
207 228 255
207 228 255
207 227 255
207 227 255
207 227 255
207 227 255
207 227 255
206 227 255
206 227 255
206 227 255
206 227 255
206 227 255
206 227 255
206 227 255
206 227 255
206 227 255
206 227 255
206 227 255
206 227 255
206 227 255
206 227 255
206 227 255
206 227 255
206 227 255
205 227 255
205 227 255
205 227 255
205 227 255
205 227 255
205 227 255
205 227 255
205 227 255
205 227 255
205 227 255
205 226 255
205 226 255
205 226 255
205 226 255
205 226 255
205 226 255
204 226 255
204 226 255
204 226 255
204 226 255
204 226 255
204 226 255
204 226 255
204 226 255
204 226 255
204 226 255
204 226 255
204 226 255
204 226 255
204 226 255
204 226 255
204 226 255
203 226 255
203 226 255
203 226 255
203 226 255
203 226 255
203 226 255
203 226 255
203 225 255
203 225 255
203 225 255
203 225 255
203 225 255
203 225 255
203 225 255
203 225 255
203 225 255
202 225 255
202 225 255
202 225 255
202 225 255
202 225 255
202 225 255
202 225 255
202 225 255
202 225 255
202 225 255
202 225 255
202 225 255
202 225 255
202 225 255
202 225 255
202 225 255
202 225 255
202 225 255
201 225 255
201 225 255
201 225 255
201 225 255
201 225 255
201 224 255
201 224 255
201 224 255
201 224 255
201 224 255
201 224 255
201 224 255
201 224 255
201 224 255
201 224 255
201 224 255
201 224 255
201 224 255
201 224 255
201 224 255
201 224 255
200 224 255
200 224 255
200 224 255
200 224 255
200 224 255
200 224 255
200 224 255
200 224 255
200 224 255
200 224 255
200 224 255
200 224 255
200 224 255
200 224 255
200 224 255
200 224 255
200 224 255
200 224 255
200 224 255
200 224 255
200 224 255
200 224 255
200 224 255
200 224 255
200 224 255
200 224 255
200 224 255
200 224 255
200 224 255
200 224 255
200 224 255
200 224 255
200 224 255
200 224 255
200 224 255
200 224 255
200 224 255
200 224 255
200 224 255
200 224 255
200 224 255
200 224 255
200 224 255
200 224 255
200 224 255
200 224 255
200 224 255
200 224 255
200 224 255
200 224 255
200 224 255
200 224 255
200 224 255
200 224 255
200 224 255
200 224 255
200 224 255
200 224 255
200 224 255
200 224 255
200 224 255
200 224 255
200 224 255
200 224 255
200 224 255
201 224 255
201 224 255
201 224 255
201 224 255
201 224 255
201 224 255
201 224 255
201 224 255
201 224 255
201 224 255
201 224 255
201 224 255
201 224 255
201 224 255
201 224 255
201 224 255
201 224 255
201 225 255
201 225 255
201 225 255
201 225 255
201 225 255
201 225 255
202 225 255
202 225 255
202 225 255
202 225 255
202 225 255
202 225 255
202 225 255
202 225 255
202 225 255
202 225 255
202 225 255
202 225 255
202 225 255
202 225 255
202 225 255
202 225 255
202 225 255
203 225 255
203 225 255
203 225 255
203 225 255
203 225 255
203 225 255
203 225 255
203 225 255
203 225 255
203 226 255
203 226 255
203 226 255
203 226 255
203 226 255
203 226 255
203 226 255
204 226 255
204 226 255
204 226 255
204 226 255
204 226 255
204 226 255
204 226 255
204 226 255
204 226 255
204 226 255
204 226 255
204 226 255
204 226 255
204 226 255
204 226 255
204 226 255
205 226 255
205 226 255
205 226 255
205 226 255
205 226 255
205 226 255
205 227 255
205 227 255
205 227 255
205 227 255
205 227 255
205 227 255
205 227 255
205 227 255
205 227 255
205 227 255
206 227 255
206 227 255
206 227 255
206 227 255
206 227 255
206 227 255
206 227 255
206 227 255
206 227 255
206 227 255
206 227 255
206 227 255
206 227 255
206 227 255
206 227 255
206 227 255
206 227 255
207 227 255
207 227 255
207 227 255
207 227 255
207 227 255
207 228 255
207 228 255
207 228 255
207 228 255
207 228 255
207 228 255
207 228 255
207 228 255
207 228 255
207 228 255
207 228 255
207 228 255
207 228 255
207 228 255
208 228 255
208 228 255
208 228 255
208 228 255
208 228 255
208 228 255
208 228 255
208 228 255
208 228 255
208 228 255
208 228 255
208 228 255
208 228 255
208 228 255
208 228 255
208 228 255
208 228 255
208 228 255
208 228 255
208 228 255
209 228 255
209 228 255
209 229 255
209 229 255
209 229 255
209 229 255
209 229 255
209 229 255
209 229 255
209 229 255
209 229 255
209 229 255
209 229 255
209 229 255
209 229 255
209 229 255
209 229 255
209 229 255
209 229 255
209 229 255
209 229 255
209 229 255
209 229 255
210 229 255
210 229 255
210 229 255
210 229 255
210 229 255
210 229 255
209 229 255
209 229 255
209 229 255
209 229 255
209 229 255
209 229 255
209 229 255
209 229 255
209 229 255
209 229 255
209 229 255
209 229 255
209 229 255
209 229 255
209 229 255
209 229 255
209 229 255
209 229 255
209 229 255
209 229 255
209 229 255
209 228 255
208 228 255
208 228 255
208 228 255
208 228 255
208 228 255
208 228 255
208 228 255
208 228 255
208 228 255
208 228 255
208 228 255
208 228 255
208 228 255
208 228 255
208 228 255
208 228 255
208 228 255
208 228 255
208 228 255
208 228 255
207 228 255
207 228 255
207 228 255
207 228 255
207 228 255
207 228 255
207 228 255
207 228 255
207 228 255
207 228 255
207 228 255
207 228 255
207 228 255
207 228 255
207 227 255
207 227 255
207 227 255
207 227 255
207 227 255
206 227 255
206 227 255
206 227 255
206 227 255
206 227 255
206 227 255
206 227 255
206 227 255
206 227 255
206 227 255
206 227 255
206 227 255
206 227 255
206 227 255
206 227 255
206 227 255
206 227 255
205 227 255
205 227 255
205 227 255
205 227 255
205 227 255
205 227 255
205 227 255
205 227 255
205 227 255
205 227 255
205 226 255
205 226 255
205 226 255
205 226 255
205 226 255
205 226 255
204 226 255
204 226 255
204 226 255
204 226 255
204 226 255
204 226 255
204 226 255
204 226 255
204 226 255
204 226 255
204 226 255
204 226 255
204 226 255
204 226 255
204 226 255
204 226 255
203 226 255
203 226 255
203 226 255
203 226 255
203 226 255
203 226 255
203 226 255
203 225 255
203 225 255
203 225 255
203 225 255
203 225 255
203 225 255
203 225 255
203 225 255
203 225 255
202 225 255
202 225 255
202 225 255
202 225 255
202 225 255
202 225 255
202 225 255
202 225 255
202 225 255
202 225 255
202 225 255
202 225 255
202 225 255
202 225 255
202 225 255
202 225 255
202 225 255
202 225 255
202 225 255
201 225 255
201 225 255
201 225 255
201 225 255
201 225 255
201 225 255
201 224 255
201 224 255
201 224 255
201 224 255
201 224 255
201 224 255
201 224 255
201 224 255
201 224 255
201 224 255
201 224 255
201 224 255
201 224 255
201 224 255
201 224 255
201 224 255
201 224 255
201 224 255
200 224 255
200 224 255
200 224 255
200 224 255
200 224 255
200 224 255
200 224 255
200 224 255
200 224 255
200 224 255
200 224 255
200 224 255
200 224 255
200 224 255
200 224 255
200 224 255
200 224 255
200 224 255
200 224 255
200 224 255
200 224 255
200 224 255
200 224 255
200 224 255
200 224 255
200 224 255
200 224 255
200 224 255
200 224 255
200 224 255
200 224 255
200 224 255
200 224 255
200 224 255
200 224 255
200 224 255
200 224 255
200 224 255
200 224 255
200 224 255
200 224 255
200 224 255
200 224 255
200 224 255
200 224 255
200 224 255
200 224 255
200 224 255
200 224 255
200 224 255
200 224 255
200 224 255
201 224 255
201 224 255
201 224 255
201 224 255
201 224 255
201 224 255
201 224 255
201 224 255
201 224 255
201 224 255
201 224 255
201 224 255
201 224 255
201 224 255
201 224 255
201 224 255
201 224 255
201 224 255
201 225 255
201 225 255
201 225 255
201 225 255
201 225 255
201 225 255
202 225 255
202 225 255
202 225 255
202 225 255
202 225 255
202 225 255
202 225 255
202 225 255
202 225 255
202 225 255
202 225 255
202 225 255
202 225 255
202 225 255
202 225 255
202 225 255
202 225 255
202 225 255
202 225 255
203 225 255
203 225 255
203 225 255
203 225 255
203 225 255
203 225 255
203 225 255
203 225 255
203 225 255
203 226 255
203 226 255
203 226 255
203 226 255
203 226 255
203 226 255
203 226 255
204 226 255
204 226 255
204 226 255
204 226 255
204 226 255
204 226 255
204 226 255
204 226 255
204 226 255
204 226 255
204 226 255
204 226 255
204 226 255
204 226 255
204 226 255
204 226 255
205 226 255
205 226 255
205 226 255
205 226 255
205 226 255
205 226 255
205 227 255
205 227 255
205 227 255
205 227 255
205 227 255
205 227 255
205 227 255
205 227 255
205 227 255
205 227 255
206 227 255
206 227 255
206 227 255
206 227 255
206 227 255
206 227 255
206 227 255
206 227 255
206 227 255
206 227 255
206 227 255
206 227 255
206 227 255
206 227 255
206 227 255
206 227 255
206 227 255
207 227 255
207 227 255
207 227 255
207 227 255
207 227 255
207 228 255
207 228 255
207 228 255
207 228 255
207 228 255
207 228 255
207 228 255
207 228 255
207 228 255
207 228 255
207 228 255
207 228 255
207 228 255
207 228 255
208 228 255
208 228 255
208 228 255
208 228 255
208 228 255
208 228 255
208 228 255
208 228 255
208 228 255
208 228 255
208 228 255
208 228 255
208 228 255
208 228 255
208 228 255
208 228 255
208 228 255
208 228 255
208 228 255
208 228 255
209 228 255
209 229 255
209 229 255
209 229 255
209 229 255
209 229 255
209 229 255
209 229 255
209 229 255
209 229 255
209 229 255
209 229 255
209 229 255
209 229 255
209 229 255
209 229 255
209 229 255
209 229 255
209 229 255
209 229 255
209 229 255
209 229 255
210 229 255
210 229 255
210 229 255
210 229 255
210 229 255
210 229 255
210 229 255
210 229 255
210 229 255
210 229 255
210 229 255
210 229 255
210 229 255
209 229 255
209 229 255
209 229 255
209 229 255
209 229 255
209 229 255
209 229 255
209 229 255
209 229 255
209 229 255
209 229 255
209 229 255
209 229 255
209 229 255
209 229 255
209 229 255
209 229 255
209 229 255
209 229 255
209 229 255
209 229 255
209 228 255
209 228 255
208 228 255
208 228 255
208 228 255
208 228 255
208 228 255
208 228 255
208 228 255
208 228 255
208 228 255
208 228 255
208 228 255
208 228 255
208 228 255
208 228 255
208 228 255
208 228 255
208 228 255
208 228 255
208 228 255
208 228 255
207 228 255
207 228 255
207 228 255
207 228 255
207 228 255
207 228 255
207 228 255
207 228 255
207 228 255
207 228 255
207 228 255
207 228 255
207 228 255
207 228 255
207 227 255
207 227 255
207 227 255
207 227 255
206 227 255
206 227 255
206 227 255
206 227 255
206 227 255
206 227 255
206 227 255
206 227 255
206 227 255
206 227 255
206 227 255
206 227 255
206 227 255
206 227 255
206 227 255
206 227 255
206 227 255
205 227 255
205 227 255
205 227 255
205 227 255
205 227 255
205 227 255
205 227 255
205 227 255
205 227 255
205 227 255
205 226 255
205 226 255
205 226 255
205 226 255
205 226 255
205 226 255
204 226 255
204 226 255
204 226 255
204 226 255
204 226 255
204 226 255
204 226 255
204 226 255
204 226 255
204 226 255
204 226 255
204 226 255
204 226 255
204 226 255
204 226 255
204 226 255
203 226 255
203 226 255
203 226 255
203 226 255
203 226 255
203 226 255
203 226 255
203 226 255
203 225 255
203 225 255
203 225 255
203 225 255
203 225 255
203 225 255
203 225 255
203 225 255
203 225 255
202 225 255
202 225 255
202 225 255
202 225 255
202 225 255
202 225 255
202 225 255
202 225 255
202 225 255
202 225 255
202 225 255
202 225 255
202 225 255
202 225 255
202 225 255
202 225 255
202 225 255
202 225 255
202 225 255
201 225 255
201 225 255
201 225 255
201 225 255
201 225 255
201 225 255
201 224 255
201 224 255
201 224 255
201 224 255
201 224 255
201 224 255
201 224 255
201 224 255
201 224 255
201 224 255
201 224 255
201 224 255
201 224 255
201 224 255
201 224 255
201 224 255
201 224 255
201 224 255
201 224 255
201 224 255
201 224 255
201 224 255
200 224 255
200 224 255
200 224 255
200 224 255
200 224 255
200 224 255
200 224 255
200 224 255
200 224 255
200 224 255
200 224 255
200 224 255
200 224 255
200 224 255
200 224 255
200 224 255
200 224 255
200 224 255
200 224 255
200 224 255
200 224 255
200 224 255
200 224 255
200 224 255
200 224 255
200 224 255
200 224 255
200 224 255
200 224 255
200 224 255
200 224 255
200 224 255
200 224 255
200 224 255
200 224 255
200 224 255
201 224 255
201 224 255
201 224 255
201 224 255
201 224 255
201 224 255
201 224 255
201 224 255
201 224 255
201 224 255
201 224 255
201 224 255
201 224 255
201 224 255
201 224 255
201 224 255
201 224 255
201 224 255
201 224 255
201 224 255
201 224 255
201 224 255
201 225 255
201 225 255
201 225 255
201 225 255
201 225 255
201 225 255
202 225 255
202 225 255
202 225 255
202 225 255
202 225 255
202 225 255
202 225 255
202 225 255
202 225 255
202 225 255
202 225 255
202 225 255
202 225 255
202 225 255
202 225 255
202 225 255
202 225 255
202 225 255
202 225 255
203 225 255
203 225 255
203 225 255
203 225 255
203 225 255
203 225 255
203 225 255
203 225 255
203 225 255
203 226 255
203 226 255
203 226 255
203 226 255
203 226 255
203 226 255
203 226 255
203 226 255
204 226 255
204 226 255
204 226 255
204 226 255
204 226 255
204 226 255
204 226 255
204 226 255
204 226 255
204 226 255
204 226 255
204 226 255
204 226 255
204 226 255
204 226 255
204 226 255
205 226 255
205 226 255
205 226 255
205 226 255
205 226 255
205 226 255
205 227 255
205 227 255
205 227 255
205 227 255
205 227 255
205 227 255
205 227 255
205 227 255
205 227 255
205 227 255
206 227 255
206 227 255
206 227 255
206 227 255
206 227 255
206 227 255
206 227 255
206 227 255
206 227 255
206 227 255
206 227 255
206 227 255
206 227 255
206 227 255
206 227 255
206 227 255
206 227 255
207 227 255
207 227 255
207 227 255
207 227 255
207 228 255
207 228 255
207 228 255
207 228 255
207 228 255
207 228 255
207 228 255
207 228 255
207 228 255
207 228 255
207 228 255
207 228 255
207 228 255
207 228 255
208 228 255
208 228 255
208 228 255
208 228 255
208 228 255
208 228 255
208 228 255
208 228 255
208 228 255
208 228 255
208 228 255
208 228 255
208 228 255
208 228 255
208 228 255
208 228 255
208 228 255
208 228 255
208 228 255
208 228 255
209 228 255
209 228 255
209 229 255
209 229 255
209 229 255
209 229 255
209 229 255
209 229 255
209 229 255
209 229 255
209 229 255
209 229 255
209 229 255
209 229 255
209 229 255
209 229 255
209 229 255
209 229 255
209 229 255
209 229 255
209 229 255
209 229 255
209 229 255
210 229 255
210 229 255
210 229 255
210 229 255
210 229 255
210 229 255
210 229 255
210 229 255
210 229 255
210 229 255
210 229 255
210 229 255
210 229 255
210 229 255
210 229 255
210 229 255
210 229 255
210 229 255
210 229 255
210 229 255
209 229 255
209 229 255
209 229 255
209 229 255
209 229 255
209 229 255
209 229 255
209 229 255
209 229 255
209 229 255
209 229 255
209 229 255
209 229 255
209 229 255
209 229 255
209 229 255
209 229 255
209 229 255
209 229 255
209 229 255
209 229 255
209 228 255
208 228 255
208 228 255
208 228 255
208 228 255
208 228 255
208 228 255
208 228 255
208 228 255
208 228 255
208 228 255
208 228 255
208 228 255
208 228 255
208 228 255
208 228 255
208 228 255
208 228 255
208 228 255
208 228 255
208 228 255
207 228 255
207 228 255
207 228 255
207 228 255
207 228 255
207 228 255
207 228 255
207 228 255
207 228 255
207 228 255
207 228 255
207 228 255
207 228 255
207 228 255
207 227 255
207 227 255
207 227 255
207 227 255
206 227 255
206 227 255
206 227 255
206 227 255
206 227 255
206 227 255
206 227 255
206 227 255
206 227 255
206 227 255
206 227 255
206 227 255
206 227 255
206 227 255
206 227 255
206 227 255
206 227 255
205 227 255
205 227 255
205 227 255
205 227 255
205 227 255
205 227 255
205 227 255
205 227 255
205 227 255
205 227 255
205 226 255
205 226 255
205 226 255
205 226 255
205 226 255
205 226 255
204 226 255
204 226 255
204 226 255
204 226 255
204 226 255
204 226 255
204 226 255
204 226 255
204 226 255
204 226 255
204 226 255
204 226 255
204 226 255
204 226 255
204 226 255
204 226 255
204 226 255
203 226 255
203 226 255
203 226 255
203 226 255
203 226 255
203 226 255
203 226 255
203 225 255
203 225 255
203 225 255
203 225 255
203 225 255
203 225 255
203 225 255
203 225 255
203 225 255
203 225 255
202 225 255
202 225 255
202 225 255
202 225 255
202 225 255
202 225 255
202 225 255
202 225 255
202 225 255
202 225 255
202 225 255
202 225 255
202 225 255
202 225 255
202 225 255
202 225 255
202 225 255
202 225 255
202 225 255
201 225 255
201 225 255
201 225 255
201 225 255
201 225 255
201 225 255
201 225 255
201 225 255
201 224 255
201 224 255
201 224 255
201 224 255
201 224 255
201 224 255
201 224 255
201 224 255
201 224 255
201 224 255
201 224 255
201 224 255
201 224 255
201 224 255
201 224 255
201 224 255
201 224 255
201 224 255
201 224 255
201 224 255
201 224 255
201 224 255
201 224 255
201 224 255
201 224 255
201 224 255
201 224 255
201 224 255
201 224 255
201 224 255
201 224 255
201 224 255
201 224 255
201 224 255
201 224 255
201 224 255
201 224 255
201 224 255
201 224 255
201 224 255
201 224 255
201 224 255
201 224 255
201 224 255
201 224 255
201 224 255
201 224 255
201 224 255
201 224 255
201 224 255
201 224 255
201 224 255
201 224 255
201 224 255
201 224 255
201 224 255
201 224 255
201 224 255
201 224 255
201 224 255
201 224 255
201 224 255
201 224 255
201 224 255
201 224 255
201 224 255
201 224 255
201 224 255
201 225 255
201 225 255
201 225 255
201 225 255
201 225 255
201 225 255
201 225 255
202 225 255
202 225 255
202 225 255
202 225 255
202 225 255
202 225 255
202 225 255
202 225 255
202 225 255
202 225 255
202 225 255
202 225 255
202 225 255
202 225 255
202 225 255
202 225 255
202 225 255
202 225 255
202 225 255
202 225 255
203 225 255
203 225 255
203 225 255
203 225 255
203 225 255
203 225 255
203 225 255
203 225 255
203 225 255
203 225 255
203 226 255
203 226 255
203 226 255
203 226 255
203 226 255
203 226 255
203 226 255
204 226 255
204 226 255
204 226 255
204 226 255
204 226 255
204 226 255
204 226 255
204 226 255
204 226 255
204 226 255
204 226 255
204 226 255
204 226 255
204 226 255
204 226 255
204 226 255
205 226 255
205 226 255
205 226 255
205 226 255
205 226 255
205 226 255
205 226 255
205 227 255
205 227 255
205 227 255
205 227 255
205 227 255
205 227 255
205 227 255
205 227 255
205 227 255
205 227 255
206 227 255
206 227 255
206 227 255
206 227 255
206 227 255
206 227 255
206 227 255
206 227 255
206 227 255
206 227 255
206 227 255
206 227 255
206 227 255
206 227 255
206 227 255
206 227 255
206 227 255
207 227 255
207 227 255
207 227 255
207 227 255
207 228 255
207 228 255
207 228 255
207 228 255
207 228 255
207 228 255
207 228 255
207 228 255
207 228 255
207 228 255
207 228 255
207 228 255
207 228 255
207 228 255
208 228 255
208 228 255
208 228 255
208 228 255
208 228 255
208 228 255
208 228 255
208 228 255
208 228 255
208 228 255
208 228 255
208 228 255
208 228 255
208 228 255
208 228 255
208 228 255
208 228 255
208 228 255
208 228 255
208 228 255
209 228 255
209 229 255
209 229 255
209 229 255
209 229 255
209 229 255
209 229 255
209 229 255
209 229 255
209 229 255
209 229 255
209 229 255
209 229 255
209 229 255
209 229 255
209 229 255
209 229 255
209 229 255
209 229 255
209 229 255
209 229 255
209 229 255
210 229 255
210 229 255
210 229 255
210 229 255
210 229 255
210 229 255
210 229 255
210 229 255
210 229 255
210 229 255
210 229 255
210 229 255
210 229 255
210 229 255
210 229 255
210 229 255
210 229 255
210 229 255
210 229 255
210 229 255
210 229 255
210 229 255
210 229 255
210 229 255
210 229 255
210 229 255
210 229 255
210 229 255
209 229 255
209 229 255
209 229 255
209 229 255
209 229 255
209 229 255
209 229 255
209 229 255
209 229 255
209 229 255
209 229 255
209 229 255
209 229 255
209 229 255
209 229 255
209 229 255
209 229 255
209 229 255
209 229 255
209 229 255
209 228 255
209 228 255
208 228 255
208 228 255
208 228 255
208 228 255
208 228 255
208 228 255
208 228 255
208 228 255
208 228 255
208 228 255
208 228 255
208 228 255
208 228 255
208 228 255
208 228 255
208 228 255
208 228 255
208 228 255
208 228 255
207 228 255
207 228 255
207 228 255
207 228 255
207 228 255
207 228 255
207 228 255
207 228 255
207 228 255
207 228 255
207 228 255
207 228 255
207 228 255
207 228 255
207 227 255
207 227 255
207 227 255
207 227 255
206 227 255
206 227 255
206 227 255
206 227 255
206 227 255
206 227 255
206 227 255
206 227 255
206 227 255
206 227 255
206 227 255
206 227 255
206 227 255
206 227 255
206 227 255
206 227 255
206 227 255
205 227 255
205 227 255
205 227 255
205 227 255
205 227 255
205 227 255
205 227 255
205 227 255
205 227 255
205 227 255
205 226 255
205 226 255
205 226 255
205 226 255
205 226 255
205 226 255
205 226 255
204 226 255
204 226 255
204 226 255
204 226 255
204 226 255
204 226 255
204 226 255
204 226 255
204 226 255
204 226 255
204 226 255
204 226 255
204 226 255
204 226 255
204 226 255
204 226 255
203 226 255
203 226 255
203 226 255
203 226 255
203 226 255
203 226 255
203 226 255
203 226 255
203 225 255
203 225 255
203 225 255
203 225 255
203 225 255
203 225 255
203 225 255
203 225 255
203 225 255
202 225 255
202 225 255
202 225 255
202 225 255
202 225 255
202 225 255
202 225 255
202 225 255
202 225 255
202 225 255
202 225 255
202 225 255
202 225 255
202 225 255
202 225 255
202 225 255
202 225 255
202 225 255
202 225 255
202 225 255
202 225 255
202 225 255
201 225 255
201 225 255
201 225 255
201 225 255
201 225 255
201 225 255
201 225 255
201 225 255
201 224 255
201 224 255
201 224 255
201 224 255
201 224 255
201 224 255
201 224 255
201 224 255
201 224 255
201 224 255
201 224 255
201 224 255
201 224 255
201 224 255
201 224 255
201 224 255
201 224 255
201 224 255
201 224 255
201 224 255
201 224 255
201 224 255
201 224 255
201 224 255
201 224 255
201 224 255
201 224 255
201 224 255
201 224 255
201 224 255
201 224 255
201 224 255
201 224 255
201 224 255
201 224 255
201 224 255
201 224 255
201 224 255
201 224 255
201 224 255
201 224 255
201 224 255
201 224 255
201 224 255
201 224 255
201 224 255
201 224 255
201 224 255
201 224 255
201 224 255
201 224 255
201 224 255
201 224 255
201 224 255
201 224 255
201 224 255
201 225 255
201 225 255
201 225 255
201 225 255
201 225 255
201 225 255
201 225 255
201 225 255
202 225 255
202 225 255
202 225 255
202 225 255
202 225 255
202 225 255
202 225 255
202 225 255
202 225 255
202 225 255
202 225 255
202 225 255
202 225 255
202 225 255
202 225 255
202 225 255
202 225 255
202 225 255
202 225 255
202 225 255
202 225 255
203 225 255
203 225 255
203 225 255
203 225 255
203 225 255
203 225 255
203 225 255
203 225 255
203 225 255
203 225 255
203 226 255
203 226 255
203 226 255
203 226 255
203 226 255
203 226 255
203 226 255
203 226 255
204 226 255
204 226 255
204 226 255
204 226 255
204 226 255
204 226 255
204 226 255
204 226 255
204 226 255
204 226 255
204 226 255
204 226 255
204 226 255
204 226 255
204 226 255
204 226 255
205 226 255
205 226 255
205 226 255
205 226 255
205 226 255
205 226 255
205 226 255
205 227 255
205 227 255
205 227 255
205 227 255
205 227 255
205 227 255
205 227 255
205 227 255
205 227 255
205 227 255
206 227 255
206 227 255
206 227 255
206 227 255
206 227 255
206 227 255
206 227 255
206 227 255
206 227 255
206 227 255
206 227 255
206 227 255
206 227 255
206 227 255
206 227 255
206 227 255
206 227 255
207 227 255
207 227 255
207 227 255
207 227 255
207 228 255
207 228 255
207 228 255
207 228 255
207 228 255
207 228 255
207 228 255
207 228 255
207 228 255
207 228 255
207 228 255
207 228 255
207 228 255
207 228 255
208 228 255
208 228 255
208 228 255
208 228 255
208 228 255
208 228 255
208 228 255
208 228 255
208 228 255
208 228 255
208 228 255
208 228 255
208 228 255
208 228 255
208 228 255
208 228 255
208 228 255
208 228 255
208 228 255
209 228 255
209 228 255
209 229 255
209 229 255
209 229 255
209 229 255
209 229 255
209 229 255
209 229 255
209 229 255
209 229 255
209 229 255
209 229 255
209 229 255
209 229 255
209 229 255
209 229 255
209 229 255
209 229 255
209 229 255
209 229 255
209 229 255
210 229 255
210 229 255
210 229 255
210 229 255
210 229 255
210 229 255
210 229 255
210 229 255
210 229 255
210 229 255
210 229 255
210 229 255
210 229 255
210 229 255
210 229 255
210 229 255
210 229 255
210 229 255
210 229 255
210 229 255
210 229 255
210 229 255
210 229 255
210 229 255
210 229 255
210 229 255
210 229 255
210 229 255
210 229 255
210 229 255
210 229 255
210 229 255
210 229 255
210 229 255
210 229 255
209 229 255
209 229 255
209 229 255
209 229 255
209 229 255
209 229 255
209 229 255
209 229 255
209 229 255
209 229 255
209 229 255
209 229 255
209 229 255
209 229 255
209 229 255
209 229 255
209 229 255
209 229 255
209 229 255
209 229 255
209 228 255
209 228 255
208 228 255
208 228 255
208 228 255
208 228 255
208 228 255
208 228 255
208 228 255
208 228 255
208 228 255
208 228 255
208 228 255
208 228 255
208 228 255
208 228 255
208 228 255
208 228 255
208 228 255
208 228 255
208 228 255
207 228 255
207 228 255
207 228 255
207 228 255
207 228 255
207 228 255
207 228 255
207 228 255
207 228 255
207 228 255
207 228 255
207 228 255
207 228 255
207 228 255
207 227 255
207 227 255
207 227 255
207 227 255
206 227 255
206 227 255
206 227 255
206 227 255
206 227 255
206 227 255
206 227 255
206 227 255
206 227 255
206 227 255
206 227 255
206 227 255
206 227 255
206 227 255
206 227 255
206 227 255
206 227 255
206 227 255
205 227 255
205 227 255
205 227 255
205 227 255
205 227 255
205 227 255
205 227 255
205 227 255
205 227 255
205 226 255
205 226 255
205 226 255
205 226 255
205 226 255
205 226 255
205 226 255
204 226 255
204 226 255
204 226 255
204 226 255
204 226 255
204 226 255
204 226 255
204 226 255
204 226 255
204 226 255
204 226 255
204 226 255
204 226 255
204 226 255
204 226 255
204 226 255
204 226 255
203 226 255
203 226 255
203 226 255
203 226 255
203 226 255
203 226 255
203 226 255
203 225 255
203 225 255
203 225 255
203 225 255
203 225 255
203 225 255
203 225 255
203 225 255
203 225 255
203 225 255
203 225 255
202 225 255
202 225 255
202 225 255
202 225 255
202 225 255
202 225 255
202 225 255
202 225 255
202 225 255
202 225 255
202 225 255
202 225 255
202 225 255
202 225 255
202 225 255
202 225 255
202 225 255
202 225 255
202 225 255
202 225 255
202 225 255
202 225 255
202 225 255
201 225 255
201 225 255
201 225 255
201 225 255
201 225 255
201 225 255
201 225 255
201 225 255
201 225 255
201 225 255
201 224 255
201 224 255
201 224 255
201 224 255
201 224 255
201 224 255
201 224 255
201 224 255
201 224 255
201 224 255
201 224 255
201 224 255
201 224 255
201 224 255
201 224 255
201 224 255
201 224 255
201 224 255
201 224 255
201 224 255
201 224 255
201 224 255
201 224 255
201 224 255
201 224 255
201 224 255
201 224 255
201 224 255
201 224 255
201 224 255
201 224 255
201 224 255
201 224 255
201 224 255
201 224 255
201 224 255
201 224 255
201 224 255
201 224 255
201 224 255
201 225 255
201 225 255
201 225 255
201 225 255
201 225 255
201 225 255
201 225 255
201 225 255
201 225 255
201 225 255
202 225 255
202 225 255
202 225 255
202 225 255
202 225 255
202 225 255
202 225 255
202 225 255
202 225 255
202 225 255
202 225 255
202 225 255
202 225 255
202 225 255
202 225 255
202 225 255
202 225 255
202 225 255
202 225 255
202 225 255
202 225 255
202 225 255
202 225 255
203 225 255
203 225 255
203 225 255
203 225 255
203 225 255
203 225 255
203 225 255
203 225 255
203 225 255
203 225 255
203 226 255
203 226 255
203 226 255
203 226 255
203 226 255
203 226 255
203 226 255
203 226 255
204 226 255
204 226 255
204 226 255
204 226 255
204 226 255
204 226 255
204 226 255
204 226 255
204 226 255
204 226 255
204 226 255
204 226 255
204 226 255
204 226 255
204 226 255
204 226 255
204 226 255
205 226 255
205 226 255
205 226 255
205 226 255
205 226 255
205 226 255
205 226 255
205 227 255
205 227 255
205 227 255
205 227 255
205 227 255
205 227 255
205 227 255
205 227 255
205 227 255
205 227 255
206 227 255
206 227 255
206 227 255
206 227 255
206 227 255
206 227 255
206 227 255
206 227 255
206 227 255
206 227 255
206 227 255
206 227 255
206 227 255
206 227 255
206 227 255
206 227 255
207 227 255
207 227 255
207 227 255
207 227 255
207 227 255
207 228 255
207 228 255
207 228 255
207 228 255
207 228 255
207 228 255
207 228 255
207 228 255
207 228 255
207 228 255
207 228 255
207 228 255
207 228 255
207 228 255
208 228 255
208 228 255
208 228 255
208 228 255
208 228 255
208 228 255
208 228 255
208 228 255
208 228 255
208 228 255
208 228 255
208 228 255
208 228 255
208 228 255
208 228 255
208 228 255
208 228 255
208 228 255
208 228 255
209 228 255
209 229 255
209 229 255
209 229 255
209 229 255
209 229 255
209 229 255
209 229 255
209 229 255
209 229 255
209 229 255
209 229 255
209 229 255
209 229 255
209 229 255
209 229 255
209 229 255
209 229 255
209 229 255
209 229 255
209 229 255
209 229 255
210 229 255
210 229 255
210 229 255
210 229 255
210 229 255
210 229 255
210 229 255
210 229 255
210 229 255
210 229 255
210 229 255
210 229 255
210 229 255
210 229 255
210 229 255
210 229 255
210 229 255
210 229 255
210 229 255
210 230 255
210 229 255
210 229 255
210 229 255
210 229 255
210 229 255
210 229 255
210 229 255
210 229 255
210 229 255
210 229 255
210 229 255
210 229 255
210 229 255
210 229 255
210 229 255
210 229 255
210 229 255
210 229 255
210 229 255
210 229 255
210 229 255
210 229 255
209 229 255
209 229 255
209 229 255
209 229 255
209 229 255
209 229 255
209 229 255
209 229 255
209 229 255
209 229 255
209 229 255
209 229 255
209 229 255
209 229 255
209 229 255
209 229 255
209 229 255
209 229 255
209 229 255
209 229 255
209 228 255
208 228 255
208 228 255
208 228 255
208 228 255
208 228 255
208 228 255
208 228 255
208 228 255
208 228 255
208 228 255
208 228 255
208 228 255
208 228 255
208 228 255
208 228 255
208 228 255
208 228 255
208 228 255
208 228 255
208 228 255
207 228 255
207 228 255
207 228 255
207 228 255
207 228 255
207 228 255
207 228 255
207 228 255
207 228 255
207 228 255
207 228 255
207 228 255
207 228 255
207 228 255
207 227 255
207 227 255
207 227 255
207 227 255
206 227 255
206 227 255
206 227 255
206 227 255
206 227 255
206 227 255
206 227 255
206 227 255
206 227 255
206 227 255
206 227 255
206 227 255
206 227 255
206 227 255
206 227 255
206 227 255
206 227 255
205 227 255
205 227 255
205 227 255
205 227 255
205 227 255
205 227 255
205 227 255
205 227 255
205 227 255
205 227 255
205 226 255
205 226 255
205 226 255
205 226 255
205 226 255
205 226 255
204 226 255
204 226 255
204 226 255
204 226 255
204 226 255
204 226 255
204 226 255
204 226 255
204 226 255
204 226 255
204 226 255
204 226 255
204 226 255
204 226 255
204 226 255
204 226 255
204 226 255
203 226 255
203 226 255
203 226 255
203 226 255
203 226 255
203 226 255
203 226 255
203 226 255
203 225 255
203 225 255
203 225 255
203 225 255
203 225 255
203 225 255
203 225 255
203 225 255
203 225 255
203 225 255
203 225 255
202 225 255
202 225 255
202 225 255
202 225 255
202 225 255
202 225 255
202 225 255
202 225 255
202 225 255
202 225 255
202 225 255
202 225 255
202 225 255
202 225 255
202 225 255
202 225 255
202 225 255
202 225 255
202 225 255
202 225 255
202 225 255
202 225 255
202 225 255
202 225 255
202 225 255
202 225 255
201 225 255
201 225 255
201 225 255
201 225 255
201 225 255
201 225 255
201 225 255
201 225 255
201 225 255
201 225 255
201 225 255
201 225 255
201 225 255
201 225 255
201 225 255
201 225 255
201 225 255
201 224 255
201 224 255
201 224 255
201 224 255
201 224 255
201 224 255
201 224 255
201 224 255
201 224 255
201 224 255
201 224 255
201 225 255
201 224 255
201 225 255
201 225 255
201 225 255
201 225 255
201 225 255
201 225 255
201 225 255
201 225 255
201 225 255
201 225 255
201 225 255
201 225 255
201 225 255
201 225 255
201 225 255
201 225 255
202 225 255
202 225 255
202 225 255
202 225 255
202 225 255
202 225 255
202 225 255
202 225 255
202 225 255
202 225 255
202 225 255
202 225 255
202 225 255
202 225 255
202 225 255
202 225 255
202 225 255
202 225 255
202 225 255
202 225 255
202 225 255
202 225 255
202 225 255
202 225 255
202 225 255
202 225 255
203 225 255
203 225 255
203 225 255
203 225 255
203 225 255
203 225 255
203 225 255
203 225 255
203 225 255
203 225 255
203 225 255
203 226 255
203 226 255
203 226 255
203 226 255
203 226 255
203 226 255
203 226 255
203 226 255
204 226 255
204 226 255
204 226 255
204 226 255
204 226 255
204 226 255
204 226 255
204 226 255
204 226 255
204 226 255
204 226 255
204 226 255
204 226 255
204 226 255
204 226 255
204 226 255
204 226 255
205 226 255
205 226 255
205 226 255
205 226 255
205 226 255
205 226 255
205 227 255
205 227 255
205 227 255
205 227 255
205 227 255
205 227 255
205 227 255
205 227 255
205 227 255
205 227 255
206 227 255
206 227 255
206 227 255
206 227 255
206 227 255
206 227 255
206 227 255
206 227 255
206 227 255
206 227 255
206 227 255
206 227 255
206 227 255
206 227 255
206 227 255
206 227 255
206 227 255
207 227 255
207 227 255
207 227 255
207 227 255
207 228 255
207 228 255
207 228 255
207 228 255
207 228 255
207 228 255
207 228 255
207 228 255
207 228 255
207 228 255
207 228 255
207 228 255
207 228 255
207 228 255
208 228 255
208 228 255
208 228 255
208 228 255
208 228 255
208 228 255
208 228 255
208 228 255
208 228 255
208 228 255
208 228 255
208 228 255
208 228 255
208 228 255
208 228 255
208 228 255
208 228 255
208 228 255
208 228 255
208 228 255
209 228 255
209 229 255
209 229 255
209 229 255
209 229 255
209 229 255
209 229 255
209 229 255
209 229 255
209 229 255
209 229 255
209 229 255
209 229 255
209 229 255
209 229 255
209 229 255
209 229 255
209 229 255
209 229 255
209 229 255
209 229 255
210 229 255
210 229 255
210 229 255
210 229 255
210 229 255
210 229 255
210 229 255
210 229 255
210 229 255
210 229 255
210 229 255
210 229 255
210 229 255
210 229 255
210 229 255
210 229 255
210 229 255
210 229 255
210 229 255
210 229 255
210 229 255
210 229 255
210 230 255
211 230 255
211 230 255
210 230 255
210 230 255
210 230 255
210 229 255
210 229 255
210 229 255
210 229 255
210 229 255
210 229 255
210 229 255
210 229 255
210 229 255
210 229 255
210 229 255
210 229 255
210 229 255
210 229 255
210 229 255
210 229 255
210 229 255
210 229 255
210 229 255
210 229 255
210 229 255
210 229 255
209 229 255
209 229 255
209 229 255
209 229 255
209 229 255
209 229 255
209 229 255
209 229 255
209 229 255
209 229 255
209 229 255
209 229 255
209 229 255
209 229 255
209 229 255
209 229 255
209 229 255
209 229 255
209 229 255
209 228 255
209 228 255
208 228 255
208 228 255
208 228 255
208 228 255
208 228 255
208 228 255
208 228 255
208 228 255
208 228 255
208 228 255
208 228 255
208 228 255
208 228 255
208 228 255
208 228 255
208 228 255
208 228 255
208 228 255
208 228 255
207 228 255
207 228 255
207 228 255
207 228 255
207 228 255
207 228 255
207 228 255
207 228 255
207 228 255
207 228 255
207 228 255
207 228 255
207 228 255
207 228 255
207 227 255
207 227 255
207 227 255
207 227 255
206 227 255
206 227 255
206 227 255
206 227 255
206 227 255
206 227 255
206 227 255
206 227 255
206 227 255
206 227 255
206 227 255
206 227 255
206 227 255
206 227 255
206 227 255
206 227 255
206 227 255
205 227 255
205 227 255
205 227 255
205 227 255
205 227 255
205 227 255
205 227 255
205 227 255
205 227 255
205 227 255
205 226 255
205 226 255
205 226 255
205 226 255
205 226 255
205 226 255
205 226 255
204 226 255
204 226 255
204 226 255
204 226 255
204 226 255
204 226 255
204 226 255
204 226 255
204 226 255
204 226 255
204 226 255
204 226 255
204 226 255
204 226 255
204 226 255
204 226 255
204 226 255
203 226 255
203 226 255
203 226 255
203 226 255
203 226 255
203 226 255
203 226 255
203 226 255
203 225 255
203 225 255
203 225 255
203 225 255
203 225 255
203 225 255
203 225 255
203 225 255
203 225 255
203 225 255
203 225 255
203 225 255
202 225 255
202 225 255
202 225 255
202 225 255
202 225 255
202 225 255
202 225 255
202 225 255
202 225 255
202 225 255
202 225 255
202 225 255
202 225 255
202 225 255
202 225 255
202 225 255
202 225 255
202 225 255
202 225 255
202 225 255
202 225 255
202 225 255
202 225 255
202 225 255
202 225 255
202 225 255
202 225 255
202 225 255
202 225 255
202 225 255
202 225 255
201 225 255
201 225 255
201 225 255
201 225 255
201 225 255
201 225 255
201 225 255
201 225 255
201 225 255
201 225 255
201 225 255
201 225 255
201 225 255
201 225 255
201 225 255
201 225 255
201 225 255
201 225 255
201 225 255
201 225 255
201 225 255
201 225 255
201 225 255
201 225 255
201 225 255
202 225 255
202 225 255
202 225 255
202 225 255
202 225 255
202 225 255
202 225 255
202 225 255
202 225 255
202 225 255
202 225 255
202 225 255
202 225 255
202 225 255
202 225 255
202 225 255
202 225 255
202 225 255
202 225 255
202 225 255
202 225 255
202 225 255
202 225 255
202 225 255
202 225 255
202 225 255
202 225 255
202 225 255
202 225 255
202 225 255
202 225 255
202 225 255
203 225 255
203 225 255
203 225 255
203 225 255
203 225 255
203 225 255
203 225 255
203 225 255
203 225 255
203 225 255
203 225 255
203 225 255
203 226 255
203 226 255
203 226 255
203 226 255
203 226 255
203 226 255
203 226 255
203 226 255
204 226 255
204 226 255
204 226 255
204 226 255
204 226 255
204 226 255
204 226 255
204 226 255
204 226 255
204 226 255
204 226 255
204 226 255
204 226 255
204 226 255
204 226 255
204 226 255
204 226 255
205 226 255
205 226 255
205 226 255
205 226 255
205 226 255
205 226 255
205 226 255
205 227 255
205 227 255
205 227 255
205 227 255
205 227 255
205 227 255
205 227 255
205 227 255
205 227 255
205 227 255
206 227 255
206 227 255
206 227 255
206 227 255
206 227 255
206 227 255
206 227 255
206 227 255
206 227 255
206 227 255
206 227 255
206 227 255
206 227 255
206 227 255
206 227 255
206 227 255
206 227 255
207 227 255
207 227 255
207 227 255
207 227 255
207 228 255
207 228 255
207 228 255
207 228 255
207 228 255
207 228 255
207 228 255
207 228 255
207 228 255
207 228 255
207 228 255
207 228 255
207 228 255
207 228 255
208 228 255
208 228 255
208 228 255
208 228 255
208 228 255
208 228 255
208 228 255
208 228 255
208 228 255
208 228 255
208 228 255
208 228 255
208 228 255
208 228 255
208 228 255
208 228 255
208 228 255
208 228 255
208 228 255
209 228 255
209 228 255
209 229 255
209 229 255
209 229 255
209 229 255
209 229 255
209 229 255
209 229 255
209 229 255
209 229 255
209 229 255
209 229 255
209 229 255
209 229 255
209 229 255
209 229 255
209 229 255
209 229 255
209 229 255
209 229 255
210 229 255
210 229 255
210 229 255
210 229 255
210 229 255
210 229 255
210 229 255
210 229 255
210 229 255
210 229 255
210 229 255
210 229 255
210 229 255
210 229 255
210 229 255
210 229 255
210 229 255
210 229 255
210 229 255
210 229 255
210 229 255
210 229 255
210 230 255
210 230 255
210 230 255
211 230 255
211 230 255
211 230 255
211 230 255
211 230 255
211 230 255
211 230 255
211 230 255
210 230 255
210 230 255
210 230 255
210 229 255
210 229 255
210 229 255
210 229 255
210 229 255
210 229 255
210 229 255
210 229 255
210 229 255
210 229 255
210 229 255
210 229 255
210 229 255
210 229 255
210 229 255
210 229 255
210 229 255
210 229 255
210 229 255
210 229 255
210 229 255
209 229 255
209 229 255
209 229 255
209 229 255
209 229 255
209 229 255
209 229 255
209 229 255
209 229 255
209 229 255
209 229 255
209 229 255
209 229 255
209 229 255
209 229 255
209 229 255
209 229 255
209 229 255
209 229 255
209 229 255
209 228 255
209 228 255
208 228 255
208 228 255
208 228 255
208 228 255
208 228 255
208 228 255
208 228 255
208 228 255
208 228 255
208 228 255
208 228 255
208 228 255
208 228 255
208 228 255
208 228 255
208 228 255
208 228 255
208 228 255
208 228 255
207 228 255
207 228 255
207 228 255
207 228 255
207 228 255
207 228 255
207 228 255
207 228 255
207 228 255
207 228 255
207 228 255
207 228 255
207 228 255
207 227 255
207 227 255
207 227 255
207 227 255
207 227 255
206 227 255
206 227 255
206 227 255
206 227 255
206 227 255
206 227 255
206 227 255
206 227 255
206 227 255
206 227 255
206 227 255
206 227 255
206 227 255
206 227 255
206 227 255
206 227 255
206 227 255
205 227 255
205 227 255
205 227 255
205 227 255
205 227 255
205 227 255
205 227 255
205 227 255
205 227 255
205 227 255
205 226 255
205 226 255
205 226 255
205 226 255
205 226 255
205 226 255
205 226 255
204 226 255
204 226 255
204 226 255
204 226 255
204 226 255
204 226 255
204 226 255
204 226 255
204 226 255
204 226 255
204 226 255
204 226 255
204 226 255
204 226 255
204 226 255
204 226 255
204 226 255
203 226 255
203 226 255
203 226 255
203 226 255
203 226 255
203 226 255
203 226 255
203 226 255
203 226 255
203 225 255
203 225 255
203 225 255
203 225 255
203 225 255
203 225 255
203 225 255
203 225 255
203 225 255
203 225 255
203 225 255
203 225 255
202 225 255
202 225 255
202 225 255
202 225 255
202 225 255
202 225 255
202 225 255
202 225 255
202 225 255
202 225 255
202 225 255
202 225 255
202 225 255
202 225 255
202 225 255
202 225 255
202 225 255
202 225 255
202 225 255
202 225 255
202 225 255
202 225 255
202 225 255
202 225 255
202 225 255
202 225 255
202 225 255
202 225 255
202 225 255
202 225 255
202 225 255
202 225 255
202 225 255
202 225 255
202 225 255
202 225 255
202 225 255
202 225 255
202 225 255
202 225 255
202 225 255
202 225 255
202 225 255
202 225 255
202 225 255
202 225 255
202 225 255
202 225 255
202 225 255
202 225 255
202 225 255
202 225 255
202 225 255
202 225 255
202 225 255
202 225 255
202 225 255
202 225 255
202 225 255
202 225 255
202 225 255
202 225 255
202 225 255
202 225 255
202 225 255
202 225 255
202 225 255
202 225 255
202 225 255
202 225 255
202 225 255
202 225 255
202 225 255
202 225 255
202 225 255
202 225 255
202 225 255
202 225 255
203 225 255
203 225 255
203 225 255
203 225 255
203 225 255
203 225 255
203 225 255
203 225 255
203 225 255
203 225 255
203 225 255
203 225 255
203 226 255
203 226 255
203 226 255
203 226 255
203 226 255
203 226 255
203 226 255
203 226 255
203 226 255
204 226 255
204 226 255
204 226 255
204 226 255
204 226 255
204 226 255
204 226 255
204 226 255
204 226 255
204 226 255
204 226 255
204 226 255
204 226 255
204 226 255
204 226 255
204 226 255
204 226 255
205 226 255
205 226 255
205 226 255
205 226 255
205 226 255
205 226 255
205 226 255
205 227 255
205 227 255
205 227 255
205 227 255
205 227 255
205 227 255
205 227 255
205 227 255
205 227 255
205 227 255
206 227 255
206 227 255
206 227 255
206 227 255
206 227 255
206 227 255
206 227 255
206 227 255
206 227 255
206 227 255
206 227 255
206 227 255
206 227 255
206 227 255
206 227 255
206 227 255
206 227 255
207 227 255
207 227 255
207 227 255
207 227 255
207 227 255
207 228 255
207 228 255
207 228 255
207 228 255
207 228 255
207 228 255
207 228 255
207 228 255
207 228 255
207 228 255
207 228 255
207 228 255
207 228 255
208 228 255
208 228 255
208 228 255
208 228 255
208 228 255
208 228 255
208 228 255
208 228 255
208 228 255
208 228 255
208 228 255
208 228 255
208 228 255
208 228 255
208 228 255
208 228 255
208 228 255
208 228 255
208 228 255
208 228 255
209 228 255
209 229 255
209 229 255
209 229 255
209 229 255
209 229 255
209 229 255
209 229 255
209 229 255
209 229 255
209 229 255
209 229 255
209 229 255
209 229 255
209 229 255
209 229 255
209 229 255
209 229 255
209 229 255
209 229 255
209 229 255
210 229 255
210 229 255
210 229 255
210 229 255
210 229 255
210 229 255
210 229 255
210 229 255
210 229 255
210 229 255
210 229 255
210 229 255
210 229 255
210 229 255
210 229 255
210 229 255
210 229 255
210 229 255
210 229 255
210 229 255
210 229 255
210 230 255
210 230 255
210 230 255
211 230 255
211 230 255
211 230 255
211 230 255
211 230 255
211 230 255
211 230 255
211 230 255
211 230 255
211 230 255
211 230 255
211 230 255
211 230 255
211 230 255
211 230 255
211 230 255
210 230 255
210 230 255
210 230 255
210 229 255
210 229 255
210 229 255
210 229 255
210 229 255
210 229 255
210 229 255
210 229 255
210 229 255
210 229 255
210 229 255
210 229 255
210 229 255
210 229 255
210 229 255
210 229 255
210 229 255
210 229 255
210 229 255
210 229 255
210 229 255
209 229 255
209 229 255
209 229 255
209 229 255
209 229 255
209 229 255
209 229 255
209 229 255
208 228 255
208 228 255
208 228 255
208 228 255
208 228 255
207 228 255
207 228 255
207 227 255
206 227 255
206 227 255
207 228 255
206 227 255
207 228 255
207 228 255
207 228 255
207 228 255
208 228 255
208 228 255
208 228 255
208 228 255
208 228 255
208 228 255
208 228 255
208 228 255
208 228 255
208 228 255
208 228 255
208 228 255
208 228 255
208 228 255
208 228 255
208 228 255
207 228 255
207 228 255
207 228 255
207 228 255
207 228 255
207 228 255
207 228 255
207 228 255
207 228 255
207 228 255
207 228 255
207 228 255
207 228 255
207 228 255
207 227 255
207 227 255
207 227 255
207 227 255
206 227 255
206 227 255
206 227 255
206 227 255
206 227 255
206 227 255
206 227 255
206 227 255
206 227 255
206 227 255
206 227 255
206 227 255
206 227 255
206 227 255
206 227 255
206 227 255
206 227 255
205 227 255
205 227 255
205 227 255
205 227 255
205 227 255
205 227 255
205 227 255
205 227 255
205 227 255
205 227 255
205 226 255
205 226 255
205 226 255
205 226 255
205 226 255
205 226 255
205 226 255
204 226 255
204 226 255
204 226 255
204 226 255
204 226 255
204 226 255
204 226 255
204 226 255
204 226 255
204 226 255
204 226 255
204 226 255
204 226 255
204 226 255
204 226 255
204 226 255
204 226 255
204 226 255
204 226 255
203 226 255
203 226 255
203 226 255
203 226 255
203 226 255
203 226 255
203 226 255
203 226 255
203 226 255
203 225 255
203 225 255
203 225 255
203 225 255
203 225 255
203 225 255
203 225 255
203 225 255
203 225 255
203 225 255
203 225 255
203 225 255
203 225 255
202 225 255
202 225 255
202 225 255
202 225 255
202 225 255
202 225 255
202 225 255
202 225 255
202 225 255
202 225 255
202 225 255
202 225 255
202 225 255
202 225 255
202 225 255
202 225 255
202 225 255
202 225 255
202 225 255
202 225 255
202 225 255
202 225 255
202 225 255
202 225 255
202 225 255
202 225 255
202 225 255
202 225 255
202 225 255
202 225 255
202 225 255
202 225 255
202 225 255
202 225 255
202 225 255
202 225 255
202 225 255
202 225 255
202 225 255
202 225 255
202 225 255
202 225 255
202 225 255
202 225 255
202 225 255
202 225 255
202 225 255
202 225 255
202 225 255
202 225 255
202 225 255
202 225 255
202 225 255
202 225 255
202 225 255
202 225 255
202 225 255
202 225 255
202 225 255
202 225 255
202 225 255
202 225 255
202 225 255
202 225 255
202 225 255
202 225 255
203 225 255
203 225 255
203 225 255
203 225 255
203 225 255
203 225 255
203 225 255
203 225 255
203 225 255
203 225 255
203 225 255
203 225 255
203 225 255
203 225 255
203 226 255
203 226 255
203 226 255
203 226 255
203 226 255
203 226 255
203 226 255
203 226 255
203 226 255
204 226 255
204 226 255
204 226 255
204 226 255
204 226 255
204 226 255
204 226 255
204 226 255
204 226 255
204 226 255
204 226 255
204 226 255
204 226 255
204 226 255
204 226 255
204 226 255
204 226 255
204 226 255
205 226 255
205 226 255
205 226 255
205 226 255
205 226 255
205 226 255
205 226 255
205 227 255
205 227 255
205 227 255
205 227 255
205 227 255
205 227 255
205 227 255
205 227 255
205 227 255
205 227 255
206 227 255
206 227 255
206 227 255
206 227 255
206 227 255
206 227 255
206 227 255
206 227 255
206 227 255
206 227 255
206 227 255
206 227 255
206 227 255
206 227 255
206 227 255
206 227 255
206 227 255
207 227 255
207 227 255
207 227 255
207 227 255
207 228 255
207 228 255
207 228 255
207 228 255
207 228 255
207 228 255
207 228 255
207 228 255
207 228 255
207 228 255
207 228 255
207 228 255
207 228 255
207 228 255
208 228 255
208 228 255
208 228 255
208 228 255
208 228 255
208 228 255
208 228 255
208 228 255
208 228 255
208 228 255
208 228 255
208 228 255
207 227 254
205 224 249
201 220 243
191 207 225
190 205 219
189 204 221
182 195 204
186 198 207
184 198 210
186 198 207
175 188 197
179 190 194
178 190 198
170 180 182
188 201 211
180 191 196
179 193 207
190 205 220
193 207 220
192 208 224
195 212 232
199 217 240
203 221 243
205 224 249
209 229 255
209 229 255
209 229 255
209 229 255
210 229 255
210 229 255
210 229 255
210 229 255
210 229 255
210 229 255
210 229 255
210 229 255
210 229 255
210 229 255
210 229 255
210 229 255
210 229 255
210 229 255
210 229 255
210 229 255
210 229 255
210 229 255
210 229 255
210 229 255
210 229 255
210 230 255
210 230 255
210 230 255
211 230 255
211 230 255
211 230 255
211 230 255
211 230 255
211 230 255
211 230 255
211 230 255
211 230 255
211 230 255
211 230 255
211 230 255
211 230 255
211 230 255
211 230 255
211 230 255
211 230 255
211 230 255
211 230 255
211 230 255
211 230 255
211 230 255
211 230 255
211 230 255
210 230 255
210 230 255
210 230 255
210 229 255
210 229 255
210 229 255
210 229 255
210 229 255
210 229 255
210 229 255
210 229 255
210 229 255
210 229 255
210 229 255
210 229 255
210 229 255
210 229 255
209 229 255
208 228 255
207 228 255
206 227 255
206 227 255
205 227 255
204 226 255
204 226 255
203 225 255
202 225 255
202 225 255
201 225 255
201 224 255
201 224 255
200 224 255
200 224 255
200 224 255
200 224 255
199 223 255
200 224 255
199 224 255
199 223 255
199 223 255
199 224 255
200 224 255
199 224 255
200 224 255
200 224 255
200 224 255
200 224 255
201 224 255
202 225 255
203 225 255
204 226 255
204 226 255
205 227 255
206 227 255
207 227 255
207 228 255
208 228 255
208 228 255
208 228 255
208 228 255
208 228 255
208 228 255
208 228 255
208 228 255
207 228 255
207 228 255
207 228 255
207 228 255
207 228 255
207 228 255
207 228 255
207 228 255
207 228 255
207 228 255
207 228 255
207 228 255
207 228 255
207 227 255
207 227 255
207 227 255
207 227 255
206 227 255
206 227 255
206 227 255
206 227 255
206 227 255
206 227 255
206 227 255
206 227 255
206 227 255
206 227 255
206 227 255
206 227 255
206 227 255
206 227 255
206 227 255
206 227 255
206 227 255
206 227 255
205 227 255
205 227 255
205 227 255
205 227 255
205 227 255
205 227 255
205 227 255
205 227 255
205 227 255
205 227 255
205 226 255
205 226 255
205 226 255
205 226 255
205 226 255
205 226 255
205 226 255
204 226 255
204 226 255
204 226 255
204 226 255
204 226 255
204 226 255
204 226 255
204 226 255
204 226 255
204 226 255
204 226 255
204 226 255
204 226 255
204 226 255
204 226 255
204 226 255
204 226 255
204 226 255
204 226 255
203 226 255
203 226 255
203 226 255
203 226 255
203 226 255
203 226 255
203 226 255
203 226 255
203 226 255
203 226 255
203 225 255
203 225 255
203 225 255
203 225 255
203 225 255
203 225 255
203 225 255
203 225 255
203 225 255
203 225 255
203 225 255
203 225 255
203 225 255
203 225 255
203 225 255
202 225 255
202 225 255
202 225 255
202 225 255
202 225 255
202 225 255
202 225 255
202 225 255
202 225 255
202 225 255
202 225 255
202 225 255
202 225 255
202 225 255
202 225 255
202 225 255
202 225 255
202 225 255
202 225 255
202 225 255
202 225 255
202 225 255
202 225 255
202 225 255
202 225 255
202 225 255
202 225 255
202 225 255
202 225 255
202 225 255
202 225 255
202 225 255
202 225 255
202 225 255
202 225 255
202 225 255
202 225 255
202 225 255
202 225 255
202 225 255
202 225 255
202 225 255
202 225 255
202 225 255
202 225 255
202 225 255
202 225 255
202 225 255
202 225 255
202 225 255
202 225 255
202 225 255
203 225 255
203 225 255
203 225 255
203 225 255
203 225 255
203 225 255
203 225 255
203 225 255
203 225 255
203 225 255
203 225 255
203 225 255
203 225 255
203 225 255
203 225 255
203 225 255
203 226 255
203 226 255
203 226 255
203 226 255
203 226 255
203 226 255
203 226 255
203 226 255
203 226 255
204 226 255
204 226 255
204 226 255
204 226 255
204 226 255
204 226 255
204 226 255
204 226 255
204 226 255
204 226 255
204 226 255
204 226 255
204 226 255
204 226 255
204 226 255
204 226 255
204 226 255
204 226 255
204 226 255
205 226 255
205 226 255
205 226 255
205 226 255
205 226 255
205 226 255
205 226 255
205 227 255
205 227 255
205 227 255
205 227 255
205 227 255
205 227 255
205 227 255
205 227 255
205 227 255
205 227 255
206 227 255
206 227 255
206 227 255
206 227 255
206 227 255
206 227 255
206 227 255
206 227 255
206 227 255
206 227 255
206 227 255
206 227 255
206 227 255
206 227 255
206 227 255
206 227 255
206 227 255
206 227 255
207 227 255
207 227 255
207 227 255
207 227 255
207 228 255
207 228 255
207 228 255
207 228 255
207 228 255
207 228 255
207 228 255
207 228 255
207 228 255
207 228 255
207 228 255
207 228 255
207 228 255
208 228 255
208 228 255
208 228 255
208 228 255
208 228 255
208 228 255
208 228 255
206 226 252
195 213 236
191 207 227
179 191 199
178 189 192
168 177 176
153 157 143
156 161 145
150 148 112
132 129 86
144 141 94
140 137 91
145 141 94
140 136 90
145 142 95
151 148 99
149 146 97
135 133 88
152 149 99
136 133 88
146 143 95
144 141 93
139 135 90
141 138 92
144 141 93
142 139 92
135 132 87
138 135 89
146 142 94
132 128 84
144 139 92
138 134 88
126 123 81
151 149 110
152 151 121
154 158 147
168 177 178
164 171 167
183 195 204
197 212 228
204 222 244
208 227 251
210 229 255
210 229 255
210 229 255
210 229 255
210 229 255
210 229 255
210 229 255
210 229 255
210 229 255
210 229 255
210 229 255
210 229 255
210 230 255
210 230 255
210 230 255
211 230 255
211 230 255
211 230 255
211 230 255
211 230 255
211 230 255
211 230 255
211 230 255
211 230 255
211 230 255
211 230 255
211 230 255
211 230 255
211 230 255
211 230 255
211 230 255
211 230 255
211 230 255
211 230 255
211 230 255
211 230 255
211 230 255
211 230 255
211 230 255
211 230 255
211 230 255
211 230 255
211 230 255
211 230 255
211 230 255
211 230 255
211 230 255
210 230 255
210 230 255
210 230 255
210 229 255
210 229 255
210 229 255
209 229 255
209 229 255
207 228 255
206 227 255
206 227 255
204 226 255
203 226 255
203 225 255
202 225 255
201 224 255
201 224 255
200 224 255
200 224 255
199 223 255
199 223 255
199 223 255
198 223 255
198 223 255
197 222 255
197 222 255
197 222 255
197 222 255
196 222 255
196 222 255
196 222 255
196 222 255
196 222 255
196 222 255
196 222 255
196 221 255
195 221 255
195 221 255
195 221 255
195 221 255
195 221 255
196 221 255
196 221 255
196 222 255
196 222 255
196 222 255
197 222 255
197 222 255
197 222 255
198 223 255
198 223 255
199 223 255
200 224 255
201 224 255
203 226 255
204 226 255
206 227 255
207 228 255
207 228 255
208 228 255
208 228 255
208 228 255
208 228 255
207 228 255
207 228 255
207 228 255
207 228 255
207 228 255
207 228 255
207 228 255
207 228 255
207 228 255
207 228 255
207 228 255
207 228 255
207 228 255
207 228 255
207 227 255
207 227 255
207 227 255
207 227 255
206 227 255
206 227 255
206 227 255
206 227 255
206 227 255
206 227 255
206 227 255
206 227 255
206 227 255
206 227 255
206 227 255
206 227 255
206 227 255
206 227 255
206 227 255
206 227 255
206 227 255
205 227 255
205 227 255
205 227 255
205 227 255
205 227 255
205 227 255
205 227 255
205 227 255
205 227 255
205 227 255
205 227 255
205 226 255
205 226 255
205 226 255
205 226 255
205 226 255
205 226 255
205 226 255
204 226 255
204 226 255
204 226 255
204 226 255
204 226 255
204 226 255
204 226 255
204 226 255
204 226 255
204 226 255
204 226 255
204 226 255
204 226 255
204 226 255
204 226 255
204 226 255
204 226 255
204 226 255
204 226 255
204 226 255
203 226 255
203 226 255
203 226 255
203 226 255
203 226 255
203 226 255
203 226 255
203 226 255
203 226 255
203 226 255
203 225 255
203 225 255
203 225 255
203 225 255
203 225 255
203 225 255
203 225 255
203 225 255
203 225 255
203 225 255
203 225 255
203 225 255
203 225 255
203 225 255
203 225 255
203 225 255
203 225 255
203 225 255
203 225 255
203 225 255
202 225 255
202 225 255
202 225 255
202 225 255
202 225 255
202 225 255
202 225 255
202 225 255
202 225 255
202 225 255
202 225 255
202 225 255
202 225 255
202 225 255
202 225 255
202 225 255
202 225 255
202 225 255
202 225 255
202 225 255
202 225 255
202 225 255
202 225 255
202 225 255
202 225 255
202 225 255
202 225 255
202 225 255
202 225 255
202 225 255
202 225 255
202 225 255
203 225 255
203 225 255
203 225 255
203 225 255
203 225 255
203 225 255
203 225 255
203 225 255
203 225 255
203 225 255
203 225 255
203 225 255
203 225 255
203 225 255
203 225 255
203 225 255
203 225 255
203 225 255
203 225 255
203 226 255
203 226 255
203 226 255
203 226 255
203 226 255
203 226 255
203 226 255
203 226 255
203 226 255
203 226 255
203 226 255
204 226 255
204 226 255
204 226 255
204 226 255
204 226 255
204 226 255
204 226 255
204 226 255
204 226 255
204 226 255
204 226 255
204 226 255
204 226 255
204 226 255
204 226 255
204 226 255
204 226 255
204 226 255
204 226 255
204 226 255
205 226 255
205 226 255
205 226 255
205 226 255
205 226 255
205 226 255
205 226 255
205 227 255
205 227 255
205 227 255
205 227 255
205 227 255
205 227 255
205 227 255
205 227 255
205 227 255
205 227 255
206 227 255
206 227 255
206 227 255
206 227 255
206 227 255
206 227 255
206 227 255
206 227 255
206 227 255
206 227 255
206 227 255
206 227 255
206 227 255
206 227 255
206 227 255
206 227 255
206 227 255
206 227 255
207 227 255
207 227 255
207 227 255
207 227 255
207 228 255
207 228 255
207 228 255
207 228 255
207 228 255
207 228 255
207 228 255
207 228 255
207 228 255
207 228 255
207 228 255
207 228 255
207 228 255
207 228 255
208 228 255
208 228 255
208 228 255
208 228 255
204 223 248
188 202 216
183 197 209
178 188 191
156 160 140
142 143 117
139 137 91
142 139 93
136 134 90
138 136 90
137 135 90
146 143 95
143 141 94
138 135 90
145 143 95
143 141 95
144 142 95
149 147 99
145 143 95
142 140 94
139 137 91
145 143 95
148 146 98
144 142 95
144 142 95
142 140 93
144 143 95
152 150 100
150 148 99
142 140 93
139 136 90
148 145 97
143 140 93
134 132 88
142 140 93
148 145 96
148 145 96
138 135 90
142 139 93
144 142 95
154 150 99
139 136 90
143 138 90
150 146 96
130 127 84
142 138 91
135 131 86
136 132 90
136 134 101
161 164 149
166 173 169
190 202 207
194 208 224
202 219 242
210 229 255
210 229 255
210 230 255
210 230 255
210 230 255
211 230 255
211 230 255
211 230 255
211 230 255
211 230 255
211 230 255
211 230 255
211 230 255
211 230 255
211 230 255
211 230 255
211 230 255
211 230 255
211 230 255
211 230 255
211 230 255
211 230 255
211 230 255
211 230 255
211 230 255
211 230 255
211 230 255
211 230 255
211 230 255
211 230 255
211 230 255
211 230 255
211 230 255
211 230 255
211 230 255
211 230 255
211 230 255
211 230 255
211 230 255
211 230 255
211 230 255
211 230 255
210 229 255
209 229 255
208 228 255
206 227 255
205 226 255
204 226 255
203 225 255
202 225 255
202 225 255
201 224 255
200 224 255
200 224 255
199 224 255
199 223 255
198 223 255
198 223 255
197 222 255
197 222 255
197 222 255
196 222 255
196 222 255
196 222 255
195 221 255
195 221 255
195 221 255
195 221 255
194 221 255
194 221 255
194 221 255
194 221 255
193 220 255
193 220 255
193 220 255
193 220 255
193 220 255
193 220 255
193 220 255
193 220 255
193 220 255
193 220 255
193 220 255
193 220 255
193 220 255
193 220 255
193 220 255
193 220 255
193 220 255
193 220 255
193 220 255
194 221 255
194 221 255
195 221 255
195 221 255
195 221 255
196 222 255
197 222 255
198 223 255
199 223 255
201 224 255
202 225 255
205 227 255
207 227 255
207 228 255
208 228 255
208 228 255
208 228 255
207 228 255
207 228 255
207 228 255
207 228 255
207 228 255
207 228 255
207 228 255
207 228 255
207 228 255
207 228 255
207 228 255
207 228 255
207 228 255
207 227 255
207 227 255
207 227 255
207 227 255
207 227 255
206 227 255
206 227 255
206 227 255
206 227 255
206 227 255
206 227 255
206 227 255
206 227 255
206 227 255
206 227 255
206 227 255
206 227 255
206 227 255
206 227 255
206 227 255
206 227 255
206 227 255
205 227 255
205 227 255
205 227 255
205 227 255
205 227 255
205 227 255
205 227 255
205 227 255
205 227 255
205 227 255
205 227 255
205 226 255
205 226 255
205 226 255
205 226 255
205 226 255
205 226 255
205 226 255
204 226 255
204 226 255
204 226 255
204 226 255
204 226 255
204 226 255
204 226 255
204 226 255
204 226 255
204 226 255
204 226 255
204 226 255
204 226 255
204 226 255
204 226 255
204 226 255
204 226 255
204 226 255
204 226 255
204 226 255
204 226 255
203 226 255
203 226 255
203 226 255
203 226 255
203 226 255
203 226 255
203 226 255
203 226 255
203 226 255
203 226 255
203 226 255
203 226 255
203 225 255
203 225 255
203 225 255
203 225 255
203 225 255
203 225 255
203 225 255
203 225 255
203 225 255
203 225 255
203 225 255
203 225 255
203 225 255
203 225 255
203 225 255
203 225 255
203 225 255
203 225 255
203 225 255
203 225 255
203 225 255
203 225 255
203 225 255
203 225 255
203 225 255
203 225 255
203 225 255
203 225 255
203 225 255
203 225 255
203 225 255
203 225 255
203 225 255
203 225 255
203 225 255
203 225 255
203 225 255
203 225 255
203 225 255
203 225 255
203 225 255
203 225 255
203 225 255
203 225 255
203 225 255
203 225 255
203 225 255
203 225 255
203 225 255
203 225 255
203 225 255
203 225 255
203 225 255
203 225 255
203 225 255
203 225 255
203 225 255
203 225 255
203 226 255
203 226 255
203 226 255
203 226 255
203 226 255
203 226 255
203 226 255
203 226 255
203 226 255
203 226 255
203 226 255
203 226 255
204 226 255
204 226 255
204 226 255
204 226 255
204 226 255
204 226 255
204 226 255
204 226 255
204 226 255
204 226 255
204 226 255
204 226 255
204 226 255
204 226 255
204 226 255
204 226 255
204 226 255
204 226 255
204 226 255
204 226 255
204 226 255
205 226 255
205 226 255
205 226 255
205 226 255
205 226 255
205 226 255
205 226 255
205 227 255
205 227 255
205 227 255
205 227 255
205 227 255
205 227 255
205 227 255
205 227 255
205 227 255
205 227 255
205 227 255
206 227 255
206 227 255
206 227 255
206 227 255
206 227 255
206 227 255
206 227 255
206 227 255
206 227 255
206 227 255
206 227 255
206 227 255
206 227 255
206 227 255
206 227 255
206 227 255
206 227 255
207 227 255
207 227 255
207 227 255
207 227 255
207 227 255
207 228 255
207 228 255
207 228 255
207 228 255
207 228 255
207 228 255
207 228 255
207 228 255
207 228 255
207 228 255
207 228 255
207 228 255
207 228 255
208 228 255
208 228 255
208 228 255
203 222 245
190 204 217
172 183 188
161 167 155
138 138 104
147 144 96
137 135 90
144 142 95
131 129 86
144 142 95
143 141 95
136 135 91
151 149 100
141 139 93
142 141 95
149 147 99
145 144 97
142 140 94
153 152 102
150 149 100
151 150 101
150 148 99
146 144 97
147 146 98
149 148 99
152 151 101
149 148 99
149 147 99
153 151 101
151 150 101
149 147 98
151 149 100
142 140 94
151 149 99
153 151 101
154 152 102
145 143 96
153 151 101
151 149 99
154 152 101
145 143 95
148 145 97
155 152 101
154 151 101
151 149 99
150 148 99
150 146 97
139 135 90
148 144 95
151 148 98
153 150 99
146 143 95
152 148 98
149 145 96
140 135 89
128 124 81
140 135 88
143 138 90
131 126 83
155 153 120
163 167 154
167 175 174
196 210 225
204 222 245
211 230 255
211 230 255
211 230 255
211 230 255
211 230 255
211 230 255
211 230 255
211 230 255
211 230 255
211 230 255
211 230 255
211 230 255
211 230 255
211 230 255
211 230 255
211 230 255
211 230 255
211 230 255
211 230 255
211 230 255
211 230 255
211 230 255
211 230 255
211 230 255
211 230 255
211 230 255
211 230 255
211 230 255
211 230 255
211 230 255
211 230 255
211 230 255
211 230 255
210 229 255
209 229 255
207 228 255
205 227 255
204 226 255
204 226 255
203 225 255
202 225 255
201 225 255
201 224 255
200 224 255
200 224 255
199 223 255
199 223 255
198 223 255
198 223 255
197 222 255
197 222 255
196 222 255
196 222 255
196 222 255
195 221 255
195 221 255
195 221 255
194 221 255
194 221 255
194 221 255
193 220 255
193 220 255
193 220 255
193 220 255
192 220 255
192 220 255
192 220 255
192 219 255
192 219 255
191 219 255
191 219 255
191 219 255
191 219 255
191 219 255
191 219 255
191 219 255
191 219 255
191 219 255
191 219 255
190 219 255
190 219 255
190 219 255
191 219 255
191 219 255
191 219 255
191 219 255
191 219 255
191 219 255
191 219 255
192 219 255
192 220 255
192 220 255
193 220 255
194 220 255
194 221 255
195 221 255
195 221 255
197 222 255
198 223 255
199 223 255
202 225 255
204 226 255
206 227 255
207 228 255
208 228 255
208 228 255
208 228 255
207 228 255
207 228 255
207 228 255
207 228 255
207 228 255
207 228 255
207 228 255
207 228 255
207 228 255
207 228 255
207 228 255
207 228 255
207 228 255
207 227 255
207 227 255
207 227 255
207 227 255
206 227 255
206 227 255
206 227 255
206 227 255
206 227 255
206 227 255
206 227 255
206 227 255
206 227 255
206 227 255
206 227 255
206 227 255
206 227 255
206 227 255
206 227 255
206 227 255
206 227 255
206 227 255
205 227 255
205 227 255
205 227 255
205 227 255
205 227 255
205 227 255
205 227 255
205 227 255
205 227 255
205 227 255
205 227 255
205 226 255
205 226 255
205 226 255
205 226 255
205 226 255
205 226 255
205 226 255
205 226 255
204 226 255
204 226 255
204 226 255
204 226 255
204 226 255
204 226 255
204 226 255
204 226 255
204 226 255
204 226 255
204 226 255
204 226 255
204 226 255
204 226 255
204 226 255
204 226 255
204 226 255
204 226 255
204 226 255
204 226 255
204 226 255
204 226 255
203 226 255
203 226 255
203 226 255
203 226 255
203 226 255
203 226 255
203 226 255
203 226 255
203 226 255
203 226 255
203 226 255
203 226 255
203 226 255
203 226 255
203 226 255
203 225 255
203 225 255
203 225 255
203 225 255
203 225 255
203 225 255
203 225 255
203 225 255
203 225 255
203 225 255
203 225 255
203 225 255
203 225 255
203 225 255
203 225 255
203 225 255
203 225 255
203 225 255
203 225 255
203 225 255
203 225 255
203 225 255
203 225 255
203 225 255
203 225 255
203 225 255
203 225 255
203 225 255
203 225 255
203 225 255
203 225 255
203 225 255
203 225 255
203 225 255
203 225 255
203 225 255
203 225 255
203 225 255
203 225 255
203 225 255
203 226 255
203 226 255
203 226 255
203 226 255
203 226 255
203 226 255
203 226 255
203 226 255
203 226 255
203 226 255
203 226 255
203 226 255
203 226 255
203 226 255
203 226 255
204 226 255
204 226 255
204 226 255
204 226 255
204 226 255
204 226 255
204 226 255
204 226 255
204 226 255
204 226 255
204 226 255
204 226 255
204 226 255
204 226 255
204 226 255
204 226 255
204 226 255
204 226 255
204 226 255
204 226 255
204 226 255
204 226 255
205 226 255
205 226 255
205 226 255
205 226 255
205 226 255
205 226 255
205 226 255
205 226 255
205 227 255
205 227 255
205 227 255
205 227 255
205 227 255
205 227 255
205 227 255
205 227 255
205 227 255
205 227 255
205 227 255
206 227 255
206 227 255
206 227 255
206 227 255
206 227 255
206 227 255
206 227 255
206 227 255
206 227 255
206 227 255
206 227 255
206 227 255
206 227 255
206 227 255
206 227 255
206 227 255
206 227 255
206 227 255
207 227 255
207 227 255
207 227 255
207 227 255
207 228 255
207 228 255
207 228 255
207 228 255
207 228 255
207 228 255
207 228 255
207 228 255
207 228 255
207 228 255
207 228 255
207 228 255
207 228 255
208 228 255
208 228 255
208 228 255
193 211 232
182 196 209
168 177 173
147 150 127
136 134 89
141 139 93
137 135 90
140 138 92
142 141 95
144 142 95
145 143 96
139 139 93
136 135 90
152 151 101
143 143 96
158 156 105
158 157 106
157 156 104
150 149 100
149 149 100
148 148 99
155 154 104
152 151 102
154 153 103
146 146 98
148 147 99
155 154 104
158 157 105
143 142 95
153 153 103
158 157 106
156 155 104
151 150 101
153 152 102
154 153 103
155 154 103
160 158 106
151 149 100
149 147 99
148 146 98
155 153 103
156 154 103
160 159 106
151 149 100
152 149 99
153 151 101
145 143 95
139 137 91
152 150 101
153 151 101
152 150 100
156 153 102
155 153 102
147 144 95
144 141 93
148 145 97
149 146 97
150 146 97
152 149 99
147 144 95
141 138 91
142 138 91
140 137 90
142 138 91
147 143 95
142 137 90
147 142 93
140 136 89
142 142 117
163 171 171
178 189 198
198 215 236
211 230 255
211 230 255
211 230 255
211 230 255
211 230 255
211 230 255
211 230 255
211 230 255
211 230 255
211 230 255
211 230 255
211 230 255
211 230 255
211 230 255
212 230 255
212 230 255
212 230 255
212 230 255
211 230 255
211 230 255
211 230 255
211 230 255
211 230 255
211 230 255
211 230 255
210 229 255
209 229 255
207 228 255
205 227 255
205 226 255
204 226 255
203 225 255
202 225 255
202 225 255
201 224 255
200 224 255
200 224 255
199 223 255
199 223 255
198 223 255
198 223 255
197 222 255
197 222 255
196 222 255
196 222 255
196 222 255
195 221 255
195 221 255
195 221 255
194 221 255
194 221 255
194 220 255
193 220 255
193 220 255
193 220 255
192 220 255
192 220 255
192 219 255
191 219 255
191 219 255
191 219 255
191 219 255
191 219 255
190 219 255
190 219 255
190 219 255
190 218 255
190 218 255
189 218 255
189 218 255
189 218 255
189 218 255
189 218 255
189 218 255
189 218 255
189 218 255
189 218 255
189 218 255
189 218 255
189 218 255
189 218 255
189 218 255
189 218 255
189 218 255
189 218 255
189 218 255
190 218 255
190 218 255
190 219 255
190 219 255
191 219 255
191 219 255
192 219 255
192 220 255
193 220 255
194 220 255
194 221 255
196 222 255
197 222 255
199 223 255
201 224 255
203 226 255
206 227 255
207 228 255
208 228 255
208 228 255
207 228 255
207 228 255
207 228 255
207 228 255
207 228 255
207 228 255
207 228 255
207 228 255
207 228 255
207 228 255
207 228 255
207 228 255
207 228 255
207 228 255
207 227 255
207 227 255
207 227 255
207 227 255
206 227 255
206 227 255
206 227 255
206 227 255
206 227 255
206 227 255
206 227 255
206 227 255
206 227 255
206 227 255
206 227 255
206 227 255
206 227 255
206 227 255
206 227 255
206 227 255
206 227 255
206 227 255
205 227 255
205 227 255
205 227 255
205 227 255
205 227 255
205 227 255
205 227 255
205 227 255
205 227 255
205 227 255
205 227 255
205 226 255
205 226 255
205 226 255
205 226 255
205 226 255
205 226 255
205 226 255
205 226 255
204 226 255
204 226 255
204 226 255
204 226 255
204 226 255
204 226 255
204 226 255
204 226 255
204 226 255
204 226 255
204 226 255
204 226 255
204 226 255
204 226 255
204 226 255
204 226 255
204 226 255
204 226 255
204 226 255
204 226 255
204 226 255
204 226 255
204 226 255
204 226 255
204 226 255
204 226 255
203 226 255
203 226 255
203 226 255
203 226 255
203 226 255
203 226 255
203 226 255
203 226 255
203 226 255
203 226 255
203 226 255
203 226 255
203 226 255
203 226 255
203 226 255
203 226 255
203 226 255
203 226 255
203 226 255
203 226 255
203 226 255
203 226 255
203 226 255
203 226 255
203 226 255
203 226 255
203 226 255
203 226 255
203 226 255
203 226 255
203 226 255
203 226 255
203 226 255
203 226 255
203 226 255
203 226 255
203 226 255
203 226 255
203 226 255
203 226 255
203 226 255
203 226 255
203 226 255
203 226 255
203 226 255
203 226 255
203 226 255
203 226 255
203 226 255
203 226 255
203 226 255
203 226 255
203 226 255
203 226 255
204 226 255
204 226 255
204 226 255
204 226 255
204 226 255
204 226 255
204 226 255
204 226 255
204 226 255
204 226 255
204 226 255
204 226 255
204 226 255
204 226 255
204 226 255
204 226 255
204 226 255
204 226 255
204 226 255
204 226 255
204 226 255
204 226 255
204 226 255
204 226 255
204 226 255
204 226 255
205 226 255
205 226 255
205 226 255
205 226 255
205 226 255
205 226 255
205 226 255
205 226 255
205 227 255
205 227 255
205 227 255
205 227 255
205 227 255
205 227 255
205 227 255
205 227 255
205 227 255
205 227 255
205 227 255
206 227 255
206 227 255
206 227 255
206 227 255
206 227 255
206 227 255
206 227 255
206 227 255
206 227 255
206 227 255
206 227 255
206 227 255
206 227 255
206 227 255
206 227 255
206 227 255
206 227 255
206 227 255
207 227 255
207 227 255
207 227 255
207 227 255
207 228 255
207 228 255
207 228 255
207 228 255
207 228 255
207 228 255
207 228 255
207 228 255
207 228 255
207 228 255
207 228 255
207 228 255
207 228 255
207 228 255
208 228 255
208 228 255
204 223 248
190 205 219
165 174 175
143 143 113
142 140 93
134 132 88
143 141 95
142 140 94
146 144 97
140 139 93
145 144 97
143 142 96
147 146 98
153 152 102
153 152 103
145 145 98
154 153 103
152 151 102
152 151 102
151 151 102
152 152 103
150 150 101
152 151 102
147 147 99
153 153 103
148 147 99
148 147 99
149 148 100
154 154 104
159 158 106
158 157 106
156 156 105
157 156 105
150 149 101
155 154 104
154 153 103
165 163 110
155 154 104
160 158 106
162 161 108
146 145 98
160 158 106
159 158 106
154 153 103
158 156 104
160 159 106
159 157 106
156 155 104
159 157 105
153 151 101
159 156 104
163 160 107
155 152 101
149 147 98
156 154 103
157 155 103
153 151 101
153 150 100
157 155 103
145 142 94
147 144 96
153 150 99
154 151 101
151 147 97
150 147 97
152 147 97
139 136 90
155 151 100
144 140 93
151 147 97
147 143 94
150 146 96
153 148 97
145 140 92
141 136 89
149 144 94
145 142 108
164 170 164
185 197 206
207 225 248
211 230 255
211 230 255
211 230 255
211 230 255
211 230 255
211 230 255
212 230 255
212 230 255
212 230 255
212 230 255
212 230 255
212 230 255
212 230 255
212 230 255
212 230 255
212 230 255
212 230 255
211 230 255
210 229 255
208 228 255
207 228 255
205 227 255
205 226 255
204 226 255
203 225 255
202 225 255
202 225 255
201 224 255
200 224 255
200 224 255
199 223 255
199 223 255
198 223 255
198 223 255
197 222 255
197 222 255
196 222 255
196 222 255
196 221 255
195 221 255
195 221 255
194 221 255
194 221 255
194 221 255
193 220 255
193 220 255
193 220 255
192 220 255
192 220 255
192 219 255
191 219 255
191 219 255
191 219 255
191 219 255
190 219 255
190 219 255
190 219 255
190 218 255
189 218 255
189 218 255
189 218 255
189 218 255
189 218 255
188 218 255
188 218 255
188 218 255
188 218 255
188 217 255
188 217 255
188 217 255
188 217 255
187 217 255
187 217 255
187 217 255
187 217 255
187 217 255
187 217 255
187 217 255
187 217 255
187 217 255
187 217 255
187 217 255
188 217 255
188 217 255
188 217 255
188 218 255
188 218 255
189 218 255
189 218 255
189 218 255
190 219 255
190 219 255
191 219 255
192 219 255
192 220 255
193 220 255
194 221 255
196 222 255
197 222 255
199 223 255
203 225 255
204 226 255
207 228 255
208 228 255
208 228 255
208 228 255
207 228 255
207 228 255
207 228 255
207 228 255
207 228 255
207 228 255
207 228 255
207 228 255
207 228 255
207 228 255
207 228 255
207 228 255
207 228 255
207 228 255
207 227 255
207 227 255
207 227 255
207 227 255
206 227 255
206 227 255
206 227 255
206 227 255
206 227 255
206 227 255
206 227 255
206 227 255
206 227 255
206 227 255
206 227 255
206 227 255
206 227 255
206 227 255
206 227 255
206 227 255
206 227 255
206 227 255
205 227 255
205 227 255
205 227 255
205 227 255
205 227 255
205 227 255
205 227 255
205 227 255
205 227 255
205 227 255
205 227 255
205 227 255
205 226 255
205 226 255
205 226 255
205 226 255
205 226 255
205 226 255
205 226 255
205 226 255
204 226 255
204 226 255
204 226 255
204 226 255
204 226 255
204 226 255
204 226 255
204 226 255
204 226 255
204 226 255
204 226 255
204 226 255
204 226 255
204 226 255
204 226 255
204 226 255
204 226 255
204 226 255
204 226 255
204 226 255
204 226 255
204 226 255
204 226 255
204 226 255
204 226 255
204 226 255
204 226 255
204 226 255
204 226 255
204 226 255
203 226 255
203 226 255
203 226 255
203 226 255
203 226 255
203 226 255
203 226 255
203 226 255
203 226 255
203 226 255
203 226 255
203 226 255
203 226 255
203 226 255
203 226 255
203 226 255
203 226 255
203 226 255
203 226 255
203 226 255
203 226 255
203 226 255
203 226 255
203 226 255
203 226 255
203 226 255
203 226 255
203 226 255
203 226 255
203 226 255
203 226 255
203 226 255
203 226 255
203 226 255
203 226 255
203 226 255
204 226 255
204 226 255
204 226 255
204 226 255
204 226 255
204 226 255
204 226 255
204 226 255
204 226 255
204 226 255
204 226 255
204 226 255
204 226 255
204 226 255
204 226 255
204 226 255
204 226 255
204 226 255
204 226 255
204 226 255
204 226 255
204 226 255
204 226 255
204 226 255
204 226 255
204 226 255
204 226 255
204 226 255
204 226 255
204 226 255
205 226 255
205 226 255
205 226 255
205 226 255
205 226 255
205 226 255
205 226 255
205 226 255
205 227 255
205 227 255
205 227 255
205 227 255
205 227 255
205 227 255
205 227 255
205 227 255
205 227 255
205 227 255
205 227 255
205 227 255
206 227 255
206 227 255
206 227 255
206 227 255
206 227 255
206 227 255
206 227 255
206 227 255
206 227 255
206 227 255
206 227 255
206 227 255
206 227 255
206 227 255
206 227 255
206 227 255
206 227 255
206 227 255
207 227 255
207 227 255
207 227 255
207 227 255
207 228 255
207 228 255
207 228 255
207 228 255
207 228 255
207 228 255
207 228 255
207 228 255
207 228 255
207 228 255
207 228 255
207 228 255
207 228 255
207 228 255
208 228 255
208 228 255
207 228 254
194 211 233
163 173 176
157 162 147
140 138 94
142 140 93
146 144 97
136 134 90
149 148 99
140 139 93
145 144 97
146 146 98
148 148 100
147 146 99
148 148 99
150 151 102
149 148 100
147 148 100
149 149 101
143 143 97
157 157 106
156 156 106
152 151 102
153 153 103
150 150 101
158 158 106
154 154 104
161 161 109
153 154 104
155 155 104
158 157 106
158 158 106
158 158 107
158 158 107
153 153 103
157 157 106
156 156 105
157 156 105
156 156 105
156 155 104
160 159 108
158 157 106
155 154 104
157 156 105
155 154 103
161 160 108
162 160 108
155 154 103
162 161 108
154 153 103
164 162 108
160 158 106
159 157 105
155 153 103
160 159 107
159 157 105
158 156 104
150 147 98
158 156 104
159 156 104
156 154 103
159 156 104
160 157 104
159 156 104
149 146 97
155 152 101
149 145 96
154 152 101
153 150 99
159 157 104
156 152 101
163 158 104
156 153 101
157 153 101
147 144 95
152 148 97
144 139 92
157 153 101
150 145 95
155 149 98
153 149 98
143 139 91
140 136 89
142 136 89
158 159 137
178 187 190
198 214 232
212 230 255
212 230 255
212 230 255
212 230 255
212 230 255
212 230 255
212 230 255
212 230 255
212 230 255
212 230 255
212 230 255
211 230 255
210 229 255
208 228 255
207 227 255
206 227 255
205 226 255
204 226 255
203 225 255
202 225 255
202 225 255
201 224 255
200 224 255
200 224 255
199 224 255
199 223 255
198 223 255
198 223 255
197 222 255
197 222 255
197 222 255
196 222 255
196 222 255
195 221 255
195 221 255
195 221 255
194 221 255
194 221 255
193 220 255
193 220 255
193 220 255
192 220 255
192 220 255
192 219 255
191 219 255
191 219 255
191 219 255
191 219 255
190 219 255
190 219 255
190 218 255
189 218 255
189 218 255
189 218 255
189 218 255
189 218 255
188 218 255
188 218 255
188 217 255
188 217 255
187 217 255
187 217 255
187 217 255
187 217 255
187 217 255
187 217 255
187 217 255
186 217 255
186 217 255
186 217 255
186 217 255
186 217 255
186 216 255
186 216 255
186 216 255
186 216 255
186 216 255
186 217 255
186 217 255
186 217 255
186 217 255
186 217 255
186 217 255
187 217 255
187 217 255
187 217 255
187 217 255
188 217 255
188 218 255
189 218 255
189 218 255
189 218 255
190 219 255
191 219 255
191 219 255
192 220 255
194 220 255
195 221 255
196 222 255
198 223 255
201 224 255
205 226 255
207 228 255
208 228 255
208 228 255
208 228 255
208 228 255
207 228 255
207 228 255
207 228 255
207 228 255
207 228 255
207 228 255
207 228 255
207 228 255
207 228 255
207 228 255
207 228 255
207 228 255
207 228 255
207 228 255
207 227 255
207 227 255
207 227 255
207 227 255
206 227 255
206 227 255
206 227 255
206 227 255
206 227 255
206 227 255
206 227 255
206 227 255
206 227 255
206 227 255
206 227 255
206 227 255
206 227 255
206 227 255
206 227 255
206 227 255
206 227 255
206 227 255
206 227 255
205 227 255
205 227 255
205 227 255
205 227 255
205 227 255
205 227 255
205 227 255
205 227 255
205 227 255
205 227 255
205 227 255
205 227 255
205 226 255
205 226 255
205 226 255
205 226 255
205 226 255
205 226 255
205 226 255
205 226 255
205 226 255
204 226 255
204 226 255
204 226 255
204 226 255
204 226 255
204 226 255
204 226 255
204 226 255
204 226 255
204 226 255
204 226 255
204 226 255
204 226 255
204 226 255
204 226 255
204 226 255
204 226 255
204 226 255
204 226 255
204 226 255
204 226 255
204 226 255
204 226 255
204 226 255
204 226 255
204 226 255
204 226 255
204 226 255
204 226 255
204 226 255
204 226 255
204 226 255
204 226 255
204 226 255
204 226 255
204 226 255
204 226 255
204 226 255
204 226 255
204 226 255
204 226 255
204 226 255
204 226 255
204 226 255
204 226 255
204 226 255
204 226 255
204 226 255
204 226 255
204 226 255
204 226 255
204 226 255
204 226 255
204 226 255
204 226 255
204 226 255
204 226 255
204 226 255
204 226 255
204 226 255
204 226 255
204 226 255
204 226 255
204 226 255
204 226 255
204 226 255
204 226 255
204 226 255
204 226 255
204 226 255
204 226 255
204 226 255
204 226 255
204 226 255
204 226 255
204 226 255
204 226 255
204 226 255
204 226 255
204 226 255
204 226 255
204 226 255
204 226 255
204 226 255
205 226 255
205 226 255
205 226 255
205 226 255
205 226 255
205 226 255
205 226 255
205 226 255
205 226 255
205 227 255
205 227 255
205 227 255
205 227 255
205 227 255
205 227 255
205 227 255
205 227 255
205 227 255
205 227 255
205 227 255
205 227 255
206 227 255
206 227 255
206 227 255
206 227 255
206 227 255
206 227 255
206 227 255
206 227 255
206 227 255
206 227 255
206 227 255
206 227 255
206 227 255
206 227 255
206 227 255
206 227 255
206 227 255
206 227 255
206 227 255
207 227 255
207 227 255
207 227 255
207 227 255
207 228 255
207 228 255
207 228 255
207 228 255
207 228 255
207 228 255
207 228 255
207 228 255
207 228 255
207 228 255
207 228 255
207 228 255
207 228 255
207 228 255
208 228 255
208 228 255
208 228 255
207 228 254
185 200 214
163 172 172
156 159 137
144 142 95
153 151 101
147 145 97
140 138 93
141 140 95
152 151 102
141 140 95
150 149 101
153 152 103
154 154 104
154 154 104
150 151 102
146 146 99
155 155 104
156 155 105
157 156 106
158 158 107
159 158 107
155 155 105
160 160 109
163 163 110
156 156 106
162 162 110
158 158 107
155 155 105
156 156 106
159 159 108
161 162 109
163 163 110
161 161 109
158 158 107
160 160 108
162 162 110
159 159 108
163 163 110
163 163 110
159 159 108
162 162 109
162 161 109
160 159 108
155 154 104
163 162 109
161 161 109
161 160 108
158 157 106
156 156 105
161 160 108
161 161 108
157 157 106
158 157 105
157 156 104
156 155 104
157 156 104
149 147 99
160 157 105
161 158 106
161 158 106
157 155 104
161 158 106
155 153 102
154 151 101
154 151 101
154 152 101
164 161 107
162 158 105
159 157 104
159 155 103
161 159 106
156 152 101
156 152 101
150 147 98
157 153 101
157 153 101
155 150 99
154 149 99
151 146 96
148 143 94
147 142 93
152 147 97
159 154 101
142 138 90
146 141 93
151 145 95
153 148 97
139 134 87
133 128 84
152 151 123
178 187 190
195 209 226
212 230 255
212 230 255
212 230 255
212 230 255
212 230 255
212 230 255
210 229 255
209 229 255
207 228 255
206 227 255
205 227 255
204 226 255
203 226 255
203 225 255
202 225 255
201 225 255
201 224 255
200 224 255
200 224 255
199 223 255
199 223 255
198 223 255
198 223 255
197 222 255
197 222 255
196 222 255
196 222 255
196 222 255
195 221 255
195 221 255
194 221 255
194 221 255
194 221 255
193 220 255
193 220 255
193 220 255
192 220 255
192 220 255
192 219 255
191 219 255
191 219 255
191 219 255
191 219 255
190 219 255
190 218 255
190 218 255
189 218 255
189 218 255
189 218 255
189 218 255
188 218 255
188 218 255
188 217 255
188 217 255
187 217 255
187 217 255
187 217 255
187 217 255
187 217 255
186 217 255
186 217 255
186 216 255
186 216 255
186 216 255
186 216 255
185 216 255
185 216 255
185 216 255
185 216 255
185 216 255
185 216 255
185 216 255
185 216 255
185 216 255
185 216 255
185 216 255
185 216 255
185 216 255
185 216 255
185 216 255
185 216 255
185 216 255
185 216 255
186 216 255
186 216 255
186 217 255
187 217 255
187 217 255
187 217 255
188 217 255
188 218 255
189 218 255
189 218 255
190 219 255
191 219 255
192 220 255
193 220 255
194 221 255
196 222 255
198 223 255
201 224 255
204 226 255
207 228 255
208 228 255
208 228 255
208 228 255
208 228 255
208 228 255
207 228 255
207 228 255
207 228 255
207 228 255
207 228 255
207 228 255
207 228 255
207 228 255
207 228 255
207 228 255
207 228 255
207 228 255
207 228 255
207 228 255
207 227 255
207 227 255
207 227 255
207 227 255
206 227 255
206 227 255
206 227 255
206 227 255
206 227 255
206 227 255
206 227 255
206 227 255
206 227 255
206 227 255
206 227 255
206 227 255
206 227 255
206 227 255
206 227 255
206 227 255
206 227 255
206 227 255
206 227 255
205 227 255
205 227 255
205 227 255
205 227 255
205 227 255
205 227 255
205 227 255
205 227 255
205 227 255
205 227 255
205 227 255
205 227 255
205 227 255
205 226 255
205 226 255
205 226 255
205 226 255
205 226 255
205 226 255
205 226 255
205 226 255
205 226 255
205 226 255
205 226 255
204 226 255
204 226 255
204 226 255
204 226 255
204 226 255
204 226 255
204 226 255
204 226 255
204 226 255
204 226 255
204 226 255
204 226 255
204 226 255
204 226 255
204 226 255
204 226 255
204 226 255
204 226 255
204 226 255
204 226 255
204 226 255
204 226 255
204 226 255
204 226 255
204 226 255
204 226 255
204 226 255
204 226 255
204 226 255
204 226 255
204 226 255
204 226 255
204 226 255
204 226 255
204 226 255
204 226 255
204 226 255
204 226 255
204 226 255
204 226 255
204 226 255
204 226 255
204 226 255
204 226 255
204 226 255
204 226 255
204 226 255
204 226 255
204 226 255
204 226 255
204 226 255
204 226 255
204 226 255
204 226 255
204 226 255
204 226 255
204 226 255
204 226 255
204 226 255
204 226 255
204 226 255
204 226 255
204 226 255
204 226 255
204 226 255
204 226 255
204 226 255
204 226 255
204 226 255
204 226 255
205 226 255
205 226 255
205 226 255
205 226 255
205 226 255
205 226 255
205 226 255
205 226 255
205 226 255
205 226 255
205 226 255
205 227 255
205 227 255
205 227 255
205 227 255
205 227 255
205 227 255
205 227 255
205 227 255
205 227 255
205 227 255
205 227 255
205 227 255
206 227 255
206 227 255
206 227 255
206 227 255
206 227 255
206 227 255
206 227 255
206 227 255
206 227 255
206 227 255
206 227 255
206 227 255
206 227 255
206 227 255
206 227 255
206 227 255
206 227 255
206 227 255
206 227 255
206 227 255
207 227 255
207 227 255
207 227 255
207 227 255
207 228 255
207 228 255
207 228 255
207 228 255
207 228 255
207 228 255
207 228 255
207 228 255
207 228 255
207 228 255
207 228 255
207 228 255
207 228 255
207 228 255
208 228 255
208 228 255
208 228 255
208 228 255
208 228 255
194 212 234
172 184 190
150 151 121
133 131 87
145 143 96
145 143 96
146 145 97
145 145 97
151 150 101
147 147 99
147 147 99
151 151 102
157 157 106
155 155 104
152 152 103
155 156 106
152 153 104
161 161 109
156 156 106
151 151 102
157 158 107
156 157 106
161 161 109
156 157 106
162 163 110
160 160 109
157 158 107
161 161 109
154 155 106
157 157 106
161 162 110
162 163 110
158 158 108
163 163 110
154 154 104
163 163 110
166 165 112
157 157 106
163 163 110
160 161 109
159 159 108
160 161 109
162 161 109
161 161 109
165 165 112
163 163 110
162 162 109
164 163 110
161 161 108
164 163 110
164 164 110
156 155 104
165 164 110
162 162 109
162 161 108
168 167 112
162 161 108
165 163 110
162 161 108
159 157 106
155 154 103
160 158 106
160 158 106
164 162 109
158 155 104
161 159 106
168 165 110
160 157 104
164 162 108
153 151 101
161 158 105
156 153 101
164 161 107
161 159 106
157 154 103
162 159 106
154 151 101
158 155 103
157 153 101
160 157 104
154 150 99
153 150 99
156 151 100
153 148 97
149 144 95
145 141 93
148 145 96
148 143 94
142 138 90
148 143 94
145 139 91
146 141 93
139 134 87
149 142 93
142 137 90
148 149 126
168 175 172
197 212 229
212 230 255
209 229 255
208 228 255
206 227 255
205 227 255
205 226 255
204 226 255
203 226 255
202 225 255
202 225 255
201 225 255
201 224 255
200 224 255
200 224 255
199 223 255
199 223 255
198 223 255
198 223 255
197 222 255
197 222 255
196 222 255
196 222 255
196 222 255
195 221 255
195 221 255
195 221 255
194 221 255
194 221 255
193 220 255
193 220 255
193 220 255
192 220 255
192 220 255
192 219 255
191 219 255
191 219 255
191 219 255
191 219 255
190 219 255
190 219 255
190 218 255
189 218 255
189 218 255
189 218 255
189 218 255
188 218 255
188 218 255
188 217 255
188 217 255
187 217 255
187 217 255
187 217 255
187 217 255
186 217 255
186 217 255
186 216 255
186 216 255
186 216 255
185 216 255
185 216 255
185 216 255
185 216 255
185 216 255
185 216 255
185 216 255
184 216 255
184 216 255
184 216 255
184 216 255
184 216 255
184 215 255
184 215 255
184 215 255
184 215 255
184 215 255
184 215 255
184 215 255
184 215 255
184 216 255
184 216 255
184 216 255
185 216 255
185 216 255
185 216 255
185 216 255
185 216 255
186 216 255
186 217 255
187 217 255
187 217 255
188 217 255
188 218 255
189 218 255
190 219 255
191 219 255
192 219 255
193 220 255
194 221 255
196 222 255
198 223 255
202 225 255
206 227 255
208 228 255
208 228 255
208 228 255
208 228 255
208 228 255
208 228 255
208 228 255
207 228 255
207 228 255
207 228 255
207 228 255
207 228 255
207 228 255
207 228 255
207 228 255
207 228 255
207 228 255
207 228 255
207 228 255
207 228 255
207 228 255
207 227 255
207 227 255
207 227 255
207 227 255
207 227 255
206 227 255
206 227 255
206 227 255
206 227 255
206 227 255
206 227 255
206 227 255
206 227 255
206 227 255
206 227 255
206 227 255
206 227 255
206 227 255
206 227 255
206 227 255
206 227 255
206 227 255
206 227 255
206 227 255
206 227 255
205 227 255
205 227 255
205 227 255
205 227 255
205 227 255
205 227 255
205 227 255
205 227 255
205 227 255
205 227 255
205 227 255
205 227 255
205 227 255
205 226 255
205 226 255
205 226 255
205 226 255
205 226 255
205 226 255
205 226 255
205 226 255
205 226 255
205 226 255
205 226 255
205 226 255
204 226 255
204 226 255
204 226 255
204 226 255
204 226 255
204 226 255
204 226 255
204 226 255
204 226 255
204 226 255
204 226 255
204 226 255
204 226 255
204 226 255
204 226 255
204 226 255
204 226 255
204 226 255
204 226 255
204 226 255
204 226 255
204 226 255
204 226 255
204 226 255
204 226 255
204 226 255
204 226 255
204 226 255
204 226 255
204 226 255
204 226 255
204 226 255
204 226 255
204 226 255
204 226 255
204 226 255
204 226 255
204 226 255
204 226 255
204 226 255
204 226 255
204 226 255
204 226 255
204 226 255
204 226 255
204 226 255
204 226 255
204 226 255
204 226 255
204 226 255
204 226 255
204 226 255
204 226 255
204 226 255
204 226 255
204 226 255
205 226 255
205 226 255
205 226 255
205 226 255
205 226 255
205 226 255
205 226 255
205 226 255
205 226 255
205 226 255
205 226 255
205 226 255
205 227 255
205 227 255
205 227 255
205 227 255
205 227 255
205 227 255
205 227 255
205 227 255
205 227 255
205 227 255
205 227 255
205 227 255
205 227 255
205 227 255
206 227 255
206 227 255
206 227 255
206 227 255
206 227 255
206 227 255
206 227 255
206 227 255
206 227 255
206 227 255
206 227 255
206 227 255
206 227 255
206 227 255
206 227 255
206 227 255
206 227 255
206 227 255
206 227 255
206 227 255
207 227 255
207 227 255
207 227 255
207 227 255
207 228 255
207 228 255
207 228 255
207 228 255
207 228 255
207 228 255
207 228 255
207 228 255
207 228 255
207 228 255
207 228 255
207 228 255
207 228 255
207 228 255
208 228 255
208 228 255
208 228 255
208 228 255
208 228 255
208 228 255
203 223 247
189 205 222
147 150 131
146 144 96
145 143 95
144 142 95
141 141 95
147 146 98
154 153 103
156 156 105
146 146 99
157 156 106
158 157 106
158 158 107
151 151 103
155 156 106
157 158 108
158 159 108
154 155 105
155 156 106
158 158 108
156 157 107
151 152 103
160 160 109
160 161 109
160 161 110
163 163 110
160 161 109
157 158 108
161 162 110
162 163 111
164 164 111
163 164 111
163 164 111
165 165 112
164 165 112
163 163 110
160 160 109
159 160 108
164 165 112
163 164 111
166 167 113
167 167 113
160 160 109
164 164 111
165 166 112
165 164 111
165 165 112
162 162 110
163 163 110
166 165 112
167 166 112
163 163 110
164 163 110
168 167 112
165 164 110
169 167 112
164 163 109
165 164 110
165 164 110
166 165 110
164 162 109
165 164 110
162 161 108
163 161 108
166 164 109
167 164 110
160 157 105
164 162 108
160 158 106
164 162 109
161 158 106
166 164 109
163 160 106
163 160 106
152 150 100
157 155 103
172 168 112
158 154 102
160 156 104
163 159 106
158 154 103
160 155 103
150 147 98
160 155 103
160 155 102
162 157 104
152 148 98
156 152 100
156 151 99
155 151 99
158 152 99
153 148 97
148 143 94
152 146 96
148 143 94
151 146 95
153 146 95
146 140 92
140 135 88
146 140 92
164 165 147
206 227 255
205 227 255
205 226 255
204 226 255
203 226 255
203 225 255
202 225 255
201 225 255
201 224 255
200 224 255
200 224 255
199 224 255
199 223 255
198 223 255
198 223 255
197 223 255
197 222 255
197 222 255
196 222 255
196 222 255
196 221 255
195 221 255
195 221 255
194 221 255
194 221 255
194 220 255
193 220 255
193 220 255
193 220 255
192 220 255
192 220 255
192 219 255
191 219 255
191 219 255
191 219 255
190 219 255
190 219 255
190 218 255
190 218 255
189 218 255
189 218 255
189 218 255
188 218 255
188 218 255
188 217 255
188 217 255
187 217 255
187 217 255
187 217 255
187 217 255
186 217 255
186 217 255
186 216 255
186 216 255
186 216 255
185 216 255
185 216 255
185 216 255
185 216 255
185 216 255
184 216 255
184 216 255
184 216 255
184 215 255
184 215 255
184 215 255
184 215 255
183 215 255
183 215 255
183 215 255
183 215 255
183 215 255
183 215 255
183 215 255
183 215 255
183 215 255
183 215 255
183 215 255
183 215 255
183 215 255
183 215 255
184 215 255
184 215 255
184 215 255
184 216 255
184 216 255
185 216 255
185 216 255
185 216 255
186 216 255
186 217 255
187 217 255
187 217 255
188 218 255
189 218 255
190 218 255
191 219 255
192 220 255
193 220 255
195 221 255
197 222 255
200 224 255
205 226 255
207 228 255
208 228 255
208 228 255
208 228 255
208 228 255
208 228 255
208 228 255
208 228 255
208 228 255
207 228 255
207 228 255
207 228 255
207 228 255
207 228 255
207 228 255
207 228 255
207 228 255
207 228 255
207 228 255
207 228 255
207 228 255
207 228 255
207 228 255
207 227 255
207 227 255
207 227 255
207 227 255
207 227 255
206 227 255
206 227 255
206 227 255
206 227 255
206 227 255
206 227 255
206 227 255
206 227 255
206 227 255
206 227 255
206 227 255
206 227 255
206 227 255
206 227 255
206 227 255
206 227 255
206 227 255
206 227 255
206 227 255
206 227 255
206 227 255
205 227 255
205 227 255
205 227 255
205 227 255
205 227 255
205 227 255
205 227 255
205 227 255
205 227 255
205 227 255
205 227 255
205 227 255
205 227 255
205 227 255
205 227 255
205 226 255
205 226 255
205 226 255
205 226 255
205 226 255
205 226 255
205 226 255
205 226 255
205 226 255
205 226 255
205 226 255
205 226 255
205 226 255
205 226 255
205 226 255
205 226 255
204 226 255
204 226 255
204 226 255
204 226 255
204 226 255
204 226 255
204 226 255
204 226 255
204 226 255
204 226 255
204 226 255
204 226 255
204 226 255
204 226 255
204 226 255
204 226 255
204 226 255
204 226 255
204 226 255
204 226 255
204 226 255
204 226 255
204 226 255
204 226 255
204 226 255
204 226 255
204 226 255
204 226 255
204 226 255
204 226 255
204 226 255
204 226 255
204 226 255
204 226 255
205 226 255
205 226 255
205 226 255
205 226 255
205 226 255
205 226 255
205 226 255
205 226 255
205 226 255
205 226 255
205 226 255
205 226 255
205 226 255
205 226 255
205 226 255
205 226 255
205 227 255
205 227 255
205 227 255
205 227 255
205 227 255
205 227 255
205 227 255
205 227 255
205 227 255
205 227 255
205 227 255
205 227 255
205 227 255
205 227 255
205 227 255
206 227 255
206 227 255
206 227 255
206 227 255
206 227 255
206 227 255
206 227 255
206 227 255
206 227 255
206 227 255
206 227 255
206 227 255
206 227 255
206 227 255
206 227 255
206 227 255
206 227 255
206 227 255
206 227 255
206 227 255
206 227 255
207 227 255
207 227 255
207 227 255
207 227 255
207 227 255
207 228 255
207 228 255
207 228 255
207 228 255
207 228 255
207 228 255
207 228 255
207 228 255
207 228 255
207 228 255
207 228 255
207 228 255
207 228 255
207 228 255
208 228 255
208 228 255
208 228 255
208 228 255
208 228 255
208 228 255
208 228 255
208 228 255
193 209 226
172 178 169
142 142 107
144 142 95
148 146 98
145 143 96
141 140 94
148 147 99
153 152 103
150 149 101
152 152 103
156 156 105
151 151 103
154 155 105
158 158 107
154 154 104
156 157 106
159 159 108
160 161 109
161 162 110
156 158 108
160 161 109
154 155 106
162 163 111
161 162 110
160 161 109
162 163 111
164 165 112
164 165 112
159 160 109
165 167 113
165 167 113
164 165 112
164 165 112
165 165 112
163 164 111
163 164 112
165 166 113
166 166 113
164 165 112
165 166 112
163 164 112
165 165 112
166 166 113
165 166 112
167 168 113
165 165 112
166 166 112
166 166 112
166 166 112
166 166 112
166 165 112
164 164 110
164 164 111
166 166 112
167 166 112
167 166 112
166 166 112
168 167 112
166 166 112
167 166 112
164 163 110
169 167 112
169 167 112
166 165 110
167 166 112
170 168 113
166 164 110
169 167 112
167 165 110
165 163 109
161 159 106
167 165 110
160 158 106
165 163 109
165 162 108
163 160 107
165 162 108
164 160 106
165 161 107
166 163 109
162 159 106
164 161 107
164 161 107
165 161 106
157 153 102
164 160 106
164 159 105
160 155 103
152 148 98
158 154 102
160 156 103
154 150 99
157 152 100
151 147 97
154 149 98
148 144 95
148 143 94
151 146 95
146 141 92
154 149 98
153 147 96
148 142 93
148 141 92
205 226 255
204 226 255
203 226 255
203 225 255
202 225 255
202 225 255
201 224 255
201 224 255
200 224 255
200 224 255
199 223 255
199 223 255
198 223 255
198 223 255
197 222 255
197 222 255
197 222 255
196 222 255
196 222 255
195 221 255
195 221 255
195 221 255
194 221 255
194 221 255
194 220 255
193 220 255
193 220 255
193 220 255
192 220 255
192 220 255
192 219 255
191 219 255
191 219 255
191 219 255
190 219 255
190 219 255
190 218 255
189 218 255
189 218 255
189 218 255
189 218 255
188 218 255
188 218 255
188 217 255
188 217 255
187 217 255
187 217 255
187 217 255
187 217 255
186 217 255
186 217 255
186 216 255
186 216 255
185 216 255
185 216 255
185 216 255
185 216 255
185 216 255
184 216 255
184 216 255
184 215 255
184 215 255
184 215 255
184 215 255
183 215 255
183 215 255
183 215 255
183 215 255
183 215 255
183 215 255
183 215 255
183 215 255
183 215 255
183 215 255
183 215 255
182 215 255
182 215 255
183 215 255
183 215 255
183 215 255
183 215 255
183 215 255
183 215 255
183 215 255
183 215 255
183 215 255
184 215 255
184 215 255
184 216 255
184 216 255
185 216 255
185 216 255
186 216 255
186 217 255
187 217 255
187 217 255
188 218 255
189 218 255
190 218 255
191 219 255
193 220 255
194 221 255
196 222 255
199 223 255
203 225 255
206 227 255
208 228 255
208 228 255
208 228 255
208 228 255
208 228 255
208 228 255
208 228 255
208 228 255
208 228 255
208 228 255
208 228 255
207 228 255
207 228 255
207 228 255
207 228 255
207 228 255
207 228 255
207 228 255
207 228 255
207 228 255
207 228 255
207 228 255
207 228 255
207 228 255
207 228 255
207 227 255
207 227 255
207 227 255
207 227 255
207 227 255
206 227 255
206 227 255
206 227 255
206 227 255
206 227 255
206 227 255
206 227 255
206 227 255
206 227 255
206 227 255
206 227 255
206 227 255
206 227 255
206 227 255
206 227 255
206 227 255
206 227 255
206 227 255
206 227 255
206 227 255
206 227 255
206 227 255
205 227 255
205 227 255
205 227 255
205 227 255
205 227 255
205 227 255
205 227 255
205 227 255
205 227 255
205 227 255
205 227 255
205 227 255
205 227 255
205 227 255
205 227 255
205 227 255
205 227 255
205 227 255
205 226 255
205 226 255
205 226 255
205 226 255
205 226 255
205 226 255
205 226 255
205 226 255
205 226 255
205 226 255
205 226 255
205 226 255
205 226 255
205 226 255
205 226 255
205 226 255
205 226 255
205 226 255
205 226 255
205 226 255
205 226 255
205 226 255
205 226 255
205 226 255
205 226 255
205 226 255
205 226 255
205 226 255
205 226 255
205 226 255
205 226 255
205 226 255
205 226 255
205 226 255
205 226 255
205 226 255
205 226 255
205 226 255
205 226 255
205 226 255
205 226 255
205 226 255
205 226 255
205 226 255
205 226 255
205 226 255
205 226 255
205 226 255
205 227 255
205 227 255
205 227 255
205 227 255
205 227 255
205 227 255
205 227 255
205 227 255
205 227 255
205 227 255
205 227 255
205 227 255
205 227 255
205 227 255
205 227 255
205 227 255
205 227 255
205 227 255
206 227 255
206 227 255
206 227 255
206 227 255
206 227 255
206 227 255
206 227 255
206 227 255
206 227 255
206 227 255
206 227 255
206 227 255
206 227 255
206 227 255
206 227 255
206 227 255
206 227 255
206 227 255
206 227 255
206 227 255
206 227 255
206 227 255
207 227 255
207 227 255
207 227 255
207 227 255
207 227 255
207 228 255
207 228 255
207 228 255
207 228 255
207 228 255
207 228 255
207 228 255
207 228 255
207 228 255
207 228 255
207 228 255
207 228 255
207 228 255
207 228 255
207 228 255
208 228 255
208 228 255
208 228 255
208 228 255
208 228 255
208 228 255
208 228 255
208 228 255
208 228 255
205 225 252
188 204 220
156 160 142
134 131 87
145 143 95
146 145 97
151 150 101
152 152 102
145 145 97
156 156 105
159 159 108
159 159 108
153 153 103
153 153 104
157 157 106
159 159 108
161 162 110
159 160 109
163 164 111
158 159 108
160 161 109
159 160 109
161 162 110
165 166 113
164 165 112
162 164 112
159 160 109
164 165 112
166 167 113
164 165 112
165 167 113
165 166 113
163 165 112
164 165 112
166 168 114
166 167 113
167 168 114
166 167 113
166 167 113
167 168 114
166 167 113
165 167 113
167 168 114
168 168 114
168 168 114
167 168 114
167 168 114
167 168 114
168 168 114
168 168 114
168 168 113
168 168 113
169 169 114
169 169 114
168 168 113
168 168 113
168 168 114
168 168 113
168 167 113
169 168 113
166 166 112
170 169 113
167 167 112
167 166 112
169 168 113
168 167 112
170 169 113
168 166 112
170 168 113
168 166 112
169 167 112
167 165 111
168 166 111
167 166 111
166 164 109
166 164 109
162 159 106
167 164 109
164 162 108
169 166 111
165 162 108
169 166 110
164 161 107
162 159 106
156 153 102
164 160 106
164 160 106
168 163 108
156 153 101
166 162 107
168 164 109
163 159 105
161 158 104
154 150 99
164 159 104
163 160 106
155 150 99
158 153 101
147 143 94
148 143 94
151 146 96
158 152 100
152 147 97
149 144 95
152 147 96
148 142 93
146 140 91
204 226 255
203 225 255
202 225 255
202 225 255
201 225 255
201 224 255
200 224 255
200 224 255
199 224 255
199 223 255
198 223 255
198 223 255
198 223 255
197 222 255
197 222 255
197 222 255
196 222 255
196 222 255
195 221 255
195 221 255
195 221 255
194 221 255
194 221 255
194 220 255
193 220 255
193 220 255
193 220 255
192 220 255
192 220 255
192 219 255
191 219 255
191 219 255
191 219 255
190 219 255
190 219 255
190 218 255
190 218 255
189 218 255
189 218 255
189 218 255
188 218 255
188 218 255
188 217 255
188 217 255
187 217 255
187 217 255
187 217 255
187 217 255
186 217 255
186 217 255
186 216 255
186 216 255
185 216 255
185 216 255
185 216 255
185 216 255
185 216 255
184 216 255
184 216 255
184 215 255
184 215 255
184 215 255
183 215 255
183 215 255
183 215 255
183 215 255
183 215 255
183 215 255
183 215 255
182 215 255
182 215 255
182 215 255
182 215 255
182 214 255
182 214 255
182 214 255
182 214 255
182 214 255
182 214 255
182 214 255
182 214 255
182 214 255
182 214 255
182 215 255
182 215 255
182 215 255
183 215 255
183 215 255
183 215 255
183 215 255
184 215 255
184 215 255
184 216 255
185 216 255
185 216 255
186 216 255
186 217 255
187 217 255
188 217 255
189 218 255
189 218 255
190 219 255
192 220 255
193 220 255
195 221 255
198 223 255
202 225 255
206 227 255
208 228 255
208 228 255
208 228 255
208 228 255
208 228 255
208 228 255
208 228 255
208 228 255
208 228 255
208 228 255
208 228 255
208 228 255
208 228 255
207 228 255
207 228 255
207 228 255
207 228 255
207 228 255
207 228 255
207 228 255
207 228 255
207 228 255
207 228 255
207 228 255
207 228 255
207 228 255
207 228 255
207 228 255
207 227 255
207 227 255
207 227 255
207 227 255
207 227 255
206 227 255
206 227 255
206 227 255
206 227 255
206 227 255
206 227 255
206 227 255
206 227 255
206 227 255
206 227 255
206 227 255
206 227 255
206 227 255
206 227 255
206 227 255
206 227 255
206 227 255
206 227 255
206 227 255
206 227 255
206 227 255
206 227 255
206 227 255
206 227 255
205 227 255
205 227 255
205 227 255
205 227 255
205 227 255
205 227 255
205 227 255
205 227 255
205 227 255
205 227 255
205 227 255
205 227 255
205 227 255
205 227 255
205 227 255
205 227 255
205 227 255
205 227 255
205 227 255
205 227 255
205 227 255
205 227 255
205 227 255
205 227 255
205 227 255
205 227 255
205 226 255
205 226 255
205 226 255
205 226 255
205 226 255
205 226 255
205 226 255
205 226 255
205 226 255
205 226 255
205 226 255
205 226 255
205 226 255
205 226 255
205 226 255
205 226 255
205 226 255
205 226 255
205 227 255
205 227 255
205 227 255
205 227 255
205 227 255
205 227 255
205 227 255
205 227 255
205 227 255
205 227 255
205 227 255
205 227 255
205 227 255
205 227 255
205 227 255
205 227 255
205 227 255
205 227 255
205 227 255
205 227 255
205 227 255
205 227 255
205 227 255
205 227 255
205 227 255
205 227 255
206 227 255
206 227 255
206 227 255
206 227 255
206 227 255
206 227 255
206 227 255
206 227 255
206 227 255
206 227 255
206 227 255
206 227 255
206 227 255
206 227 255
206 227 255
206 227 255
206 227 255
206 227 255
206 227 255
206 227 255
206 227 255
206 227 255
206 227 255
206 227 255
207 227 255
207 227 255
207 227 255
207 227 255
207 227 255
207 228 255
207 228 255
207 228 255
207 228 255
207 228 255
207 228 255
207 228 255
207 228 255
207 228 255
207 228 255
207 228 255
207 228 255
207 228 255
207 228 255
207 228 255
208 228 255
208 228 255
208 228 255
208 228 255
208 228 255
208 228 255
208 228 255
208 228 255
208 228 255
208 228 255
208 228 255
208 228 255
206 226 251
181 195 206
149 150 119
145 143 95
148 146 98
144 143 96
148 147 99
146 145 97
155 154 104
150 150 102
155 155 104
147 147 99
160 161 109
156 156 106
158 159 108
164 164 112
161 162 110
164 165 112
157 158 108
162 163 110
164 165 112
162 163 111
163 164 112
163 164 112
165 167 113
165 166 113
163 165 112
163 165 112
165 167 113
165 167 113
165 167 113
165 167 113
166 168 114
165 167 114
166 167 114
166 167 114
166 167 114
166 167 114
166 168 114
167 168 114
167 168 114
167 168 114
167 168 114
167 168 114
167 168 114
167 168 114
168 168 114
167 168 114
168 168 114
167 168 114
168 168 114
168 168 114
168 168 114
168 168 114
168 168 114
168 168 114
169 169 114
169 169 114
169 169 114
170 169 114
170 169 114
171 169 114
169 169 114
169 168 113
170 169 113
171 169 114
169 168 113
170 169 113
170 168 113
172 170 114
170 168 113
168 166 112
171 170 114
170 168 113
168 166 110
170 168 113
170 167 111
169 166 111
165 163 109
168 165 110
164 161 108
165 162 108
167 164 109
167 164 109
167 163 108
162 159 106
171 167 110
164 161 107
164 161 107
165 161 107
162 158 105
162 157 104
163 159 106
163 160 106
161 158 105
155 152 101
160 156 103
159 154 101
163 158 104
157 153 101
159 154 101
159 154 101
162 156 103
159 154 101
157 152 100
157 152 99
153 148 97
148 142 93
147 141 93
203 225 255
202 225 255
202 225 255
201 224 255
201 224 255
200 224 255
200 224 255
199 223 255
199 223 255
198 223 255
198 223 255
198 223 255
197 222 255
197 222 255
197 222 255
196 222 255
196 222 255
195 221 255
195 221 255
195 221 255
194 221 255
194 221 255
194 221 255
193 220 255
193 220 255
193 220 255
192 220 255
192 220 255
192 220 255
191 219 255
191 219 255
191 219 255
191 219 255
190 219 255
190 219 255
190 218 255
189 218 255
189 218 255
189 218 255
189 218 255
188 218 255
188 218 255
188 217 255
187 217 255
187 217 255
187 217 255
187 217 255
186 217 255
186 217 255
186 216 255
186 216 255
185 216 255
185 216 255
185 216 255
185 216 255
185 216 255
184 216 255
184 216 255
184 215 255
184 215 255
184 215 255
183 215 255
183 215 255
183 215 255
183 215 255
183 215 255
183 215 255
182 215 255
182 215 255
182 215 255
182 214 255
182 214 255
182 214 255
182 214 255
182 214 255
182 214 255
182 214 255
182 214 255
181 214 255
181 214 255
181 214 255
182 214 255
182 214 255
182 214 255
182 214 255
182 214 255
182 214 255
182 214 255
182 215 255
182 215 255
183 215 255
183 215 255
183 215 255
184 215 255
184 215 255
184 216 255
185 216 255
185 216 255
186 216 255
187 217 255
187 217 255
188 218 255
189 218 255
190 219 255
191 219 255
193 220 255
195 221 255
197 222 255
201 224 255
206 227 255
208 228 255
208 228 255
208 228 255
208 228 255
208 228 255
208 228 255
208 228 255
208 228 255
208 228 255
208 228 255
208 228 255
208 228 255
208 228 255
208 228 255
208 228 255
207 228 255
207 228 255
207 228 255
207 228 255
207 228 255
207 228 255
207 228 255
207 228 255
207 228 255
207 228 255
207 228 255
207 228 255
207 228 255
207 228 255
207 228 255
207 228 255
207 227 255
207 227 255
207 227 255
207 227 255
207 227 255
206 227 255
206 227 255
206 227 255
206 227 255
206 227 255
206 227 255
206 227 255
206 227 255
206 227 255
206 227 255
206 227 255
206 227 255
206 227 255
206 227 255
206 227 255
206 227 255
206 227 255
206 227 255
206 227 255
206 227 255
206 227 255
206 227 255
206 227 255
206 227 255
206 227 255
206 227 255
206 227 255
205 227 255
205 227 255
205 227 255
205 227 255
205 227 255
205 227 255
205 227 255
205 227 255
205 227 255
205 227 255
205 227 255
205 227 255
205 227 255
205 227 255
205 227 255
205 227 255
205 227 255
205 227 255
205 227 255
205 227 255
205 227 255
205 227 255
205 227 255
205 227 255
204 226 255
201 223 253
200 222 252
198 220 251
202 224 254
204 226 255
205 227 255
205 227 255
205 227 255
205 227 255
205 227 255
205 227 255
205 227 255
205 227 255
205 227 255
205 227 255
205 227 255
205 227 255
205 227 255
205 227 255
205 227 255
205 227 255
205 227 255
205 227 255
205 227 255
205 227 255
205 227 255
205 227 255
205 227 255
205 227 255
206 227 255
206 227 255
206 227 255
206 227 255
206 227 255
206 227 255
206 227 255
206 227 255
206 227 255
206 227 255
206 227 255
206 227 255
206 227 255
206 227 255
206 227 255
206 227 255
206 227 255
206 227 255
206 227 255
206 227 255
206 227 255
206 227 255
206 227 255
206 227 255
206 227 255
206 227 255
206 227 255
207 227 255
207 227 255
207 227 255
207 227 255
207 227 255
207 228 255
207 228 255
207 228 255
207 228 255
207 228 255
207 228 255
207 228 255
207 228 255
207 228 255
207 228 255
207 228 255
207 228 255
207 228 255
207 228 255
207 228 255
207 228 255
208 228 255
208 228 255
208 228 255
208 228 255
208 228 255
208 228 255
208 228 255
208 228 255
208 228 255
208 228 255
208 228 255
208 228 255
208 228 255
208 228 255
205 224 249
174 186 195
144 145 118
142 140 93
140 138 93
151 149 100
149 148 99
150 149 100
142 141 95
147 147 99
149 149 101
155 155 105
155 156 106
157 158 107
153 154 104
158 158 108
155 156 106
160 161 109
165 166 113
161 163 111
163 165 112
163 165 112
162 164 112
165 167 113
163 165 112
166 167 114
165 166 113
164 165 113
165 167 114
164 166 113
165 167 114
166 167 114
165 167 114
165 167 114
165 167 114
166 167 114
166 167 114
165 167 114
166 167 114
166 167 114
166 167 114
166 167 114
167 168 114
166 168 114
166 168 114
166 168 114
166 168 114
167 168 114
166 168 114
167 168 114
167 168 114
167 168 114
167 168 114
168 168 114
168 169 114
168 168 114
169 169 114
168 168 114
168 168 114
169 169 114
169 169 114
170 169 114
170 169 114
169 169 114
169 169 114
170 169 114
169 169 114
171 170 114
171 170 114
171 170 114
171 170 114
171 169 114
173 170 114
169 168 113
171 170 114
170 168 113
171 169 113
169 168 112
174 171 114
172 170 113
171 169 113
169 167 111
172 169 113
172 169 112
168 165 110
169 166 110
170 168 112
166 163 108
165 162 108
170 166 110
171 167 111
168 164 109
169 164 109
170 166 110
161 157 104
166 162 107
165 160 106
162 158 104
164 159 104
166 162 107
163 158 104
162 156 103
157 153 101
153 149 98
156 151 99
161 156 103
156 150 99
160 154 101
152 147 97
155 149 98
154 148 97
202 225 255
202 225 255
201 224 255
201 224 255
200 224 255
200 224 255
199 223 255
199 223 255
199 223 255
198 223 255
198 223 255
197 222 255
197 222 255
197 222 255
196 222 255
196 222 255
196 221 255
195 221 255
195 221 255
195 221 255
194 221 255
194 221 255
194 220 255
193 220 255
193 220 255
193 220 255
192 220 255
192 220 255
192 219 255
191 219 255
191 219 255
191 219 255
191 219 255
190 219 255
190 219 255
190 218 255
189 218 255
189 218 255
189 218 255
188 218 255
188 218 255
188 218 255
188 217 255
187 217 255
187 217 255
187 217 255
187 217 255
186 217 255
186 217 255
186 216 255
186 216 255
185 216 255
185 216 255
185 216 255
185 216 255
185 216 255
184 216 255
184 216 255
184 215 255
184 215 255
184 215 255
183 215 255
183 215 255
183 215 255
183 215 255
183 215 255
182 215 255
182 215 255
182 215 255
182 214 255
182 214 255
182 214 255
182 214 255
182 214 255
181 214 255
181 214 255
181 214 255
181 214 255
181 214 255
181 214 255
181 214 255
181 214 255
181 214 255
181 214 255
181 214 255
181 214 255
181 214 255
181 214 255
182 214 255
182 214 255
182 214 255
182 215 255
182 215 255
183 215 255
183 215 255
183 215 255
184 215 255
184 215 255
185 216 255
185 216 255
186 216 255
186 217 255
187 217 255
188 218 255
189 218 255
190 219 255
191 219 255
193 220 255
195 221 255
197 222 255
201 224 255
205 227 255
208 228 255
208 228 255
208 228 255
208 228 255
208 228 255
208 228 255
208 228 255
208 228 255
208 228 255
208 228 255
208 228 255
208 228 255
208 228 255
208 228 255
208 228 255
208 228 255
208 228 255
208 228 255
207 228 255
207 228 255
207 228 255
207 228 255
207 228 255
207 228 255
207 228 255
207 228 255
207 228 255
207 228 255
207 228 255
207 228 255
207 228 255
207 228 255
207 228 255
207 228 255
207 227 255
207 227 255
207 227 255
207 227 255
207 227 255
207 227 255
206 227 255
206 227 255
206 227 255
206 227 255
206 227 255
206 227 255
206 227 255
206 227 255
206 227 255
206 227 255
206 227 255
206 227 255
206 227 255
206 227 255
206 227 255
206 227 255
206 227 255
206 227 255
206 227 255
206 227 255
206 227 255
206 227 255
206 227 255
206 227 255
206 227 255
206 227 255
206 227 255
206 227 255
206 227 255
206 227 255
206 227 255
206 227 255
205 227 255
206 227 255
205 227 255
205 227 255
205 227 255
204 225 254
187 209 243
167 190 231
157 179 222
125 150 205
122 148 202
84 115 185
73 107 182
62 99 177
62 99 178
62 99 176
62 99 175
61 99 180
65 101 177
92 122 188
98 126 191
117 143 199
125 151 207
154 178 222
172 194 232
193 214 247
204 226 255
205 227 255
205 227 255
205 227 255
205 227 255
206 227 255
206 227 255
206 227 255
206 227 255
206 227 255
206 227 255
206 227 255
206 227 255
206 227 255
206 227 255
206 227 255
206 227 255
206 227 255
206 227 255
206 227 255
206 227 255
206 227 255
206 227 255
206 227 255
206 227 255
206 227 255
206 227 255
206 227 255
206 227 255
206 227 255
206 227 255
206 227 255
206 227 255
206 227 255
206 227 255
206 227 255
206 227 255
206 227 255
207 227 255
207 227 255
207 227 255
207 227 255
207 227 255
207 227 255
207 228 255
207 228 255
207 228 255
207 228 255
207 228 255
207 228 255
207 228 255
207 228 255
207 228 255
207 228 255
207 228 255
207 228 255
207 228 255
207 228 255
207 228 255
207 228 255
208 228 255
208 228 255
208 228 255
208 228 255
208 228 255
208 228 255
208 228 255
208 228 255
208 228 255
208 228 255
208 228 255
208 228 255
208 228 255
208 228 255
208 228 255
208 228 255
208 228 255
207 226 252
184 196 205
135 133 97
144 142 95
139 138 93
151 149 100
151 150 101
155 154 104
153 153 103
153 153 103
156 156 106
158 159 108
157 158 107
157 158 107
160 161 109
158 159 108
159 160 109
160 161 109
163 165 112
163 165 112
162 163 111
164 165 112
164 166 113
166 167 114
164 166 113
165 167 114
166 167 114
166 167 114
166 167 114
165 167 114
165 167 114
166 167 114
165 167 114
165 167 114
165 167 114
165 167 114
165 167 114
166 167 114
165 167 114
166 167 114
165 167 114
166 167 114
167 168 114
166 168 114
166 167 114
166 167 114
167 168 114
167 168 114
167 168 114
166 168 114
168 168 114
167 168 114
167 168 114
168 168 114
168 168 114
168 168 114
168 168 114
168 168 114
168 168 114
168 168 114
168 169 114
169 169 114
169 169 114
169 169 114
169 169 114
170 169 114
169 169 114
170 169 114
171 170 114
170 169 114
170 169 114
171 170 114
172 170 114
171 170 114
171 170 114
171 170 114
172 170 114
172 170 113
171 170 114
173 171 114
171 169 113
173 171 114
172 169 113
171 169 112
172 169 112
171 168 112
172 169 113
171 168 112
171 167 111
170 166 110
167 164 109
172 169 112
167 165 110
166 163 108
170 166 110
170 166 110
167 164 109
172 167 110
169 164 108
166 162 107
164 160 106
172 168 111
163 159 105
162 158 104
157 154 102
161 156 103
159 154 101
162 156 103
163 158 104
161 155 102
161 156 103
161 155 101
164 158 103
202 225 255
201 224 255
201 224 255
200 224 255
200 224 255
199 224 255
199 223 255
199 223 255
198 223 255
198 223 255
198 223 255
197 222 255
197 222 255
196 222 255
196 222 255
196 222 255
195 221 255
195 221 255
195 221 255
194 221 255
194 221 255
194 221 255
193 220 255
193 220 255
193 220 255
193 220 255
192 220 255
192 220 255
192 219 255
191 219 255
191 219 255
191 219 255
190 219 255
190 219 255
190 219 255
190 218 255
189 218 255
189 218 255
189 218 255
189 218 255
188 218 255
188 218 255
188 217 255
187 217 255
187 217 255
187 217 255
187 217 255
186 217 255
186 217 255
186 216 255
186 216 255
185 216 255
185 216 255
185 216 255
185 216 255
185 216 255
184 216 255
184 216 255
184 215 255
184 215 255
184 215 255
183 215 255
183 215 255
183 215 255
183 215 255
183 215 255
182 215 255
182 215 255
182 214 255
182 214 255
182 214 255
182 214 255
182 214 255
181 214 255
181 214 255
181 214 255
181 214 255
181 214 255
181 214 255
181 214 255
181 214 255
181 214 255
181 214 255
181 214 255
181 214 255
181 214 255
181 214 255
181 214 255
181 214 255
181 214 255
181 214 255
182 214 255
182 214 255
182 214 255
182 215 255
182 215 255
183 215 255
183 215 255
184 215 255
184 215 255
184 216 255
185 216 255
186 216 255
186 217 255
187 217 255
188 217 255
189 218 255
190 219 255
191 219 255
193 220 255
195 221 255
197 222 255
201 225 255
207 228 255
209 228 255
208 228 255
208 228 255
208 228 255
208 228 255
208 228 255
208 228 255
208 228 255
208 228 255
208 228 255
208 228 255
208 228 255
208 228 255
208 228 255
208 228 255
208 228 255
208 228 255
208 228 255
208 228 255
208 228 255
208 228 255
207 228 255
207 228 255
207 228 255
207 228 255
207 228 255
207 228 255
207 228 255
207 228 255
207 228 255
207 228 255
207 228 255
207 228 255
207 228 255
207 228 255
207 228 255
207 228 255
207 228 255
207 227 255
207 227 255
207 227 255
207 227 255
207 227 255
207 227 255
207 227 255
206 227 255
206 227 255
206 227 255
206 227 255
206 227 255
206 227 255
206 227 255
206 227 255
206 227 255
206 227 255
206 227 255
206 227 255
206 227 255
206 227 255
206 227 255
206 227 255
206 227 255
206 227 255
206 227 255
206 227 255
206 227 255
206 227 255
206 227 255
206 227 255
206 227 255
206 227 255
205 226 255
181 203 238
147 170 218
128 153 205
65 101 180
62 99 177
62 99 180
62 99 180
62 99 178
62 99 175
62 99 173
63 99 175
62 99 171
62 99 174
62 99 175
62 99 174
63 99 177
62 99 177
62 99 177
62 99 173
61 98 173
62 99 176
62 99 175
62 98 176
62 99 176
71 105 180
116 142 198
148 171 218
181 203 239
203 224 254
206 227 255
206 227 255
206 227 255
206 227 255
206 227 255
206 227 255
206 227 255
206 227 255
206 227 255
206 227 255
206 227 255
206 227 255
206 227 255
206 227 255
206 227 255
206 227 255
206 227 255
206 227 255
206 227 255
206 227 255
206 227 255
206 227 255
206 227 255
206 227 255
206 227 255
206 227 255
206 227 255
207 227 255
207 227 255
207 227 255
207 227 255
207 227 255
207 227 255
207 228 255
207 228 255
207 228 255
207 228 255
207 228 255
207 228 255
207 228 255
207 228 255
207 228 255
207 228 255
207 228 255
207 228 255
207 228 255
207 228 255
207 228 255
207 228 255
207 228 255
208 228 255
208 228 255
208 228 255
208 228 255
208 228 255
208 228 255
208 228 255
208 228 255
208 228 255
208 228 255
208 228 255
208 228 255
208 228 255
208 228 255
208 228 255
208 228 255
208 228 255
208 228 255
208 228 255
208 228 255
208 228 254
189 203 213
137 137 106
147 144 96
144 143 95
153 151 101
148 148 99
156 155 104
155 154 104
150 149 101
152 152 103
159 159 108
158 158 107
159 160 109
162 162 110
162 163 110
163 164 111
164 165 112
165 166 113
165 167 113
166 168 114
165 167 114
166 167 114
165 167 114
166 167 114
165 167 114
165 167 114
165 167 114
165 167 114
165 167 114
165 167 114
165 167 114
165 167 114
165 167 114
165 167 114
165 167 114
165 167 114
166 167 114
165 167 114
165 167 114
165 167 114
165 167 114
165 167 114
166 167 114
166 167 114
165 167 114
166 167 114
166 167 114
166 168 114
166 168 114
167 168 114
166 168 114
166 168 114
168 168 114
167 168 114
167 168 114
167 168 114
168 168 114
167 168 114
168 168 114
168 168 114
169 169 114
169 169 114
169 169 114
168 169 114
169 169 114
169 169 114
170 169 114
170 169 114
171 170 114
171 170 114
170 169 114
170 169 114
169 169 114
171 170 114
170 169 114
172 170 114
172 170 114
171 170 114
172 170 114
173 171 114
172 170 114
172 170 114
172 170 113
172 170 114
173 171 114
172 169 113
171 168 112
172 169 113
171 168 112
174 170 113
173 170 113
169 166 110
169 167 111
171 168 112
166 163 108
165 162 108
168 163 108
172 168 110
174 169 112
172 167 110
172 167 110
171 165 109
166 161 106
172 168 111
166 162 107
162 158 104
165 160 106
163 158 104
163 159 104
158 154 101
160 155 102
160 154 101
171 165 108
159 153 101
201 224 255
201 224 255
200 224 255
200 224 255
200 224 255
199 223 255
199 223 255
198 223 255
198 223 255
198 223 255
197 222 255
197 222 255
197 222 255
196 222 255
196 222 255
196 222 255
195 221 255
195 221 255
195 221 255
194 221 255
194 221 255
194 221 255
193 220 255
193 220 255
193 220 255
193 220 255
192 220 255
192 220 255
192 219 255
191 219 255
191 219 255
191 219 255
191 219 255
190 219 255
190 219 255
190 218 255
189 218 255
189 218 255
189 218 255
189 218 255
188 218 255
188 218 255
188 217 255
188 217 255
187 217 255
187 217 255
187 217 255
187 217 255
186 217 255
186 217 255
186 216 255
186 216 255
185 216 255
185 216 255
185 216 255
185 216 255
184 216 255
184 216 255
184 215 255
184 215 255
184 215 255
183 215 255
183 215 255
183 215 255
183 215 255
183 215 255
182 215 255
182 215 255
182 215 255
182 214 255
182 214 255
182 214 255
182 214 255
181 214 255
181 214 255
181 214 255
181 214 255
181 214 255
181 214 255
181 214 255
181 214 255
181 214 255
181 214 255
181 214 255
181 214 255
181 214 255
181 214 255
181 214 255
181 214 255
181 214 255
181 214 255
181 214 255
181 214 255
181 214 255
182 214 255
182 214 255
182 214 255
182 215 255
183 215 255
183 215 255
183 215 255
184 215 255
184 216 255
185 216 255
186 216 255
186 217 255
187 217 255
188 218 255
189 218 255
190 219 255
192 219 255
193 220 255
196 221 255
198 223 255
203 225 255
208 228 255
209 229 255
209 229 255
209 228 255
209 228 255
208 228 255
208 228 255
208 228 255
208 228 255
208 228 255
208 228 255
208 228 255
208 228 255
208 228 255
208 228 255
208 228 255
208 228 255
208 228 255
208 228 255
208 228 255
208 228 255
208 228 255
208 228 255
208 228 255
208 228 255
208 228 255
207 228 255
207 228 255
207 228 255
207 228 255
207 228 255
207 228 255
207 228 255
207 228 255
207 228 255
207 228 255
207 228 255
207 228 255
207 228 255
207 228 255
207 228 255
207 228 255
207 228 255
207 228 255
207 227 255
207 227 255
207 227 255
207 227 255
207 227 255
207 227 255
207 227 255
206 227 255
206 227 255
206 227 255
206 227 255
206 227 255
206 227 255
206 227 255
206 227 255
206 227 255
206 227 255
206 227 255
206 227 255
206 227 255
206 227 255
206 227 255
206 227 255
202 223 252
180 202 237
127 152 204
78 111 183
62 99 176
62 99 177
63 99 174
62 99 174
62 99 176
62 99 176
62 99 175
62 99 175
62 99 175
63 100 176
62 99 176
62 99 179
62 99 175
62 99 174
62 99 173
62 99 171
62 98 172
62 99 176
62 98 167
61 98 173
62 99 177
62 99 173
63 99 177
62 98 173
62 99 177
62 98 173
62 99 178
63 99 177
73 106 177
133 157 209
170 192 231
204 225 254
206 227 255
206 227 255
206 227 255
206 227 255
206 227 255
206 227 255
206 227 255
206 227 255
206 227 255
206 227 255
206 227 255
206 227 255
206 227 255
206 227 255
206 227 255
206 227 255
207 227 255
207 227 255
207 227 255
207 227 255
207 227 255
207 227 255
207 227 255
207 228 255
207 228 255
207 228 255
207 228 255
207 228 255
207 228 255
207 228 255
207 228 255
207 228 255
207 228 255
207 228 255
207 228 255
207 228 255
207 228 255
207 228 255
207 228 255
207 228 255
207 228 255
208 228 255
208 228 255
208 228 255
208 228 255
208 228 255
208 228 255
208 228 255
208 228 255
208 228 255
208 228 255
208 228 255
208 228 255
208 228 255
208 228 255
208 228 255
208 228 255
208 228 255
208 228 255
208 228 255
208 228 255
208 228 255
209 228 255
209 228 255
209 229 255
209 229 255
193 208 223
149 152 134
140 138 92
145 143 95
154 153 103
152 150 101
158 156 105
152 151 101
156 155 104
158 157 106
161 161 109
158 158 108
163 163 110
161 161 109
160 161 109
160 161 109
160 161 109
161 162 110
164 165 112
165 166 113
164 166 113
166 167 114
166 167 114
165 167 114
165 167 114
165 167 114
165 167 114
165 167 114
165 167 114
165 167 114
165 167 114
165 167 114
165 167 114
165 167 114
165 167 114
165 167 114
165 167 114
165 167 114
165 167 114
165 167 114
165 167 114
166 167 114
165 167 114
166 167 114
166 168 114
166 168 114
166 167 114
166 168 114
166 167 114
167 168 114
167 168 114
166 168 114
167 168 114
167 168 114
167 168 114
167 168 114
167 168 114
168 168 114
167 168 114
169 169 114
168 168 114
169 169 114
168 168 114
169 169 114
168 168 114
169 169 114
170 169 114
170 169 114
171 170 114
170 169 114
170 169 114
171 169 114
170 169 114
172 170 114
171 170 114
171 170 114
172 170 114
172 170 114
171 170 114
172 170 114
172 170 114
172 170 114
173 171 114
172 170 114
173 171 114
172 170 114
173 171 114
174 171 114
175 171 114
175 171 114
173 171 114
172 170 113
172 170 113
171 167 111
173 170 113
174 170 113
173 169 112
170 167 110
167 163 109
172 169 112
172 168 111
170 165 109
169 165 109
172 167 110
169 164 108
169 165 109
171 166 110
166 161 106
175 170 112
159 154 102
165 160 105
164 158 104
162 157 103
160 155 102
167 161 106
162 157 103
201 224 255
201 224 255
200 224 255
200 224 255
199 224 255
199 223 255
199 223 255
198 223 255
198 223 255
198 223 255
197 222 255
197 222 255
197 222 255
196 222 255
196 222 255
196 222 255
195 221 255
195 221 255
195 221 255
194 221 255
194 221 255
194 221 255
194 220 255
193 220 255
193 220 255
193 220 255
192 220 255
192 220 255
192 219 255
191 219 255
191 219 255
191 219 255
191 219 255
190 219 255
190 219 255
190 218 255
190 218 255
189 218 255
189 218 255
189 218 255
188 218 255
188 218 255
188 217 255
188 217 255
187 217 255
187 217 255
187 217 255
187 217 255
186 217 255
186 217 255
186 216 255
186 216 255
185 216 255
185 216 255
185 216 255
185 216 255
185 216 255
184 216 255
184 216 255
184 215 255
184 215 255
184 215 255
183 215 255
183 215 255
183 215 255
183 215 255
183 215 255
182 215 255
182 215 255
182 214 255
182 214 255
182 214 255
182 214 255
181 214 255
181 214 255
181 214 255
181 214 255
181 214 255
181 214 255
181 214 255
181 214 255
181 214 255
181 214 255
181 214 255
181 214 255
181 214 255
181 214 255
181 214 255
181 214 255
181 214 255
181 214 255
181 214 255
181 214 255
181 214 255
181 214 255
181 214 255
182 214 255
182 214 255
182 214 255
182 215 255
183 215 255
183 215 255
184 215 255
184 215 255
185 216 255
185 216 255
186 216 255
187 217 255
187 217 255
188 218 255
189 218 255
191 219 255
192 220 255
194 221 255
196 222 255
199 223 255
204 226 255
208 228 255
209 229 255
209 229 255
209 229 255
209 229 255
209 229 255
209 228 255
208 228 255
208 228 255
208 228 255
208 228 255
208 228 255
208 228 255
208 228 255
208 228 255
208 228 255
208 228 255
208 228 255
208 228 255
208 228 255
208 228 255
208 228 255
208 228 255
208 228 255
208 228 255
208 228 255
208 228 255
208 228 255
208 228 255
207 228 255
207 228 255
207 228 255
207 228 255
207 228 255
207 228 255
207 228 255
207 228 255
207 228 255
207 228 255
207 228 255
207 228 255
207 228 255
207 228 255
207 228 255
207 228 255
207 228 255
207 228 255
207 228 255
207 228 255
207 228 255
207 227 255
207 227 255
207 227 255
207 227 255
207 227 255
207 227 255
207 227 255
207 227 255
206 227 255
206 227 255
206 227 255
206 227 255
206 227 255
179 201 236
129 154 207
76 109 181
62 99 178
62 99 176
62 99 177
62 98 174
62 99 172
63 99 178
62 99 171
62 99 174
63 100 177
62 99 178
62 99 172
63 99 170
62 98 172
62 99 175
62 99 171
62 99 174
62 98 167
63 99 176
62 99 176
63 99 173
61 98 170
62 98 174
63 99 175
62 99 169
62 98 172
62 98 168
62 98 173
62 99 175
62 98 171
62 99 177
62 98 172
62 98 173
62 99 174
62 99 173
73 106 177
144 168 213
185 206 241
206 227 255
206 227 255
206 227 255
206 227 255
206 227 255
207 227 255
207 227 255
207 227 255
207 227 255
207 227 255
207 227 255
207 227 255
207 227 255
207 228 255
207 228 255
207 228 255
207 228 255
207 228 255
207 228 255
207 228 255
207 228 255
207 228 255
207 228 255
207 228 255
207 228 255
207 228 255
207 228 255
207 228 255
207 228 255
207 228 255
207 228 255
207 228 255
207 228 255
207 228 255
208 228 255
208 228 255
208 228 255
208 228 255
208 228 255
208 228 255
208 228 255
208 228 255
208 228 255
208 228 255
208 228 255
208 228 255
208 228 255
208 228 255
208 228 255
208 228 255
208 228 255
208 228 255
208 228 255
208 228 255
208 228 255
208 228 255
209 228 255
209 229 255
209 229 255
209 229 255
209 229 255
209 229 255
200 218 240
161 166 152
137 134 89
149 146 97
146 144 97
149 148 99
154 153 103
159 158 107
158 158 107
159 159 108
163 163 110
162 162 109
162 162 110
165 165 112
166 167 113
162 163 111
165 165 112
163 165 112
167 168 114
165 167 113
165 166 113
165 167 114
165 167 114
166 167 114
166 167 114
165 167 114
165 167 114
165 167 114
165 167 114
165 167 114
165 167 114
165 167 114
165 167 114
165 167 114
165 167 114
165 167 114
165 167 114
165 167 114
165 167 114
165 167 114
165 167 114
165 167 114
165 167 114
165 167 114
166 167 114
166 167 114
166 167 114
166 167 114
166 168 114
166 168 114
167 168 114
166 168 114
166 167 114
166 168 114
167 168 114
167 168 114
167 168 114
168 168 114
168 168 114
167 168 114
169 169 114
168 168 114
167 168 114
169 169 114
168 168 114
169 169 114
168 168 114
170 169 114
170 169 114
170 169 114
170 169 114
170 169 114
170 169 114
171 170 114
171 170 114
170 169 114
170 169 114
171 170 114
170 169 114
173 171 114
172 170 114
173 170 114
173 171 114
172 170 114
172 170 114
172 170 114
173 171 114
173 171 114
174 171 114
174 171 114
174 171 114
175 171 114
175 172 114
175 171 114
175 171 114
173 170 113
174 170 113
171 167 111
171 168 112
177 172 113
174 170 112
173 168 111
174 169 112
174 169 111
168 164 109
172 167 110
173 167 110
172 167 109
170 166 109
172 167 110
171 165 108
165 160 106
162 158 104
170 165 108
165 159 104
166 160 104
169 163 107
156 151 99
201 224 255
200 224 255
200 224 255
200 224 255
199 223 255
199 223 255
199 223 255
198 223 255
198 223 255
198 223 255
197 222 255
197 222 255
197 222 255
196 222 255
196 222 255
196 222 255
195 221 255
195 221 255
195 221 255
194 221 255
194 221 255
194 221 255
194 220 255
193 220 255
193 220 255
193 220 255
192 220 255
192 220 255
192 220 255
192 219 255
191 219 255
191 219 255
191 219 255
191 219 255
190 219 255
190 219 255
190 218 255
189 218 255
189 218 255
189 218 255
189 218 255
188 218 255
188 218 255
188 217 255
188 217 255
187 217 255
187 217 255
187 217 255
187 217 255
186 217 255
186 217 255
186 216 255
186 216 255
185 216 255
185 216 255
185 216 255
185 216 255
185 216 255
184 216 255
184 216 255
184 215 255
184 215 255
184 215 255
183 215 255
183 215 255
183 215 255
183 215 255
183 215 255
182 215 255
182 215 255
182 214 255
182 214 255
182 214 255
182 214 255
181 214 255
181 214 255
181 214 255
181 214 255
181 214 255
181 214 255
181 214 255
181 214 255
181 214 255
181 214 255
181 214 255
181 214 255
181 214 255
181 214 255
181 214 255
181 214 255
181 214 255
181 214 255
181 214 255
181 214 255
181 214 255
181 214 255
181 214 255
181 214 255
182 214 255
182 214 255
182 215 255
183 215 255
183 215 255
183 215 255
184 215 255
184 216 255
185 216 255
185 216 255
186 217 255
187 217 255
188 217 255
189 218 255
190 219 255
191 219 255
193 220 255
194 221 255
197 222 255
201 225 255
207 227 255
209 229 255
209 229 255
209 229 255
209 229 255
209 229 255
209 229 255
209 229 255
209 229 255
209 229 255
209 228 255
209 228 255
208 228 255
208 228 255
208 228 255
208 228 255
208 228 255
208 228 255
208 228 255
208 228 255
208 228 255
208 228 255
208 228 255
208 228 255
208 228 255
208 228 255
208 228 255
208 228 255
208 228 255
208 228 255
208 228 255
208 228 255
208 228 255
208 228 255
208 228 255
207 228 255
207 228 255
207 228 255
207 228 255
207 228 255
207 228 255
207 228 255
207 228 255
207 228 255
207 228 255
207 228 255
207 228 255
207 228 255
207 228 255
207 228 255
207 228 255
207 228 255
207 228 255
207 228 255
207 228 255
207 228 255
207 228 255
207 228 255
207 228 255
203 224 253
167 189 229
109 136 194
63 99 176
63 99 176
62 99 173
62 99 176
62 99 173
62 99 172
62 98 172
62 99 174
62 98 171
62 99 169
62 98 171
63 99 174
62 99 172
62 99 173
62 98 166
62 99 172
62 98 171
62 98 167
62 99 171
62 99 175
62 99 170
62 98 171
62 99 175
62 98 172
63 100 174
61 98 173
62 99 167
62 99 170
63 99 172
62 99 174
62 98 171
62 98 167
62 98 172
61 98 168
62 99 177
62 98 173
62 99 174
62 98 172
62 98 170
62 99 174
108 135 196
161 183 224
207 227 255
207 228 255
207 228 255
207 228 255
207 228 255
207 228 255
207 228 255
207 228 255
207 228 255
207 228 255
207 228 255
207 228 255
207 228 255
207 228 255
207 228 255
207 228 255
207 228 255
207 228 255
207 228 255
207 228 255
207 228 255
207 228 255
207 228 255
207 228 255
207 228 255
208 228 255
208 228 255
208 228 255
208 228 255
208 228 255
208 228 255
208 228 255
208 228 255
208 228 255
208 228 255
208 228 255
208 228 255
208 228 255
208 228 255
208 228 255
208 228 255
208 228 255
208 228 255
208 228 255
208 228 255
208 228 255
208 228 255
208 228 255
209 228 255
209 228 255
209 229 255
209 229 255
209 229 255
209 229 255
209 229 255
209 229 255
209 229 255
209 229 255
205 225 251
175 186 192
144 143 103
131 129 86
148 146 97
145 144 97
149 148 99
153 152 102
159 159 107
152 153 103
160 160 108
159 159 108
160 161 109
163 163 110
161 161 109
164 165 112
167 168 114
165 166 113
166 168 114
166 167 114
166 168 114
166 167 114
166 167 114
165 167 114
165 167 114
165 167 114
165 167 114
165 167 114
165 167 114
165 167 114
165 167 114
165 167 114
165 167 114
165 167 114
165 167 114
165 167 114
165 167 114
165 167 114
165 167 114
165 167 114
165 167 114
165 167 114
165 167 114
165 167 114
166 167 114
166 167 114
166 167 114
166 167 114
166 167 114
166 167 114
166 168 114
167 168 114
167 168 114
167 168 114
167 168 114
167 168 114
167 168 114
166 168 114
167 168 114
168 168 114
168 168 114
168 168 114
168 168 114
169 169 114
168 168 114
168 168 114
169 169 114
167 168 114
169 169 114
170 169 114
169 169 114
170 169 114
169 169 114
169 169 114
171 170 114
172 170 114
171 169 114
171 170 114
171 170 114
172 170 114
171 170 114
171 170 114
172 170 114
172 170 114
171 170 114
172 170 114
173 171 114
172 170 114
174 171 114
174 171 114
173 171 114
175 172 114
175 171 114
174 171 114
174 171 114
175 171 114
175 171 114
175 171 114
175 171 114
176 172 114
174 170 113
175 170 113
176 172 113
176 172 113
174 170 112
172 168 110
173 169 112
176 171 113
173 169 111
168 163 107
167 163 108
171 166 110
175 169 111
168 162 107
166 161 106
171 166 109
166 160 105
165 159 104
166 160 104
170 164 108
201 224 255
200 224 255
200 224 255
200 224 255
199 223 255
199 223 255
199 223 255
198 223 255
198 223 255
198 223 255
197 222 255
197 222 255
197 222 255
196 222 255
196 222 255
196 222 255
196 221 255
195 221 255
195 221 255
195 221 255
194 221 255
194 221 255
194 221 255
193 220 255
193 220 255
193 220 255
193 220 255
192 220 255
192 220 255
192 220 255
192 219 255
191 219 255
191 219 255
191 219 255
190 219 255
190 219 255
190 219 255
190 218 255
189 218 255
189 218 255
189 218 255
189 218 255
188 218 255
188 218 255
188 217 255
188 217 255
187 217 255
187 217 255
187 217 255
187 217 255
186 217 255
186 217 255
186 216 255
186 216 255
186 216 255
185 216 255
185 216 255
185 216 255
185 216 255
184 216 255
184 216 255
184 215 255
184 215 255
184 215 255
183 215 255
183 215 255
183 215 255
183 215 255
183 215 255
182 215 255
182 215 255
182 214 255
182 214 255
182 214 255
182 214 255
182 214 255
181 214 255
181 214 255
181 214 255
181 214 255
181 214 255
181 214 255
181 214 255
181 214 255
181 214 255
181 214 255
181 214 255
181 214 255
181 214 255
181 214 255
181 214 255
181 214 255
181 214 255
181 214 255
181 214 255
181 214 255
181 214 255
181 214 255
181 214 255
182 214 255
182 214 255
182 214 255
182 215 255
183 215 255
183 215 255
184 215 255
184 215 255
185 216 255
185 216 255
186 216 255
187 217 255
187 217 255
188 218 255
189 218 255
191 219 255
192 220 255
194 220 255
196 222 255
199 223 255
203 225 255
209 228 255
209 229 255
209 229 255
209 229 255
209 229 255
209 229 255
209 229 255
209 229 255
209 229 255
209 229 255
209 229 255
209 229 255
209 229 255
209 229 255
209 228 255
208 228 255
208 228 255
208 228 255
208 228 255
208 228 255
208 228 255
208 228 255
208 228 255
208 228 255
208 228 255
208 228 255
208 228 255
208 228 255
208 228 255
208 228 255
208 228 255
208 228 255
208 228 255
208 228 255
208 228 255
208 228 255
208 228 255
208 228 255
208 228 255
208 228 255
207 228 255
207 228 255
207 228 255
207 228 255
207 228 255
207 228 255
207 228 255
207 228 255
207 228 255
207 228 255
207 228 255
207 228 255
207 228 255
207 228 255
207 228 255
206 227 255
167 189 229
79 111 181
62 99 174
62 99 172
62 99 175
62 98 164
62 98 170
62 98 167
62 99 171
62 99 174
62 99 173
62 99 176
62 98 170
61 98 171
62 99 171
62 98 170
62 99 174
63 99 173
62 98 169
62 99 173
62 98 172
62 98 170
62 99 170
62 98 169
63 99 176
63 99 172
61 98 166
61 98 169
61 98 166
62 98 168
62 99 168
62 99 173
62 99 171
62 99 170
62 98 170
63 99 174
62 98 170
62 98 169
62 98 169
62 98 171
62 98 174
62 98 174
62 98 174
62 98 176
62 98 173
62 98 174
100 128 190
162 184 225
206 227 255
207 228 255
207 228 255
207 228 255
207 228 255
207 228 255
207 228 255
207 228 255
207 228 255
207 228 255
207 228 255
207 228 255
207 228 255
207 228 255
207 228 255
207 228 255
208 228 255
208 228 255
208 228 255
208 228 255
208 228 255
208 228 255
208 228 255
208 228 255
208 228 255
208 228 255
208 228 255
208 228 255
208 228 255
208 228 255
208 228 255
208 228 255
208 228 255
208 228 255
208 228 255
208 228 255
208 228 255
208 228 255
208 228 255
208 228 255
208 228 255
209 228 255
209 229 255
209 229 255
209 229 255
209 229 255
209 229 255
209 229 255
209 229 255
209 229 255
209 229 255
209 229 255
209 229 255
209 229 255
209 229 255
192 208 225
152 153 123
149 146 97
152 149 99
143 141 95
153 151 101
158 157 106
157 156 105
154 154 104
154 153 103
165 165 111
163 163 110
166 166 113
162 162 110
166 166 113
167 168 114
167 168 114
166 168 114
166 168 114
166 168 114
166 167 114
166 167 114
166 167 114
165 167 114
165 167 114
165 167 114
165 167 114
165 167 114
165 167 114
165 167 114
165 167 114
165 167 114
165 167 114
165 167 114
165 167 114
165 167 114
165 167 114
165 167 114
165 167 114
165 167 114
165 167 114
165 167 114
165 167 114
166 167 114
166 167 114
166 167 114
166 167 114
166 167 114
166 167 114
166 167 114
166 167 114
167 168 114
167 168 114
167 168 114
167 168 114
167 168 114
167 168 114
168 168 114
167 168 114
167 168 114
168 168 114
169 169 114
168 168 114
169 169 114
168 168 114
168 168 114
168 168 114
170 169 114
169 169 114
169 169 114
170 169 114
170 169 114
169 169 114
171 170 114
170 169 114
171 170 114
171 170 114
172 170 114
171 170 114
171 170 114
172 170 114
173 170 114
171 170 114
173 171 114
172 170 114
172 170 114
173 170 114
173 171 114
173 171 114
173 171 114
172 170 114
174 171 114
174 171 114
175 171 114
173 171 114
175 171 114
176 172 114
175 172 114
176 172 114
175 171 114
176 172 114
177 172 114
176 172 114
176 172 114
175 170 113
175 171 113
174 170 113
174 170 112
171 167 111
171 166 110
175 170 112
172 166 109
171 166 109
169 164 108
173 167 110
173 168 110
169 163 107
166 161 106
171 165 108
169 162 106
170 163 107
201 224 255
200 224 255
200 224 255
200 224 255
199 223 255
199 223 255
199 223 255
198 223 255
198 223 255
198 223 255
197 222 255
197 222 255
197 222 255
197 222 255
196 222 255
196 222 255
196 222 255
195 221 255
195 221 255
195 221 255
195 221 255
194 221 255
194 221 255
194 220 255
193 220 255
193 220 255
193 220 255
193 220 255
192 220 255
192 220 255
192 219 255
192 219 255
191 219 255
191 219 255
191 219 255
190 219 255
190 219 255
190 219 255
190 218 255
189 218 255
189 218 255
189 218 255
189 218 255
188 218 255
188 218 255
188 217 255
188 217 255
187 217 255
187 217 255
187 217 255
187 217 255
187 217 255
186 217 255
186 217 255
186 216 255
186 216 255
185 216 255
185 216 255
185 216 255
185 216 255
184 216 255
184 216 255
184 215 255
184 215 255
184 215 255
183 215 255
183 215 255
183 215 255
183 215 255
183 215 255
183 215 255
182 215 255
182 215 255
182 214 255
182 214 255
182 214 255
182 214 255
181 214 255
181 214 255
181 214 255
181 214 255
181 214 255
181 214 255
181 214 255
181 214 255
181 214 255
181 214 255
181 214 255
181 214 255
181 214 255
181 214 255
181 214 255
181 214 255
181 214 255
181 214 255
181 214 255
181 214 255
181 214 255
181 214 255
181 214 255
182 214 255
182 214 255
182 214 255
182 215 255
183 215 255
183 215 255
183 215 255
184 215 255
184 216 255
185 216 255
186 216 255
186 217 255
187 217 255
188 217 255
189 218 255
190 219 255
191 219 255
193 220 255
195 221 255
197 222 255
201 224 255
206 227 255
209 229 255
209 229 255
209 229 255
209 229 255
209 229 255
209 229 255
209 229 255
209 229 255
209 229 255
209 229 255
209 229 255
209 229 255
209 229 255
209 229 255
209 229 255
209 229 255
209 229 255
209 228 255
209 228 255
208 228 255
208 228 255
208 228 255
208 228 255
208 228 255
208 228 255
208 228 255
208 228 255
208 228 255
208 228 255
208 228 255
208 228 255
208 228 255
208 228 255
208 228 255
208 228 255
208 228 255
208 228 255
208 228 255
208 228 255
208 228 255
208 228 255
208 228 255
208 228 255
208 228 255
208 228 255
208 228 255
208 228 255
207 228 255
207 228 255
207 228 255
207 228 255
207 228 255
173 195 231
107 134 196
62 99 174
62 99 176
62 99 173
62 98 169
62 98 171
62 98 169
62 99 175
62 98 167
61 98 168
63 99 170
62 99 175
62 98 165
62 99 170
61 97 164
63 99 170
61 97 160
62 99 166
61 98 168
62 99 172
63 100 175
63 99 172
62 98 167
63 99 167
62 98 169
62 98 169
62 99 172
62 99 171
63 99 167
62 98 165
62 98 169
62 98 165
62 98 166
63 99 174
62 99 171
62 98 169
62 99 172
62 98 170
62 99 173
61 98 166
62 99 172
62 98 172
62 99 171
61 98 170
62 98 174
62 98 169
61 98 170
62 98 171
62 99 175
102 130 188
172 193 229
207 228 255
207 228 255
207 228 255
207 228 255
207 228 255
208 228 255
208 228 255
208 228 255
208 228 255
208 228 255
208 228 255
208 228 255
208 228 255
208 228 255
208 228 255
208 228 255
208 228 255
208 228 255
208 228 255
208 228 255
208 228 255
208 228 255
208 228 255
208 228 255
208 228 255
208 228 255
208 228 255
208 228 255
208 228 255
208 228 255
208 228 255
208 228 255
208 228 255
209 228 255
209 228 255
209 229 255
209 229 255
209 229 255
209 229 255
209 229 255
209 229 255
209 229 255
209 229 255
209 229 255
209 229 255
209 229 255
209 229 255
209 229 255
209 229 255
209 229 255
209 229 255
208 227 252
175 185 188
148 145 101
147 144 96
154 150 100
156 154 103
151 150 101
158 157 106
158 157 106
162 162 109
164 164 111
163 163 110
164 164 111
165 166 112
164 164 111
165 166 112
165 166 113
167 168 114
166 168 114
167 168 114
166 167 114
166 167 114
165 167 114
165 167 114
165 167 114
165 167 114
165 167 114
165 167 114
165 167 114
165 167 114
165 167 114
165 167 114
165 167 114
165 167 114
165 167 114
165 167 114
165 167 114
165 167 114
165 167 114
165 167 114
165 167 114
166 167 114
166 167 114
165 167 114
166 167 114
165 167 114
166 167 114
166 167 114
166 167 114
166 167 114
166 168 114
167 168 114
166 168 114
166 168 114
167 168 114
167 168 114
167 168 114
167 168 114
167 168 114
167 168 114
167 168 114
168 168 114
168 169 114
168 168 114
169 169 114
168 168 114
169 169 114
169 169 114
169 169 114
169 169 114
170 169 114
168 168 114
170 169 114
171 170 114
170 169 114
170 169 114
169 169 114
170 169 114
172 170 114
171 170 114
173 170 114
170 169 114
171 170 114
172 170 114
172 170 114
174 171 114
173 171 114
172 170 114
173 170 114
172 170 114
174 171 114
174 171 114
173 171 114
174 171 114
174 171 114
175 172 114
175 171 114
174 171 114
176 172 114
175 172 114
175 172 114
178 173 114
176 172 114
177 172 114
177 173 114
178 173 114
177 173 114
178 173 114
175 171 113
177 172 113
173 168 111
175 170 112
174 169 111
174 169 111
174 169 111
173 168 110
174 168 110
174 168 110
171 165 108
172 166 109
167 161 106
173 166 109
169 162 106
201 224 255
200 224 255
200 224 255
200 224 255
199 224 255
199 223 255
199 223 255
198 223 255
198 223 255
198 223 255
198 223 255
197 222 255
197 222 255
197 222 255
196 222 255
196 222 255
196 222 255
196 221 255
195 221 255
195 221 255
195 221 255
194 221 255
194 221 255
194 221 255
194 220 255
193 220 255
193 220 255
193 220 255
193 220 255
192 220 255
192 220 255
192 220 255
192 219 255
191 219 255
191 219 255
191 219 255
191 219 255
190 219 255
190 219 255
190 218 255
190 218 255
189 218 255
189 218 255
189 218 255
189 218 255
188 218 255
188 218 255
188 217 255
188 217 255
187 217 255
187 217 255
187 217 255
186 217 255
186 217 255
186 216 255
186 216 255
186 216 255
186 216 255
186 216 255
186 216 255
185 216 255
185 216 255
185 216 255
185 216 255
185 216 255
185 216 255
185 216 255
185 216 255
184 216 255
184 216 255
184 215 255
184 215 255
184 215 255
184 215 255
183 215 255
183 215 255
183 215 255
183 215 255
182 215 255
182 214 255
182 214 255
182 214 255
181 214 255
181 214 255
181 214 255
181 214 255
181 214 255
181 214 255
181 214 255
181 214 255
181 214 255
181 214 255
181 214 255
181 214 255
181 214 255
181 214 255
181 214 255
181 214 255
181 214 255
181 214 255
182 214 255
182 214 255
182 214 255
182 215 255
182 215 255
183 215 255
183 215 255
183 215 255
184 215 255
184 216 255
185 216 255
185 216 255
186 217 255
187 217 255
188 217 255
189 218 255
190 218 255
191 219 255
192 220 255
194 221 255
196 222 255
199 223 255
204 226 255
209 229 255
209 229 255
209 229 255
209 229 255
209 229 255
209 229 255
209 229 255
209 229 255
209 229 255
209 229 255
209 229 255
209 229 255
209 229 255
209 229 255
209 229 255
209 229 255
209 229 255
209 229 255
209 229 255
209 229 255
209 229 255
209 229 255
209 228 255
209 228 255
208 228 255
208 228 255
208 228 255
208 228 255
208 228 255
208 228 255
208 228 255
208 228 255
208 228 255
208 228 255
208 228 255
208 228 255
208 228 255
208 228 255
208 228 255
208 228 255
208 228 255
208 228 255
208 228 255
208 228 255
208 228 255
208 228 255
208 228 255
208 228 255
208 228 255
191 212 242
122 147 202
62 99 176
62 99 173
62 99 173
62 99 173
63 99 173
62 99 169
62 99 172
63 99 171
62 99 172
62 99 172
62 98 169
62 99 170
63 99 172
61 98 168
62 98 167
62 98 170
62 99 172
62 98 169
63 99 174
63 99 170
63 99 172
61 98 168
62 99 173
61 97 160
62 99 169
62 98 174
62 99 172
62 99 173
62 98 174
62 98 163
62 98 167
62 99 169
63 99 171
62 99 173
62 97 162
63 99 169
63 99 173
62 98 167
62 98 170
62 98 171
62 99 173
62 98 168
62 98 169
61 97 166
62 98 170
62 99 174
62 98 171
62 97 163
62 98 172
62 98 169
62 98 175
62 98 171
126 150 199
196 216 246
208 228 255
208 228 255
208 228 255
208 228 255
208 228 255
208 228 255
208 228 255
208 228 255
208 228 255
208 228 255
208 228 255
208 228 255
208 228 255
208 228 255
208 228 255
208 228 255
208 228 255
208 228 255
208 228 255
208 228 255
208 228 255
208 228 255
208 228 255
208 228 255
209 228 255
209 228 255
209 229 255
209 229 255
209 229 255
209 229 255
209 229 255
209 229 255
209 229 255
209 229 255
209 229 255
209 229 255
209 229 255
209 229 255
209 229 255
209 229 255
209 229 255
209 229 255
209 229 255
209 229 255
209 229 255
209 229 255
209 229 255
209 229 255
200 217 237
161 165 150
135 132 87
153 151 101
154 152 102
158 155 104
156 155 104
163 161 108
161 160 108
160 159 107
164 163 110
164 165 112
165 165 112
165 166 113
165 166 112
166 167 113
167 168 114
167 168 114
167 168 114
166 167 114
166 167 114
166 168 114
166 167 114
165 167 114
166 167 114
165 167 114
165 167 114
165 167 114
165 167 114
165 167 114
165 167 114
165 167 114
165 167 114
165 167 114
165 167 114
165 167 114
165 167 114
165 167 114
165 167 114
165 167 114
165 167 114
165 167 114
166 167 114
165 167 114
165 167 114
166 167 114
166 167 114
166 168 114
166 167 114
166 167 114
166 167 114
166 167 114
166 168 114
167 168 114
166 168 114
166 168 114
167 168 114
167 168 114
168 168 114
168 168 114
167 168 114
168 168 114
168 168 114
169 169 114
169 169 114
169 169 114
170 169 114
170 169 114
169 169 114
169 169 114
170 169 114
168 168 114
170 169 114
170 169 114
171 170 114
170 169 114
170 169 114
170 169 114
172 170 114
171 170 114
172 170 114
172 170 114
171 170 114
172 170 114
172 170 114
173 171 114
174 171 114
173 170 114
172 170 114
173 171 114
174 171 114
173 171 114
175 171 114
174 171 114
173 171 114
175 171 114
175 171 114
175 171 114
175 171 114
175 171 114
175 172 114
176 172 114
175 172 114
176 172 114
176 172 114
178 173 114
175 172 114
177 172 114
179 173 114
178 173 114
178 173 114
176 170 112
174 170 112
176 171 113
177 172 113
179 172 113
176 170 111
173 168 110
172 167 110
174 169 111
173 168 110
173 168 110
174 168 110
169 163 106
201 224 255
200 224 255
200 224 255
200 224 255
199 224 255
199 223 255
199 223 255
199 223 255
198 223 255
198 223 255
198 223 255
197 222 255
197 222 255
197 222 255
197 222 255
196 222 255
196 222 255
196 222 255
195 221 255
195 221 255
195 221 255
195 221 255
194 221 255
194 221 255
194 221 255
194 220 255
193 220 255
193 220 255
193 220 255
193 220 255
192 220 255
192 220 255
192 220 255
192 219 255
191 219 255
191 219 255
191 219 255
191 219 255
190 219 255
190 219 255
190 218 255
190 218 255
189 218 255
189 218 255
189 218 255
189 218 255
188 218 255
188 218 255
188 217 255
188 217 255
188 217 255
187 217 255
187 217 255
187 217 255
187 217 255
187 217 255
187 217 255
187 217 255
187 217 255
187 217 255
187 217 255
187 217 255
187 217 255
186 217 255
186 217 255
186 217 255
186 217 255
186 216 255
186 216 255
186 216 255
186 216 255
185 216 255
185 216 255
185 216 255
185 216 255
185 216 255
184 216 255
184 216 255
184 215 255
184 215 255
184 215 255
183 215 255
183 215 255
183 215 255
182 215 255
182 215 255
182 214 255
182 214 255
181 214 255
181 214 255
181 214 255
181 214 255
181 214 255
181 214 255
181 214 255
181 214 255
181 214 255
181 214 255
181 214 255
181 214 255
182 214 255
182 214 255
182 214 255
182 214 255
182 215 255
183 215 255
183 215 255
183 215 255
184 215 255
184 215 255
184 216 255
185 216 255
185 216 255
186 217 255
187 217 255
188 217 255
189 218 255
190 218 255
191 219 255
192 220 255
194 221 255
196 221 255
198 223 255
203 225 255
208 228 255
210 229 255
210 229 255
210 229 255
210 229 255
210 229 255
209 229 255
209 229 255
209 229 255
209 229 255
209 229 255
209 229 255
209 229 255
209 229 255
209 229 255
209 229 255
209 229 255
209 229 255
209 229 255
209 229 255
209 229 255
209 229 255
209 229 255
209 229 255
209 229 255
209 229 255
209 229 255
209 229 255
209 228 255
209 228 255
209 228 255
208 228 255
208 228 255
208 228 255
208 228 255
208 228 255
208 228 255
208 228 255
208 228 255
208 228 255
208 228 255
208 228 255
208 228 255
208 228 255
208 228 255
208 228 255
207 227 255
151 173 216
71 105 175
62 99 177
62 98 167
62 99 170
62 99 172
62 98 168
62 98 169
62 98 164
62 98 170
62 98 168
63 99 172
62 98 167
62 99 176
62 98 164
63 99 170
62 98 166
62 99 167
61 97 162
63 99 170
62 99 174
62 98 167
62 99 171
62 98 170
63 99 169
61 98 162
62 98 168
62 99 170
63 99 167
63 99 173
62 99 171
62 99 171
62 98 162
62 99 175
62 98 170
61 98 165
62 98 168
62 99 169
61 97 164
62 98 169
62 98 169
62 98 168
62 98 170
62 98 165
61 98 162
62 98 167
62 99 170
62 97 162
62 98 170
61 97 167
61 97 161
62 98 170
62 98 172
62 98 171
62 97 166
61 97 171
65 100 171
154 176 216
207 227 255
208 228 255
208 228 255
208 228 255
208 228 255
208 228 255
208 228 255
208 228 255
208 228 255
208 228 255
208 228 255
208 228 255
208 228 255
208 228 255
208 228 255
208 228 255
209 228 255
209 228 255
209 229 255
209 229 255
209 229 255
209 229 255
209 229 255
209 229 255
209 229 255
209 229 255
209 229 255
209 229 255
209 229 255
209 229 255
209 229 255
209 229 255
209 229 255
209 229 255
209 229 255
209 229 255
209 229 255
209 229 255
209 229 255
209 229 255
209 229 255
210 229 255
210 229 255
210 229 255
210 229 255
210 229 255
177 190 203
133 130 90
151 148 98
146 143 95
157 155 103
158 156 104
155 154 103
159 158 106
161 160 108
164 163 110
165 165 111
165 165 112
164 164 111
169 169 114
168 168 114
167 168 114
167 168 114
167 168 114
167 168 114
166 168 114
166 167 114
166 167 114
166 168 114
165 167 114
166 167 114
165 167 114
165 167 114
165 167 114
165 167 114
165 167 114
165 167 114
165 167 114
165 167 114
165 167 114
165 167 114
166 167 114
166 167 114
165 167 114
165 167 114
165 167 114
166 167 114
166 167 114
166 167 114
166 167 114
166 167 114
166 167 114
166 167 114
166 168 114
166 167 114
166 167 114
166 168 114
166 168 114
167 168 114
166 168 114
167 168 114
167 168 114
167 168 114
168 168 114
168 168 114
169 169 114
169 169 114
168 168 114
168 169 114
169 169 114
168 168 114
169 169 114
169 169 114
169 169 114
169 169 114
170 169 114
169 169 114
170 169 114
169 169 114
169 169 114
171 170 114
171 170 114
171 170 114
171 170 114
171 170 114
172 170 114
171 170 114
171 170 114
172 170 114
173 171 114
171 170 114
172 170 114
174 171 114
173 171 114
173 171 114
172 170 114
174 171 114
173 171 114
173 171 114
174 171 114
172 170 114
174 171 114
175 172 114
174 171 114
174 171 114
176 172 114
174 171 114
176 172 114
177 172 114
177 172 114
177 172 114
176 172 114
176 172 114
177 172 114
178 173 114
177 172 114
177 173 114
177 172 114
178 173 114
180 174 114
178 173 114
176 170 112
174 169 112
178 173 114
175 169 110
176 170 112
176 170 112
172 166 109
172 166 109
177 171 112
170 164 108
201 224 255
201 224 255
200 224 255
200 224 255
200 224 255
199 224 255
199 223 255
199 223 255
199 223 255
198 223 255
198 223 255
198 223 255
197 222 255
197 222 255
197 222 255
197 222 255
196 222 255
196 222 255
196 222 255
196 221 255
195 221 255
195 221 255
195 221 255
194 221 255
194 221 255
194 221 255
194 221 255
193 220 255
193 220 255
193 220 255
193 220 255
192 220 255
192 220 255
192 220 255
192 219 255
191 219 255
191 219 255
191 219 255
191 219 255
191 219 255
190 219 255
190 219 255
190 218 255
189 218 255
189 218 255
189 218 255
189 218 255
189 218 255
189 218 255
189 218 255
189 218 255
189 218 255
189 218 255
189 218 255
189 218 255
189 218 255
188 218 255
188 218 255
188 218 255
188 218 255
188 218 255
188 218 255
188 218 255
188 217 255
188 217 255
188 217 255
188 217 255
187 217 255
187 217 255
187 217 255
187 217 255
187 217 255
187 217 255
187 217 255
186 217 255
186 217 255
186 216 255
186 216 255
186 216 255
185 216 255
185 216 255
185 216 255
185 216 255
184 216 255
184 215 255
184 215 255
184 215 255
183 215 255
183 215 255
183 215 255
182 215 255
182 214 255
181 214 255
181 214 255
181 214 255
181 214 255
181 214 255
181 214 255
181 214 255
182 214 255
182 214 255
182 214 255
182 214 255
182 214 255
182 215 255
182 215 255
183 215 255
183 215 255
183 215 255
184 215 255
184 215 255
185 216 255
185 216 255
186 216 255
186 217 255
187 217 255
188 217 255
189 218 255
189 218 255
191 219 255
192 220 255
193 220 255
195 221 255
198 223 255
201 224 255
207 227 255
210 229 255
210 229 255
210 229 255
210 229 255
210 229 255
210 229 255
210 229 255
210 229 255
210 229 255
209 229 255
209 229 255
209 229 255
209 229 255
209 229 255
209 229 255
209 229 255
209 229 255
209 229 255
209 229 255
209 229 255
209 229 255
209 229 255
209 229 255
209 229 255
209 229 255
209 229 255
209 229 255
209 229 255
209 229 255
209 229 255
209 229 255
209 229 255
209 229 255
209 229 255
209 228 255
209 228 255
208 228 255
208 228 255
208 228 255
208 228 255
208 228 255
208 228 255
208 228 255
199 219 248
115 141 196
62 99 172
61 98 171
61 98 168
62 99 169
62 98 171
61 98 170
62 99 172
62 99 170
62 99 172
62 99 167
62 99 170
62 98 171
62 99 168
62 99 170
62 98 163
63 98 168
62 98 160
63 99 176
62 98 166
63 99 165
63 99 171
61 98 168
62 98 161
62 98 165
61 98 165
62 99 168
62 99 169
62 98 165
62 98 163
62 98 168
63 99 173
62 99 165
62 98 163
62 98 164
62 98 170
62 98 163
62 98 167
62 98 168
62 99 171
61 98 164
61 97 161
62 98 168
63 99 171
62 98 167
62 98 169
62 98 167
62 98 170
61 96 160
62 99 170
62 98 170
62 98 168
61 97 163
62 98 167
62 97 165
61 97 169
61 97 166
61 97 169
61 97 167
98 126 184
196 217 247
208 228 255
208 228 255
208 228 255
208 228 255
208 228 255
208 228 255
209 228 255
209 228 255
209 229 255
209 229 255
209 229 255
209 229 255
209 229 255
209 229 255
209 229 255
209 229 255
209 229 255
209 229 255
209 229 255
209 229 255
209 229 255
209 229 255
209 229 255
209 229 255
209 229 255
209 229 255
209 229 255
209 229 255
209 229 255
209 229 255
209 229 255
209 229 255
209 229 255
210 229 255
210 229 255
210 229 255
210 229 255
210 229 255
210 229 255
210 229 255
210 229 255
210 229 255
208 227 251
164 167 151
142 139 92
154 151 100
152 150 100
154 151 101
158 156 104
160 158 106
162 161 108
161 161 108
166 165 111
164 164 110
168 168 113
168 168 113
169 169 114
169 169 114
168 168 114
167 168 114
167 168 114
166 168 114
166 168 114
167 168 114
166 167 114
166 167 114
166 167 114
166 167 114
166 167 114
166 167 114
166 167 114
166 167 114
165 167 114
166 167 114
165 167 114
165 167 114
166 167 114
165 167 114
165 167 114
165 167 114
165 167 114
165 167 114
166 167 114
166 167 114
166 167 114
166 167 114
166 167 114
166 167 114
166 168 114
166 168 114
167 168 114
166 168 114
167 168 114
166 168 114
166 168 114
167 168 114
167 168 114
167 168 114
167 168 114
168 168 114
168 168 114
167 168 114
167 168 114
168 168 114
169 169 114
168 168 114
168 168 114
168 168 114
168 168 114
169 169 114
168 168 114
169 169 114
169 169 114
170 169 114
170 169 114
170 169 114
171 170 114
172 170 114
171 170 114
169 169 114
172 170 114
171 170 114
171 170 114
172 170 114
172 170 114
171 170 114
172 170 114
173 171 114
172 170 114
175 171 114
173 171 114
174 171 114
173 171 114
173 171 114
174 171 114
174 171 114
175 171 114
174 171 114
174 171 114
174 171 114
176 172 114
175 172 114
175 171 114
175 171 114
176 172 114
176 172 114
177 172 114
177 173 114
177 172 114
177 172 114
176 172 114
178 173 114
176 172 114
178 173 114
178 173 114
178 173 114
180 174 114
178 173 114
179 174 114
177 172 113
177 171 112
175 169 111
174 168 110
177 171 112
177 170 111
170 164 108
177 170 111
174 168 110
169 163 106
201 224 255
201 224 255
200 224 255
200 224 255
200 224 255
200 224 255
199 223 255
199 223 255
199 223 255
198 223 255
198 223 255
198 223 255
198 223 255
197 222 255
197 222 255
197 222 255
197 222 255
196 222 255
196 222 255
196 222 255
196 221 255
195 221 255
195 221 255
195 221 255
195 221 255
194 221 255
194 221 255
194 221 255
194 220 255
193 220 255
193 220 255
193 220 255
193 220 255
192 220 255
192 220 255
192 220 255
192 219 255
191 219 255
191 219 255
191 219 255
191 219 255
190 219 255
190 219 255
190 219 255
190 219 255
190 219 255
190 219 255
190 219 255
190 219 255
190 219 255
190 219 255
190 219 255
190 219 255
190 219 255
190 218 255
190 218 255
190 218 255
190 218 255
190 218 255
190 218 255
190 218 255
189 218 255
189 218 255
189 218 255
189 218 255
189 218 255
189 218 255
189 218 255
189 218 255
189 218 255
188 218 255
188 218 255
188 218 255
188 218 255
188 217 255
188 217 255
188 217 255
187 217 255
187 217 255
187 217 255
187 217 255
186 217 255
186 217 255
186 217 255
186 216 255
186 216 255
185 216 255
185 216 255
185 216 255
184 216 255
184 215 255
184 215 255
183 215 255
183 215 255
182 215 255
182 214 255
182 214 255
182 214 255
182 214 255
182 214 255
182 214 255
182 214 255
182 214 255
182 215 255
182 215 255
183 215 255
183 215 255
183 215 255
183 215 255
184 215 255
184 215 255
184 216 255
185 216 255
185 216 255
186 216 255
186 217 255
187 217 255
188 217 255
188 218 255
189 218 255
191 219 255
192 220 255
193 220 255
195 221 255
197 222 255
200 224 255
205 227 255
210 229 255
210 229 255
210 229 255
210 229 255
210 229 255
210 229 255
210 229 255
210 229 255
210 229 255
210 229 255
210 229 255
210 229 255
210 229 255
210 229 255
210 229 255
209 229 255
209 229 255
209 229 255
209 229 255
209 229 255
209 229 255
209 229 255
209 229 255
209 229 255
209 229 255
209 229 255
209 229 255
209 229 255
209 229 255
209 229 255
209 229 255
209 229 255
209 229 255
209 229 255
209 229 255
209 229 255
209 229 255
209 229 255
209 229 255
209 229 255
209 229 255
178 199 235
79 111 181
62 98 169
62 98 172
61 98 165
62 98 172
62 98 167
62 99 171
62 98 166
62 98 168
62 98 168
62 99 170
62 98 167
62 98 170
62 98 165
62 99 175
63 99 172
62 99 169
62 98 169
62 99 169
62 98 168
62 98 161
62 98 163
62 98 164
62 98 168
63 99 165
62 99 168
63 99 168
62 99 170
63 99 169
61 98 162
61 97 163
63 99 170
61 97 160
62 98 168
62 98 163
62 98 164
63 99 170
63 99 171
62 98 163
62 98 164
63 99 168
62 98 169
62 98 170
61 98 167
61 97 168
62 98 167
63 99 171
62 98 168
63 99 170
62 98 167
62 98 167
62 98 168
62 98 168
62 98 166
61 96 162
62 98 166
62 98 168
61 97 163
61 97 165
62 98 169
62 97 165
76 108 176
174 195 230
209 229 255
209 229 255
209 229 255
209 229 255
209 229 255
209 229 255
209 229 255
209 229 255
209 229 255
209 229 255
209 229 255
209 229 255
209 229 255
209 229 255
209 229 255
209 229 255
209 229 255
209 229 255
209 229 255
209 229 255
209 229 255
209 229 255
209 229 255
209 229 255
209 229 255
209 229 255
210 229 255
210 229 255
210 229 255
210 229 255
210 229 255
210 229 255
210 229 255
210 229 255
210 229 255
210 229 255
210 229 255
210 229 255
210 229 255
210 229 255
196 211 229
155 155 126
145 142 94
154 151 100
155 152 101
160 157 105
160 158 106
163 160 107
161 160 108
161 160 108
167 166 111
162 162 109
166 166 112
168 168 113
169 169 114
169 169 114
167 168 114
167 168 114
166 168 114
166 167 114
168 168 114
167 168 114
166 168 114
166 167 114
166 168 114
166 168 114
166 167 114
165 167 114
166 167 114
166 167 114
166 167 114
165 167 114
165 167 114
165 167 114
165 167 114
166 168 114
165 167 114
166 167 114
166 167 114
166 168 114
166 167 114
166 168 114
166 167 114
166 167 114
166 168 114
167 168 114
167 168 114
167 168 114
167 168 114
166 168 114
167 168 114
168 168 114
168 168 114
167 168 114
167 168 114
168 168 114
167 168 114
168 169 114
167 168 114
169 169 114
169 169 114
168 169 114
169 169 114
168 168 114
168 168 114
169 169 114
170 169 114
169 169 114
170 169 114
169 169 114
170 169 114
170 169 114
171 170 114
171 170 114
171 169 114
171 170 114
171 170 114
171 170 114
171 170 114
172 170 114
171 170 114
171 170 114
172 170 114
173 170 114
172 170 114
172 170 114
173 171 114
173 171 114
173 171 114
173 171 114
173 171 114
173 171 114
173 171 114
175 172 114
175 171 114
175 171 114
174 171 114
175 172 114
176 172 114
175 172 114
176 172 114
176 172 114
175 171 114
176 172 114
176 172 114
177 172 114
176 172 114
177 172 114
177 173 114
177 172 114
177 172 114
178 173 114
179 174 114
179 173 114
179 173 114
179 173 114
179 173 114
179 173 114
181 174 114
178 173 114
179 172 113
178 172 112
180 174 114
180 174 114
179 172 112
175 169 110
177 170 111
174 168 110
201 224 255
201 224 255
201 224 255
200 224 255
200 224 255
200 224 255
200 224 255
199 223 255
199 223 255
199 223 255
198 223 255
198 223 255
198 223 255
198 223 255
197 222 255
197 222 255
197 222 255
197 222 255
196 222 255
196 222 255
196 222 255
196 222 255
195 221 255
195 221 255
195 221 255
195 221 255
194 221 255
194 221 255
194 221 255
194 221 255
194 220 255
193 220 255
193 220 255
193 220 255
193 220 255
192 220 255
192 220 255
192 219 255
191 219 255
191 219 255
191 219 255
191 219 255
191 219 255
191 219 255
191 219 255
191 219 255
191 219 255
191 219 255
191 219 255
191 219 255
191 219 255
191 219 255
191 219 255
191 219 255
191 219 255
191 219 255
191 219 255
191 219 255
191 219 255
191 219 255
191 219 255
191 219 255
191 219 255
190 219 255
190 219 255
190 219 255
190 219 255
190 219 255
190 219 255
190 218 255
190 218 255
190 218 255
189 218 255
189 218 255
189 218 255
189 218 255
189 218 255
189 218 255
188 218 255
188 218 255
188 218 255
188 217 255
188 217 255
188 217 255
187 217 255
187 217 255
187 217 255
187 217 255
186 217 255
186 216 255
186 216 255
185 216 255
185 216 255
185 216 255
184 216 255
184 215 255
184 215 255
183 215 255
183 215 255
182 215 255
182 214 255
182 214 255
182 215 255
182 215 255
183 215 255
183 215 255
183 215 255
183 215 255
183 215 255
184 215 255
184 215 255
184 216 255
185 216 255
185 216 255
185 216 255
186 216 255
187 217 255
187 217 255
188 217 255
189 218 255
190 218 255
191 219 255
192 220 255
193 220 255
195 221 255
197 222 255
199 224 255
204 226 255
210 229 255
210 229 255
210 229 255
210 229 255
210 229 255
210 229 255
210 229 255
210 229 255
210 229 255
210 229 255
210 229 255
210 229 255
210 229 255
210 229 255
210 229 255
210 229 255
210 229 255
210 229 255
210 229 255
210 229 255
210 229 255
209 229 255
209 229 255
209 229 255
209 229 255
209 229 255
209 229 255
209 229 255
209 229 255
209 229 255
209 229 255
209 229 255
209 229 255
209 229 255
209 229 255
209 229 255
209 229 255
209 229 255
209 229 255
155 177 217
62 99 173
62 99 172
62 98 171
63 99 166
62 99 169
62 99 172
61 98 161
61 98 168
62 99 167
62 99 168
61 98 159
62 99 176
61 98 163
62 98 168
62 98 169
62 99 167
62 98 162
62 98 164
62 99 171
62 98 164
62 98 166
62 98 165
62 98 165
62 99 166
62 99 169
62 99 170
62 98 169
63 99 165
61 98 161
61 97 164
62 98 164
62 99 169
62 98 165
63 99 166
62 98 165
61 97 159
62 99 168
62 98 167
62 99 167
63 99 167
61 97 163
63 99 172
62 98 164
62 98 167
61 97 159
61 97 166
63 99 171
62 98 167
62 98 164
61 97 165
63 99 174
62 98 164
62 98 170
61 97 163
62 97 167
61 98 170
61 97 166
61 97 161
62 98 169
62 97 164
60 96 163
61 97 167
62 98 170
62 97 167
150 172 212
208 228 255
209 229 255
209 229 255
209 229 255
209 229 255
209 229 255
209 229 255
209 229 255
209 229 255
209 229 255
209 229 255
209 229 255
209 229 255
209 229 255
209 229 255
209 229 255
209 229 255
209 229 255
210 229 255
210 229 255
210 229 255
210 229 255
210 229 255
210 229 255
210 229 255
210 229 255
210 229 255
210 229 255
210 229 255
210 229 255
210 229 255
210 229 255
210 229 255
210 229 255
210 229 255
210 229 255
210 229 255
210 229 255
193 208 227
140 137 99
148 145 96
157 153 102
160 157 104
154 151 101
161 158 106
162 161 108
160 158 106
162 161 108
164 163 110
168 167 112
169 168 113
169 169 114
168 169 114
168 168 114
168 168 114
168 168 114
168 168 114
167 168 114
166 168 114
167 168 114
167 168 114
167 168 114
166 168 114
166 168 114
166 168 114
167 168 114
166 168 114
166 168 114
165 167 114
166 167 114
166 167 114
166 167 114
166 167 114
166 168 114
166 167 114
166 168 114
166 167 114
166 168 114
167 168 114
166 167 114
167 168 114
167 168 114
166 168 114
167 168 114
166 168 114
166 168 114
167 168 114
168 168 114
167 168 114
167 168 114
167 168 114
168 168 114
167 168 114
168 168 114
168 169 114
168 168 114
168 168 114
168 168 114
168 168 114
169 169 114
168 168 114
170 169 114
168 169 114
168 168 114
169 169 114
169 169 114
171 169 114
169 169 114
169 169 114
171 169 114
170 169 114
170 169 114
170 169 114
171 170 114
172 170 114
171 170 114
172 170 114
172 170 114
171 170 114
173 171 114
173 171 114
172 170 114
173 170 114
173 170 114
173 170 114
173 171 114
173 171 114
173 170 114
173 171 114
173 170 114
175 171 114
175 171 114
173 171 114
174 171 114
174 171 114
176 172 114
174 171 114
176 172 114
176 172 114
175 172 114
178 173 114
176 172 114
176 172 114
177 173 114
178 173 114
176 172 114
178 173 114
177 172 114
177 173 114
178 173 114
178 173 114
179 173 114
179 173 114
179 173 114
178 173 114
179 173 114
179 174 114
179 173 114
180 174 114
181 174 114
179 173 114
179 173 113
179 173 113
179 173 113
179 172 112
176 170 111
175 168 110
201 225 255
201 224 255
201 224 255
201 224 255
200 224 255
200 224 255
200 224 255
200 224 255
199 223 255
199 223 255
199 223 255
199 223 255
198 223 255
198 223 255
198 223 255
198 223 255
197 222 255
197 222 255
197 222 255
197 222 255
196 222 255
196 222 255
196 222 255
196 222 255
195 221 255
195 221 255
195 221 255
195 221 255
194 221 255
194 221 255
194 221 255
194 221 255
194 220 255
193 220 255
193 220 255
193 220 255
192 220 255
193 220 255
193 220 255
192 220 255
193 220 255
193 220 255
193 220 255
192 220 255
192 220 255
192 220 255
193 220 255
192 220 255
192 220 255
192 220 255
192 220 255
192 220 255
192 220 255
192 220 255
192 220 255
192 220 255
192 220 255
192 220 255
192 220 255
192 220 255
192 220 255
192 220 255
192 219 255
192 219 255
192 219 255
192 219 255
191 219 255
191 219 255
191 219 255
191 219 255
191 219 255
191 219 255
191 219 255
191 219 255
190 219 255
190 219 255
190 219 255
190 219 255
190 218 255
190 218 255
189 218 255
189 218 255
189 218 255
189 218 255
189 218 255
188 218 255
188 218 255
188 218 255
188 217 255
187 217 255
187 217 255
187 217 255
187 217 255
186 217 255
186 216 255
186 216 255
185 216 255
185 216 255
184 216 255
184 215 255
183 215 255
183 215 255
183 215 255
183 215 255
183 215 255
183 215 255
183 215 255
183 215 255
183 215 255
184 215 255
184 215 255
184 216 255
185 216 255
185 216 255
185 216 255
186 216 255
186 217 255
187 217 255
187 217 255
188 218 255
189 218 255
190 218 255
191 219 255
192 220 255
193 220 255
195 221 255
197 222 255
199 223 255
203 225 255
209 229 255
210 230 255
210 230 255
210 230 255
210 229 255
210 229 255
210 229 255
210 229 255
210 229 255
210 229 255
210 229 255
210 229 255
210 229 255
210 229 255
210 229 255
210 229 255
210 229 255
210 229 255
210 229 255
210 229 255
210 229 255
210 229 255
210 229 255
210 229 255
210 229 255
210 229 255
210 229 255
210 229 255
210 229 255
209 229 255
209 229 255
209 229 255
209 229 255
209 229 255
209 229 255
209 229 255
206 226 254
124 148 199
62 99 173
61 98 170
62 99 172
62 98 166
63 99 170
62 99 173
62 99 166
62 98 166
62 99 170
62 98 169
62 98 167
62 98 167
62 99 167
62 98 161
63 99 165
62 98 165
62 98 165
62 98 160
62 98 166
61 97 154
62 99 169
62 98 165
63 99 168
62 99 171
62 98 161
62 99 170
62 98 162
63 99 172
63 99 165
62 98 165
62 99 167
62 98 167
62 98 165
62 98 162
63 99 167
62 98 167
62 99 165
62 98 170
63 99 167
62 99 170
61 97 158
62 98 167
62 98 163
62 98 159
62 99 167
62 98 166
62 98 162
62 98 160
62 98 165
61 98 160
62 97 164
62 98 170
61 97 164
62 97 163
61 96 156
62 98 164
63 98 167
61 98 165
61 97 164
62 98 167
60 95 153
62 98 166
62 97 165
62 98 167
61 96 161
61 96 163
130 153 202
205 225 252
209 229 255
209 229 255
209 229 255
209 229 255
209 229 255
209 229 255
209 229 255
209 229 255
210 229 255
210 229 255
210 229 255
210 229 255
210 229 255
210 229 255
210 229 255
210 229 255
210 229 255
210 229 255
210 229 255
210 229 255
210 229 255
210 229 255
210 229 255
210 229 255
210 229 255
210 229 255
210 229 255
210 229 255
210 229 255
210 229 255
210 229 255
210 229 255
210 230 255
210 230 255
210 230 255
187 200 212
140 137 95
149 145 96
152 149 99
154 151 101
161 158 105
159 157 105
157 156 104
167 166 111
168 167 112
169 167 112
167 167 112
169 168 113
169 169 114
169 169 114
168 169 114
169 169 114
168 168 114
168 168 114
167 168 114
167 168 114
168 168 114
166 168 114
167 168 114
167 168 114
166 168 114
166 168 114
166 168 114
166 167 114
167 168 114
165 167 114
166 168 114
166 168 114
167 168 114
166 167 114
166 168 114
166 167 114
166 167 114
167 168 114
167 168 114
166 168 114
167 168 114
167 168 114
167 168 114
167 168 114
167 168 114
167 168 114
167 168 114
167 168 114
167 168 114
167 168 114
168 168 114
168 168 114
168 168 114
167 168 114
168 168 114
169 169 114
169 169 114
168 168 114
168 168 114
169 169 114
169 169 114
169 169 114
169 169 114
170 169 114
169 169 114
170 169 114
170 169 114
171 170 114
170 169 114
171 170 114
171 170 114
171 170 114
171 170 114
171 170 114
172 170 114
172 170 114
171 170 114
171 170 114
172 170 114
172 170 114
171 170 114
173 171 114
172 170 114
173 171 114
173 170 114
173 170 114
174 171 114
174 171 114
172 170 114
173 170 114
175 171 114
177 172 114
174 171 114
174 171 114
175 172 114
176 172 114
175 171 114
175 171 114
176 172 114
176 172 114
175 171 114
176 172 114
176 172 114
177 172 114
176 172 114
177 172 114
177 172 114
177 173 114
177 172 114
179 173 114
177 172 114
178 173 114
178 173 114
179 173 114
178 173 114
178 173 114
179 173 114
180 174 114
180 174 114
180 174 114
179 173 114
178 173 114
179 173 114
181 174 114
182 175 114
179 173 113
179 173 114
179 172 112
176 169 110
202 225 255
201 225 255
201 224 255
201 224 255
201 224 255
200 224 255
200 224 255
200 224 255
200 224 255
199 224 255
199 223 255
199 223 255
199 223 255
198 223 255
198 223 255
198 223 255
198 223 255
197 222 255
197 222 255
197 222 255
197 222 255
196 222 255
196 222 255
196 222 255
196 222 255
196 221 255
195 221 255
195 221 255
195 221 255
195 221 255
194 221 255
194 221 255
194 221 255
194 220 255
194 220 255
194 220 255
194 220 255
194 220 255
194 220 255
194 220 255
194 220 255
194 221 255
194 220 255
194 220 255
194 220 255
194 220 255
194 220 255
194 220 255
194 220 255
194 220 255
193 220 255
193 220 255
193 220 255
193 220 255
193 220 255
193 220 255
193 220 255
193 220 255
193 220 255
193 220 255
193 220 255
193 220 255
193 220 255
193 220 255
193 220 255
193 220 255
193 220 255
192 220 255
192 220 255
192 220 255
192 220 255
192 220 255
192 220 255
192 219 255
192 219 255
192 219 255
191 219 255
191 219 255
191 219 255
191 219 255
191 219 255
191 219 255
190 219 255
190 219 255
190 219 255
190 218 255
190 218 255
189 218 255
189 218 255
189 218 255
189 218 255
188 218 255
188 218 255
188 217 255
188 217 255
187 217 255
187 217 255
187 217 255
186 217 255
186 216 255
185 216 255
185 216 255
184 216 255
184 215 255
183 215 255
183 215 255
183 215 255
184 215 255
184 215 255
184 215 255
184 216 255
184 216 255
185 216 255
185 216 255
185 216 255
186 216 255
186 217 255
187 217 255
187 217 255
188 217 255
189 218 255
189 218 255
190 219 255
191 219 255
192 220 255
194 220 255
195 221 255
197 222 255
199 223 255
203 225 255
209 228 255
211 230 255
211 230 255
211 230 255
211 230 255
211 230 255
211 230 255
210 230 255
210 230 255
210 229 255
210 229 255
210 229 255
210 229 255
210 229 255
210 229 255
210 229 255
210 229 255
210 229 255
210 229 255
210 229 255
210 229 255
210 229 255
210 229 255
210 229 255
210 229 255
210 229 255
210 229 255
210 229 255
210 229 255
210 229 255
210 229 255
210 229 255
210 229 255
210 229 255
206 225 253
114 140 199
62 99 171
62 99 173
62 99 167
62 98 161
62 98 168
61 98 165
63 99 173
62 99 169
62 98 166
62 99 168
62 99 171
62 98 165
63 99 168
63 99 171
62 98 167
62 98 159
62 98 162
62 99 173
62 99 168
62 99 166
62 98 163
62 99 164
61 98 163
61 97 161
62 98 167
62 98 165
62 98 162
61 97 158
62 98 158
62 99 168
62 98 164
62 99 166
62 98 160
62 98 164
63 99 167
63 99 164
61 97 161
62 97 159
63 99 168
62 98 163
62 98 164
62 98 169
62 98 166
63 99 167
62 98 164
62 98 159
62 98 164
62 98 166
63 98 163
62 98 169
62 98 165
63 99 167
62 98 162
61 97 157
62 97 161
62 98 168
63 99 164
61 97 165
61 97 159
62 98 163
62 98 164
61 96 158
61 96 163
60 95 158
62 98 172
62 97 169
61 96 161
61 97 169
103 129 180
208 227 254
210 229 255
210 229 255
210 229 255
210 229 255
210 229 255
210 229 255
210 229 255
210 229 255
210 229 255
210 229 255
210 229 255
210 229 255
210 229 255
210 229 255
210 229 255
210 229 255
210 229 255
210 229 255
210 229 255
210 229 255
210 229 255
210 229 255
210 229 255
210 229 255
210 230 255
210 230 255
210 230 255
211 230 255
211 230 255
211 230 255
211 230 255
211 230 255
211 230 255
183 194 199
137 134 90
151 147 97
152 149 99
150 147 97
153 151 101
165 163 109
166 165 110
164 163 109
166 165 111
171 169 113
167 167 112
170 169 114
170 169 114
169 169 114
169 169 114
169 169 114
168 168 114
168 168 114
168 168 114
167 168 114
167 168 114
168 168 114
167 168 114
167 168 114
167 168 114
167 168 114
167 168 114
167 168 114
167 168 114
167 168 114
167 168 114
167 168 114
167 168 114
166 168 114
167 168 114
167 168 114
167 168 114
167 168 114
166 168 114
166 168 114
167 168 114
167 168 114
167 168 114
167 168 114
169 169 114
168 168 114
167 168 114
168 168 114
168 168 114
169 169 114
168 168 114
169 169 114
169 169 114
169 169 114
169 169 114
169 169 114
168 168 114
170 169 114
169 169 114
169 169 114
169 169 114
170 169 114
171 170 114
170 169 114
170 169 114
172 170 114
170 169 114
170 169 114
171 170 114
171 170 114
171 170 114
171 170 114
173 171 114
171 170 114
172 170 114
173 171 114
172 170 114
172 170 114
173 171 114
171 170 114
172 170 114
172 170 114
173 171 114
173 171 114
173 171 114
174 171 114
174 171 114
174 171 114
173 170 114
174 171 114
175 172 114
174 171 114
175 172 114
176 172 114
176 172 114
175 172 114
175 172 114
175 172 114
175 172 114
176 172 114
176 172 114
176 172 114
177 172 114
176 172 114
176 172 114
177 172 114
177 172 114
177 173 114
176 172 114
178 173 114
178 173 114
178 173 114
179 173 114
179 173 114
178 173 114
180 174 114
179 173 114
177 173 114
179 173 114
180 174 114
180 174 114
180 174 114
178 173 114
181 174 114
182 175 114
181 174 114
182 175 114
178 172 112
178 171 112
179 172 112
202 225 255
202 225 255
201 225 255
201 224 255
201 224 255
201 224 255
200 224 255
200 224 255
200 224 255
200 224 255
199 224 255
199 223 255
199 223 255
199 223 255
199 223 255
198 223 255
198 223 255
198 223 255
198 223 255
197 222 255
197 222 255
197 222 255
197 222 255
196 222 255
196 222 255
196 222 255
196 222 255
196 222 255
195 221 255
195 221 255
195 221 255
195 221 255
195 221 255
195 221 255
195 221 255
195 221 255
195 221 255
195 221 255
195 221 255
195 221 255
195 221 255
195 221 255
195 221 255
195 221 255
195 221 255
195 221 255
195 221 255
195 221 255
195 221 255
195 221 255
195 221 255
195 221 255
195 221 255
194 221 255
194 221 255
194 221 255
194 221 255
194 221 255
194 221 255
194 221 255
194 221 255
194 221 255
194 221 255
194 221 255
194 221 255
194 221 255
194 220 255
194 220 255
193 220 255
193 220 255
193 220 255
193 220 255
193 220 255
193 220 255
193 220 255
193 220 255
193 220 255
192 220 255
192 220 255
192 220 255
192 220 255
192 219 255
192 219 255
191 219 255
191 219 255
191 219 255
191 219 255
191 219 255
190 219 255
190 219 255
190 219 255
190 218 255
190 218 255
189 218 255
189 218 255
189 218 255
188 218 255
188 218 255
188 217 255
187 217 255
187 217 255
186 217 255
186 217 255
186 216 255
185 216 255
185 216 255
184 216 255
184 215 255
184 215 255
184 216 255
184 216 255
185 216 255
185 216 255
185 216 255
185 216 255
186 216 255
186 217 255
187 217 255
187 217 255
188 217 255
188 218 255
189 218 255
190 218 255
190 219 255
191 219 255
193 220 255
194 221 255
195 221 255
197 222 255
199 223 255
203 225 255
208 228 255
211 230 255
211 230 255
211 230 255
211 230 255
211 230 255
211 230 255
211 230 255
211 230 255
211 230 255
211 230 255
211 230 255
211 230 255
210 230 255
210 230 255
210 230 255
210 229 255
210 229 255
210 229 255
210 229 255
210 229 255
210 229 255
210 229 255
210 229 255
210 229 255
210 229 255
210 229 255
210 229 255
210 229 255
210 229 255
210 229 255
210 229 255
202 222 250
101 129 190
62 99 168
62 98 167
62 98 168
62 98 163
62 98 163
62 98 164
62 98 166
63 99 170
61 98 169
62 98 165
62 99 167
62 98 164
62 98 168
62 98 165
62 98 164
63 99 167
61 97 159
62 98 166
61 97 159
62 98 157
62 98 164
61 98 162
61 97 154
62 98 164
63 99 171
62 99 165
62 98 166
62 98 166
62 99 168
63 99 167
62 99 165
60 96 154
61 98 160
62 97 163
62 98 161
61 97 158
62 98 162
62 98 162
62 98 161
62 98 162
62 98 161
61 97 163
62 98 168
62 99 169
62 98 163
61 97 161
62 98 163
62 98 162
62 98 163
61 97 162
60 96 160
62 98 161
62 99 165
62 98 162
61 97 162
62 98 168
61 97 159
61 98 169
63 99 171
61 97 161
62 98 162
62 98 168
61 97 161
62 97 163
61 96 163
61 97 161
61 96 163
61 96 163
62 98 168
61 97 171
106 132 184
207 226 253
210 229 255
210 229 255
210 229 255
210 229 255
210 229 255
210 229 255
210 229 255
210 229 255
210 229 255
210 229 255
210 229 255
210 229 255
210 229 255
210 229 255
210 229 255
210 229 255
210 230 255
210 230 255
210 230 255
211 230 255
211 230 255
211 230 255
211 230 255
211 230 255
211 230 255
211 230 255
211 230 255
211 230 255
211 230 255
211 230 255
211 230 255
175 184 183
144 140 93
160 156 103
159 156 103
154 151 101
163 160 107
160 157 104
164 161 107
163 161 108
168 167 112
170 168 113
169 168 113
170 169 114
170 169 114
169 169 114
169 169 114
169 169 114
169 169 114
169 169 114
169 169 114
168 168 114
168 168 114
168 168 114
168 168 114
167 168 114
167 168 114
167 168 114
167 168 114
167 168 114
167 168 114
167 168 114
168 168 114
167 168 114
167 168 114
168 168 114
167 168 114
168 168 114
167 168 114
168 168 114
167 168 114
168 168 114
168 168 114
168 168 114
168 168 114
168 168 114
168 168 114
168 168 114
168 168 114
168 168 114
169 169 114
169 169 114
168 168 114
169 169 114
169 169 114
169 169 114
168 169 114
169 169 114
169 169 114
168 168 114
170 169 114
171 169 114
170 169 114
170 169 114
170 169 114
170 169 114
170 169 114
171 170 114
172 170 114
171 170 114
171 170 114
171 169 114
171 170 114
172 170 114
171 170 114
172 170 114
172 170 114
173 170 114
172 170 114
172 170 114
173 171 114
173 170 114
173 171 114
173 170 114
173 170 114
173 171 114
174 171 114
173 171 114
173 171 114
174 171 114
176 172 114
174 171 114
175 171 114
174 171 114
177 173 114
175 172 114
175 172 114
175 172 114
175 171 114
176 172 114
177 173 114
176 172 114
176 172 114
177 172 114
178 173 114
177 173 114
175 171 114
177 173 114
178 173 114
177 173 114
179 173 114
178 173 114
179 173 114
178 173 114
178 173 114
179 173 114
181 174 114
180 174 114
180 174 114
179 173 114
180 174 114
180 174 114
181 174 114
180 174 114
181 174 114
181 174 114
181 174 114
181 174 114
180 174 114
179 174 114
182 174 113
182 175 114
180 173 113
202 225 255
202 225 255
202 225 255
201 225 255
201 225 255
201 224 255
201 224 255
201 224 255
200 224 255
200 224 255
200 224 255
200 224 255
199 224 255
199 223 255
199 223 255
199 223 255
199 223 255
198 223 255
198 223 255
198 223 255
198 223 255
197 222 255
197 222 255
197 222 255
197 222 255
197 222 255
196 222 255
196 222 255
196 222 255
196 221 255
195 221 255
196 222 255
196 221 255
196 221 255
196 222 255
196 222 255
196 222 255
196 222 255
196 222 255
196 222 255
196 222 255
196 222 255
196 222 255
196 222 255
196 222 255
196 222 255
196 222 255
196 222 255
196 222 255
196 222 255
196 222 255
196 222 255
196 222 255
195 221 255
195 221 255
195 221 255
195 221 255
195 221 255
195 221 255
195 221 255
195 221 255
195 221 255
195 221 255
195 221 255
195 221 255
195 221 255
195 221 255
195 221 255
194 221 255
194 221 255
194 221 255
194 221 255
194 221 255
194 221 255
194 221 255
194 221 255
194 220 255
194 220 255
193 220 255
193 220 255
193 220 255
193 220 255
193 220 255
193 220 255
192 220 255
192 220 255
192 220 255
192 220 255
192 219 255
192 219 255
191 219 255
191 219 255
191 219 255
191 219 255
190 219 255
190 219 255
190 218 255
189 218 255
189 218 255
189 218 255
188 218 255
188 218 255
188 217 255
187 217 255
187 217 255
186 217 255
186 217 255
185 216 255
185 216 255
185 216 255
185 216 255
185 216 255
185 216 255
185 216 255
186 216 255
186 217 255
186 217 255
187 217 255
187 217 255
188 217 255
188 218 255
189 218 255
189 218 255
190 219 255
191 219 255
192 220 255
193 220 255
194 221 255
196 222 255
197 222 255
200 224 255
203 225 255
208 228 255
211 230 255
211 230 255
211 230 255
211 230 255
211 230 255
211 230 255
211 230 255
211 230 255
211 230 255
211 230 255
211 230 255
211 230 255
211 230 255
211 230 255
211 230 255
211 230 255
211 230 255
211 230 255
211 230 255
210 230 255
210 230 255
210 230 255
210 229 255
210 229 255
210 229 255
210 229 255
210 229 255
210 229 255
210 229 255
196 216 244
114 139 190
62 99 172
61 98 169
62 99 173
62 98 166
62 98 170
62 99 168
62 99 169
62 98 164
62 98 159
62 98 166
62 98 166
61 97 159
62 98 162
62 99 167
61 97 159
61 97 158
62 98 165
61 97 157
63 99 167
61 97 160
62 98 163
62 98 167
62 98 159
63 98 162
62 98 161
62 98 165
61 97 161
61 97 158
62 98 157
62 99 167
61 97 157
62 98 161
61 98 158
62 98 164
62 97 161
62 98 155
63 99 166
61 97 156
62 98 166
61 97 166
62 98 165
62 98 165
60 96 153
62 98 161
62 97 156
61 97 159
61 97 157
61 96 159
63 98 165
62 97 160
61 97 158
62 98 160
62 98 162
60 95 149
61 97 160
61 96 156
61 95 155
61 97 161
62 98 162
61 97 163
61 96 157
61 96 159
62 98 165
62 98 167
62 97 163
60 95 156
61 96 158
62 98 165
62 97 165
61 96 157
61 95 158
61 96 164
90 117 172
205 225 252
210 229 255
210 229 255
210 229 255
210 229 255
210 229 255
210 229 255
210 230 255
210 230 255
210 230 255
211 230 255
211 230 255
211 230 255
211 230 255
211 230 255
211 230 255
211 230 255
211 230 255
211 230 255
211 230 255
211 230 255
211 230 255
211 230 255
211 230 255
211 230 255
211 230 255
211 230 255
211 230 255
211 230 255
211 230 255
175 185 192
145 141 93
149 145 95
160 157 104
165 161 107
167 163 108
164 161 108
166 164 109
168 166 111
169 167 112
170 168 113
171 169 113
171 170 114
171 170 114
170 169 114
170 169 114
171 170 114
169 169 114
169 169 114
169 169 114
169 169 114
169 169 114
168 168 114
169 169 114
168 168 114
167 168 114
167 168 114
168 168 114
168 168 114
168 168 114
168 168 114
168 168 114
168 168 114
167 168 114
167 168 114
167 168 114
168 168 114
168 168 114
168 168 114
168 168 114
168 168 114
169 169 114
169 169 114
168 168 114
167 168 114
168 168 114
168 168 114
169 169 114
169 169 114
168 168 114
169 169 114
169 169 114
169 169 114
169 169 114
169 169 114
171 170 114
169 169 114
170 169 114
170 169 114
169 169 114
169 169 114
170 169 114
171 170 114
170 169 114
170 169 114
171 170 114
171 170 114
171 170 114
172 170 114
171 170 114
172 170 114
172 170 114
173 171 114
172 170 114
172 170 114
173 170 114
173 170 114
173 170 114
174 171 114
174 171 114
175 172 114
174 171 114
174 171 114
174 171 114
174 171 114
174 171 114
174 171 114
174 171 114
175 171 114
174 171 114
175 171 114
175 172 114
174 171 114
176 172 114
175 171 114
176 172 114
175 172 114
175 172 114
176 172 114
175 172 114
175 172 114
176 172 114
176 172 114
176 172 114
176 172 114
179 173 114
177 172 114
177 172 114
177 172 114
179 173 114
177 173 114
179 173 114
179 174 114
179 174 114
180 174 114
180 174 114
179 173 114
180 174 114
179 174 114
180 174 114
181 174 114
180 174 114
180 174 114
181 174 114
182 175 114
181 174 114
182 175 114
180 174 114
180 174 114
183 175 114
182 175 114
182 175 114
181 174 113
203 225 255
202 225 255
202 225 255
202 225 255
202 225 255
201 225 255
201 224 255
201 224 255
201 224 255
200 224 255
200 224 255
200 224 255
200 224 255
200 224 255
199 224 255
199 223 255
199 223 255
199 223 255
199 223 255
198 223 255
198 223 255
198 223 255
198 223 255
197 222 255
197 222 255
197 222 255
197 222 255
196 222 255
196 222 255
197 222 255
197 222 255
197 222 255
197 222 255
197 222 255
197 222 255
197 222 255
197 222 255
197 222 255
197 222 255
197 222 255
197 222 255
197 222 255
197 222 255
197 222 255
197 222 255
197 222 255
197 222 255
197 222 255
197 222 255
197 222 255
197 222 255
197 222 255
197 222 255
197 222 255
196 222 255
196 222 255
196 222 255
196 222 255
196 222 255
196 222 255
196 222 255
196 222 255
196 222 255
196 222 255
196 222 255
196 222 255
196 222 255
196 222 255
196 221 255
195 221 255
195 221 255
195 221 255
195 221 255
195 221 255
195 221 255
195 221 255
195 221 255
195 221 255
194 221 255
194 221 255
194 221 255
194 221 255
194 221 255
194 221 255
194 220 255
193 220 255
193 220 255
193 220 255
193 220 255
193 220 255
193 220 255
192 220 255
192 220 255
192 220 255
192 219 255
191 219 255
191 219 255
191 219 255
191 219 255
190 219 255
190 219 255
190 218 255
189 218 255
189 218 255
188 218 255
188 218 255
188 217 255
187 217 255
187 217 255
186 217 255
186 216 255
185 216 255
186 216 255
186 216 255
186 217 255
186 217 255
187 217 255
187 217 255
187 217 255
188 217 255
188 218 255
189 218 255
189 218 255
190 219 255
191 219 255
191 219 255
192 220 255
193 220 255
195 221 255
196 222 255
198 223 255
200 224 255
203 225 255
209 229 255
211 230 255
211 230 255
211 230 255
211 230 255
211 230 255
211 230 255
211 230 255
211 230 255
211 230 255
211 230 255
211 230 255
211 230 255
211 230 255
211 230 255
211 230 255
211 230 255
211 230 255
211 230 255
211 230 255
211 230 255
211 230 255
211 230 255
211 230 255
211 230 255
211 230 255
211 230 255
211 230 255
203 222 249
106 132 188
62 99 171
63 99 173
61 97 160
62 98 162
62 98 163
61 98 163
62 98 164
62 98 157
62 98 166
62 98 165
62 98 166
62 98 162
62 98 163
63 99 163
63 99 168
63 99 165
61 97 159
61 97 161
63 99 168
62 99 167
62 98 164
62 98 164
61 97 154
63 99 162
62 98 167
63 99 165
63 99 166
63 99 169
62 98 165
62 98 164
62 98 161
62 98 164
61 97 161
62 97 158
61 97 156
62 98 164
62 98 159
61 98 159
61 97 157
62 97 161
61 97 158
61 97 158
61 97 163
62 98 159
61 97 159
62 98 159
61 97 159
62 98 163
61 97 158
62 98 166
62 98 163
61 97 160
62 98 164
61 97 160
61 97 157
61 97 168
61 97 161
61 97 161
60 96 156
61 96 159
62 98 163
62 98 163
61 96 155
62 98 166
61 97 165
61 96 155
61 97 163
61 97 166
61 96 161
61 96 159
60 94 156
61 96 159
61 95 161
61 95 161
101 128 186
205 224 251
211 230 255
211 230 255
211 230 255
211 230 255
211 230 255
211 230 255
211 230 255
211 230 255
211 230 255
211 230 255
211 230 255
211 230 255
211 230 255
211 230 255
211 230 255
211 230 255
211 230 255
211 230 255
211 230 255
211 230 255
211 230 255
211 230 255
211 230 255
211 230 255
211 230 255
211 230 255
211 230 255
171 178 174
149 143 94
158 154 101
157 153 101
166 163 108
167 162 108
165 162 108
167 165 110
168 166 111
169 167 111
170 168 113
171 170 114
171 170 114
171 169 114
170 169 114
169 169 114
170 169 114
170 169 114
170 169 114
169 169 114
169 169 114
168 168 114
169 169 114
168 168 114
168 168 114
168 168 114
168 168 114
168 168 114
169 169 114
168 168 114
168 168 114
169 169 114
169 169 114
170 169 114
168 168 114
168 168 114
168 168 114
168 168 114
168 168 114
169 169 114
169 169 114
169 169 114
168 168 114
169 169 114
168 168 114
168 168 114
170 169 114
170 169 114
169 169 114
170 169 114
169 169 114
169 169 114
170 169 114
169 169 114
169 169 114
170 169 114
170 169 114
170 169 114
170 169 114
169 169 114
171 170 114
170 169 114
170 169 114
172 170 114
170 169 114
171 170 114
171 170 114
173 170 114
172 170 114
171 170 114
172 170 114
173 171 114
172 170 114
173 170 114
172 170 114
173 170 114
173 171 114
173 170 114
174 171 114
173 171 114
175 171 114
173 171 114
173 171 114
174 171 114
174 171 114
175 172 114
174 171 114
175 171 114
175 171 114
177 172 114
175 172 114
175 172 114
177 172 114
176 172 114
175 172 114
175 172 114
176 172 114
176 172 114
175 172 114
177 172 114
177 172 114
176 172 114
177 172 114
178 173 114
176 172 114
176 172 114
179 173 114
178 173 114
178 173 114
179 173 114
178 173 114
179 173 114
178 173 114
179 173 114
179 173 114
179 173 114
179 173 114
180 174 114
179 173 114
179 173 114
179 173 114
180 174 114
183 175 114
180 174 114
182 175 114
182 175 114
182 175 114
181 174 114
183 175 114
181 174 114
181 174 114
182 175 114
182 175 114
182 175 114
203 225 255
203 225 255
202 225 255
202 225 255
202 225 255
202 225 255
202 225 255
201 225 255
201 224 255
201 224 255
201 224 255
200 224 255
200 224 255
200 224 255
200 224 255
200 224 255
199 224 255
199 223 255
199 223 255
199 223 255
199 223 255
198 223 255
198 223 255
198 223 255
198 223 255
197 222 255
197 222 255
197 222 255
197 222 255
198 223 255
197 222 255
198 223 255
198 223 255
198 223 255
198 223 255
198 223 255
198 223 255
198 223 255
198 223 255
198 223 255
198 223 255
198 223 255
198 223 255
198 223 255
198 223 255
198 223 255
198 223 255
198 223 255
198 223 255
198 223 255
198 223 255
198 223 255
197 222 255
197 222 255
197 222 255
197 222 255
197 222 255
197 222 255
197 222 255
197 222 255
197 222 255
197 222 255
197 222 255
197 222 255
197 222 255
197 222 255
197 222 255
197 222 255
197 222 255
196 222 255
196 222 255
196 222 255
196 222 255
196 222 255
196 222 255
196 222 255
196 222 255
196 222 255
196 221 255
195 221 255
195 221 255
195 221 255
195 221 255
195 221 255
195 221 255
195 221 255
194 221 255
194 221 255
194 221 255
194 221 255
194 221 255
194 220 255
193 220 255
193 220 255
193 220 255
193 220 255
192 220 255
192 220 255
192 220 255
192 219 255
191 219 255
191 219 255
191 219 255
190 219 255
190 219 255
190 218 255
189 218 255
189 218 255
188 218 255
188 217 255
187 217 255
187 217 255
186 217 255
186 217 255
186 217 255
187 217 255
187 217 255
187 217 255
188 217 255
188 218 255
188 218 255
189 218 255
189 218 255
190 219 255
190 219 255
191 219 255
192 220 255
193 220 255
194 221 255
195 221 255
197 222 255
198 223 255
201 224 255
204 226 255
209 229 255
212 230 255
212 230 255
212 230 255
212 230 255
211 230 255
211 230 255
211 230 255
211 230 255
211 230 255
211 230 255
211 230 255
211 230 255
211 230 255
211 230 255
211 230 255
211 230 255
211 230 255
211 230 255
211 230 255
211 230 255
211 230 255
211 230 255
211 230 255
211 230 255
211 230 255
207 226 253
123 148 200
62 99 172
62 98 170
62 98 161
61 98 167
62 98 168
61 97 159
62 98 166
62 98 163
61 97 156
62 98 156
62 99 170
62 98 162
62 98 156
62 98 162
62 98 161
61 97 155
62 98 161
62 98 157
62 98 160
62 98 159
61 97 157
62 98 163
62 98 161
62 98 159
62 98 161
63 99 167
62 98 162
62 98 160
62 98 162
62 99 165
62 98 165
62 98 156
63 99 163
62 98 158
62 97 157
63 99 165
61 97 158
62 98 160
61 98 162
61 97 156
62 98 158
63 99 167
61 98 161
63 98 164
63 99 163
60 96 150
62 98 160
62 98 159
61 97 153
62 98 162
61 97 161
62 98 160
62 98 164
62 98 170
61 97 155
61 97 160
61 96 153
62 98 158
62 98 164
61 97 160
61 97 160
61 96 157
62 97 154
61 96 152
60 95 157
62 98 163
61 95 158
62 97 166
60 96 161
60 96 162
61 95 155
60 95 159
60 94 149
61 96 160
60 94 151
60 95 163
134 156 199
208 227 252
211 230 255
211 230 255
211 230 255
211 230 255
211 230 255
211 230 255
211 230 255
211 230 255
211 230 255
211 230 255
211 230 255
211 230 255
211 230 255
211 230 255
211 230 255
211 230 255
211 230 255
211 230 255
211 230 255
211 230 255
211 230 255
212 230 255
212 230 255
212 230 255
212 230 255
176 184 183
148 143 94
154 149 98
157 153 101
162 158 104
165 161 107
166 163 108
169 166 110
172 169 113
170 167 112
172 170 113
173 170 114
174 171 114
172 170 114
172 170 114
171 170 114
170 169 114
171 170 114
172 170 114
170 169 114
169 169 114
169 169 114
169 169 114
168 168 114
169 169 114
169 169 114
169 169 114
170 169 114
169 169 114
168 168 114
169 169 114
169 169 114
169 169 114
168 168 114
169 169 114
168 169 114
169 169 114
169 169 114
168 169 114
169 169 114
169 169 114
169 169 114
168 168 114
170 169 114
170 169 114
169 169 114
169 169 114
169 169 114
169 169 114
170 169 114
170 169 114
170 169 114
170 169 114
170 169 114
171 170 114
172 170 114
171 169 114
171 170 114
170 169 114
170 169 114
172 170 114
171 170 114
171 170 114
171 170 114
171 170 114
171 170 114
171 170 114
171 169 114
172 170 114
172 170 114
171 170 114
173 171 114
172 170 114
174 171 114
174 171 114
173 170 114
174 171 114
172 170 114
175 171 114
175 171 114
175 171 114
174 171 114
175 172 114
174 171 114
174 171 114
174 171 114
175 172 114
175 171 114
174 171 114
174 171 114
176 172 114
175 172 114
177 172 114
175 171 114
176 172 114
177 173 114
176 172 114
177 172 114
177 173 114
175 172 114
175 171 114
177 172 114
177 172 114
176 172 114
178 173 114
179 173 114
179 174 114
179 173 114
177 172 114
178 173 114
178 173 114
179 173 114
178 173 114
180 174 114
179 174 114
179 173 114
178 173 114
180 174 114
179 173 114
180 174 114
182 175 114
181 174 114
182 175 114
180 174 114
180 174 114
182 175 114
180 174 114
183 175 114
182 175 114
183 175 114
182 175 114
183 175 114
182 175 114
183 175 114
182 175 114
203 226 255
203 225 255
203 225 255
203 225 255
202 225 255
202 225 255
202 225 255
202 225 255
202 225 255
201 225 255
201 224 255
201 224 255
201 224 255
201 224 255
200 224 255
200 224 255
200 224 255
200 224 255
200 224 255
199 223 255
199 223 255
199 223 255
199 223 255
198 223 255
198 223 255
198 223 255
198 223 255
198 223 255
198 223 255
198 223 255
198 223 255
198 223 255
198 223 255
198 223 255
199 223 255
199 223 255
199 223 255
199 223 255
199 223 255
199 223 255
199 223 255
199 223 255
199 223 255
199 223 255
199 223 255
199 223 255
199 223 255
199 223 255
198 223 255
198 223 255
199 223 255
198 223 255
198 223 255
198 223 255
198 223 255
198 223 255
198 223 255
198 223 255
198 223 255
198 223 255
198 223 255
198 223 255
198 223 255
198 223 255
198 223 255
198 223 255
198 223 255
198 223 255
198 223 255
197 222 255
197 222 255
197 222 255
197 222 255
197 222 255
197 222 255
197 222 255
197 222 255
197 222 255
197 222 255
196 222 255
196 222 255
196 222 255
196 222 255
196 222 255
196 222 255
196 222 255
196 221 255
195 221 255
195 221 255
195 221 255
195 221 255
195 221 255
195 221 255
194 221 255
194 221 255
194 221 255
194 220 255
193 220 255
193 220 255
193 220 255
193 220 255
192 220 255
192 220 255
192 219 255
191 219 255
191 219 255
191 219 255
190 219 255
190 218 255
190 218 255
189 218 255
189 218 255
188 218 255
188 217 255
187 217 255
187 217 255
187 217 255
188 217 255
188 218 255
188 218 255
189 218 255
189 218 255
190 218 255
190 219 255
191 219 255
191 219 255
192 220 255
193 220 255
194 220 255
195 221 255
196 222 255
197 222 255
199 223 255
201 224 255
204 226 255
209 229 255
212 230 255
212 230 255
212 230 255
212 230 255
212 230 255
212 230 255
212 230 255
212 230 255
212 230 255
212 230 255
212 230 255
211 230 255
211 230 255
211 230 255
211 230 255
211 230 255
211 230 255
211 230 255
211 230 255
211 230 255
211 230 255
211 230 255
211 230 255
211 230 255
143 166 209
62 98 170
62 98 165
63 99 170
62 98 164
62 98 160
61 98 160
63 99 168
62 98 169
62 98 161
62 98 159
62 99 169
61 97 154
62 98 156
62 97 159
63 99 163
62 98 167
61 97 153
61 98 161
61 97 153
62 98 163
63 99 168
61 97 160
62 98 161
62 98 159
62 98 159
62 98 163
62 98 165
61 97 159
62 98 162
62 98 159
61 97 158
62 98 159
63 99 165
61 97 153
62 98 158
61 97 159
63 99 167
62 98 155
61 97 163
62 98 163
61 97 153
62 98 160
61 97 157
62 98 163
62 98 157
62 98 158
62 98 159
62 98 159
61 97 160
62 98 167
62 97 154
61 96 148
61 97 155
61 97 154
63 99 164
61 98 160
62 98 165
62 98 160
61 96 146
62 98 162
61 97 159
62 97 164
62 98 164
61 97 158
61 96 156
61 96 154
62 97 161
62 98 163
62 97 160
61 96 156
61 96 156
61 96 162
61 96 162
61 95 156
62 96 158
61 94 156
62 98 169
59 93 152
146 167 207
211 230 255
211 230 255
211 230 255
211 230 255
211 230 255
211 230 255
211 230 255
211 230 255
211 230 255
211 230 255
211 230 255
211 230 255
212 230 255
212 230 255
212 230 255
212 230 255
212 230 255
212 230 255
212 230 255
212 230 255
212 230 255
212 230 255
212 230 255
212 230 255
185 194 199
140 135 88
147 143 94
155 151 99
160 157 104
162 158 104
167 163 108
164 161 108
170 166 110
171 168 112
174 171 114
172 170 114
171 170 114
172 170 114
171 170 114
172 170 114
171 170 114
170 169 114
171 170 114
171 170 114
171 170 114
170 169 114
171 169 114
168 168 114
170 169 114
170 169 114
170 169 114
169 169 114
170 169 114
169 169 114
170 169 114
169 169 114
169 169 114
169 169 114
170 169 114
170 169 114
169 169 114
169 169 114
169 169 114
170 169 114
169 169 114
170 169 114
170 169 114
170 169 114
170 169 114
170 169 114
170 169 114
169 169 114
170 169 114
170 169 114
170 169 114
171 170 114
170 169 114
171 170 114
171 170 114
170 169 114
172 170 114
171 170 114
170 169 114
171 170 114
172 170 114
172 170 114
173 170 114
172 170 114
172 170 114
171 170 114
172 170 114
172 170 114
173 171 114
173 171 114
173 171 114
172 170 114
172 170 114
173 170 114
173 171 114
172 170 114
173 170 114
174 171 114
174 171 114
175 171 114
174 171 114
174 171 114
175 171 114
175 172 114
176 172 114
175 172 114
175 172 114
174 171 114
175 172 114
174 171 114
176 172 114
177 172 114
176 172 114
176 172 114
177 173 114
177 172 114
177 172 114
177 172 114
175 171 114
177 173 114
177 172 114
177 172 114
177 173 114
178 173 114
178 173 114
177 172 114
178 173 114
179 173 114
179 174 114
179 173 114
179 173 114
179 173 114
181 174 114
180 174 114
178 173 114
178 173 114
181 174 114
180 174 114
179 174 114
181 174 114
180 174 114
181 174 114
182 175 114
181 174 114
179 173 114
181 174 114
182 175 114
183 175 114
182 175 114
179 173 114
181 174 114
182 175 114
183 175 114
182 175 114
184 176 114
182 175 114
204 226 255
203 226 255
203 226 255
203 225 255
203 225 255
203 225 255
202 225 255
202 225 255
202 225 255
202 225 255
202 225 255
201 225 255
201 224 255
201 224 255
201 224 255
201 224 255
200 224 255
200 224 255
200 224 255
200 224 255
200 224 255
199 223 255
199 223 255
199 223 255
199 223 255
199 223 255
199 223 255
199 223 255
199 223 255
199 224 255
199 223 255
199 224 255
199 224 255
199 224 255
199 224 255
199 224 255
199 224 255
200 224 255
199 224 255
200 224 255
200 224 255
199 224 255
200 224 255
199 224 255
200 224 255
199 224 255
199 224 255
199 224 255
199 224 255
199 224 255
199 224 255
199 223 255
199 223 255
199 223 255
199 223 255
199 223 255
199 223 255
199 223 255
199 223 255
199 223 255
199 223 255
199 223 255
199 223 255
199 223 255
199 223 255
199 223 255
199 223 255
199 223 255
198 223 255
198 223 255
198 223 255
198 223 255
198 223 255
198 223 255
198 223 255
198 223 255
198 223 255
198 223 255
198 223 255
197 222 255
197 222 255
197 222 255
197 222 255
197 222 255
197 222 255
197 222 255
197 222 255
196 222 255
196 222 255
196 222 255
196 222 255
196 222 255
196 222 255
195 221 255
195 221 255
195 221 255
195 221 255
195 221 255
194 221 255
194 221 255
194 221 255
194 220 255
193 220 255
193 220 255
193 220 255
192 220 255
192 220 255
192 219 255
191 219 255
191 219 255
190 219 255
190 219 255
190 218 255
189 218 255
189 218 255
188 218 255
188 217 255
188 218 255
188 218 255
189 218 255
189 218 255
189 218 255
190 218 255
190 219 255
191 219 255
191 219 255
192 220 255
193 220 255
193 220 255
194 221 255
195 221 255
196 222 255
198 223 255
200 224 255
202 225 255
205 227 255
211 230 255
212 230 255
212 230 255
212 230 255
212 230 255
212 230 255
212 230 255
212 230 255
212 230 255
212 230 255
212 230 255
212 230 255
212 230 255
212 230 255
212 230 255
212 230 255
212 230 255
212 230 255
212 230 255
212 230 255
212 230 255
211 230 255
211 230 255
162 183 221
62 98 167
62 98 166
62 98 163
62 98 168
62 98 164
62 98 168
62 98 168
62 98 165
62 98 162
63 99 167
62 98 167
62 98 164
61 97 154
62 98 161
62 98 159
62 97 154
61 98 159
62 98 161
62 99 165
62 97 158
62 98 160
63 99 165
62 97 158
62 97 156
62 98 161
62 98 162
62 98 157
62 98 158
61 97 161
61 97 159
62 98 161
62 98 166
62 98 158
61 97 155
62 98 157
62 98 158
61 97 156
61 97 154
62 98 161
62 98 162
62 98 162
63 99 163
62 98 156
62 98 159
62 97 161
62 97 159
61 97 150
62 97 150
61 97 155
62 97 161
62 98 160
62 98 162
61 97 160
61 97 160
61 97 158
61 97 161
62 98 160
63 98 164
62 98 160
61 97 151
62 98 161
60 95 154
62 97 157
61 96 157
61 97 160
61 96 151
61 97 152
60 95 155
61 96 154
60 94 152
61 96 159
61 95 152
61 97 164
61 96 161
61 96 157
61 96 159
61 95 156
60 93 152
61 95 156
61 95 157
169 189 225
211 230 255
211 230 255
212 230 255
212 230 255
212 230 255
212 230 255
212 230 255
212 230 255
212 230 255
212 230 255
212 230 255
212 230 255
212 230 255
212 230 255
212 230 255
212 230 255
212 230 255
212 230 255
212 230 255
212 230 255
212 230 255
212 230 255
189 201 213
151 146 98
150 146 96
155 150 99
154 150 99
166 161 106
168 166 110
171 168 111
171 167 111
173 170 113
173 171 114
174 171 114
171 170 114
173 171 114
173 170 114
170 169 114
171 170 114
171 170 114
171 170 114
171 170 114
171 170 114
171 170 114
171 170 114
170 169 114
171 170 114
170 169 114
170 169 114
170 169 114
170 169 114
171 170 114
169 169 114
170 169 114
169 169 114
170 169 114
169 169 114
170 169 114
170 169 114
169 169 114
170 169 114
170 169 114
171 169 114
170 169 114
170 169 114
171 170 114
170 169 114
171 170 114
171 170 114
171 170 114
170 169 114
171 170 114
171 170 114
171 170 114
171 170 114
172 170 114
171 170 114
172 170 114
171 170 114
171 170 114
171 170 114
171 170 114
172 170 114
172 170 114
172 170 114
172 170 114
174 171 114
173 171 114
173 171 114
173 170 114
174 171 114
175 171 114
173 171 114
174 171 114
172 170 114
174 171 114
174 171 114
174 171 114
174 171 114
175 172 114
175 171 114
173 171 114
175 171 114
175 171 114
175 172 114
175 172 114
174 171 114
176 172 114
174 171 114
176 172 114
176 172 114
175 172 114
176 172 114
176 172 114
178 173 114
178 173 114
179 173 114
177 172 114
177 173 114
177 173 114
178 173 114
177 173 114
178 173 114
179 173 114
178 173 114
179 174 114
178 173 114
178 173 114
178 173 114
179 173 114
180 174 114
179 173 114
178 173 114
181 174 114
179 173 114
179 174 114
180 174 114
181 174 114
180 174 114
180 174 114
181 174 114
181 174 114
180 174 114
181 174 114
180 174 114
182 175 114
182 175 114
181 174 114
181 174 114
182 175 114
181 174 114
183 175 114
182 175 114
183 175 114
183 175 114
185 176 114
184 176 114
183 175 114
184 176 114
204 226 255
204 226 255
204 226 255
203 226 255
203 226 255
203 226 255
203 225 255
203 225 255
203 225 255
202 225 255
202 225 255
202 225 255
202 225 255
202 225 255
201 225 255
201 224 255
201 224 255
201 224 255
201 224 255
200 224 255
200 224 255
200 224 255
200 224 255
200 224 255
200 224 255
200 224 255
200 224 255
200 224 255
200 224 255
200 224 255
200 224 255
200 224 255
200 224 255
200 224 255
200 224 255
200 224 255
200 224 255
200 224 255
200 224 255
200 224 255
200 224 255
200 224 255
200 224 255
200 224 255
200 224 255
200 224 255
200 224 255
200 224 255
200 224 255
200 224 255
200 224 255
200 224 255
200 224 255
200 224 255
200 224 255
200 224 255
200 224 255
200 224 255
200 224 255
200 224 255
200 224 255
200 224 255
200 224 255
200 224 255
200 224 255
200 224 255
199 224 255
199 224 255
199 224 255
199 223 255
199 223 255
199 223 255
199 223 255
199 223 255
199 223 255
199 223 255
199 223 255
199 223 255
198 223 255
198 223 255
198 223 255
198 223 255
198 223 255
198 223 255
198 223 255
198 223 255
198 223 255
197 222 255
197 222 255
197 222 255
197 222 255
197 222 255
197 222 255
196 222 255
196 222 255
196 222 255
196 222 255
196 222 255
195 221 255
195 221 255
195 221 255
195 221 255
195 221 255
194 221 255
194 221 255
194 221 255
193 220 255
193 220 255
193 220 255
193 220 255
192 220 255
192 219 255
191 219 255
191 219 255
190 219 255
190 218 255
189 218 255
189 218 255
189 218 255
189 218 255
189 218 255
190 218 255
190 219 255
191 219 255
191 219 255
191 219 255
192 220 255
193 220 255
193 220 255
194 221 255
195 221 255
196 222 255
197 222 255
199 223 255
200 224 255
203 225 255
206 227 255
212 230 255
212 231 255
212 231 255
212 231 255
212 231 255
212 231 255
212 230 255
212 230 255
212 230 255
212 230 255
212 230 255
212 230 255
212 230 255
212 230 255
212 230 255
212 230 255
212 230 255
212 230 255
212 230 255
212 230 255
212 230 255
181 201 234
62 98 171
62 99 169
61 98 166
62 99 165
61 97 160
62 98 164
62 98 163
61 97 158
61 97 162
62 98 161
62 97 155
62 98 157
61 98 164
62 98 163
62 97 155
62 98 165
62 98 161
62 98 155
62 98 158
62 98 160
62 98 163
60 95 142
62 98 164
62 98 155
62 98 158
62 98 160
63 99 161
62 98 159
61 96 153
61 97 155
62 98 158
62 98 162
62 98 162
62 97 153
61 97 153
61 98 161
61 97 158
61 97 164
62 98 158
63 99 164
61 97 153
62 98 164
64 100 169
62 98 160
61 96 153
63 99 164
61 96 155
62 98 157
62 98 165
62 98 159
62 97 155
62 97 158
61 96 151
61 96 159
62 97 155
61 97 158
63 98 164
61 96 153
62 98 156
62 97 160
61 97 157
61 96 150
62 98 160
61 96 152
62 97 157
61 95 151
61 97 162
62 97 163
61 96 159
63 98 165
60 94 150
62 97 158
62 97 164
62 97 163
61 96 159
60 93 147
61 96 156
61 95 158
60 94 155
61 95 156
60 94 156
63 94 152
185 204 234
212 230 255
212 230 255
212 230 255
212 230 255
212 230 255
212 230 255
212 230 255
212 230 255
212 230 255
212 230 255
212 230 255
212 230 255
212 230 255
212 230 255
212 230 255
212 231 255
212 231 255
212 231 255
212 231 255
212 231 255
195 208 221
145 141 97
155 150 99
161 157 103
161 156 103
169 165 109
165 161 107
166 163 109
169 166 110
169 166 111
173 170 113
172 170 113
171 169 113
172 170 113
171 169 113
171 170 114
169 167 112
171 169 113
171 169 113
173 170 114
171 170 114
171 170 114
171 170 114
172 170 114
171 170 114
171 170 114
171 170 114
171 170 114
171 170 114
171 169 114
170 169 114
170 169 114
171 170 114
170 169 114
170 169 114
171 169 114
171 170 114
172 170 114
169 169 114
169 169 114
170 169 114
171 170 114
171 170 114
170 169 114
171 170 114
171 169 114
172 170 114
172 170 114
172 170 114
171 170 114
171 170 114
172 170 114
172 170 114
172 170 114
171 169 114
171 170 114
173 171 114
172 170 114
172 170 114
172 170 114
173 171 114
172 170 114
173 171 114
173 170 114
173 171 114
172 170 114
174 171 114
174 171 114
172 170 114
173 171 114
174 171 114
174 171 114
174 171 114
174 171 114
173 170 114
174 171 114
174 171 114
175 171 114
176 172 114
173 171 114
175 171 114
175 171 114
175 172 114
177 172 114
175 172 114
175 172 114
177 173 114
177 172 114
175 172 114
176 172 114
176 172 114
177 172 114
176 172 114
177 173 114
177 173 114
177 173 114
178 173 114
177 173 114
178 173 114
178 173 114
178 173 114
177 173 114
178 173 114
179 174 114
180 174 114
178 173 114
179 173 114
177 173 114
179 174 114
179 173 114
180 174 114
181 174 114
180 174 114
181 174 114
179 174 114
179 173 114
179 173 114
181 174 114
181 174 114
182 175 114
183 175 114
182 175 114
182 175 114
181 174 114
181 174 114
182 175 114
183 175 114
182 175 114
182 175 114
183 175 114
183 175 114
183 175 114
183 175 114
183 175 114
184 175 114
183 175 114
182 175 114
183 175 114
204 226 255
204 226 255
204 226 255
204 226 255
204 226 255
204 226 255
203 226 255
203 226 255
203 225 255
203 225 255
203 225 255
202 225 255
202 225 255
202 225 255
202 225 255
202 225 255
201 225 255
201 225 255
201 224 255
201 224 255
201 224 255
201 224 255
201 224 255
201 224 255
201 224 255
201 224 255
201 224 255
201 224 255
201 224 255
201 224 255
201 224 255
201 224 255
201 224 255
201 224 255
201 224 255
201 224 255
201 224 255
201 225 255
201 225 255
201 225 255
201 225 255
201 225 255
201 225 255
201 225 255
201 224 255
201 225 255
201 224 255
201 224 255
201 224 255
201 224 255
201 224 255
201 224 255
201 224 255
201 224 255
201 224 255
201 224 255
201 224 255
201 224 255
201 224 255
201 224 255
201 224 255
201 224 255
201 224 255
201 224 255
200 224 255
200 224 255
200 224 255
200 224 255
200 224 255
200 224 255
200 224 255
200 224 255
200 224 255
200 224 255
200 224 255
200 224 255
200 224 255
199 224 255
199 224 255
199 223 255
199 223 255
199 223 255
199 223 255
199 223 255
199 223 255
199 223 255
198 223 255
198 223 255
198 223 255
198 223 255
198 223 255
198 223 255
198 223 255
198 223 255
197 222 255
197 222 255
197 222 255
197 222 255
197 222 255
196 222 255
196 222 255
196 222 255
196 222 255
196 222 255
195 221 255
195 221 255
195 221 255
194 221 255
194 221 255
194 221 255
193 220 255
193 220 255
193 220 255
192 220 255
192 220 255
191 219 255
191 219 255
190 219 255
190 218 255
190 218 255
190 219 255
190 219 255
191 219 255
191 219 255
191 219 255
192 220 255
192 220 255
193 220 255
193 220 255
194 221 255
195 221 255
196 222 255
197 222 255
198 223 255
199 224 255
201 224 255
203 226 255
208 228 255
212 231 255
213 231 255
213 231 255
213 231 255
212 231 255
212 231 255
212 231 255
212 231 255
212 231 255
212 231 255
212 231 255
212 231 255
212 231 255
212 231 255
212 231 255
212 230 255
212 230 255
212 230 255
212 230 255
203 222 249
102 129 188
62 98 162
62 98 161
62 98 162
62 98 162
62 98 163
62 98 163
62 98 161
61 97 158
62 98 166
61 98 162
62 98 163
61 97 154
61 97 157
62 98 159
62 98 161
61 97 155
62 98 160
61 96 153
61 97 157
62 97 157
62 98 162
61 97 152
62 98 163
62 98 161
61 97 156
62 97 159
62 98 162
62 99 168
61 97 154
62 98 161
61 96 145
61 97 159
61 97 153
63 98 163
60 96 154
62 97 155
62 98 161
62 98 157
62 97 157
62 97 154
62 98 159
62 98 154
62 98 157
62 98 164
61 97 156
61 97 155
61 97 152
61 97 154
62 98 158
61 97 157
62 98 158
62 98 161
62 98 163
61 96 153
62 98 161
62 98 158
60 96 152
62 98 165
61 97 160
62 97 158
61 98 163
62 97 158
62 97 156
61 96 147
62 97 158
62 97 156
60 95 150
62 97 158
60 95 154
61 96 154
62 97 160
62 97 159
59 93 141
61 96 156
60 95 156
61 94 151
60 95 156
61 96 160
60 94 148
60 94 154
60 95 159
58 91 152
90 116 169
207 226 252
212 230 255
212 230 255
212 230 255
212 230 255
212 231 255
212 231 255
212 231 255
212 231 255
212 231 255
212 231 255
212 231 255
212 231 255
212 231 255
212 231 255
213 231 255
213 231 255
213 231 255
213 231 255
206 222 241
149 147 120
154 149 97
152 148 97
167 161 105
164 159 105
171 166 109
167 162 108
169 165 110
169 167 112
170 168 113
170 168 112
168 166 112
167 165 111
168 167 112
169 168 113
169 168 113
164 163 110
166 165 112
168 167 113
169 169 114
169 168 113
173 170 114
171 169 114
171 169 114
172 170 114
172 170 114
172 170 114
172 170 114
173 171 114
172 170 114
171 170 114
172 170 114
171 170 114
171 170 114
171 170 114
170 169 114
171 170 114
172 170 114
171 170 114
171 170 114
172 170 114
172 170 114
171 170 114
173 170 114
172 170 114
172 170 114
172 170 114
172 170 114
172 170 114
172 170 114
173 170 114
173 171 114
172 170 114
173 170 114
172 170 114
171 170 114
172 170 114
174 171 114
172 170 114
173 171 114
173 171 114
173 171 114
173 170 114
173 171 114
173 171 114
174 171 114
174 171 114
175 172 114
174 171 114
176 172 114
176 172 114
175 171 114
175 171 114
175 172 114
175 171 114
175 171 114
176 172 114
175 171 114
177 172 114
177 172 114
176 172 114
175 171 114
176 172 114
176 172 114
178 173 114
176 172 114
176 172 114
178 173 114
177 172 114
178 173 114
177 172 114
177 172 114
178 173 114
177 172 114
179 173 114
178 173 114
180 174 114
179 173 114
178 173 114
177 173 114
177 173 114
179 174 114
180 174 114
179 173 114
178 173 114
179 173 114
179 173 114
179 173 114
180 174 114
180 174 114
181 174 114
181 174 114
181 175 114
182 175 114
180 174 114
180 174 114
182 175 114
181 174 114
182 175 114
182 175 114
181 174 114
181 174 114
185 176 114
182 175 114
182 175 114
183 175 114
181 175 114
181 174 114
184 175 114
181 174 114
182 175 114
183 175 114
183 175 114
184 176 114
183 175 114
182 175 114
185 176 114
184 176 114
205 227 255
205 226 255
205 226 255
204 226 255
204 226 255
204 226 255
204 226 255
204 226 255
203 226 255
203 226 255
203 226 255
203 225 255
203 225 255
203 225 255
202 225 255
202 225 255
202 225 255
202 225 255
202 225 255
202 225 255
202 225 255
202 225 255
202 225 255
202 225 255
202 225 255
202 225 255
202 225 255
202 225 255
202 225 255
202 225 255
202 225 255
202 225 255
202 225 255
202 225 255
202 225 255
202 225 255
202 225 255
202 225 255
202 225 255
202 225 255
202 225 255
202 225 255
202 225 255
202 225 255
202 225 255
202 225 255
202 225 255
202 225 255
202 225 255
202 225 255
202 225 255
202 225 255
202 225 255
202 225 255
202 225 255
202 225 255
202 225 255
202 225 255
202 225 255
202 225 255
202 225 255
201 225 255
201 225 255
201 225 255
201 225 255
201 225 255
201 224 255
201 224 255
201 224 255
201 224 255
201 224 255
201 224 255
201 224 255
201 224 255
201 224 255
201 224 255
200 224 255
200 224 255
200 224 255
200 224 255
200 224 255
200 224 255
200 224 255
200 224 255
200 224 255
200 224 255
199 224 255
199 224 255
199 223 255
199 223 255
199 223 255
199 223 255
199 223 255
199 223 255
198 223 255
198 223 255
198 223 255
198 223 255
198 223 255
198 223 255
197 222 255
197 222 255
197 222 255
197 222 255
196 222 255
196 222 255
196 222 255
196 222 255
195 221 255
195 221 255
195 221 255
194 221 255
194 221 255
194 221 255
193 220 255
193 220 255
192 220 255
192 220 255
191 219 255
191 219 255
191 219 255
191 219 255
191 219 255
191 219 255
192 220 255
192 220 255
193 220 255
193 220 255
194 220 255
194 221 255
195 221 255
196 222 255
197 222 255
198 223 255
199 223 255
200 224 255
202 225 255
205 226 255
209 229 255
213 231 255
213 231 255
213 231 255
213 231 255
213 231 255
213 231 255
213 231 255
213 231 255
213 231 255
213 231 255
213 231 255
213 231 255
213 231 255
212 231 255
212 231 255
212 231 255
212 231 255
212 231 255
138 160 205
62 98 166
62 98 165
61 97 162
62 98 161
62 98 161
61 97 160
62 99 169
62 98 162
61 97 159
61 97 149
62 98 159
62 98 163
61 97 158
62 98 158
62 97 158
62 98 165
63 100 170
61 97 159
62 98 159
61 97 158
61 97 149
62 98 161
61 97 155
61 97 157
62 99 168
62 98 157
60 96 153
62 97 156
62 98 156
61 97 152
61 97 157
62 98 161
62 97 155
62 98 159
62 97 157
61 97 151
62 98 155
61 97 152
62 98 164
62 98 158
61 97 158
62 98 162
62 98 161
62 98 160
62 97 160
61 97 152
61 97 153
62 97 159
62 97 158
61 97 157
61 96 152
61 96 150
62 97 158
62 98 161
62 98 158
62 97 154
60 95 145
62 97 159
62 98 166
62 98 161
61 97 156
62 98 166
62 98 159
62 97 157
61 97 159
60 95 151
62 97 161
62 97 158
61 96 151
61 96 159
61 95 152
61 95 149
62 97 158
61 96 155
62 97 163
60 94 147
60 95 157
62 96 158
60 94 154
60 94 151
61 95 159
60 93 156
61 95 158
59 92 143
136 156 194
212 231 255
212 231 255
212 231 255
212 231 255
212 231 255
213 231 255
213 231 255
213 231 255
213 231 255
213 231 255
213 231 255
213 231 255
213 231 255
213 231 255
213 231 255
213 231 255
213 231 255
211 229 252
163 162 132
152 146 96
159 153 100
163 158 104
167 162 107
166 162 107
168 165 109
165 162 109
164 162 109
168 165 110
162 161 109
167 165 112
170 168 112
165 163 111
167 165 112
164 163 111
166 165 111
161 161 110
164 163 110
165 163 111
169 167 113
170 168 113
170 168 113
170 169 113
172 170 114
173 171 114
172 170 114
172 170 114
173 170 114
172 170 114
173 171 114
170 169 114
171 170 114
172 170 114
171 170 114
172 170 114
172 170 114
171 170 114
173 171 114
171 170 114
173 171 114
172 170 114
172 170 114
172 170 114
172 170 114
172 170 114
173 171 114
172 170 114
172 170 114
173 171 114
172 170 114
172 170 114
171 170 114
173 170 114
172 170 114
174 171 114
173 171 114
173 170 114
174 171 114
173 171 114
172 170 114
174 171 114
174 171 114
174 171 114
175 171 114
174 171 114
176 172 114
174 171 114
174 171 114
175 172 114
174 171 114
175 171 114
176 172 114
175 172 114
177 172 114
176 172 114
175 171 114
176 172 114
176 172 114
176 172 114
176 172 114
176 172 114
177 173 114
177 172 114
176 172 114
179 173 114
178 173 114
177 172 114
178 173 114
177 173 114
177 173 114
177 173 114
178 173 114
178 173 114
176 172 114
178 173 114
178 173 114
178 173 114
179 173 114
179 173 114
179 173 114
179 174 114
178 173 114
180 174 114
181 174 114
181 174 114
179 173 114
180 174 114
181 174 114
181 174 114
181 174 114
181 174 114
179 173 114
182 175 114
180 174 114
181 174 114
181 175 114
182 175 114
181 174 114
183 175 114
181 174 114
182 175 114
182 175 114
185 176 114
182 175 114
183 175 114
182 175 114
183 175 114
182 175 114
183 175 114
183 175 114
184 176 114
185 176 114
184 176 114
184 175 114
185 176 114
185 176 114
185 176 114
185 176 114
205 227 255
205 227 255
205 227 255
205 226 255
205 226 255
205 226 255
204 226 255
204 226 255
204 226 255
204 226 255
204 226 255
203 226 255
203 226 255
203 226 255
203 225 255
203 225 255
202 225 255
202 225 255
202 225 255
202 225 255
202 225 255
202 225 255
203 225 255
203 225 255
203 225 255
203 225 255
203 225 255
203 225 255
203 225 255
203 225 255
203 225 255
203 225 255
203 225 255
203 225 255
203 225 255
203 225 255
203 225 255
203 225 255
203 225 255
203 225 255
203 225 255
203 225 255
203 225 255
203 225 255
203 225 255
203 225 255
203 225 255
203 225 255
203 225 255
203 225 255
203 225 255
203 225 255
203 225 255
203 225 255
203 225 255
203 225 255
202 225 255
202 225 255
202 225 255
202 225 255
202 225 255
202 225 255
202 225 255
202 225 255
202 225 255
202 225 255
202 225 255
202 225 255
202 225 255
202 225 255
202 225 255
202 225 255
202 225 255
202 225 255
201 225 255
201 225 255
201 225 255
201 225 255
201 224 255
201 224 255
201 224 255
201 224 255
201 224 255
201 224 255
201 224 255
200 224 255
200 224 255
200 224 255
200 224 255
200 224 255
200 224 255
200 224 255
200 224 255
199 224 255
199 224 255
199 223 255
199 223 255
199 223 255
199 223 255
199 223 255
198 223 255
198 223 255
198 223 255
198 223 255
198 223 255
197 222 255
197 222 255
197 222 255
197 222 255
196 222 255
196 222 255
196 222 255
195 221 255
195 221 255
195 221 255
194 221 255
194 221 255
193 220 255
193 220 255
192 220 255
192 219 255
191 219 255
192 219 255
192 220 255
192 220 255
193 220 255
193 220 255
194 220 255
194 221 255
195 221 255
195 221 255
196 222 255
197 222 255
198 223 255
199 223 255
200 224 255
201 225 255
203 226 255
206 227 255
211 230 255
213 231 255
213 231 255
213 231 255
213 231 255
213 231 255
213 231 255
213 231 255
213 231 255
213 231 255
213 231 255
213 231 255
213 231 255
213 231 255
213 231 255
213 231 255
213 231 255
184 203 232
61 97 161
61 97 165
61 97 159
62 98 167
62 98 169
62 97 158
61 97 156
62 98 160
61 98 160
61 97 160
62 98 163
62 98 161
62 98 161
61 97 156
62 98 164
62 97 156
61 97 153
61 97 154
62 97 161
63 99 165
63 99 163
62 98 163
62 98 158
62 97 160
62 97 155
61 97 159
62 98 163
61 98 161
61 97 159
61 96 152
62 97 152
61 97 160
62 98 158
62 98 162
62 97 157
62 97 156
62 98 155
62 97 155
61 97 155
62 97 155
61 97 150
63 99 165
61 97 159
62 98 156
61 97 156
62 98 158
61 97 162
62 99 166
63 99 164
61 97 156
61 97 163
62 98 160
62 97 160
61 96 145
62 97 158
62 97 162
62 98 158
61 97 150
62 98 160
62 97 155
60 95 149
61 97 159
62 97 161
61 97 156
62 97 155
61 97 157
62 97 160
62 97 154
61 96 149
62 97 158
61 96 151
62 98 161
63 98 162
61 96 160
61 95 152
60 94 150
62 97 154
61 95 156
61 95 156
60 94 149
60 95 155
60 94 147
59 93 149
61 95 159
60 94 155
59 92 151
190 208 235
213 231 255
213 231 255
213 231 255
213 231 255
213 231 255
213 231 255
213 231 255
213 231 255
213 231 255
213 231 255
213 231 255
213 231 255
213 231 255
213 231 255
213 231 255
213 231 255
179 188 191
156 149 97
160 154 101
157 151 99
164 159 104
164 160 106
162 158 105
167 164 110
169 166 111
164 162 109
166 164 111
159 158 108
166 164 111
160 159 108
164 163 110
167 166 112
164 163 111
159 159 109
160 160 110
168 167 113
162 161 110
166 165 112
166 166 112
168 167 112
167 166 112
171 169 114
170 168 113
172 170 114
173 171 114
174 171 114
172 170 114
172 170 114
172 170 114
172 170 114
172 170 114
173 171 114
173 171 114
173 170 114
173 171 114
172 170 114
172 170 114
173 170 114
172 170 114
173 171 114
173 171 114
173 170 114
173 170 114
172 170 114
173 171 114
173 170 114
173 171 114
172 170 114
173 171 114
173 171 114
174 171 114
174 171 114
173 171 114
173 171 114
175 171 114
174 171 114
175 171 114
175 172 114
175 172 114
176 172 114
175 171 114
174 171 114
176 172 114
176 172 114
176 172 114
177 172 114
176 172 114
175 171 114
175 172 114
177 172 114
176 172 114
176 172 114
176 172 114
176 172 114
176 172 114
178 173 114
176 172 114
176 172 114
175 172 114
178 173 114
176 172 114
178 173 114
178 173 114
178 173 114
177 172 114
177 173 114
178 173 114
179 173 114
178 173 114
180 174 114
178 173 114
179 173 114
179 173 114
180 174 114
181 174 114
179 173 114
179 173 114
178 173 114
179 173 114
179 173 114
180 174 114
179 173 114
179 174 114
179 174 114
181 174 114
182 175 114
182 175 114
181 174 114
181 174 114
181 174 114
180 174 114
183 175 114
181 174 114
181 174 114
181 175 114
181 174 114
182 175 114
182 175 114
185 176 114
184 176 114
181 174 114
184 176 114
182 175 114
184 176 114
183 175 114
183 175 114
182 175 114
185 176 114
184 176 114
184 176 114
184 176 114
184 176 114
185 176 114
184 176 114
184 176 114
185 176 114
206 227 255
206 227 255
206 227 255
205 227 255
205 227 255
205 227 255
205 226 255
205 226 255
205 226 255
204 226 255
204 226 255
204 226 255
204 226 255
204 226 255
203 226 255
203 226 255
203 226 255
203 226 255
203 226 255
203 226 255
203 226 255
203 226 255
203 226 255
203 226 255
203 226 255
203 226 255
203 226 255
204 226 255
204 226 255
204 226 255
204 226 255
204 226 255
204 226 255
204 226 255
204 226 255
204 226 255
204 226 255
204 226 255
204 226 255
204 226 255
204 226 255
204 226 255
204 226 255
204 226 255
204 226 255
204 226 255
204 226 255
204 226 255
204 226 255
204 226 255
203 226 255
203 226 255
203 226 255
203 226 255
203 226 255
203 226 255
203 226 255
203 226 255
203 226 255
203 226 255
203 226 255
203 226 255
203 225 255
203 225 255
203 225 255
203 225 255
203 225 255
203 225 255
203 225 255
203 225 255
203 225 255
203 225 255
202 225 255
202 225 255
202 225 255
202 225 255
202 225 255
202 225 255
202 225 255
202 225 255
202 225 255
202 225 255
202 225 255
202 225 255
201 225 255
201 225 255
201 225 255
201 224 255
201 224 255
201 224 255
201 224 255
201 224 255
201 224 255
200 224 255
200 224 255
200 224 255
200 224 255
200 224 255
200 224 255
200 224 255
199 224 255
199 223 255
199 223 255
199 223 255
199 223 255
199 223 255
198 223 255
198 223 255
198 223 255
198 223 255
197 222 255
197 222 255
197 222 255
196 222 255
196 222 255
196 222 255
195 221 255
195 221 255
194 221 255
194 221 255
193 220 255
193 220 255
192 220 255
193 220 255
193 220 255
193 220 255
194 220 255
194 221 255
195 221 255
195 221 255
196 221 255
196 222 255
197 222 255
198 223 255
199 223 255
200 224 255
201 224 255
202 225 255
204 226 255
208 228 255
213 231 255
213 231 255
213 231 255
213 231 255
213 231 255
213 231 255
213 231 255
213 231 255
213 231 255
213 231 255
213 231 255
213 231 255
213 231 255
213 231 255
213 231 255
208 226 252
91 119 173
63 99 170
61 97 156
61 97 158
62 98 158
63 99 168
61 98 162
62 98 162
61 97 156
62 97 154
61 97 158
61 97 153
61 97 155
61 97 155
61 97 156
62 98 159
61 97 153
62 97 153
63 99 166
61 97 158
62 98 160
60 96 150
62 98 157
61 97 154
62 98 159
61 97 154
61 97 157
63 99 166
62 97 158
61 97 158
63 99 167
61 97 149
61 97 152
62 97 157
62 98 154
62 98 156
62 97 154
61 97 157
62 97 156
62 98 157
62 98 160
62 98 155
62 97 153
63 99 162
61 97 152
61 96 154
62 97 158
61 97 154
61 97 155
61 96 149
62 97 158
61 96 149
61 97 155
61 97 159
62 97 152
60 96 145
61 96 154
62 97 154
61 96 154
62 98 160
61 97 163
61 97 150
61 97 155
61 97 153
60 95 148
63 98 160
61 96 151
60 96 154
61 96 153
60 94 143
60 94 149
62 96 156
61 96 157
60 94 142
60 94 147
60 95 149
61 96 159
61 95 156
60 94 149
61 95 157
60 94 152
60 94 153
61 95 157
61 95 153
60 93 152
59 92 150
59 91 148
93 118 171
209 227 252
213 231 255
213 231 255
213 231 255
213 231 255
213 231 255
213 231 255
213 231 255
213 231 255
213 231 255
213 231 255
213 231 255
213 231 255
213 231 255
213 231 255
199 212 227
148 141 91
161 154 101
154 149 97
166 160 105
166 160 105
158 154 103
159 156 105
161 158 107
162 159 107
163 161 108
159 158 107
163 161 109
162 161 109
156 156 107
160 159 109
163 162 110
165 164 110
157 157 107
161 160 110
165 164 111
163 162 110
162 161 109
167 165 111
164 163 110
166 164 111
171 169 113
168 166 112
171 169 113
172 170 114
173 171 114
173 171 114
174 171 114
174 171 114
173 171 114
174 171 114
174 171 114
173 171 114
173 171 114
173 171 114
172 170 114
173 171 114
175 171 114
174 171 114
174 171 114
174 171 114
173 171 114
174 171 114
174 171 114
174 171 114
175 172 114
173 171 114
174 171 114
173 171 114
175 171 114
175 172 114
175 172 114
175 171 114
174 171 114
175 171 114
175 171 114
177 172 114
176 172 114
175 172 114
174 171 114
177 172 114
175 171 114
176 172 114
175 172 114
176 172 114
176 172 114
177 172 114
176 172 114
177 172 114
177 173 114
176 172 114
177 173 114
178 173 114
176 172 114
176 172 114
178 173 114
178 173 114
178 173 114
178 173 114
178 173 114
176 172 114
179 173 114
178 173 114
178 173 114
178 173 114
179 173 114
178 173 114
179 173 114
177 172 114
178 173 114
181 174 114
179 173 114
181 174 114
180 174 114
179 173 114
181 174 114
180 174 114
181 174 114
179 174 114
180 174 114
183 175 114
181 174 114
181 174 114
180 174 114
181 174 114
181 174 114
181 174 114
182 175 114
181 174 114
181 174 114
182 175 114
182 175 114
182 175 114
182 175 114
182 175 114
182 175 114
183 175 114
183 175 114
182 175 114
183 175 114
183 175 114
183 175 114
183 175 114
183 175 114
185 176 114
186 176 114
184 176 114
184 176 114
185 176 114
184 176 114
186 176 114
184 175 114
183 175 114
183 175 114
186 177 114
185 176 114
206 227 255
206 227 255
206 227 255
206 227 255
206 227 255
206 227 255
205 227 255
205 227 255
205 227 255
205 226 255
205 226 255
205 226 255
204 226 255
204 226 255
204 226 255
204 226 255
204 226 255
204 226 255
204 226 255
204 226 255
204 226 255
204 226 255
204 226 255
204 226 255
204 226 255
204 226 255
204 226 255
204 226 255
204 226 255
204 226 255
204 226 255
204 226 255
204 226 255
204 226 255
204 226 255
204 226 255
204 226 255
204 226 255
204 226 255
204 226 255
204 226 255
204 226 255
204 226 255
204 226 255
204 226 255
204 226 255
204 226 255
204 226 255
204 226 255
204 226 255
204 226 255
204 226 255
204 226 255
204 226 255
204 226 255
204 226 255
204 226 255
204 226 255
204 226 255
204 226 255
204 226 255
204 226 255
204 226 255
204 226 255
204 226 255
204 226 255
204 226 255
204 226 255
204 226 255
203 226 255
203 226 255
203 226 255
203 226 255
203 226 255
203 226 255
203 226 255
203 225 255
203 225 255
203 225 255
203 225 255
203 225 255
203 225 255
203 225 255
202 225 255
202 225 255
202 225 255
202 225 255
202 225 255
202 225 255
202 225 255
202 225 255
202 225 255
202 225 255
201 225 255
201 225 255
201 224 255
201 224 255
201 224 255
201 224 255
201 224 255
200 224 255
200 224 255
200 224 255
200 224 255
200 224 255
200 224 255
199 224 255
199 223 255
199 223 255
199 223 255
198 223 255
198 223 255
198 223 255
198 223 255
197 222 255
197 222 255
197 222 255
196 222 255
196 222 255
195 221 255
195 221 255
194 221 255
194 221 255
193 220 255
194 220 255
194 221 255
194 221 255
195 221 255
195 221 255
195 221 255
196 222 255
196 222 255
197 222 255
198 223 255
199 223 255
200 224 255
201 224 255
202 225 255
204 226 255
206 227 255
210 229 255
214 231 255
214 231 255
214 231 255
214 231 255
214 231 255
214 231 255
214 231 255
213 231 255
213 231 255
213 231 255
213 231 255
213 231 255
213 231 255
213 231 255
157 177 217
61 97 161
61 97 159
61 98 163
61 97 161
62 98 162
61 97 161
62 98 158
62 98 160
62 98 160
62 97 154
62 98 159
61 96 151
62 98 162
62 97 154
62 98 159
63 99 162
60 96 152
63 99 166
62 98 155
62 98 157
62 97 158
62 98 163
62 98 156
60 96 141
62 97 155
61 97 153
62 98 161
63 99 161
62 98 162
62 98 157
60 96 143
62 97 161
62 98 157
60 96 147
61 97 152
62 98 159
61 96 153
62 97 154
61 97 152
61 97 147
61 96 153
62 98 160
62 98 155
62 97 154
62 97 154
61 96 148
62 98 158
61 97 150
62 97 152
61 96 152
61 97 154
62 98 157
62 98 159
61 97 152
61 97 155
61 97 154
62 97 158
61 97 148
61 97 158
61 97 156
61 97 153
61 96 153
61 97 157
61 97 153
60 95 145
61 96 156
61 96 152
61 96 150
62 97 156
61 95 149
60 95 152
60 95 149
61 95 153
61 95 150
60 95 155
60 95 145
61 96 155
59 93 137
61 95 157
61 94 144
60 94 151
60 94 150
60 94 154
61 95 157
60 93 151
59 91 139
60 94 156
57 88 138
156 175 203
213 231 255
213 231 255
213 231 255
213 231 255
213 231 255
213 231 255
213 231 255
213 231 255
214 231 255
214 231 255
214 231 255
214 231 255
214 231 255
210 226 248
144 144 126
163 157 103
162 155 101
160 154 101
160 155 103
160 156 105
152 151 103
149 148 101
155 154 106
157 156 106
155 154 106
153 153 105
153 153 106
157 157 107
153 153 105
158 158 107
155 155 106
161 160 108
158 157 107
158 157 107
160 159 108
160 159 109
162 161 109
160 159 108
165 164 110
163 162 109
165 163 111
172 170 113
170 168 113
169 167 113
173 170 114
174 171 114
173 171 114
174 171 114
174 171 114
173 171 114
173 171 114
175 171 114
175 171 114
174 171 114
175 172 114
174 171 114
175 171 114
174 171 114
174 171 114
175 172 114
175 171 114
174 171 114
174 171 114
175 171 114
175 172 114
175 171 114
174 171 114
175 171 114
175 171 114
176 172 114
177 172 114
176 172 114
177 172 114
174 171 114
176 172 114
176 172 114
176 172 114
176 172 114
175 172 114
177 172 114
176 172 114
177 172 114
177 172 114
177 172 114
176 172 114
177 172 114
176 172 114
177 172 114
177 173 114
177 173 114
177 172 114
178 173 114
178 173 114
178 173 114
179 173 114
178 173 114
178 173 114
179 173 114
179 173 114
178 173 114
178 173 114
179 173 114
178 173 114
180 174 114
180 174 114
179 173 114
178 173 114
180 174 114
179 173 114
179 174 114
179 173 114
180 174 114
180 174 114
181 174 114
181 174 114
180 174 114
180 174 114
181 174 114
180 174 114
181 174 114
181 174 114
180 174 114
181 174 114
180 174 114
181 174 114
182 175 114
181 174 114
182 175 114
182 175 114
183 175 114
184 176 114
182 175 114
182 175 114
183 175 114
183 175 114
182 175 114
183 175 114
183 175 114
183 175 114
185 176 114
183 175 114
185 176 114
185 176 114
184 176 114
185 176 114
185 176 114
184 176 114
186 176 114
187 177 114
186 177 114
186 176 114
184 176 114
185 176 114
186 177 114
185 176 114
207 228 255
207 227 255
207 227 255
206 227 255
206 227 255
206 227 255
206 227 255
206 227 255
206 227 255
205 227 255
205 227 255
205 227 255
205 227 255
205 226 255
205 226 255
205 226 255
205 226 255
205 226 255
205 226 255
205 226 255
205 226 255
205 226 255
205 227 255
205 227 255
205 227 255
205 227 255
205 227 255
205 227 255
205 227 255
205 227 255
205 227 255
205 227 255
205 227 255
205 227 255
205 227 255
205 227 255
205 227 255
205 227 255
205 227 255
205 227 255
205 227 255
205 227 255
205 227 255
205 227 255
205 227 255
205 227 255
205 227 255
205 227 255
205 227 255
205 227 255
205 227 255
205 227 255
205 227 255
205 227 255
205 226 255
205 226 255
205 226 255
205 226 255
205 226 255
205 226 255
205 226 255
205 226 255
205 226 255
205 226 255
205 226 255
204 226 255
204 226 255
204 226 255
204 226 255
204 226 255
204 226 255
204 226 255
204 226 255
204 226 255
204 226 255
204 226 255
204 226 255
204 226 255
204 226 255
204 226 255
204 226 255
203 226 255
203 226 255
203 226 255
203 226 255
203 226 255
203 225 255
203 225 255
203 225 255
203 225 255
203 225 255
202 225 255
202 225 255
202 225 255
202 225 255
202 225 255
202 225 255
202 225 255
202 225 255
202 225 255
201 225 255
201 225 255
201 224 255
201 224 255
201 224 255
201 224 255
200 224 255
200 224 255
200 224 255
200 224 255
200 224 255
199 223 255
199 223 255
199 223 255
198 223 255
198 223 255
198 223 255
198 223 255
197 222 255
197 222 255
196 222 255
196 222 255
195 221 255
195 221 255
194 221 255
195 221 255
195 221 255
195 221 255
196 222 255
196 222 255
196 222 255
197 222 255
197 223 255
198 223 255
199 223 255
200 224 255
201 224 255
202 225 255
203 226 255
205 226 255
207 228 255
212 230 255
214 231 255
214 231 255
214 231 255
214 231 255
214 231 255
214 231 255
214 231 255
214 231 255
214 231 255
214 231 255
214 231 255
214 231 255
200 219 246
70 103 161
61 97 161
62 98 161
62 98 164
61 96 152
61 97 163
62 98 160
61 97 152
62 98 160
60 96 149
62 97 158
62 98 159
62 98 159
62 98 157
61 97 152
62 98 159
61 97 154
61 97 154
61 97 151
60 96 151
63 99 163
62 98 157
62 98 158
61 97 149
61 96 153
61 97 155
61 97 153
62 98 161
62 98 157
62 97 155
62 97 155
61 97 159
60 96 157
62 97 155
62 97 150
62 98 162
61 97 151
62 98 162
62 97 153
62 97 152
61 97 153
62 98 155
61 96 153
61 97 156
61 96 150
61 97 144
61 96 154
61 96 156
62 97 155
62 98 158
61 97 154
62 98 158
61 97 155
62 97 150
61 96 153
61 97 156
61 96 152
62 98 158
61 96 149
62 98 157
61 96 152
63 99 161
62 98 160
61 96 148
61 96 153
61 96 148
61 95 149
62 97 154
61 96 155
62 98 160
61 97 150
59 94 149
61 97 157
62 97 158
61 97 159
61 96 156
61 95 148
60 94 151
60 94 147
61 96 158
60 94 150
59 91 143
60 93 149
60 95 151
58 91 146
60 94 152
60 93 150
58 90 132
59 91 145
59 92 147
203 220 246
214 231 255
214 231 255
214 231 255
214 231 255
214 231 255
214 231 255
214 231 255
214 231 255
214 231 255
214 231 255
214 231 255
214 231 255
172 176 168
151 145 94
161 154 101
160 154 101
156 153 102
163 158 104
156 154 105
157 154 104
157 154 103
154 153 105
150 149 103
151 150 104
152 151 104
158 157 106
152 152 104
152 152 104
149 149 104
158 158 108
156 155 105
158 158 108
160 159 108
156 156 107
162 161 110
161 159 109
163 161 109
168 166 111
164 162 110
165 164 110
168 165 111
170 167 112
170 168 113
171 169 113
173 170 114
175 171 114
174 171 114
175 171 114
175 172 114
175 171 114
175 171 114
174 171 114
174 171 114
176 172 114
175 171 114
176 172 114
175 172 114
175 171 114
176 172 114
175 171 114
175 172 114
174 171 114
175 172 114
176 172 114
175 172 114
176 172 114
176 172 114
176 172 114
177 172 114
176 172 114
176 172 114
176 172 114
176 172 114
177 173 114
176 172 114
176 172 114
176 172 114
177 173 114
177 173 114
177 172 114
178 173 114
177 173 114
177 173 114
178 173 114
179 173 114
178 173 114
177 173 114
178 173 114
180 174 114
178 173 114
177 173 114
180 174 114
178 173 114
179 173 114
179 173 114
180 174 114
179 174 114
179 173 114
178 173 114
178 173 114
178 173 114
180 174 114
181 174 114
181 174 114
179 173 114
181 174 114
181 174 114
181 174 114
180 174 114
180 174 114
182 175 114
181 175 114
181 174 114
181 174 114
181 174 114
181 174 114
181 174 114
181 174 114
182 175 114
181 174 114
183 175 114
183 175 114
182 175 114
183 175 114
183 175 114
183 175 114
184 176 114
182 175 114
183 175 114
184 176 114
182 175 114
184 176 114
183 175 114
182 175 114
183 175 114
184 175 114
184 176 114
183 175 114
184 176 114
185 176 114
185 176 114
185 176 114
186 177 114
184 175 114
184 176 114
186 177 114
185 176 114
185 176 114
187 177 114
185 176 114
185 176 113
186 177 114
184 176 113
185 176 113
207 228 255
207 228 255
207 228 255
207 228 255
207 227 255
207 227 255
206 227 255
206 227 255
206 227 255
206 227 255
206 227 255
206 227 255
205 227 255
205 227 255
205 227 255
205 227 255
206 227 255
206 227 255
206 227 255
206 227 255
206 227 255
206 227 255
206 227 255
206 227 255
206 227 255
206 227 255
206 227 255
206 227 255
206 227 255
206 227 255
206 227 255
206 227 255
206 227 255
206 227 255
206 227 255
206 227 255
206 227 255
206 227 255
206 227 255
206 227 255
206 227 255
206 227 255
206 227 255
206 227 255
206 227 255
206 227 255
206 227 255
206 227 255
206 227 255
206 227 255
206 227 255
206 227 255
206 227 255
206 227 255
206 227 255
206 227 255
206 227 255
206 227 255
206 227 255
205 227 255
205 227 255
205 227 255
205 227 255
205 227 255
205 227 255
205 227 255
205 227 255
205 227 255
205 227 255
205 227 255
205 227 255
205 226 255
205 226 255
205 226 255
205 226 255
205 226 255
205 226 255
205 226 255
205 226 255
204 226 255
204 226 255
204 226 255
204 226 255
204 226 255
204 226 255
204 226 255
204 226 255
204 226 255
204 226 255
204 226 255
203 226 255
203 226 255
203 226 255
203 226 255
203 226 255
203 225 255
203 225 255
203 225 255
203 225 255
202 225 255
202 225 255
202 225 255
202 225 255
202 225 255
202 225 255
202 225 255
201 225 255
201 225 255
201 224 255
201 224 255
201 224 255
200 224 255
200 224 255
200 224 255
200 224 255
199 224 255
199 223 255
199 223 255
198 223 255
198 223 255
198 223 255
197 222 255
197 222 255
196 222 255
196 222 255
195 221 255
196 221 255
196 222 255
196 222 255
197 222 255
197 222 255
197 222 255
198 223 255
198 223 255
199 223 255
200 224 255
201 224 255
202 225 255
203 225 255
204 226 255
206 227 255
209 229 255
214 231 255
214 232 255
214 232 255
214 232 255
214 232 255
214 232 255
214 232 255
214 232 255
214 231 255
214 231 255
214 231 255
214 231 255
145 166 205
61 96 154
61 97 156
61 97 161
62 98 161
59 95 145
62 98 164
62 98 161
62 97 157
62 98 159
61 97 153
62 98 159
61 97 150
62 98 163
61 97 152
61 96 152
62 98 155
62 98 160
61 97 153
62 98 162
62 98 155
61 96 150
61 97 157
60 96 147
62 98 158
61 96 145
62 97 156
61 97 150
61 97 156
61 97 153
61 96 152
62 98 156
60 96 150
62 97 154
62 98 160
61 97 154
63 98 163
61 97 154
62 97 152
62 98 159
61 96 150
61 97 151
62 97 160
62 97 154
61 97 152
61 97 153
61 96 148
62 97 154
62 97 153
62 97 149
61 97 152
62 98 159
62 97 157
62 97 155
61 97 153
61 97 150
61 97 151
61 97 158
61 96 155
62 97 148
61 96 145
61 97 152
61 96 152
61 97 156
61 96 150
62 97 155
60 95 150
61 96 151
61 96 155
61 96 156
61 96 144
61 96 154
63 99 160
61 95 145
60 95 155
61 95 147
60 94 149
61 95 149
62 96 153
61 96 154
61 95 152
60 94 147
60 93 146
59 93 146
61 94 149
61 95 150
60 94 153
60 93 144
60 94 154
59 90 138
58 90 141
136 155 190
214 231 255
214 231 255
214 231 255
214 231 255
214 232 255
214 232 255
214 232 255
214 232 255
214 232 255
214 232 255
214 232 255
196 209 224
139 133 89
151 145 94
157 150 98
152 147 98
158 154 104
146 143 96
157 155 106
155 153 104
151 150 103
141 141 99
133 134 95
144 144 100
153 153 106
150 150 103
152 152 105
147 148 103
156 155 107
146 147 102
151 151 104
151 151 104
151 151 104
159 158 108
159 158 108
158 157 107
167 165 111
159 159 108
163 161 109
167 165 111
168 166 112
166 164 111
170 167 112
172 169 112
172 169 113
177 172 113
175 172 114
175 172 114
176 172 114
177 172 114
176 172 114
175 171 114
176 172 114
177 172 114
177 172 114
176 172 114
178 173 114
176 172 114
176 172 114
177 173 114
175 172 114
177 173 114
176 172 114
176 172 114
177 173 114
177 172 114
176 172 114
177 172 114
177 172 114
178 173 114
177 172 114
176 172 114
178 173 114
178 173 114
179 173 114
179 173 114
177 172 114
177 173 114
178 173 114
179 173 114
180 174 114
177 173 114
179 173 114
178 173 114
179 173 114
177 172 114
177 173 114
178 173 114
179 173 114
177 173 114
179 174 114
180 174 114
180 174 114
181 174 114
180 174 114
180 174 114
179 174 114
179 173 114
179 174 114
182 175 114
178 173 114
181 174 114
179 173 114
181 174 114
179 174 114
181 174 114
181 174 114
181 174 114
182 175 114
181 174 114
181 174 114
180 174 114
181 175 114
182 175 114
183 175 114
183 175 114
184 176 114
183 175 114
183 175 114
182 175 114
183 175 114
182 175 114
183 175 114
183 175 114
184 175 114
183 175 114
183 175 114
184 176 114
184 176 114
183 175 114
185 176 114
184 176 114
184 176 114
184 176 114
185 176 114
184 176 114
185 176 114
186 176 114
185 176 114
183 175 114
183 175 114
185 176 114
186 177 114
183 175 114
186 177 114
186 177 114
186 176 113
186 176 114
185 176 113
185 176 114
185 176 113
185 176 112
187 177 112
184 175 113
208 228 255
208 228 255
208 228 255
207 228 255
207 228 255
207 228 255
207 228 255
207 228 255
207 228 255
207 227 255
206 227 255
206 227 255
206 227 255
206 227 255
206 227 255
206 227 255
206 227 255
206 227 255
206 227 255
206 227 255
206 227 255
206 227 255
206 227 255
207 227 255
207 227 255
207 227 255
207 227 255
207 227 255
207 227 255
207 227 255
207 227 255
207 227 255
207 227 255
207 227 255
207 227 255
207 227 255
207 227 255
207 227 255
207 227 255
207 227 255
207 227 255
207 227 255
207 227 255
207 227 255
207 227 255
207 227 255
207 227 255
207 227 255
207 227 255
206 227 255
206 227 255
206 227 255
206 227 255
206 227 255
206 227 255
206 227 255
206 227 255
206 227 255
206 227 255
206 227 255
206 227 255
206 227 255
206 227 255
206 227 255
206 227 255
206 227 255
206 227 255
206 227 255
206 227 255
206 227 255
206 227 255
206 227 255
206 227 255
206 227 255
206 227 255
205 227 255
205 227 255
205 227 255
205 227 255
205 227 255
205 227 255
205 227 255
205 227 255
205 227 255
205 226 255
205 226 255
205 226 255
205 226 255
205 226 255
204 226 255
204 226 255
204 226 255
204 226 255
204 226 255
204 226 255
204 226 255
204 226 255
204 226 255
203 226 255
203 226 255
203 226 255
203 226 255
203 225 255
203 225 255
203 225 255
203 225 255
202 225 255
202 225 255
202 225 255
202 225 255
202 225 255
201 225 255
201 225 255
201 224 255
201 224 255
201 224 255
200 224 255
200 224 255
200 224 255
199 224 255
199 223 255
199 223 255
198 223 255
198 223 255
197 222 255
197 222 255
196 222 255
197 222 255
197 222 255
197 222 255
198 223 255
198 223 255
198 223 255
199 223 255
200 224 255
200 224 255
201 224 255
202 225 255
203 225 255
204 226 255
205 227 255
208 228 255
212 230 255
214 232 255
214 232 255
214 232 255
214 232 255
214 232 255
214 232 255
214 232 255
214 232 255
214 232 255
214 232 255
199 217 244
67 101 161
61 97 161
62 98 165
61 97 158
62 99 167
62 98 158
61 96 148
62 98 159
61 97 157
61 97 153
60 96 149
63 99 162
61 97 157
62 97 155
62 98 158
61 97 159
62 98 156
62 98 155
61 96 149
62 98 159
61 97 155
61 97 149
61 97 152
62 97 153
61 97 150
61 97 157
61 96 147
61 97 156
62 98 155
62 98 153
61 97 154
62 98 160
62 98 154
62 98 156
62 98 155
61 97 160
62 98 155
61 97 150
62 98 153
62 97 155
62 97 158
62 98 157
63 98 160
61 96 151
61 96 147
62 97 155
61 96 151
61 96 148
62 98 155
62 97 156
61 96 145
61 97 152
61 96 144
61 96 154
62 97 156
62 97 153
62 98 159
61 96 152
60 95 147
62 97 150
62 98 158
61 97 152
62 97 159
62 97 156
61 96 144
61 96 148
61 95 149
61 95 144
60 95 146
61 97 151
61 96 147
59 94 139
60 94 143
61 95 150
62 97 160
61 95 150
60 93 144
61 95 152
62 96 155
61 95 147
61 96 151
61 95 147
59 93 146
60 93 140
59 93 136
59 91 141
60 93 147
59 91 140
58 90 137
60 93 154
58 90 135
61 91 143
192 210 237
214 232 255
214 232 255
214 232 255
214 232 255
214 232 255
214 232 255
214 232 255
214 232 255
214 232 255
213 231 254
168 171 157
152 146 95
162 155 101
149 145 96
150 146 98
152 148 100
146 145 100
147 146 101
156 153 104
146 145 100
143 144 100
143 143 100
146 146 100
145 145 101
137 139 98
138 139 97
137 139 98
156 156 107
150 150 104
144 145 102
155 154 106
158 157 107
154 153 105
150 150 104
152 152 105
156 155 106
162 160 108
161 159 108
165 163 110
162 160 108
169 167 112
169 166 111
171 168 113
172 169 113
176 172 114
174 170 113
177 172 114
176 172 114
177 173 114
176 172 114
176 172 114
175 172 114
176 172 114
176 172 114
178 173 114
179 173 114
176 172 114
176 172 114
176 172 114
177 173 114
178 173 114
177 173 114
176 172 114
177 172 114
177 173 114
177 173 114
177 173 114
177 172 114
177 172 114
179 173 114
178 173 114
178 173 114
177 172 114
178 173 114
179 174 114
178 173 114
178 173 114
178 173 114
180 174 114
179 173 114
179 173 114
178 173 114
180 174 114
180 174 114
181 174 114
179 173 114
180 174 114
178 173 114
181 174 114
182 175 114
180 174 114
181 174 114
180 174 114
181 175 114
181 174 114
180 174 114
181 174 114
180 174 114
181 174 114
181 174 114
180 174 114
181 174 114
181 174 114
181 174 114
183 175 114
181 174 114
181 174 114
180 174 114
182 175 114
182 175 114
181 174 114
182 175 114
181 174 114
181 174 114
183 175 114
183 175 114
183 175 114
182 175 114
185 176 114
182 175 114
183 175 114
184 176 114
182 175 114
184 176 114
183 175 114
185 176 114
183 175 114
184 176 114
185 176 114
184 176 114
184 176 114
184 176 114
185 176 114
187 177 114
184 176 114
185 176 114
186 176 114
186 177 114
186 177 114
184 176 114
186 177 114
185 176 113
186 176 113
184 176 113
186 177 114
186 177 114
187 177 113
186 176 113
185 176 113
186 177 113
185 176 113
183 174 108
187 177 114
208 228 255
208 228 255
208 228 255
208 228 255
208 228 255
208 228 255
208 228 255
207 228 255
207 228 255
207 228 255
207 228 255
207 228 255
207 228 255
207 228 255
207 228 255
207 228 255
207 228 255
207 228 255
207 228 255
207 228 255
207 228 255
207 228 255
207 228 255
207 228 255
207 228 255
207 228 255
207 228 255
207 228 255
207 228 255
207 228 255
207 228 255
207 228 255
207 228 255
207 228 255
207 228 255
207 228 255
207 228 255
207 228 255
207 228 255
207 228 255
207 228 255
207 228 255
207 228 255
207 228 255
207 228 255
207 228 255
207 228 255
207 228 255
207 228 255
207 228 255
207 228 255
207 228 255
207 228 255
207 228 255
207 228 255
207 228 255
207 228 255
207 228 255
207 228 255
207 228 255
207 228 255
207 228 255
207 228 255
207 228 255
207 228 255
207 227 255
207 227 255
207 227 255
207 227 255
207 227 255
207 227 255
206 227 255
206 227 255
206 227 255
206 227 255
206 227 255
206 227 255
206 227 255
206 227 255
206 227 255
206 227 255
206 227 255
206 227 255
206 227 255
206 227 255
206 227 255
206 227 255
205 227 255
205 227 255
205 227 255
205 227 255
205 227 255
205 227 255
205 227 255
205 226 255
205 226 255
205 226 255
205 226 255
204 226 255
204 226 255
204 226 255
204 226 255
204 226 255
204 226 255
204 226 255
204 226 255
203 226 255
203 226 255
203 225 255
203 225 255
203 225 255
203 225 255
202 225 255
202 225 255
202 225 255
202 225 255
201 225 255
201 225 255
201 224 255
201 224 255
200 224 255
200 224 255
200 224 255
199 223 255
199 223 255
198 223 255
198 223 255
197 222 255
198 223 255
198 223 255
198 223 255
199 223 255
199 223 255
200 224 255
200 224 255
201 224 255
201 225 255
202 225 255
203 225 255
204 226 255
205 227 255
207 228 255
209 229 255
214 231 255
215 232 255
215 232 255
215 232 255
215 232 255
215 232 255
215 232 255
215 232 255
215 232 255
215 232 255
134 156 197
61 97 158
61 97 156
61 97 155
61 97 158
61 97 153
62 98 159
61 97 153
62 98 165
61 97 152
60 96 153
62 98 159
62 98 157
61 97 153
61 97 155
62 98 156
62 98 158
62 98 160
62 97 159
62 98 156
61 97 154
60 95 149
62 97 154
62 97 154
62 98 159
62 98 156
61 97 153
62 98 156
61 97 150
61 97 151
61 96 148
61 96 143
62 98 160
62 98 158
61 96 153
60 96 144
62 98 155
61 96 148
61 97 155
61 96 152
62 97 157
61 97 150
61 97 153
61 97 145
61 97 151
61 97 146
62 98 162
61 96 142
63 98 160
62 97 151
61 97 151
61 96 153
61 96 150
61 97 150
60 95 139
61 96 150
62 97 151
61 97 152
61 95 143
61 97 154
61 96 148
62 97 156
61 96 152
61 95 145
60 95 142
61 96 150
61 96 154
60 95 146
62 97 156
60 95 146
60 94 145
61 95 150
60 94 143
61 96 144
61 95 146
61 97 153
62 96 152
62 97 157
61 96 146
61 96 154
60 95 148
61 97 157
61 95 153
59 93 147
61 94 151
61 96 158
60 94 154
60 94 154
58 91 143
58 91 144
59 92 143
57 89 146
58 90 143
141 159 193
215 232 255
215 232 255
215 232 255
215 232 255
215 232 255
215 232 255
215 232 255
215 232 255
215 232 255
189 198 201
141 135 87
149 142 92
152 147 97
147 142 94
149 146 98
156 152 102
146 144 99
142 141 98
136 136 95
143 143 100
145 145 101
135 136 96
144 145 102
131 133 94
132 134 95
144 145 101
148 149 104
140 142 99
143 143 100
147 148 103
144 145 102
138 140 99
154 153 104
159 158 107
150 150 104
159 158 108
167 165 111
161 159 108
163 161 109
165 162 109
160 158 106
172 169 112
168 165 110
173 169 113
171 167 111
177 172 114
177 172 114
177 172 114
177 172 114
177 172 114
177 172 114
178 173 114
177 172 114
178 173 114
178 173 114
178 173 114
178 173 114
178 173 114
178 173 114
178 173 114
177 173 114
178 173 114
177 172 114
178 173 114
178 173 114
178 173 114
176 172 114
178 173 114
178 173 114
178 173 114
180 174 114
179 173 114
179 173 114
178 173 114
179 174 114
179 173 114
180 174 114
180 174 114
178 173 114
182 175 114
179 173 114
179 173 114
180 174 114
180 174 114
179 173 114
179 173 114
181 174 114
181 174 114
179 173 114
182 175 114
181 174 114
180 174 114
180 174 114
181 174 114
180 174 114
183 175 114
179 173 114
181 175 114
182 175 114
180 174 114
182 175 114
182 175 114
183 175 114
183 175 114
182 175 114
182 175 114
181 174 114
184 176 114
184 175 114
184 176 114
182 175 114
183 175 114
182 175 114
181 174 114
181 174 114
184 176 114
183 175 114
184 176 114
184 176 114
184 176 114
184 176 114
183 175 114
184 176 114
185 176 114
186 177 114
184 176 114
186 177 114
184 176 114
185 176 114
186 177 114
184 176 114
186 176 114
185 176 114
183 175 114
186 177 114
186 176 114
186 177 114
185 176 114
185 176 113
187 177 114
185 175 110
183 175 113
185 176 112
185 176 113
186 176 113
186 176 112
185 176 111
185 176 113
184 175 109
185 176 111
186 176 112
184 175 110
186 177 113
209 229 255
209 229 255
209 229 255
209 228 255
208 228 255
208 228 255
208 228 255
208 228 255
208 228 255
208 228 255
208 228 255
208 228 255
208 228 255
208 228 255
208 228 255
208 228 255
208 228 255
208 228 255
208 228 255
208 228 255
208 228 255
208 228 255
208 228 255
208 228 255
208 228 255
208 228 255
208 228 255
208 228 255
208 228 255
208 228 255
208 228 255
208 228 255
208 228 255
208 228 255
208 228 255
208 228 255
208 228 255
208 228 255
208 228 255
208 228 255
208 228 255
208 228 255
208 228 255
208 228 255
208 228 255
208 228 255
208 228 255
208 228 255
208 228 255
208 228 255
208 228 255
208 228 255
208 228 255
208 228 255
208 228 255
208 228 255
208 228 255
208 228 255
208 228 255
208 228 255
208 228 255
208 228 255
208 228 255
208 228 255
207 228 255
207 228 255
207 228 255
207 228 255
207 228 255
207 228 255
207 228 255
207 228 255
207 228 255
207 228 255
207 228 255
207 228 255
207 228 255
207 228 255
207 228 255
207 228 255
207 227 255
207 227 255
207 227 255
206 227 255
206 227 255
206 227 255
206 227 255
206 227 255
206 227 255
206 227 255
206 227 255
206 227 255
206 227 255
206 227 255
206 227 255
206 227 255
206 227 255
205 227 255
205 227 255
205 227 255
205 227 255
205 227 255
205 226 255
205 226 255
205 226 255
204 226 255
204 226 255
204 226 255
204 226 255
204 226 255
204 226 255
204 226 255
203 226 255
203 226 255
203 225 255
203 225 255
202 225 255
202 225 255
202 225 255
202 225 255
202 225 255
201 224 255
201 224 255
200 224 255
200 224 255
200 224 255
199 223 255
199 223 255
196 220 254
168 192 232
153 178 224
151 176 222
150 175 222
183 207 243
199 222 254
201 224 255
202 225 255
202 225 255
203 226 255
204 226 255
205 227 255
207 227 255
208 228 255
212 230 255
215 232 255
215 232 255
215 232 255
215 232 255
215 232 255
215 232 255
215 232 255
215 232 255
201 218 245
67 101 159
62 98 168
61 97 155
61 97 158
61 97 157
61 97 156
61 97 152
61 97 155
61 97 147
60 96 151
62 98 160
61 96 144
62 97 155
62 98 150
62 98 162
61 97 153
61 97 158
61 97 151
62 97 154
62 97 154
62 98 154
61 97 154
60 96 145
62 98 155
62 98 159
61 96 149
61 96 147
61 96 152
62 97 155
62 97 152
62 97 157
61 97 149
61 97 150
61 96 150
60 95 143
61 96 148
61 96 147
61 96 149
62 97 153
61 96 148
62 97 155
61 97 153
61 97 151
61 97 147
61 97 151
62 97 147
61 96 152
61 96 149
62 98 157
61 97 151
62 97 154
62 98 160
62 97 154
61 97 151
61 96 144
61 95 146
60 95 144
61 96 141
62 97 152
62 96 148
61 97 153
60 95 136
60 95 142
61 97 152
61 96 148
61 96 151
62 97 152
60 96 143
62 98 159
60 95 142
61 96 156
61 95 148
61 96 151
61 96 149
61 96 154
62 97 155
59 94 140
61 96 154
61 95 152
60 95 147
60 95 151
61 95 151
61 95 149
61 95 149
60 93 145
59 92 141
61 94 143
60 94 148
57 89 136
57 90 139
60 93 149
58 90 143
58 89 138
63 92 140
207 224 248
215 232 255
215 232 255
215 232 255
215 232 255
215 232 255
215 232 255
215 232 255
215 232 255
154 152 122
158 151 96
157 149 96
149 144 96
143 140 94
142 140 95
142 141 95
143 141 96
137 137 96
139 139 97
136 137 95
137 138 97
127 129 92
131 133 93
136 137 96
136 138 97
131 134 97
141 142 99
142 143 101
132 135 97
146 147 102
150 151 104
145 144 99
150 150 104
145 146 102
155 154 106
152 151 104
154 153 105
159 157 107
160 158 107
159 157 106
167 164 110
170 167 112
169 166 111
173 168 111
176 171 113
176 171 113
175 171 114
179 173 114
177 172 114
179 173 114
179 173 114
179 173 114
179 174 114
179 174 114
178 173 114
180 174 114
178 173 114
179 173 114
180 174 114
179 173 114
178 173 114
178 173 114
180 174 114
178 173 114
180 174 114
180 174 114
180 174 114
180 174 114
179 173 114
180 174 114
178 173 114
179 173 114
180 174 114
180 174 114
179 174 114
181 174 114
180 174 114
179 174 114
181 174 114
181 174 114
181 174 114
181 174 114
180 174 114
178 173 114
181 174 114
179 174 114
181 174 114
181 174 114
182 175 114
181 174 114
181 174 114
180 174 114
181 174 114
183 175 114
182 175 114
180 174 114
183 175 114
181 174 114
183 175 114
183 175 114
183 175 114
183 175 114
182 175 114
184 176 114
183 175 114
183 175 114
184 176 114
184 175 114
183 175 114
184 176 114
185 176 114
183 175 114
184 176 114
185 176 114
184 176 114
184 176 114
183 175 114
183 175 114
184 176 114
186 176 114
185 176 114
186 176 114
183 175 114
186 176 114
184 176 114
185 176 114
185 176 114
186 177 114
184 176 114
186 176 114
186 177 114
184 176 114
187 177 113
184 176 113
186 176 113
184 176 112
185 176 113
186 177 113
186 176 113
186 176 113
185 176 113
186 176 111
183 175 110
185 176 111
186 177 113
185 176 113
184 175 110
184 175 111
186 176 112
183 175 110
185 176 112
184 175 109
186 176 112
209 229 255
209 229 255
209 229 255
209 229 255
209 229 255
209 229 255
209 229 255
209 229 255
208 228 255
208 228 255
208 228 255
208 228 255
208 228 255
208 228 255
208 228 255
208 228 255
208 228 255
209 228 255
209 228 255
209 229 255
209 228 255
209 229 255
209 229 255
209 229 255
209 229 255
209 229 255
209 229 255
209 229 255
209 229 255
209 229 255
209 229 255
209 229 255
209 229 255
209 229 255
209 229 255
209 229 255
209 229 255
209 229 255
209 229 255
209 229 255
209 229 255
209 229 255
209 229 255
209 229 255
209 229 255
209 229 255
209 229 255
209 229 255
209 229 255
209 229 255
209 229 255
209 228 255
209 228 255
209 228 255
209 228 255
209 228 255
208 228 255
208 228 255
208 228 255
208 228 255
208 228 255
208 228 255
208 228 255
208 228 255
208 228 255
208 228 255
208 228 255
208 228 255
208 228 255
208 228 255
208 228 255
208 228 255
208 228 255
208 228 255
208 228 255
208 228 255
208 228 255
208 228 255
208 228 255
208 228 255
207 228 255
207 228 255
207 228 255
207 228 255
207 228 255
207 228 255
207 228 255
207 228 255
207 228 255
207 228 255
207 228 255
207 227 255
207 227 255
207 227 255
207 227 255
206 227 255
206 227 255
206 227 255
206 227 255
206 227 255
206 227 255
206 227 255
206 227 255
206 227 255
205 227 255
205 227 255
205 227 255
205 227 255
205 227 255
205 226 255
205 226 255
204 226 255
204 226 255
204 226 255
204 226 255
204 226 255
204 226 255
203 226 255
203 226 255
203 225 255
203 225 255
202 225 255
202 225 255
202 225 255
201 225 255
201 224 255
201 224 255
200 224 255
200 224 255
120 147 203
62 99 178
62 98 167
62 99 175
62 99 173
70 104 176
118 144 202
180 203 238
203 225 255
204 226 255
204 226 255
205 227 255
207 227 255
208 228 255
210 229 255
214 232 255
215 232 255
215 232 255
215 232 255
215 232 255
215 232 255
215 232 255
215 232 255
163 183 219
60 96 157
60 96 157
62 97 156
61 97 157
61 96 148
62 98 164
61 97 159
62 98 158
61 97 154
62 98 157
60 96 147
62 98 160
61 96 152
61 96 148
61 96 145
61 97 159
60 96 150
61 96 149
63 99 158
62 98 157
62 97 151
62 97 152
62 98 158
61 97 152
62 98 155
61 97 155
60 96 147
61 96 144
60 96 147
60 96 152
61 97 151
62 97 153
61 97 154
62 97 152
61 96 148
60 95 143
61 97 153
61 96 149
60 95 144
61 97 152
61 96 141
61 97 151
60 95 144
61 96 147
61 96 151
61 97 151
61 96 152
62 98 151
61 97 154
61 96 152
62 98 158
61 96 152
60 95 144
60 95 144
61 97 158
61 95 144
61 97 153
61 96 150
62 97 154
60 95 135
61 96 146
60 95 146
61 96 145
62 97 154
61 96 152
62 98 158
61 97 151
61 96 149
61 96 152
61 96 149
61 96 148
59 93 137
61 95 146
62 98 155
60 95 151
60 94 145
60 94 149
60 95 150
60 94 146
61 96 151
60 95 148
61 95 149
60 93 148
60 94 147
61 95 148
61 95 153
60 93 150
59 92 142
59 92 148
60 94 151
59 91 142
57 87 125
57 89 144
58 90 142
170 188 216
215 232 255
215 232 255
215 232 255
215 232 255
215 232 255
215 232 255
215 232 255
191 200 206
154 148 92
138 133 86
142 138 91
152 147 98
143 141 95
138 136 93
142 141 98
138 139 98
141 141 96
129 131 92
130 131 92
127 129 92
130 132 92
126 129 91
128 130 94
134 136 97
128 130 92
137 138 97
131 133 95
134 135 96
139 140 99
133 135 97
153 152 104
140 142 100
147 146 101
155 154 105
151 150 103
162 160 108
164 161 108
157 156 107
166 163 109
161 159 108
162 159 108
173 168 112
167 164 110
173 168 112
170 166 111
179 173 114
177 172 114
181 174 114
179 173 114
178 173 114
180 174 114
180 174 114
178 173 114
180 174 114
181 174 114
179 173 114
179 173 114
179 174 114
180 174 114
181 175 114
179 173 114
180 174 114
180 174 114
181 174 114
179 173 114
179 173 114
180 174 114
178 173 114
179 173 114
179 173 114
180 174 114
180 174 114
180 174 114
179 173 114
180 174 114
179 173 114
181 174 114
180 174 114
181 174 114
180 174 114
181 174 114
182 175 114
181 174 114
182 175 114
181 174 114
182 175 114
181 174 114
183 175 114
182 175 114
182 175 114
182 175 114
181 174 114
183 175 114
184 176 114
181 174 114
182 175 114
184 176 114
184 176 114
184 176 114
183 175 114
183 175 114
183 175 114
183 175 114
184 176 114
183 175 114
182 175 114
183 175 114
182 175 114
183 175 114
183 175 114
185 176 114
186 176 114
184 176 114
185 176 114
185 176 114
183 175 114
185 176 114
185 176 114
185 176 114
185 176 114
186 176 114
184 176 114
185 176 114
186 177 114
185 176 114
185 176 113
184 176 112
184 176 113
185 176 113
184 175 112
187 177 113
185 176 112
184 175 113
185 176 113
187 177 113
184 175 111
186 176 113
186 177 113
187 177 112
186 176 110
186 177 113
185 175 110
185 176 112
182 174 109
185 176 112
185 176 110
185 175 109
184 175 111
185 176 111
184 175 109
185 175 110
186 176 111
210 229 255
210 229 255
210 229 255
210 229 255
210 229 255
209 229 255
209 229 255
209 229 255
209 229 255
209 229 255
209 229 255
209 229 255
209 229 255
209 229 255
209 229 255
209 229 255
209 229 255
209 229 255
209 229 255
209 229 255
209 229 255
209 229 255
209 229 255
209 229 255
209 229 255
209 229 255
209 229 255
209 229 255
209 229 255
209 229 255
209 229 255
209 229 255
209 229 255
209 229 255
209 229 255
209 229 255
209 229 255
209 229 255
209 229 255
209 229 255
209 229 255
209 229 255
209 229 255
209 229 255
209 229 255
209 229 255
209 229 255
209 229 255
209 229 255
209 229 255
209 229 255
209 229 255
209 229 255
209 229 255
209 229 255
209 229 255
209 229 255
209 229 255
209 229 255
209 229 255
209 229 255
209 229 255
209 229 255
209 229 255
209 229 255
209 229 255
209 229 255
209 229 255
209 229 255
209 229 255
209 229 255
209 229 255
209 229 255
209 229 255
208 228 255
208 228 255
208 228 255
208 228 255
208 228 255
208 228 255
208 228 255
208 228 255
208 228 255
208 228 255
208 228 255
208 228 255
208 228 255
208 228 255
208 228 255
208 228 255
208 228 255
208 228 255
207 228 255
207 228 255
207 228 255
207 228 255
207 228 255
207 228 255
207 228 255
207 228 255
207 228 255
207 227 255
207 227 255
206 227 255
206 227 255
206 227 255
206 227 255
206 227 255
206 227 255
206 227 255
206 227 255
205 227 255
205 227 255
205 227 255
205 227 255
205 226 255
205 226 255
204 226 255
204 226 255
204 226 255
204 226 255
203 226 255
203 226 255
203 225 255
203 225 255
202 225 255
202 225 255
201 225 255
201 224 255
186 210 245
75 108 170
62 98 168
62 98 170
61 98 170
62 98 168
62 99 171
62 98 172
111 138 187
187 209 242
205 226 255
206 227 255
207 227 255
208 228 255
210 229 255
213 231 255
216 232 255
216 232 255
216 232 255
216 232 255
216 232 255
215 232 255
214 230 254
93 120 164
61 97 155
60 96 153
61 97 157
61 97 157
62 97 154
62 97 158
61 97 153
60 96 144
62 98 157
62 98 162
61 97 156
61 96 151
61 97 151
62 98 154
62 98 154
61 97 152
62 97 159
60 95 143
61 97 147
61 96 144
61 96 141
60 95 139
62 98 153
62 97 152
61 96 148
62 97 155
61 96 151
61 97 151
61 96 151
61 96 148
60 95 142
61 97 152
62 97 153
61 96 149
61 96 145
59 94 142
62 98 156
60 95 137
61 97 152
61 96 143
61 97 148
61 97 155
61 97 148
61 97 147
61 96 149
62 97 153
62 97 151
60 95 142
61 96 145
61 96 150
61 97 149
61 96 143
61 96 148
60 95 143
61 96 139
61 96 149
60 95 141
61 96 149
60 95 140
60 95 148
61 96 143
61 96 147
61 96 145
62 97 149
60 95 139
62 97 155
61 96 152
61 96 154
60 94 151
61 97 149
60 94 141
60 95 147
61 95 149
61 96 149
59 93 135
60 95 145
61 96 154
59 93 138
60 94 142
59 94 142
60 93 141
59 93 141
60 93 141
60 94 144
60 94 146
59 93 143
61 95 146
58 90 135
57 89 135
59 92 144
59 91 147
59 91 140
57 88 141
56 86 130
77 102 147
213 230 254
215 232 255
215 232 255
216 232 255
216 232 255
216 232 255
216 232 255
156 155 133
151 144 91
151 147 96
137 134 88
136 133 90
137 136 94
128 128 89
131 131 92
129 129 90
131 132 94
118 121 87
131 132 93
124 126 91
123 125 89
121 125 91
134 136 94
125 127 90
125 128 92
127 130 94
145 145 100
140 141 99
143 143 100
137 137 96
148 147 102
147 147 101
151 150 103
153 151 103
148 147 101
155 153 104
155 153 104
164 161 107
161 158 107
167 163 110
167 163 109
172 168 111
172 167 111
173 169 112
175 170 112
173 168 112
179 173 114
180 174 114
181 174 114
179 173 114
181 174 114
180 174 114
180 174 114
180 174 114
180 174 114
180 174 114
180 174 114
181 174 114
180 174 114
180 174 114
182 175 114
181 174 114
180 174 114
180 174 114
181 174 114
182 175 114
182 175 114
180 174 114
181 174 114
181 174 114
180 174 114
182 175 114
182 175 114
182 175 114
182 175 114
181 174 114
183 175 114
182 175 114
183 175 114
182 175 114
181 174 114
181 175 114
182 175 114
183 175 114
183 175 114
182 175 114
183 175 114
183 175 114
183 175 114
184 176 114
183 175 114
183 175 114
182 175 114
183 175 114
182 175 114
182 175 114
184 176 114
184 176 114
184 175 114
185 176 114
184 176 114
184 176 114
184 176 114
185 176 114
184 175 114
185 176 114
184 176 114
185 176 114
186 177 114
184 176 114
184 176 114
187 177 114
185 176 114
184 176 114
185 176 114
186 177 114
185 176 114
185 176 114
188 177 113
188 177 114
183 175 113
185 176 113
185 176 112
185 176 113
186 177 112
185 176 113
186 177 113
186 177 113
184 175 112
184 175 111
184 175 111
185 176 112
185 175 110
185 176 110
185 176 112
184 175 110
183 175 110
186 176 111
186 176 110
183 174 109
186 176 112
185 176 109
184 175 108
182 174 106
183 174 107
185 176 110
187 177 110
184 175 110
185 176 110
183 174 107
186 176 112
185 175 109
211 230 255
210 230 255
210 229 255
210 229 255
210 229 255
210 229 255
210 229 255
210 229 255
210 229 255
210 229 255
210 229 255
210 229 255
210 229 255
210 229 255
210 229 255
210 229 255
210 229 255
210 229 255
210 229 255
210 229 255
210 229 255
210 229 255
210 229 255
210 229 255
210 229 255
210 229 255
210 229 255
210 229 255
210 229 255
210 229 255
210 229 255
210 229 255
210 229 255
210 229 255
210 229 255
210 229 255
210 229 255
210 229 255
210 229 255
210 229 255
210 229 255
210 229 255
210 229 255
210 229 255
210 229 255
210 229 255
210 229 255
210 229 255
210 229 255
210 229 255
210 229 255
210 229 255
210 229 255
210 229 255
210 229 255
210 229 255
210 229 255
210 229 255
210 229 255
210 229 255
210 229 255
210 229 255
210 229 255
210 229 255
210 229 255
210 229 255
210 229 255
210 229 255
209 229 255
209 229 255
209 229 255
209 229 255
209 229 255
209 229 255
209 229 255
209 229 255
209 229 255
209 229 255
209 229 255
209 229 255
209 229 255
209 229 255
209 229 255
209 229 255
209 229 255
209 229 255
209 229 255
209 229 255
209 228 255
208 228 255
208 228 255
208 228 255
208 228 255
208 228 255
208 228 255
208 228 255
208 228 255
208 228 255
208 228 255
208 228 255
208 228 255
208 228 255
207 228 255
207 228 255
207 228 255
207 228 255
207 228 255
207 228 255
207 228 255
207 227 255
207 227 255
206 227 255
206 227 255
206 227 255
206 227 255
206 227 255
206 227 255
205 227 255
205 227 255
205 227 255
205 226 255
205 226 255
204 226 255
204 226 255
204 226 255
203 226 255
203 226 255
203 225 255
202 225 255
202 225 255
122 148 202
62 98 168
62 99 171
62 98 171
61 97 167
61 98 166
62 98 167
61 97 158
81 112 177
167 190 228
206 227 255
207 228 255
208 228 255
209 229 255
211 230 255
215 232 255
216 233 255
216 233 255
216 233 255
216 232 255
216 233 255
181 199 227
61 97 161
62 97 161
61 97 158
61 97 153
61 97 158
60 95 145
61 97 153
62 97 151
61 97 154
60 96 147
61 97 149
61 97 151
61 96 150
61 96 147
62 97 152
61 96 148
60 95 139
61 97 149
61 97 149
60 95 145
61 96 149
61 96 152
61 97 148
61 97 148
61 96 144
61 96 152
62 97 156
62 98 152
61 96 148
61 97 152
60 95 148
61 97 149
60 95 140
61 97 150
60 95 149
61 97 156
62 97 156
61 96 144
61 96 148
61 97 147
61 97 152
61 96 143
60 96 147
61 97 153
60 95 141
62 97 153
62 98 153
62 97 154
63 98 157
62 97 150
61 96 147
61 96 151
61 96 144
62 97 155
62 98 155
61 96 148
62 97 148
61 96 147
61 97 151
61 97 151
60 95 149
62 97 156
61 96 149
62 97 149
62 97 154
61 96 142
60 95 150
61 96 148
60 95 142
61 96 145
62 98 157
60 95 145
61 96 154
61 96 147
61 95 149
61 96 149
59 93 143
61 95 147
61 97 151
61 96 153
60 93 138
60 95 143
60 94 139
61 94 143
61 95 152
59 92 146
61 95 146
59 93 146
59 92 141
60 93 144
59 89 134
60 93 152
59 91 139
58 89 137
59 91 142
56 87 139
182 199 226
216 232 255
216 232 255
216 232 255
216 233 255
216 233 255
194 204 212
150 144 86
144 139 90
146 142 95
126 125 87
133 131 89
137 134 91
126 127 89
130 130 91
112 114 83
115 118 86
115 119 85
118 121 86
109 114 83
117 120 86
121 124 89
115 118 85
119 124 90
129 131 93
131 133 94
132 134 95
132 134 94
133 134 94
145 145 101
144 144 101
138 139 97
140 141 98
146 145 99
160 158 107
157 155 105
154 152 103
165 161 108
164 160 107
168 164 109
167 163 109
170 165 110
170 166 110
176 170 112
170 166 110
179 173 114
180 174 114
179 173 114
181 174 114
180 174 114
180 174 114
182 175 114
181 174 114
180 174 114
183 175 114
181 174 114
181 174 114
182 175 114
182 175 114
181 174 114
181 174 114
181 174 114
181 174 114
181 174 114
182 175 114
181 174 114
183 175 114
182 175 114
182 175 114
183 175 114
182 175 114
183 175 114
183 175 114
183 175 114
184 176 114
182 175 114
182 175 114
183 175 114
182 175 114
183 175 114
182 175 114
182 175 114
182 175 114
184 176 114
180 174 114
184 176 114
184 176 114
184 176 114
184 176 114
186 177 114
183 175 114
184 176 114
184 175 114
184 176 114
184 176 114
186 177 114
184 176 114
185 176 114
184 175 114
185 176 114
185 176 114
186 176 114
185 176 114
184 176 114
185 176 114
185 176 114
185 176 114
184 176 114
184 176 114
186 177 113
185 176 114
185 176 113
186 176 113
186 177 114
184 176 113
185 176 112
185 176 113
186 176 111
185 176 114
185 176 112
186 176 112
184 175 110
186 176 113
184 176 112
185 176 110
185 176 112
184 175 110
186 176 113
184 175 112
186 176 111
186 177 113
184 175 112
184 175 112
183 175 109
186 176 112
185 176 110
186 176 111
184 175 109
185 175 109
184 175 108
182 174 108
185 176 110
182 174 107
186 176 110
183 174 107
184 175 109
185 176 109
187 177 111
183 174 106
187 176 109
184 175 109
187 177 111
211 230 255
211 230 255
211 230 255
211 230 255
211 230 255
211 230 255
210 230 255
210 229 255
210 229 255
210 229 255
210 230 255
210 230 255
210 230 255
210 230 255
211 230 255
211 230 255
211 230 255
211 230 255
211 230 255
211 230 255
211 230 255
211 230 255
211 230 255
211 230 255
211 230 255
211 230 255
211 230 255
211 230 255
211 230 255
211 230 255
211 230 255
211 230 255
211 230 255
211 230 255
211 230 255
211 230 255
211 230 255
211 230 255
211 230 255
211 230 255
211 230 255
211 230 255
211 230 255
211 230 255
211 230 255
211 230 255
211 230 255
211 230 255
211 230 255
211 230 255
211 230 255
211 230 255
211 230 255
211 230 255
211 230 255
211 230 255
210 230 255
211 230 255
210 230 255
210 230 255
210 230 255
210 229 255
210 229 255
210 229 255
210 229 255
210 229 255
210 229 255
210 229 255
210 229 255
210 229 255
210 229 255
210 229 255
210 229 255
210 229 255
210 229 255
210 229 255
210 229 255
210 229 255
210 229 255
210 229 255
210 229 255
210 229 255
210 229 255
210 229 255
210 229 255
209 229 255
209 229 255
209 229 255
209 229 255
209 229 255
209 229 255
209 229 255
209 229 255
209 229 255
209 229 255
209 229 255
209 229 255
209 229 255
209 229 255
209 228 255
208 228 255
208 228 255
208 228 255
208 228 255
208 228 255
208 228 255
208 228 255
208 228 255
208 228 255
208 228 255
207 228 255
207 228 255
207 228 255
207 228 255
207 228 255
207 227 255
207 227 255
206 227 255
206 227 255
206 227 255
206 227 255
206 227 255
205 227 255
205 227 255
205 226 255
205 226 255
204 226 255
204 226 255
204 226 255
203 226 255
190 212 246
62 98 166
61 97 164
62 99 168
62 98 171
62 99 171
61 98 162
61 97 167
61 98 167
61 97 164
160 182 220
207 228 255
208 228 255
209 229 255
211 230 255
214 231 255
216 233 255
216 233 255
216 233 255
216 233 255
216 233 255
139 160 204
60 96 151
60 96 147
61 96 149
61 96 151
60 96 149
61 96 155
61 97 155
62 98 156
61 97 153
62 98 155
62 98 155
61 96 149
61 97 153
60 95 141
62 97 151
61 97 150
61 96 142
61 97 155
60 96 147
62 97 151
61 97 147
60 96 144
62 97 149
62 97 154
60 95 141
60 96 145
61 96 149
61 96 147
62 97 152
62 97 159
60 95 142
61 96 151
61 97 152
62 97 156
61 97 147
59 94 139
61 96 147
61 96 145
60 96 151
61 97 151
62 97 156
60 96 144
62 97 148
62 98 154
61 96 148
61 97 150
61 97 143
62 97 156
60 96 148
62 98 153
61 97 154
60 95 146
60 96 150
61 96 149
62 97 151
62 98 152
61 96 148
62 98 156
60 96 148
62 96 144
62 97 147
61 97 146
61 96 148
60 95 146
60 95 138
60 95 144
62 97 151
62 97 152
60 94 137
61 96 145
61 95 139
62 97 154
60 95 142
60 94 139
60 94 142
60 95 140
60 94 142
61 96 144
60 94 140
61 95 144
60 94 149
61 95 152
59 94 143
60 94 142
61 94 142
59 93 136
60 93 138
58 91 135
60 93 141
60 93 139
59 93 145
58 90 132
57 88 131
59 92 143
58 89 138
56 86 136
134 152 184
216 233 255
216 233 255
216 233 255
216 233 255
216 233 255
163 164 144
146 140 89
140 135 90
136 134 89
135 132 88
134 132 90
128 127 89
120 121 86
119 121 86
115 118 85
115 118 84
107 111 81
116 119 86
109 114 87
107 112 83
114 117 84
109 114 84
111 115 86
123 126 91
116 120 87
124 126 90
136 137 97
139 139 96
128 130 93
138 138 97
139 139 96
147 146 100
150 148 101
154 151 103
154 152 103
155 153 103
159 156 105
161 158 106
162 158 106
161 158 105
168 164 109
169 164 109
170 165 109
178 172 113
180 173 113
180 173 113
180 173 114
180 174 114
182 175 114
182 175 114
182 175 114
182 175 114
183 175 114
182 175 114
182 175 114
182 175 114
183 175 114
183 175 114
182 175 114
184 176 114
183 175 114
181 175 114
186 176 114
181 174 114
182 175 114
182 175 114
185 176 114
183 175 114
182 175 114
182 175 114
183 175 114
183 175 114
184 176 114
184 176 114
185 176 114
184 176 114
183 175 114
184 176 114
184 176 114
184 176 114
183 175 114
184 176 114
183 175 114
185 176 114
185 176 114
184 176 114
185 176 114
185 176 114
183 175 114
185 176 114
185 176 114
184 176 114
185 176 114
185 176 114
186 177 114
186 177 114
184 176 114
186 177 114
185 176 114
186 176 114
186 177 113
185 176 114
185 176 113
186 176 114
185 176 112
185 176 113
184 176 112
184 175 110
184 176 113
185 176 113
186 176 113
184 176 113
186 176 111
186 176 112
186 176 112
184 175 111
186 177 113
185 176 110
186 177 113
186 176 112
188 177 113
185 175 110
185 176 111
185 175 110
186 176 112
185 176 112
185 176 110
183 174 109
184 175 110
185 176 109
186 176 110
185 176 112
182 174 106
185 176 111
184 175 109
184 175 108
185 176 109
185 176 111
185 176 111
186 176 109
186 176 109
184 174 106
186 176 108
182 174 108
185 175 108
186 176 108
184 175 108
185 176 109
185 175 106
185 176 109
183 174 106
212 230 255
212 230 255
212 230 255
211 230 255
211 230 255
211 230 255
211 230 255
211 230 255
211 230 255
211 230 255
211 230 255
211 230 255
211 230 255
211 230 255
211 230 255
211 230 255
211 230 255
211 230 255
211 230 255
211 230 255
211 230 255
211 230 255
211 230 255
211 230 255
211 230 255
211 230 255
211 230 255
211 230 255
211 230 255
211 230 255
211 230 255
211 230 255
211 230 255
211 230 255
211 230 255
211 230 255
211 230 255
211 230 255
211 230 255
211 230 255
211 230 255
211 230 255
211 230 255
211 230 255
211 230 255
211 230 255
211 230 255
211 230 255
211 230 255
211 230 255
211 230 255
211 230 255
211 230 255
211 230 255
211 230 255
211 230 255
211 230 255
211 230 255
211 230 255
211 230 255
211 230 255
211 230 255
211 230 255
211 230 255
211 230 255
211 230 255
211 230 255
211 230 255
211 230 255
211 230 255
211 230 255
211 230 255
211 230 255
211 230 255
211 230 255
211 230 255
211 230 255
211 230 255
210 230 255
210 230 255
210 229 255
210 229 255
210 229 255
210 229 255
210 229 255
210 229 255
210 229 255
210 229 255
210 229 255
210 229 255
210 229 255
210 229 255
210 229 255
210 229 255
210 229 255
210 229 255
210 229 255
209 229 255
209 229 255
209 229 255
209 229 255
209 229 255
209 229 255
209 229 255
209 229 255
209 229 255
209 229 255
209 229 255
209 228 255
208 228 255
208 228 255
208 228 255
208 228 255
208 228 255
208 228 255
208 228 255
207 228 255
207 228 255
207 228 255
207 228 255
207 228 255
207 227 255
207 227 255
206 227 255
206 227 255
206 227 255
205 227 255
205 227 255
205 226 255
205 226 255
204 226 255
110 137 189
61 97 162
61 98 165
60 95 155
61 98 167
62 98 163
61 97 159
61 97 168
60 96 163
60 96 165
146 169 209
209 228 255
210 229 255
211 230 255
213 231 255
216 233 255
216 233 255
216 233 255
216 233 255
212 229 252
66 99 149
62 98 158
61 97 159
60 95 145
60 95 143
61 97 159
61 97 154
62 97 147
61 97 155
61 96 150
62 97 149
60 94 134
62 98 165
60 95 151
62 98 154
61 97 154
61 97 147
60 95 137
62 97 155
61 97 149
61 97 149
62 98 152
62 97 153
62 97 150
61 96 147
61 97 147
60 96 145
61 96 152
62 97 149
59 94 134
61 96 147
61 96 147
62 97 152
61 96 147
61 96 149
62 97 155
61 97 147
61 97 155
61 97 149
61 96 144
61 97 150
61 96 143
61 97 150
61 96 148
62 97 152
61 96 144
62 97 151
61 97 152
61 96 150
61 96 142
61 96 151
61 96 143
60 95 144
62 97 153
61 96 143
60 96 150
61 96 149
62 97 150
60 95 145
62 97 150
61 97 153
60 95 142
60 95 140
60 95 140
59 93 135
62 96 147
61 97 155
61 97 150
62 97 152
60 95 140
61 96 149
60 95 144
61 96 148
62 96 152
61 96 148
61 97 150
61 96 153
60 94 141
61 95 145
60 94 142
61 96 147
61 96 154
59 93 142
61 95 147
60 94 142
60 94 146
59 93 141
59 92 141
59 92 140
59 92 141
59 92 147
59 93 144
58 91 138
57 88 131
56 86 124
57 88 139
57 89 137
75 100 140
211 227 250
216 233 255
216 233 255
216 233 255
209 222 239
144 137 84
143 137 86
145 141 94
128 125 82
108 108 76
118 118 81
126 125 86
116 117 84
123 122 84
115 116 82
110 112 81
107 111 80
109 113 83
106 111 81
98 104 77
99 105 78
107 112 82
108 113 84
110 114 82
115 119 86
113 117 84
126 128 90
127 129 91
134 135 96
132 133 94
143 143 98
140 140 98
147 146 101
148 147 102
153 151 103
155 152 103
156 153 103
154 152 103
170 165 109
166 161 108
170 165 109
169 164 109
173 167 110
178 172 113
177 170 112
177 170 112
178 171 111
183 175 114
181 174 114
182 175 114
183 175 114
183 175 114
182 175 114
184 175 114
185 176 114
182 175 114
181 175 114
182 175 114
184 176 114
183 175 114
182 175 114
184 176 114
184 176 114
183 175 114
183 175 114
184 176 114
185 176 114
184 176 114
183 175 114
182 175 114
185 176 114
184 176 114
183 175 114
185 176 114
184 176 114
183 175 114
184 176 114
184 176 114
185 176 114
187 177 114
186 177 114
186 177 114
185 176 114
185 176 114
185 176 114
185 176 114
184 176 114
183 175 113
185 176 114
186 177 114
183 175 114
186 176 113
185 176 114
185 176 112
186 177 114
185 176 112
186 177 113
185 176 113
186 176 113
183 175 111
184 175 112
183 175 112
186 176 113
185 176 113
185 176 110
184 175 111
186 177 113
185 176 111
185 176 112
184 175 113
186 177 112
184 175 110
184 175 111
184 175 109
183 175 111
184 175 110
183 175 110
185 176 110
185 176 111
184 175 110
185 176 110
184 175 111
183 174 106
182 174 108
181 173 108
184 175 109
185 175 109
183 174 107
187 177 112
185 175 110
186 176 112
185 175 108
184 175 108
186 176 110
185 176 112
183 174 107
182 173 104
185 176 111
184 175 109
183 174 106
184 174 106
185 175 109
184 174 106
186 176 109
186 176 109
183 175 109
182 173 104
183 174 105
183 174 106
187 176 109
184 174 104
212 231 255
212 230 255
212 230 255
212 230 255
212 230 255
212 230 255
212 230 255
212 230 255
212 230 255
212 230 255
212 230 255
212 230 255
212 230 255
212 230 255
212 230 255
212 230 255
212 230 255
212 230 255
212 230 255
212 230 255
212 230 255
212 230 255
212 230 255
212 230 255
212 230 255
212 230 255
212 230 255
212 230 255
212 230 255
212 230 255
212 230 255
212 230 255
212 230 255
212 230 255
212 230 255
212 230 255
212 230 255
212 230 255
212 230 255
212 230 255
212 230 255
212 230 255
212 230 255
212 230 255
212 230 255
212 230 255
212 230 255
212 230 255
212 230 255
212 230 255
212 230 255
212 230 255
212 230 255
212 230 255
212 230 255
212 230 255
212 230 255
212 230 255
212 230 255
212 230 255
212 230 255
212 230 255
212 230 255
212 230 255
212 230 255
212 230 255
212 230 255
212 230 255
212 230 255
211 230 255
211 230 255
211 230 255
211 230 255
211 230 255
211 230 255
211 230 255
211 230 255
211 230 255
211 230 255
211 230 255
211 230 255
211 230 255
211 230 255
211 230 255
211 230 255
211 230 255
211 230 255
211 230 255
211 230 255
211 230 255
211 230 255
211 230 255
211 230 255
210 230 255
210 230 255
210 230 255
210 229 255
210 229 255
210 229 255
210 229 255
210 229 255
210 229 255
210 229 255
210 229 255
210 229 255
210 229 255
210 229 255
209 229 255
209 229 255
209 229 255
209 229 255
209 229 255
209 229 255
209 229 255
209 229 255
209 229 255
209 228 255
208 228 255
208 228 255
208 228 255
208 228 255
208 228 255
207 228 255
207 228 255
207 228 255
207 228 255
207 227 255
206 227 255
206 227 255
206 227 255
205 227 255
166 188 226
60 96 165
61 98 163
60 96 157
61 97 170
61 97 163
61 97 167
62 98 168
61 97 167
60 97 163
60 96 167
160 182 218
210 229 255
211 230 255
213 231 255
216 232 255
217 233 255
217 233 255
217 233 255
171 189 220
60 95 145
60 96 147
61 96 145
61 96 155
60 95 141
62 97 156
61 95 145
61 97 151
60 96 148
61 97 150
60 95 147
61 97 151
61 96 144
60 96 145
59 94 131
61 97 151
61 96 145
60 96 147
61 96 144
61 97 151
61 97 148
61 97 149
61 96 150
61 96 140
61 96 149
61 96 148
60 96 149
61 96 141
61 97 151
59 94 136
61 97 147
60 96 147
62 97 151
61 96 143
61 96 147
61 97 150
62 98 154
61 97 153
60 95 147
61 96 144
60 95 139
62 97 154
61 96 146
62 97 153
62 97 152
61 96 145
62 97 147
61 96 142
62 97 154
60 95 145
60 95 149
61 96 140
61 96 147
62 98 155
61 96 144
61 96 144
60 94 140
62 97 151
60 95 139
62 97 155
61 96 143
61 96 148
60 95 148
62 97 151
59 94 142
61 96 147
61 96 150
62 97 151
61 95 147
60 95 143
61 96 147
61 95 145
60 95 144
61 95 148
60 94 148
60 95 141
60 95 149
61 96 148
60 93 138
61 95 151
60 93 140
61 95 148
59 94 144
60 94 137
61 96 157
60 93 137
60 93 143
59 92 143
60 93 136
59 93 139
59 92 143
59 93 142
59 92 140
58 91 135
58 88 132
56 85 125
57 88 134
54 83 127
179 195 219
217 233 255
217 233 255
217 233 255
178 183 179
145 138 88
134 131 83
134 131 87
118 116 79
122 120 82
124 122 84
112 113 80
98 101 72
96 99 72
106 109 78
92 97 74
106 110 80
96 102 77
96 102 77
89 96 74
108 113 84
105 110 81
101 106 78
106 110 82
114 118 85
122 125 88
121 124 88
124 126 90
127 129 91
134 134 94
128 130 92
136 135 94
142 141 95
149 146 99
144 142 96
148 146 99
156 152 102
165 160 106
163 159 107
167 163 108
168 163 108
174 168 111
163 159 106
178 171 111
172 166 109
177 171 112
181 174 113
181 174 114
184 176 114
183 175 114
184 175 114
185 176 114
185 176 114
184 176 114
184 176 114
184 176 114
185 176 114
183 175 114
184 176 114
185 176 114
185 176 114
184 176 114
186 177 114
185 176 114
183 175 114
184 176 114
185 176 114
184 176 114
184 176 114
185 176 114
184 176 114
185 176 114
185 176 114
184 176 113
185 176 114
185 176 114
185 176 114
184 176 114
185 176 113
185 176 114
183 175 113
185 176 113
185 176 113
186 176 113
186 176 112
185 176 113
186 176 113
187 177 113
185 176 112
184 175 112
185 176 113
184 176 113
185 176 113
184 175 110
185 176 112
185 176 112
185 176 113
185 176 111
183 175 110
183 174 110
184 175 112
184 175 110
186 176 112
185 176 113
186 176 112
184 175 111
183 174 108
183 175 110
184 175 109
183 175 109
184 175 111
184 175 109
184 175 108
184 175 111
185 176 110
186 176 109
183 174 108
186 176 110
186 176 110
184 175 111
183 174 106
184 175 108
184 175 109
183 174 107
186 176 110
186 176 111
184 174 107
185 176 109
185 176 108
184 174 104
182 173 104
185 175 108
182 174 104
183 174 105
185 175 106
183 174 106
184 175 108
185 175 106
184 175 106
185 175 106
184 175 106
184 175 106
181 173 103
183 174 106
183 174 106
182 173 104
183 174 104
181 173 103
182 173 104
184 175 106
182 173 104
213 231 255
213 231 255
213 231 255
213 231 255
213 231 255
212 231 255
212 231 255
212 231 255
212 231 255
212 231 255
212 231 255
212 231 255
213 231 255
213 231 255
213 231 255
213 231 255
213 231 255
213 231 255
213 231 255
213 231 255
213 231 255
213 231 255
213 231 255
213 231 255
213 231 255
213 231 255
213 231 255
213 231 255
213 231 255
213 231 255
213 231 255
213 231 255
213 231 255
213 231 255
213 231 255
213 231 255
213 231 255
213 231 255
213 231 255
213 231 255
213 231 255
213 231 255
213 231 255
213 231 255
213 231 255
213 231 255
213 231 255
213 231 255
213 231 255
213 231 255
213 231 255
213 231 255
213 231 255
213 231 255
213 231 255
213 231 255
212 231 255
212 231 255
212 231 255
212 231 255
212 231 255
212 231 255
212 231 255
212 231 255
212 231 255
212 231 255
212 231 255
212 231 255
212 231 255
212 230 255
212 230 255
212 230 255
212 230 255
212 230 255
212 230 255
212 230 255
212 230 255
212 230 255
212 230 255
212 230 255
212 230 255
212 230 255
212 230 255
212 230 255
212 230 255
212 230 255
212 230 255
212 230 255
211 230 255
211 230 255
211 230 255
211 230 255
211 230 255
211 230 255
211 230 255
211 230 255
211 230 255
211 230 255
211 230 255
211 230 255
211 230 255
211 230 255
211 230 255
211 230 255
211 230 255
210 230 255
210 229 255
210 229 255
210 229 255
210 229 255
210 229 255
210 229 255
210 229 255
210 229 255
210 229 255
210 229 255
209 229 255
209 229 255
209 229 255
209 229 255
209 229 255
209 229 255
209 229 255
208 228 255
208 228 255
208 228 255
208 228 255
208 228 255
207 228 255
207 228 255
207 227 255
200 221 251
64 99 167
62 98 160
61 97 157
61 97 165
61 98 168
60 96 162
61 97 160
61 97 164
59 95 159
59 94 153
71 104 166
194 214 244
211 230 255
212 231 255
215 232 255
217 233 255
217 233 255
217 233 255
144 164 201
60 96 148
60 95 141
61 96 148
60 96 145
61 97 152
60 95 144
62 98 156
60 96 149
60 95 137
61 97 151
60 95 144
61 97 153
61 96 149
62 98 158
61 97 152
61 96 144
62 97 154
61 96 151
61 97 148
62 97 149
61 96 148
62 97 149
61 96 144
61 96 150
60 95 145
61 97 152
62 98 157
61 97 151
61 96 150
61 96 149
62 98 159
60 95 144
60 95 142
60 95 144
61 96 144
61 97 150
61 96 147
60 95 141
62 97 153
61 95 142
62 98 151
60 95 144
62 97 153
61 97 149
61 96 152
61 96 147
61 97 149
62 98 154
62 97 152
62 97 152
61 96 149
61 97 146
60 94 140
61 96 142
61 96 154
60 94 140
61 96 148
60 96 144
61 96 140
61 96 144
60 95 147
61 96 140
60 95 141
61 95 145
61 96 148
61 96 148
62 97 151
61 95 139
61 96 143
60 95 140
58 93 137
60 94 137
60 95 147
60 95 139
61 95 144
62 97 152
60 94 141
61 96 152
61 95 147
60 94 146
59 92 138
61 95 145
60 94 142
60 93 141
61 95 146
60 93 137
59 92 137
59 92 136
60 93 138
60 93 145
60 94 145
58 90 129
58 90 139
59 92 140
57 89 135
55 85 130
57 86 131
56 85 125
151 168 195
217 233 255
217 233 255
217 233 254
159 158 135
130 126 78
136 132 80
122 120 80
115 114 76
107 108 77
105 106 76
96 100 73
101 104 75
99 104 78
91 97 71
88 95 71
96 102 75
94 99 73
88 95 72
86 93 72
93 100 76
85 93 74
101 106 77
101 107 80
112 116 84
102 108 80
120 122 87
128 129 92
129 130 92
130 131 91
138 138 94
145 143 99
143 141 96
149 147 100
153 150 101
149 147 101
152 148 99
162 157 105
162 158 106
166 161 108
168 163 108
171 166 110
171 165 108
175 169 111
173 167 110
182 173 113
182 174 114
179 172 113
185 176 114
184 176 114
184 176 114
184 176 114
185 176 114
186 177 114
185 176 114
185 176 114
186 176 114
184 175 114
183 175 114
185 176 114
186 177 114
184 176 114
185 176 114
185 176 113
184 176 114
184 176 113
185 176 113
184 175 113
186 177 113
185 176 113
185 176 112
184 175 112
186 177 113
184 175 111
183 175 114
184 176 113
185 176 112
186 176 113
185 176 113
184 176 112
187 177 113
186 177 113
185 176 113
187 177 113
185 176 112
186 176 110
184 175 110
185 176 113
184 175 112
183 175 111
185 176 112
184 175 111
186 176 110
186 176 112
182 174 108
185 176 111
185 176 110
186 176 111
184 175 110
185 176 112
187 177 110
185 176 111
184 175 109
184 175 109
184 175 109
185 176 111
186 176 112
183 174 108
186 176 111
185 175 109
184 175 108
184 175 109
185 176 110
185 176 109
185 175 107
185 176 110
185 176 112
183 174 107
186 176 112
184 174 106
186 176 109
180 172 104
184 175 109
181 172 101
184 175 110
184 175 109
184 175 108
183 174 104
185 176 110
185 175 107
184 174 106
185 175 104
185 176 109
186 176 109
184 175 106
185 176 110
183 174 103
184 174 103
182 173 103
183 173 103
181 173 103
184 174 103
184 174 106
182 174 106
182 173 103
184 175 106
183 173 103
184 174 106
182 173 103
185 175 104
182 173 103
213 231 255
213 231 255
213 231 255
213 231 255
213 231 255
213 231 255
213 231 255
213 231 255
213 231 255
213 231 255
213 231 255
213 231 255
213 231 255
213 231 255
213 231 255
213 231 255
213 231 255
213 231 255
213 231 255
213 231 255
213 231 255
213 231 255
213 231 255
213 231 255
213 231 255
213 231 255
213 231 255
213 231 255
213 231 255
213 231 255
213 231 255
213 231 255
213 231 255
213 231 255
213 231 255
213 231 255
213 231 255
213 231 255
213 231 255
213 231 255
213 231 255
213 231 255
213 231 255
213 231 255
213 231 255
213 231 255
213 231 255
213 231 255
213 231 255
213 231 255
213 231 255
213 231 255
213 231 255
213 231 255
213 231 255
213 231 255
213 231 255
213 231 255
213 231 255
213 231 255
213 231 255
213 231 255
213 231 255
213 231 255
213 231 255
213 231 255
213 231 255
213 231 255
213 231 255
213 231 255
213 231 255
213 231 255
213 231 255
213 231 255
213 231 255
213 231 255
213 231 255
213 231 255
213 231 255
213 231 255
212 231 255
212 231 255
212 231 255
212 231 255
212 231 255
212 231 255
212 231 255
212 231 255
212 231 255
212 230 255
212 230 255
212 230 255
212 230 255
212 230 255
212 230 255
212 230 255
212 230 255
212 230 255
212 230 255
212 230 255
212 230 255
212 230 255
211 230 255
211 230 255
211 230 255
211 230 255
211 230 255
211 230 255
211 230 255
211 230 255
211 230 255
211 230 255
211 230 255
211 230 255
211 230 255
210 230 255
210 229 255
210 229 255
210 229 255
210 229 255
210 229 255
210 229 255
210 229 255
209 229 255
209 229 255
209 229 255
209 229 255
209 229 255
208 228 255
208 228 255
208 228 255
207 228 255
121 146 195
60 95 151
60 95 149
61 97 157
61 96 152
60 96 159
61 96 157
60 96 155
59 94 156
59 95 159
60 96 162
97 125 182
210 228 254
213 231 255
214 232 255
217 233 255
217 233 255
217 233 255
91 118 162
60 96 157
61 96 148
60 96 149
61 97 152
61 96 152
61 97 153
60 95 145
61 96 143
62 97 151
62 98 154
60 96 145
62 97 151
61 96 148
60 95 144
62 97 154
60 95 142
62 97 152
61 97 152
61 96 141
60 94 135
62 98 157
60 95 143
61 96 142
61 96 150
61 96 143
61 96 143
60 95 144
60 95 142
60 95 141
62 97 153
62 97 152
61 97 148
61 96 147
61 96 142
59 94 141
61 96 140
61 96 150
61 96 141
61 97 148
61 96 147
61 96 148
61 96 144
60 95 137
62 98 154
61 95 135
61 97 150
61 96 149
60 96 147
60 95 135
62 97 147
61 96 152
61 96 147
61 96 152
61 97 149
60 95 138
60 95 145
60 94 141
60 95 139
60 95 134
61 96 148
61 95 143
59 93 133
60 94 140
62 97 151
61 96 140
61 96 151
61 96 143
61 96 144
61 95 140
61 96 155
61 96 148
60 94 141
60 95 149
59 93 137
60 94 136
60 95 139
60 95 149
60 94 137
61 97 149
61 95 149
60 94 141
60 94 149
60 94 142
60 93 129
60 94 143
61 95 147
59 92 141
59 93 141
60 94 138
59 92 138
60 92 141
61 94 147
60 93 134
59 91 134
58 90 129
58 90 134
55 84 122
56 85 123
79 101 135
217 233 255
217 233 255
205 217 230
134 128 77
134 130 82
128 126 84
114 114 77
106 106 75
105 107 77
94 98 73
111 111 76
89 94 70
99 102 74
87 92 67
88 94 69
80 88 66
85 93 72
76 85 66
83 91 72
92 100 78
105 110 82
110 115 83
96 102 75
97 103 77
110 115 85
116 119 85
124 126 89
120 123 89
131 131 91
134 133 91
137 136 94
142 141 97
148 146 99
144 142 95
145 143 97
152 149 101
162 157 104
163 158 104
164 159 105
168 162 107
165 160 106
171 165 107
175 168 109
178 170 110
178 171 110
182 175 113
183 174 111
184 176 113
186 177 114
186 176 113
185 176 114
184 176 113
184 175 110
185 176 112
186 177 114
187 177 113
184 175 112
184 175 113
184 175 110
184 175 110
185 176 112
185 176 111
186 176 112
185 176 113
186 176 112
185 175 110
185 176 112
186 177 112
187 177 112
185 176 113
185 176 113
184 175 110
185 176 111
184 175 112
185 175 109
182 174 108
183 175 109
187 177 111
184 175 111
185 175 110
185 176 111
185 176 110
184 175 109
184 175 110
184 175 109
183 175 110
183 174 110
183 174 106
182 174 109
184 175 109
184 175 108
184 174 107
186 176 111
184 176 112
183 174 108
185 176 111
183 175 110
185 175 109
182 174 107
185 176 110
184 174 107
185 176 112
184 175 109
186 176 108
186 176 110
184 175 110
183 174 108
183 174 106
184 175 109
184 174 106
186 176 110
182 173 105
184 175 107
186 176 110
183 174 106
184 175 108
185 175 109
185 175 108
186 176 109
184 174 106
183 174 106
181 173 104
184 175 106
185 175 109
186 176 109
183 174 107
185 175 109
184 175 108
182 173 104
184 175 106
183 174 106
185 175 106
184 174 106
181 173 103
184 174 105
182 173 103
183 173 103
183 173 102
183 173 103
183 174 105
185 175 105
182 173 104
185 175 105
182 173 101
185 175 107
184 175 105
181 172 101
182 173 102
184 174 105
182 173 103
214 232 255
214 231 255
214 231 255
214 231 255
214 231 255
214 231 255
214 231 255
214 231 255
214 231 255
214 231 255
214 231 255
214 231 255
214 231 255
214 231 255
214 231 255
214 231 255
214 231 255
214 231 255
214 231 255
214 231 255
214 231 255
214 231 255
214 231 255
214 231 255
214 231 255
214 231 255
214 231 255
214 231 255
214 231 255
214 231 255
214 231 255
214 231 255
214 231 255
214 231 255
214 231 255
214 231 255
214 231 255
214 231 255
214 231 255
214 231 255
214 231 255
214 231 255
214 231 255
214 231 255
214 231 255
214 231 255
214 231 255
214 231 255
214 231 255
214 231 255
214 231 255
214 231 255
214 231 255
214 231 255
214 231 255
214 231 255
214 231 255
214 231 255
214 231 255
214 231 255
214 231 255
214 231 255
214 231 255
214 231 255
214 231 255
214 231 255
214 231 255
214 231 255
214 231 255
214 231 255
213 231 255
213 231 255
213 231 255
213 231 255
213 231 255
213 231 255
213 231 255
213 231 255
213 231 255
213 231 255
213 231 255
213 231 255
213 231 255
213 231 255
213 231 255
213 231 255
213 231 255
213 231 255
213 231 255
213 231 255
213 231 255
213 231 255
213 231 255
213 231 255
213 231 255
213 231 255
213 231 255
213 231 255
212 231 255
212 231 255
212 231 255
212 231 255
212 231 255
212 230 255
212 230 255
212 230 255
212 230 255
212 230 255
212 230 255
212 230 255
212 230 255
212 230 255
212 230 255
212 230 255
211 230 255
211 230 255
211 230 255
211 230 255
211 230 255
211 230 255
211 230 255
211 230 255
211 230 255
210 229 255
210 229 255
210 229 255
210 229 255
210 229 255
209 229 255
209 229 255
209 229 255
209 229 255
172 193 227
61 98 167
60 96 154
59 95 156
59 95 152
59 95 154
59 95 161
60 96 161
60 96 163
59 94 146
59 95 154
60 97 164
148 169 204
213 231 255
214 232 255
217 233 255
218 233 255
204 220 245
61 96 150
60 95 147
59 94 135
60 96 149
60 95 151
60 96 153
61 97 153
62 98 155
61 96 144
60 95 148
60 95 143
62 97 151
60 95 145
61 96 144
61 96 148
60 95 143
61 96 145
61 96 147
60 96 147
60 96 145
60 96 142
62 98 154
60 96 143
61 96 142
62 97 154
61 96 139
62 98 152
60 95 141
60 95 141
61 96 153
60 95 136
61 96 145
61 96 142
61 96 147
61 96 139
61 96 148
60 96 145
59 94 133
60 95 140
61 97 150
61 97 153
60 96 145
61 96 150
62 97 152
60 95 147
61 96 141
60 96 140
62 97 152
60 95 140
61 96 147
61 95 140
59 94 139
62 97 145
59 94 139
62 97 151
60 95 141
62 98 152
62 97 147
61 97 144
62 97 155
61 96 141
60 95 139
61 96 140
60 95 141
61 96 146
62 97 149
61 96 150
61 96 152
60 95 138
61 95 141
61 95 146
61 95 139
59 94 137
62 96 146
60 95 144
61 95 141
60 94 138
59 93 135
60 94 147
62 96 149
60 94 140
60 94 139
59 92 136
60 93 139
59 92 133
61 95 145
60 94 141
61 94 144
60 93 135
59 91 137
60 93 140
60 92 137
60 94 143
56 88 124
58 90 128
59 90 135
56 86 129
58 90 138
54 82 120
51 77 107
204 219 239
218 234 255
188 197 202
132 127 76
127 124 79
111 109 69
110 109 74
91 93 68
95 96 67
87 91 65
82 86 63
85 90 65
71 79 61
63 75 60
60 72 61
72 80 61
70 79 61
60 73 59
81 89 70
81 90 70
82 91 74
92 99 73
89 96 70
106 110 80
112 115 80
115 119 85
114 118 86
116 118 86
124 125 86
134 134 92
144 142 96
147 144 98
138 136 93
148 145 99
151 148 97
154 150 100
159 155 101
156 152 102
163 158 103
162 156 101
166 160 104
170 164 104
174 168 110
181 172 109
180 172 109
183 175 112
182 174 111
180 172 110
183 175 113
185 176 112
185 176 111
185 176 111
184 175 112
183 175 110
185 176 112
187 177 113
186 176 111
186 176 113
185 176 110
183 175 110
184 176 112
184 175 112
183 175 111
184 175 110
182 174 109
184 175 109
183 174 109
184 175 111
187 176 111
184 175 109
185 176 111
183 175 110
184 175 110
185 175 109
185 176 110
186 176 110
185 176 110
185 175 110
185 175 110
183 175 108
183 174 109
185 176 110
184 175 108
182 173 108
186 176 109
184 175 107
183 174 108
182 173 105
185 176 110
185 175 110
183 174 108
184 175 109
184 175 108
182 174 108
185 175 109
184 175 109
185 175 109
183 174 108
185 175 108
184 175 108
183 174 107
186 176 109
185 176 110
185 175 106
184 174 106
184 174 106
185 175 109
182 174 105
183 174 105
183 174 105
183 174 106
185 175 109
185 176 108
185 175 109
187 176 110
183 173 103
184 174 106
181 173 104
183 174 104
182 173 103
184 175 106
182 173 104
184 175 107
184 174 105
182 173 103
183 174 105
183 174 106
182 174 104
184 174 104
184 175 106
182 173 104
183 174 104
183 174 106
184 174 103
183 174 105
183 174 103
183 174 104
185 175 105
184 174 103
184 174 104
185 175 106
181 172 99
183 173 101
181 172 97
183 174 103
181 172 100
183 174 104
184 174 104
181 172 101
184 174 103
215 232 255
215 232 255
214 232 255
214 232 255
214 232 255
214 232 255
214 232 255
214 232 255
214 232 255
214 232 255
214 232 255
214 232 255
214 232 255
214 232 255
214 232 255
215 232 255
214 232 255
215 232 255
215 232 255
215 232 255
215 232 255
215 232 255
215 232 255
215 232 255
215 232 255
215 232 255
215 232 255
215 232 255
215 232 255
215 232 255
215 232 255
215 232 255
215 232 255
215 232 255
215 232 255
215 232 255
215 232 255
215 232 255
215 232 255
215 232 255
215 232 255
215 232 255
215 232 255
215 232 255
215 232 255
215 232 255
215 232 255
215 232 255
215 232 255
215 232 255
215 232 255
214 232 255
214 232 255
214 232 255
214 232 255
214 232 255
214 232 255
214 232 255
214 232 255
214 232 255
214 232 255
214 232 255
214 232 255
214 232 255
214 232 255
214 232 255
214 232 255
214 232 255
214 232 255
214 232 255
214 232 255
214 232 255
214 232 255
214 232 255
214 232 255
214 232 255
214 231 255
214 232 255
214 231 255
214 231 255
214 231 255
214 231 255
214 231 255
214 231 255
214 231 255
214 231 255
214 231 255
214 231 255
214 231 255
214 231 255
214 231 255
214 231 255
214 231 255
213 231 255
213 231 255
213 231 255
213 231 255
213 231 255
213 231 255
213 231 255
213 231 255
213 231 255
213 231 255
213 231 255
213 231 255
213 231 255
213 231 255
213 231 255
213 231 255
213 231 255
213 231 255
212 231 255
212 231 255
212 231 255
212 231 255
212 230 255
212 230 255
212 230 255
212 230 255
212 230 255
212 230 255
212 230 255
211 230 255
211 230 255
211 230 255
211 230 255
211 230 255
211 230 255
210 230 255
210 229 255
210 229 255
210 229 255
181 201 231
59 95 158
61 97 158
61 97 158
60 96 155
59 95 150
59 95 156
60 95 153
60 96 157
59 95 158
59 94 150
59 95 155
72 104 160
206 224 248
214 232 255
216 233 255
218 234 255
169 188 220
60 95 144
60 95 139
61 96 148
60 96 147
61 97 154
60 95 137
60 96 150
62 97 156
62 98 151
61 97 154
61 96 147
60 95 142
60 95 139
61 97 154
60 95 139
61 97 149
60 95 141
60 96 141
59 95 139
60 95 144
60 94 141
61 96 147
61 97 143
61 97 152
61 96 144
60 95 142
60 95 145
61 96 141
61 96 142
60 95 139
61 96 140
61 96 140
61 96 145
61 97 149
62 97 150
60 95 144
60 95 145
59 94 139
60 96 137
60 95 142
61 96 142
61 96 144
61 96 153
61 96 144
60 95 134
62 97 148
61 96 154
61 96 144
60 95 143
61 97 147
62 97 151
60 96 144
61 96 145
61 96 146
61 96 137
59 94 137
61 96 146
61 96 143
60 95 142
60 95 149
61 96 148
60 95 143
60 94 134
60 96 145
60 94 138
60 95 148
60 94 139
60 95 137
61 96 137
59 94 138
61 96 142
61 95 139
62 97 149
60 94 133
59 93 135
61 95 147
60 93 137
59 94 137
61 96 146
60 94 142
60 94 144
59 93 133
59 93 134
60 94 138
60 95 145
60 94 139
60 94 146
60 93 142
60 93 141
58 91 134
58 90 129
59 92 139
58 91 138
57 88 127
57 87 130
58 89 128
59 92 145
56 86 127
56 87 132
54 82 119
165 180 203
218 234 255
159 161 142
120 116 72
110 108 66
93 93 62
100 101 69
95 96 67
79 83 60
80 85 62
81 85 61
75 82 63
61 69 54
54 66 56
55 67 53
66 77 65
54 68 57
65 77 64
74 84 66
79 88 70
77 86 68
87 95 73
94 100 75
100 106 79
105 110 81
100 105 79
116 119 84
130 130 92
128 129 90
130 130 92
147 144 96
129 130 90
133 132 91
144 141 95
156 151 97
149 146 96
147 145 96
158 154 99
162 157 102
170 164 104
176 168 108
171 164 103
169 163 105
170 165 104
176 169 106
180 172 108
180 172 108
184 175 111
185 176 111
184 175 111
182 174 109
182 174 109
186 176 111
184 175 109
183 175 109
184 175 108
185 175 110
183 174 108
183 175 109
185 175 110
185 175 109
183 174 108
184 175 109
184 175 110
183 175 109
185 175 109
183 175 109
182 174 109
187 177 112
184 175 108
184 175 110
184 175 110
184 175 107
187 176 110
187 177 111
183 174 106
183 174 103
183 175 110
186 176 110
183 174 107
184 174 106
186 176 110
185 176 112
183 174 105
185 175 108
182 173 104
182 173 105
184 174 106
186 176 108
183 174 106
184 174 106
184 175 108
182 173 103
184 175 108
183 174 104
182 173 102
184 175 108
184 175 107
184 174 108
182 173 103
185 176 109
186 175 107
184 175 108
185 175 109
184 175 107
184 175 106
183 174 106
183 174 104
185 176 109
184 175 108
183 174 105
181 172 103
185 175 109
184 175 106
183 174 104
182 173 106
183 174 104
184 174 107
186 176 109
185 175 105
184 175 106
183 174 104
181 172 100
185 175 108
183 174 106
180 172 99
182 173 103
183 173 103
182 173 103
184 174 105
185 175 105
183 174 104
182 173 99
184 174 105
184 174 104
182 173 103
184 174 106
185 175 107
183 173 102
182 173 101
181 172 99
182 172 99
181 172 97
182 173 99
185 175 104
185 175 104
180 171 99
184 174 104
182 173 100
183 173 100
215 232 255
215 232 255
215 232 255
215 232 255
215 232 255
215 232 255
215 232 255
215 232 255
215 232 255
215 232 255
215 232 255
215 232 255
215 232 255
215 232 255
215 232 255
215 232 255
215 232 255
215 232 255
215 232 255
215 232 255
215 232 255
215 232 255
215 232 255
215 232 255
215 232 255
215 232 255
215 232 255
215 232 255
215 232 255
215 232 255
215 232 255
215 232 255
215 232 255
215 232 255
215 232 255
215 232 255
215 232 255
215 232 255
215 232 255
215 232 255
215 232 255
215 232 255
215 232 255
215 232 255
215 232 255
215 232 255
215 232 255
215 232 255
215 232 255
215 232 255
215 232 255
215 232 255
215 232 255
215 232 255
215 232 255
215 232 255
215 232 255
215 232 255
215 232 255
215 232 255
215 232 255
215 232 255
215 232 255
215 232 255
215 232 255
215 232 255
215 232 255
215 232 255
215 232 255
215 232 255
215 232 255
215 232 255
215 232 255
215 232 255
215 232 255
215 232 255
215 232 255
215 232 255
215 232 255
215 232 255
215 232 255
215 232 255
215 232 255
215 232 255
214 232 255
214 232 255
214 232 255
214 232 255
214 232 255
214 232 255
214 232 255
214 232 255
214 232 255
214 232 255
214 232 255
214 232 255
214 232 255
214 232 255
214 231 255
214 231 255
214 231 255
214 231 255
214 231 255
214 231 255
214 231 255
214 231 255
214 231 255
214 231 255
214 231 255
213 231 255
213 231 255
213 231 255
213 231 255
213 231 255
213 231 255
213 231 255
213 231 255
213 231 255
213 231 255
213 231 255
213 231 255
212 231 255
212 231 255
212 231 255
212 230 255
212 230 255
212 230 255
212 230 255
212 230 255
211 230 255
211 230 255
211 230 255
208 227 253
66 99 159
60 96 153
59 95 156
58 93 148
58 93 153
59 95 149
59 93 148
58 93 144
57 92 154
60 96 161
59 94 155
58 93 157
158 178 214
215 232 255
216 233 255
218 234 255
145 165 192
60 96 144
59 93 141
60 95 142
60 96 147
60 95 140
60 95 142
60 95 137
60 96 145
61 96 151
60 95 144
61 96 148
60 95 148
62 97 147
61 96 147
61 97 144
62 98 156
61 97 149
60 95 150
60 94 139
61 97 152
61 96 150
61 97 150
61 97 151
60 94 130
61 97 151
59 93 130
60 94 136
62 97 144
62 97 148
61 96 145
59 94 130
62 97 150
61 97 150
60 95 142
60 95 140
61 96 145
61 96 137
59 94 134
60 96 141
61 96 142
61 96 152
60 95 140
61 96 143
62 97 151
60 95 135
62 97 147
62 97 152
60 95 144
60 95 141
60 95 136
59 94 141
59 94 137
58 92 133
60 95 139
60 95 136
62 96 145
61 96 149
61 95 140
61 96 148
61 96 146
61 95 145
62 96 149
60 95 139
60 94 141
61 96 147
60 94 141
60 95 142
61 96 145
61 96 145
61 96 154
61 95 144
60 94 144
60 95 147
61 96 145
60 95 141
61 96 152
60 94 141
60 95 146
60 94 145
59 92 130
60 93 131
60 93 137
59 92 136
61 95 145
61 96 149
58 90 129
58 91 130
60 94 139
59 92 134
60 93 145
60 93 147
58 90 130
58 90 135
57 89 135
57 88 127
57 88 133
57 89 134
55 85 128
57 87 130
55 84 125
145 161 181
216 231 251
135 130 80
111 109 67
103 102 67
103 102 66
93 94 63
72 76 55
72 75 54
68 74 54
63 71 55
51 62 51
55 66 52
48 61 49
48 63 52
48 65 59
45 59 51
50 66 58
58 70 57
77 85 66
76 87 69
84 92 70
80 90 68
89 96 74
97 101 72
100 104 74
119 120 85
119 121 84
130 130 88
134 133 91
132 131 90
145 143 94
121 122 86
145 143 95
149 146 98
153 150 98
156 151 97
157 153 98
162 156 101
165 159 99
165 159 99
163 158 98
172 166 105
173 166 105
176 168 104
175 167 103
178 170 107
181 173 108
184 176 112
183 174 108
185 175 109
184 175 109
183 174 106
185 175 110
184 175 110
184 175 109
186 176 111
185 175 108
184 175 108
184 175 107
186 175 108
183 174 106
185 175 109
183 174 107
185 175 108
185 176 110
186 176 109
187 177 112
186 176 111
185 175 108
182 174 106
182 174 107
183 173 103
184 175 108
182 173 104
186 176 112
183 174 106
183 174 106
181 172 103
184 175 108
183 173 103
183 174 105
183 173 101
185 175 108
182 174 104
184 174 104
185 175 109
184 175 108
183 174 103
182 174 105
186 175 107
185 175 108
185 175 107
183 174 106
182 173 104
183 173 104
182 173 103
185 175 105
184 174 104
186 175 106
185 175 106
183 174 104
185 175 106
181 173 101
186 176 108
183 174 106
183 174 106
182 173 102
183 174 104
184 175 108
183 174 103
183 173 103
182 173 104
181 172 100
183 173 104
182 173 101
185 175 106
183 174 104
183 173 103
181 172 101
182 173 103
182 173 103
183 174 104
182 173 103
182 173 101
183 174 103
182 173 101
183 174 106
183 174 103
184 174 105
181 172 101
183 173 102
183 173 101
183 173 103
182 174 105
183 173 101
185 175 104
184 174 103
184 174 102
185 175 105
182 173 103
181 172 99
182 172 100
183 173 101
183 174 104
181 172 99
180 171 97
183 174 103
181 173 101
185 175 105
216 232 255
216 232 255
216 232 255
216 232 255
216 232 255
216 232 255
216 232 255
216 232 255
216 232 255
216 232 255
216 232 255
216 232 255
216 232 255
216 232 255
216 232 255
216 232 255
216 232 255
216 232 255
216 232 255
216 232 255
216 232 255
216 233 255
216 232 255
216 233 255
216 232 255
216 233 255
216 233 255
216 233 255
216 233 255
216 233 255
216 233 255
216 233 255
216 233 255
216 233 255
216 233 255
216 233 255
216 233 255
216 233 255
216 233 255
216 233 255
216 233 255
216 232 255
216 232 255
216 233 255
216 232 255
216 233 255
216 232 255
216 232 255
216 232 255
216 232 255
216 232 255
216 232 255
216 232 255
216 232 255
216 232 255
216 232 255
216 232 255
216 232 255
216 232 255
216 232 255
216 232 255
216 232 255
216 232 255
216 232 255
216 232 255
216 232 255
216 232 255
216 232 255
216 232 255
215 232 255
215 232 255
215 232 255
215 232 255
215 232 255
215 232 255
215 232 255
215 232 255
215 232 255
215 232 255
215 232 255
215 232 255
215 232 255
215 232 255
215 232 255
215 232 255
215 232 255
215 232 255
215 232 255
215 232 255
215 232 255
215 232 255
215 232 255
215 232 255
215 232 255
215 232 255
215 232 255
215 232 255
215 232 255
215 232 255
215 232 255
215 232 255
215 232 255
215 232 255
215 232 255
214 232 255
214 232 255
214 232 255
214 232 255
214 232 255
214 232 255
214 232 255
214 232 255
214 232 255
214 232 255
214 231 255
214 231 255
214 231 255
214 231 255
214 231 255
214 231 255
213 231 255
213 231 255
213 231 255
213 231 255
213 231 255
213 231 255
213 231 255
213 231 255
213 231 255
212 231 255
212 231 255
212 230 255
212 230 255
113 138 183
57 92 157
60 95 154
60 95 152
60 95 154
60 96 153
59 94 143
59 94 155
60 96 161
59 93 152
59 94 148
60 95 156
89 118 173
214 231 254
216 233 255
218 234 255
116 139 175
61 96 149
61 97 149
59 95 143
61 96 145
59 93 142
62 98 157
59 95 142
61 97 148
60 95 140
60 95 142
61 96 144
61 96 148
61 96 148
61 96 149
60 94 137
61 96 140
60 95 145
62 98 154
60 95 139
60 95 135
60 95 148
60 95 136
60 95 137
60 95 140
60 95 135
61 96 137
59 94 133
61 96 141
62 97 149
60 95 136
60 95 135
61 96 142
60 96 144
61 96 140
60 95 141
61 96 143
60 95 143
61 96 144
61 96 144
61 96 143
60 95 141
62 96 147
61 96 145
62 97 153
60 96 147
60 94 130
60 95 141
61 96 142
60 95 139
61 96 150
61 96 145
61 96 141
60 95 143
61 96 142
59 94 132
60 95 144
60 95 143
61 96 148
61 95 134
61 96 140
61 97 153
60 94 140
60 95 140
61 96 141
60 94 135
60 95 139
60 94 140
61 95 140
62 98 155
60 94 141
60 94 140
58 91 129
61 97 149
60 95 141
60 94 143
61 95 146
60 94 136
60 94 135
61 95 138
61 95 141
60 94 146
60 93 142
60 94 142
61 95 140
59 92 135
58 91 125
60 94 137
59 92 141
57 90 125
59 93 135
59 91 135
57 90 130
56 87 120
58 89 127
60 92 136
57 88 130
55 85 117
55 85 130
56 85 127
52 80 115
116 133 160
202 212 222
135 129 75
115 112 71
107 104 62
86 85 56
76 78 55
71 74 53
69 74 57
61 67 50
48 59 48
42 55 46
44 59 49
42 55 43
46 60 50
48 64 57
49 64 53
49 64 55
48 64 54
60 72 61
67 78 63
64 75 60
78 87 66
89 96 70
92 98 72
105 108 76
113 115 82
113 115 82
128 128 88
135 134 90
134 133 89
133 131 89
145 142 95
149 145 94
147 144 95
150 147 93
149 145 92
160 154 100
164 158 97
164 158 102
161 156 99
167 161 98
167 161 97
177 169 105
172 165 100
177 169 103
174 167 100
183 174 108
180 172 102
182 174 106
183 174 108
183 174 106
185 175 108
184 175 108
182 173 106
182 174 105
183 174 104
183 174 103
183 174 104
186 176 109
186 176 109
182 173 104
184 175 108
184 174 106
183 174 104
183 174 104
184 174 104
180 172 103
184 174 103
182 173 103
183 174 104
183 174 104
184 174 105
184 175 107
181 173 102
184 175 107
184 175 107
185 175 108
183 174 106
185 175 105
182 173 104
184 175 108
182 173 101
182 173 103
184 174 106
184 174 106
185 175 108
183 174 104
182 173 103
181 172 101
181 172 101
184 174 105
184 174 105
184 174 106
184 174 104
184 175 108
182 173 101
183 174 103
183 173 103
183 173 103
185 175 106
182 174 104
184 174 106
185 175 106
184 175 106
182 173 102
182 173 103
183 173 101
185 175 105
186 175 105
182 172 99
184 175 107
183 174 103
182 173 101
184 175 106
183 173 102
182 173 102
184 174 106
181 172 99
183 173 99
181 172 101
180 172 101
183 174 103
181 172 101
181 172 98
181 172 101
185 175 104
183 173 103
182 173 101
181 172 101
179 171 96
184 174 103
184 174 103
182 173 103
180 171 94
179 171 97
181 173 101
183 173 102
181 172 98
184 173 101
183 173 99
182 173 99
181 172 99
181 172 101
181 172 99
183 173 101
182 172 99
183 174 103
182 173 101
175 168 89
216 233 255
216 233 255
216 233 255
216 233 255
216 233 255
216 233 255
216 233 255
216 233 255
216 233 255
216 233 255
216 233 255
216 233 255
216 233 255
216 233 255
216 233 255
216 233 255
216 233 255
216 233 255
216 233 255
216 233 255
216 233 255
216 233 255
216 233 255
216 233 255
216 233 255
216 233 255
216 233 255
216 233 255
216 233 255
216 233 255
216 233 255
216 233 255
216 233 255
216 233 255
216 233 255
216 233 255
216 233 255
216 233 255
216 233 255
216 233 255
216 233 255
216 233 255
216 233 255
216 233 255
216 233 255
216 233 255
216 233 255
216 233 255
216 233 255
216 233 255
216 233 255
216 233 255
216 233 255
216 233 255
216 233 255
216 233 255
216 233 255
216 233 255
216 233 255
216 233 255
216 233 255
216 233 255
216 233 255
216 233 255
216 233 255
216 233 255
216 233 255
216 233 255
216 233 255
216 233 255
216 233 255
216 233 255
216 233 255
216 233 255
216 233 255
216 233 255
216 233 255
216 233 255
216 233 255
216 233 255
216 233 255
216 233 255
216 233 255
216 233 255
216 233 255
216 233 255
216 233 255
216 232 255
216 232 255
216 232 255
216 232 255
216 232 255
216 232 255
216 232 255
216 232 255
216 232 255
216 232 255
216 232 255
215 232 255
215 232 255
215 232 255
215 232 255
215 232 255
215 232 255
215 232 255
215 232 255
215 232 255
215 232 255
215 232 255
215 232 255
215 232 255
215 232 255
215 232 255
215 232 255
215 232 255
215 232 255
215 232 255
215 232 255
215 232 255
214 232 255
214 232 255
214 232 255
214 232 255
214 232 255
214 232 255
214 231 255
214 231 255
214 231 255
214 231 255
213 231 255
213 231 255
213 231 255
213 231 255
138 160 199
59 95 157
61 96 149
58 93 145
59 94 151
60 96 149
60 95 158
60 95 160
57 91 140
58 93 150
58 93 150
58 92 141
60 95 153
196 213 242
217 233 255
218 234 255
75 106 149
60 95 139
61 97 152
61 96 143
59 93 133
62 98 157
60 96 142
60 94 133
61 96 147
60 95 140
59 94 134
60 96 147
61 96 142
61 96 148
61 96 149
62 97 148
60 96 142
61 96 143
60 95 140
60 95 134
60 95 134
62 98 151
60 95 137
60 95 143
62 97 149
61 96 142
59 93 130
61 96 142
60 94 133
60 95 141
61 96 141
61 96 145
61 97 147
60 94 136
61 96 145
60 94 139
60 95 145
61 96 147
61 96 136
60 94 145
60 95 136
61 96 142
61 96 150
62 97 154
61 96 143
60 94 142
60 95 136
60 95 140
59 94 134
61 96 144
61 95 145
62 97 151
60 95 143
59 94 131
62 97 150
60 95 137
61 96 146
62 97 146
61 96 141
60 95 137
60 95 136
60 95 139
60 95 140
60 95 142
62 97 151
59 93 134
61 96 147
61 96 145
61 96 148
59 93 136
60 94 136
60 94 135
61 96 138
62 96 146
61 95 140
60 94 141
59 92 129
61 95 141
60 94 133
61 96 142
60 94 139
60 94 133
60 94 146
61 95 144
59 92 129
59 92 136
58 91 129
59 94 143
58 91 138
59 93 145
59 92 137
58 91 129
59 92 141
58 90 132
59 91 134
58 89 129
57 88 122
55 85 125
55 85 115
55 84 123
54 81 108
76 96 128
185 193 196
120 115 68
104 101 60
81 81 55
77 78 52
85 86 58
73 76 55
43 54 44
43 54 43
41 53 44
43 56 50
43 57 47
43 57 50
46 60 51
48 63 54
46 62 56
46 60 50
47 61 50
50 67 59
52 67 54
61 75 64
83 91 68
76 84 65
83 92 71
109 111 78
113 116 84
115 117 81
120 120 81
122 123 82
114 117 83
141 139 92
132 132 88
142 139 90
144 141 89
153 149 96
154 149 92
150 147 96
164 158 96
163 157 99
160 155 98
166 160 99
163 158 97
169 163 100
163 157 95
176 168 103
178 170 103
178 170 102
181 173 104
182 174 106
182 173 104
184 175 106
183 174 104
183 174 104
180 172 101
184 174 104
184 175 107
183 174 105
184 174 105
183 174 106
183 174 106
183 174 106
185 175 108
183 173 102
184 175 108
182 173 105
183 174 104
181 173 103
184 174 106
183 174 103
181 172 101
184 175 108
182 173 104
184 174 104
185 175 105
181 172 103
183 174 104
181 172 99
180 172 101
182 173 103
181 172 99
184 174 104
182 173 101
182 173 101
183 174 103
184 174 104
182 173 101
180 172 99
180 171 97
184 174 103
183 174 103
182 173 103
182 173 101
183 174 104
183 174 103
182 173 103
183 174 103
182 173 101
182 173 101
184 174 103
181 173 102
183 173 103
180 172 100
180 171 97
184 174 104
181 173 102
179 170 94
182 172 100
181 172 100
180 172 99
181 172 99
185 174 104
181 172 101
183 173 103
183 173 103
179 170 94
181 172 101
182 173 101
181 172 97
182 172 98
182 173 104
183 174 103
181 171 96
182 173 101
181 172 98
183 173 100
182 173 102
183 173 101
185 175 104
184 174 103
186 175 104
182 173 100
180 171 94
184 174 102
180 172 100
183 173 98
182 173 100
182 173 102
181 172 99
183 173 100
181 172 97
181 172 99
178 170 93
181 172 99
184 174 102
182 173 97
183 173 101
182 173 99
179 171 94
184 174 101
217 233 255
217 233 255
217 233 255
217 233 255
217 233 255
217 233 255
217 233 255
217 233 255
217 233 255
217 233 255
217 233 255
217 233 255
217 233 255
217 233 255
217 233 255
217 233 255
217 233 255
217 233 255
217 233 255
217 233 255
217 233 255
217 233 255
217 233 255
217 233 255
217 233 255
217 233 255
217 233 255
217 233 255
217 233 255
217 233 255
217 233 255
217 233 255
217 233 255
217 233 255
217 233 255
217 233 255
217 233 255
217 233 255
217 233 255
217 233 255
217 233 255
217 233 255
217 233 255
217 233 255
217 233 255
217 233 255
217 233 255
217 233 255
217 233 255
217 233 255
217 233 255
217 233 255
217 233 255
217 233 255
217 233 255
217 233 255
217 233 255
217 233 255
217 233 255
217 233 255
217 233 255
217 233 255
217 233 255
217 233 255
217 233 255
217 233 255
217 233 255
217 233 255
217 233 255
217 233 255
217 233 255
217 233 255
217 233 255
217 233 255
217 233 255
217 233 255
217 233 255
217 233 255
217 233 255
217 233 255
217 233 255
217 233 255
217 233 255
217 233 255
217 233 255
217 233 255
216 233 255
216 233 255
216 233 255
216 233 255
216 233 255
216 233 255
216 233 255
216 233 255
216 233 255
216 233 255
216 233 255
216 233 255
216 233 255
216 233 255
216 233 255
216 233 255
216 233 255
216 233 255
216 233 255
216 233 255
216 233 255
216 233 255
216 233 255
216 232 255
216 232 255
216 232 255
216 232 255
216 232 255
216 232 255
216 232 255
215 232 255
215 232 255
215 232 255
215 232 255
215 232 255
215 232 255
215 232 255
215 232 255
215 232 255
215 232 255
215 232 255
215 232 255
215 232 255
214 232 255
214 232 255
214 232 255
214 232 255
150 171 210
59 94 157
59 94 148
59 93 142
60 95 149
58 92 142
57 92 139
58 92 138
58 93 141
58 92 147
57 90 152
58 92 145
57 92 145
150 170 203
217 233 255
210 226 249
58 93 147
60 95 141
60 95 137
60 95 146
59 93 135
60 96 144
60 95 140
60 95 140
60 95 142
62 97 153
60 95 136
60 95 140
61 96 137
60 96 141
60 95 142
61 96 144
60 95 148
62 97 147
61 96 147
60 95 142
61 97 148
60 95 135
60 96 140
60 96 140
61 96 144
61 96 142
60 95 140
61 96 135
61 96 142
61 95 139
61 96 145
60 94 133
61 96 141
61 96 141
60 96 143
61 96 139
60 95 140
60 95 139
60 95 137
59 94 140
60 95 133
60 95 141
61 97 148
62 97 151
59 94 131
59 94 136
62 97 147
60 95 134
60 94 126
62 97 145
61 96 144
60 96 139
61 96 143
61 96 144
61 96 143
61 96 141
60 95 139
60 95 139
60 96 144
60 94 135
59 93 134
60 95 136
60 94 139
61 96 137
60 95 143
59 93 135
62 97 149
60 94 139
61 96 143
61 95 147
60 95 140
60 95 137
59 93 135
59 92 126
60 94 136
60 94 131
61 95 140
60 93 134
60 94 137
59 93 128
59 93 140
60 94 135
59 92 134
59 92 123
59 92 137
58 91 130
60 94 133
60 93 140
58 90 130
59 93 134
60 93 135
58 89 129
59 92 138
58 90 126
58 90 132
57 88 122
58 90 133
56 86 115
58 89 127
54 82 120
53 80 111
50 75 102
160 161 142
131 126 76
97 95 58
97 96 63
75 75 49
74 76 53
69 73 53
49 58 44
38 49 40
43 56 44
41 55 49
45 60 51
44 57 45
45 59 49
44 59 51
45 59 48
47 62 57
47 62 50
48 63 51
53 68 57
62 74 62
81 90 68
79 86 63
72 83 64
106 108 75
107 110 79
121 122 84
118 119 80
136 134 88
125 125 84
135 133 87
138 136 86
141 138 88
151 147 93
148 144 88
156 151 90
152 148 94
158 153 94
165 158 98
160 154 95
173 166 99
165 158 95
170 163 97
174 167 99
171 164 95
179 171 103
180 171 102
180 172 103
181 173 101
184 174 103
183 174 104
183 174 103
183 174 102
184 174 104
183 174 106
182 173 102
182 173 103
184 174 103
185 175 108
182 173 102
182 173 101
182 173 102
183 173 104
182 173 103
183 173 102
183 173 102
181 173 102
183 173 102
181 172 101
182 173 104
183 174 104
180 171 97
183 174 103
181 172 98
184 174 103
182 173 101
182 173 101
186 176 108
182 173 101
183 173 103
183 173 103
181 172 97
184 174 104
180 171 99
183 174 104
181 172 99
181 172 97
185 175 106
182 173 103
181 172 97
184 174 102
186 175 106
185 174 103
182 173 104
179 171 96
184 174 103
182 172 99
180 171 98
181 172 100
184 174 104
183 173 100
179 171 97
184 174 103
181 173 101
182 173 99
181 172 99
183 173 103
184 174 104
181 172 98
182 173 103
184 174 102
184 174 104
185 175 104
181 172 98
179 171 95
181 172 99
184 174 102
178 170 96
182 172 101
180 171 97
184 174 103
183 174 102
181 172 98
181 173 103
184 174 102
182 172 99
183 173 100
184 174 103
183 173 100
185 175 106
183 173 99
179 170 94
183 173 102
182 173 99
178 170 94
182 173 99
181 172 97
181 172 97
179 171 96
182 173 101
180 171 93
182 173 100
183 173 101
182 172 97
180 171 97
180 171 97
179 170 93
182 173 99
179 170 91
218 234 255
218 233 255
217 233 255
217 233 255
217 233 255
218 233 255
218 233 255
217 233 255
218 233 255
218 233 255
218 233 255
218 233 255
218 233 255
218 233 255
218 233 255
218 233 255
218 234 255
218 234 255
218 234 255
218 234 255
218 234 255
218 234 255
218 234 255
218 234 255
218 234 255
218 234 255
218 234 255
218 234 255
218 234 255
218 234 255
218 234 255
218 234 255
218 234 255
218 234 255
218 234 255
218 234 255
218 234 255
218 234 255
218 234 255
218 234 255
218 234 255
218 234 255
218 234 255
218 234 255
218 234 255
218 234 255
218 234 255
218 234 255
218 233 255
218 234 255
218 233 255
218 234 255
218 233 255
218 233 255
218 233 255
218 233 255
218 233 255
218 233 255
218 233 255
218 233 255
218 233 255
218 233 255
218 233 255
217 233 255
217 233 255
217 233 255
217 233 255
217 233 255
217 233 255
217 233 255
217 233 255
217 233 255
217 233 255
217 233 255
217 233 255
217 233 255
217 233 255
217 233 255
217 233 255
217 233 255
217 233 255
217 233 255
217 233 255
217 233 255
217 233 255
217 233 255
217 233 255
217 233 255
217 233 255
217 233 255
217 233 255
217 233 255
217 233 255
217 233 255
217 233 255
217 233 255
217 233 255
217 233 255
217 233 255
217 233 255
217 233 255
217 233 255
217 233 255
217 233 255
217 233 255
217 233 255
217 233 255
217 233 255
217 233 255
217 233 255
217 233 255
217 233 255
217 233 255
217 233 255
216 233 255
216 233 255
216 233 255
216 233 255
216 233 255
216 233 255
216 233 255
216 233 255
216 233 255
216 233 255
216 233 255
216 232 255
216 232 255
216 232 255
216 232 255
215 232 255
215 232 255
215 232 255
215 232 255
179 197 224
58 93 146
58 92 141
61 96 145
59 94 143
58 92 148
59 94 139
59 94 150
57 91 140
56 90 144
57 92 148
53 86 136
54 88 138
97 122 164
217 233 255
201 218 240
58 93 140
59 94 140
60 95 142
61 96 145
60 95 140
59 94 136
61 96 147
60 95 134
60 94 135
60 95 140
60 95 135
61 96 143
61 96 141
60 95 135
60 96 148
60 95 142
60 95 137
60 94 136
59 94 128
59 94 129
61 96 145
60 95 139
59 94 139
60 96 139
60 95 131
60 95 140
60 95 142
60 96 143
60 95 130
60 95 144
61 96 140
61 95 141
61 96 142
59 93 130
61 96 148
60 94 135
61 96 141
60 95 141
60 94 136
60 95 139
60 95 136
61 96 142
59 93 135
60 95 143
60 95 133
61 96 141
61 96 140
61 96 142
60 95 140
61 96 139
62 97 149
60 95 135
60 95 141
61 96 140
60 95 133
61 96 145
61 95 142
60 94 129
60 95 139
61 95 135
60 95 141
62 97 151
60 95 145
59 93 133
62 97 144
59 94 135
60 95 135
59 93 135
61 96 142
61 95 137
60 95 139
60 94 134
61 96 144
60 94 133
61 95 146
60 94 134
60 94 140
60 94 133
59 93 137
60 95 138
61 95 143
60 94 138
60 94 138
60 94 139
58 91 124
59 93 135
60 93 138
59 92 130
57 89 123
59 92 133
56 87 116
59 92 133
57 88 129
59 91 130
57 89 123
59 91 138
57 89 127
56 85 114
57 88 136
53 81 109
53 81 108
52 79 104
126 124 81
121 116 71
93 91 56
89 89 58
71 72 45
65 67 47
53 60 47
49 57 44
39 51 43
41 53 42
42 54 46
42 55 46
43 56 45
43 56 44
43 57 46
45 59 49
47 63 50
47 61 50
48 64 53
49 65 57
49 65 53
70 81 64
83 91 66
95 100 73
89 95 72
102 105 76
105 109 76
111 113 76
130 128 83
128 128 86
127 126 79
148 143 92
131 131 84
138 136 83
152 148 90
147 143 85
157 151 90
157 152 92
157 153 89
160 155 95
166 159 97
171 163 101
166 160 95
166 160 90
170 163 96
172 165 98
179 170 101
182 172 102
181 173 102
180 172 100
180 171 99
182 173 101
182 173 103
182 173 103
183 173 101
183 174 105
184 174 103
184 174 103
183 174 103
183 174 101
185 175 106
182 173 99
185 175 106
181 172 97
180 171 97
184 174 104
182 173 101
182 173 102
184 174 104
182 172 98
182 173 103
179 171 102
183 173 101
184 175 106
180 171 97
181 172 99
183 174 103
181 172 98
182 172 100
182 173 99
180 172 99
182 173 100
182 173 101
182 173 100
184 174 103
180 171 97
180 171 95
183 173 100
180 172 100
183 174 103
183 173 101
182 173 100
182 173 101
182 173 103
184 174 101
183 174 101
181 172 99
181 172 99
183 173 100
181 172 98
183 173 103
183 173 97
182 172 99
182 172 97
183 174 103
182 173 100
180 171 97
179 171 93
179 170 95
183 173 101
182 172 97
183 173 103
181 172 98
180 172 97
179 170 90
183 173 101
180 171 95
179 170 93
182 172 99
179 170 92
179 170 92
182 173 101
181 172 100
183 173 99
180 171 96
179 170 92
181 172 96
180 171 97
181 172 99
182 172 95
179 170 95
181 172 97
177 169 89
183 173 99
181 172 97
183 173 101
183 173 100
183 174 101
178 169 90
179 170 90
179 170 92
181 172 96
179 170 93
183 173 101
180 171 95
181 172 97
180 171 97
181 171 95
180 171 93
218 234 255
218 234 255
218 234 255
218 234 255
218 234 255
218 234 255
218 234 255
218 234 255
218 234 255
218 234 255
218 234 255
218 234 255
218 234 255
218 234 255
218 234 255
218 234 255
218 234 255
218 234 255
218 234 255
218 234 255
218 234 255
218 234 255
218 234 255
218 234 255
218 234 255
218 234 255
218 234 255
218 234 255
218 234 255
218 234 255
218 234 255
218 234 255
218 234 255
218 234 255
218 234 255
218 234 255
218 234 255
218 234 255
218 234 255
218 234 255
218 234 255
218 234 255
218 234 255
218 234 255
218 234 255
218 234 255
218 234 255
218 234 255
218 234 255
218 234 255
218 234 255
218 234 255
218 234 255
218 234 255
218 234 255
218 234 255
218 234 255
218 234 255
218 234 255
218 234 255
218 234 255
218 234 255
218 234 255
218 234 255
218 234 255
218 234 255
218 234 255
218 234 255
218 234 255
218 234 255
218 234 255
218 234 255
218 234 255
218 234 255
218 234 255
218 234 255
218 234 255
218 234 255
218 234 255
218 234 255
218 234 255
218 234 255
218 234 255
218 234 255
218 234 255
218 234 255
218 234 255
218 234 255
218 234 255
218 234 255
218 234 255
218 234 255
218 234 255
218 234 255
218 234 255
218 234 255
218 234 255
218 234 255
218 234 255
218 234 255
218 233 255
218 233 255
218 233 255
218 233 255
218 233 255
217 233 255
217 233 255
217 233 255
217 233 255
217 233 255
217 233 255
217 233 255
217 233 255
217 233 255
217 233 255
217 233 255
217 233 255
217 233 255
217 233 255
217 233 255
217 233 255
217 233 255
217 233 255
217 233 255
217 233 255
217 233 255
217 233 255
217 233 255
217 233 255
216 233 255
216 233 255
216 233 255
216 233 255
192 209 235
59 93 148
59 94 150
58 93 145
59 94 144
57 92 140
57 92 138
59 93 143
61 96 152
57 92 139
57 92 140
54 87 147
55 89 142
60 95 154
211 227 250
183 200 229
60 94 141
60 95 142
59 93 133
59 95 140
61 96 147
59 94 147
60 95 133
59 94 136
61 95 143
60 95 147
60 95 140
60 95 136
60 95 136
61 96 143
60 95 136
60 95 141
60 95 141
62 97 140
61 96 140
61 95 137
59 94 136
60 95 141
60 96 144
59 93 136
59 94 136
60 95 140
61 96 145
62 97 149
61 95 142
61 97 147
60 95 139
61 96 154
60 95 143
58 92 134
60 94 129
61 96 140
61 96 135
60 94 131
60 94 129
61 96 143
60 95 139
61 96 141
61 95 139
61 96 143
61 97 148
61 96 142
60 95 133
60 95 145
59 94 131
61 96 144
60 95 143
61 95 133
59 94 136
60 94 137
61 97 148
59 94 137
60 94 141
61 96 144
61 95 143
60 94 136
60 95 143
60 94 132
59 94 134
60 94 134
60 94 140
60 95 139
60 94 139
60 95 144
61 94 145
60 95 135
59 93 139
61 95 141
60 94 134
60 94 137
60 95 139
60 94 137
59 93 128
60 94 134
59 92 129
59 92 133
59 93 132
60 94 143
59 93 134
59 93 135
57 90 119
60 94 145
59 92 131
58 91 129
59 92 139
60 93 136
58 90 125
58 91 137
57 89 126
59 91 121
56 87 115
57 88 124
54 83 103
58 90 132
56 86 117
55 83 116
50 77 100
52 78 99
111 111 80
101 98 54
93 91 57
74 74 46
77 78 54
63 66 47
46 52 37
36 46 35
40 52 40
38 49 37
43 56 45
40 52 39
43 56 45
44 58 48
42 55 46
45 58 47
46 60 47
49 64 55
47 63 50
48 64 56
49 66 56
58 72 60
69 80 64
82 90 69
84 90 63
91 96 69
112 114 77
113 114 76
115 117 76
131 129 84
128 127 82
128 127 80
138 135 87
137 135 84
154 149 90
147 143 85
158 152 89
158 153 92
157 151 90
159 154 93
168 161 95
166 160 91
165 158 92
174 166 97
170 163 91
175 167 93
173 166 95
178 170 98
182 173 103
182 173 102
179 171 96
180 171 96
179 170 95
181 172 99
185 175 105
180 171 96
181 172 99
183 173 102
180 171 99
181 172 96
181 172 99
181 171 96
183 173 101
179 170 94
181 172 99
184 174 104
180 171 99
179 171 96
182 173 101
183 173 101
182 172 99
182 173 100
179 171 96
180 171 97
179 171 95
180 171 95
179 171 96
181 172 97
183 173 100
181 172 100
183 173 101
180 171 98
178 169 91
181 172 97
182 172 98
181 172 97
178 170 92
180 171 97
181 172 101
179 170 93
180 171 95
181 172 99
178 169 90
180 171 93
178 170 95
182 173 100
181 171 97
181 172 95
183 173 99
182 172 101
182 172 98
182 173 99
182 172 97
182 172 98
182 172 99
180 171 95
181 172 97
180 171 95
180 171 95
180 171 94
178 170 93
182 172 96
184 174 101
181 172 95
181 172 97
180 171 97
181 171 95
182 172 98
177 168 87
182 172 99
181 172 96
183 173 100
184 174 102
178 169 89
179 171 95
181 172 96
182 173 98
181 171 96
182 173 99
179 171 95
179 170 93
183 173 99
182 173 98
178 170 92
179 170 93
180 171 94
183 173 100
177 169 91
184 174 103
180 171 94
183 173 97
179 170 92
178 169 88
183 173 101
180 171 93
180 171 95
180 171 96
182 172 94
179 170 94
219 234 255
219 234 255
219 234 255
219 234 255
219 234 255
219 234 255
219 234 255
219 234 255
219 234 255
219 234 255
219 234 255
219 234 255
219 234 255
219 234 255
219 234 255
219 234 255
219 234 255
219 234 255
219 234 255
219 234 255
219 234 255
219 234 255
219 234 255
219 234 255
219 234 255
219 234 255
219 234 255
219 234 255
219 234 255
219 234 255
219 234 255
219 234 255
219 234 255
219 234 255
219 234 255
219 234 255
219 234 255
219 234 255
219 234 255
219 234 255
219 234 255
219 234 255
219 234 255
219 234 255
219 234 255
219 234 255
219 234 255
219 234 255
219 234 255
219 234 255
219 234 255
219 234 255
219 234 255
219 234 255
219 234 255
219 234 255
219 234 255
219 234 255
219 234 255
219 234 255
219 234 255
219 234 255
219 234 255
219 234 255
219 234 255
219 234 255
219 234 255
219 234 255
219 234 255
219 234 255
219 234 255
219 234 255
219 234 255
219 234 255
219 234 255
219 234 255
219 234 255
219 234 255
219 234 255
219 234 255
219 234 255
219 234 255
219 234 255
219 234 255
219 234 255
219 234 255
219 234 255
218 234 255
218 234 255
218 234 255
218 234 255
218 234 255
218 234 255
218 234 255
218 234 255
218 234 255
218 234 255
218 234 255
218 234 255
218 234 255
218 234 255
218 234 255
218 234 255
218 234 255
218 234 255
218 234 255
218 234 255
218 234 255
218 234 255
218 234 255
218 234 255
218 234 255
218 234 255
218 234 255
218 234 255
218 234 255
218 234 255
218 234 255
218 234 255
218 234 255
218 234 255
218 234 255
218 234 255
218 234 255
218 234 255
218 234 255
218 233 255
217 233 255
217 233 255
217 233 255
217 233 255
217 233 255
217 233 255
201 218 241
56 90 137
55 88 134
60 95 146
57 90 129
58 93 140
58 92 141
59 94 143
55 88 128
57 91 131
57 92 139
56 89 144
54 87 138
55 88 139
181 197 223
180 197 224
59 94 140
61 96 145
59 93 133
60 95 148
60 95 144
59 94 137
60 96 149
60 94 136
61 96 142
60 95 136
60 95 141
60 95 140
61 97 145
60 96 148
60 94 137
60 95 141
60 95 136
60 95 136
60 95 144
60 95 134
60 95 144
61 95 144
61 96 148
61 97 143
60 95 139
61 96 144
60 95 141
61 97 148
62 96 140
60 95 141
60 95 137
61 96 142
61 96 145
60 95 143
61 96 140
60 95 137
61 95 139
61 96 135
59 94 133
60 95 133
62 97 151
59 94 137
61 96 140
61 96 142
60 95 142
60 95 134
60 95 131
60 95 143
60 95 142
60 94 135
60 94 135
60 95 136
61 96 141
61 96 139
62 97 143
60 95 140
60 95 133
61 95 139
60 94 139
60 94 133
61 95 143
60 95 145
61 96 142
61 96 142
61 96 144
59 93 127
60 95 141
60 95 143
59 93 134
59 93 131
60 94 138
59 93 136
60 94 136
62 97 152
59 92 129
59 93 135
59 93 133
59 92 134
60 95 138
59 93 134
60 94 136
60 93 133
59 92 128
59 93 129
60 93 140
60 93 136
59 92 128
59 92 136
60 94 141
59 92 133
58 90 135
60 93 138
58 91 129
57 87 122
58 90 132
56 85 114
56 86 126
57 88 124
57 86 120
58 88 123
54 82 114
51 77 104
95 99 85
100 97 60
85 83 47
74 73 46
61 63 43
54 57 40
39 47 32
36 47 38
39 51 42
39 50 34
40 51 39
42 54 40
44 57 44
43 56 44
42 55 42
45 58 46
46 60 47
47 62 50
46 61 47
49 65 50
47 62 48
62 75 60
71 81 63
82 90 61
100 103 71
98 103 73
98 101 70
129 127 77
129 128 80
133 131 83
122 122 79
139 136 80
139 137 85
144 141 87
146 143 86
151 147 87
155 150 86
150 146 88
162 155 88
161 155 90
162 157 86
162 155 92
166 159 91
171 164 91
169 162 92
175 166 97
178 170 98
177 168 92
178 170 96
181 172 100
181 172 99
181 172 99
179 171 94
180 171 95
180 171 95
182 172 99
184 174 104
184 174 101
180 171 96
183 173 101
184 173 101
181 172 99
180 171 96
181 172 97
182 173 99
179 170 93
178 170 95
181 172 97
177 169 90
183 173 101
182 173 101
180 171 97
181 172 99
178 169 91
178 170 91
176 169 91
181 172 97
180 171 97
177 169 88
181 171 96
179 170 95
180 170 95
181 172 95
181 172 99
178 169 90
184 174 103
182 172 96
181 171 95
177 169 94
183 173 99
182 172 98
180 171 96
182 172 101
181 172 98
179 171 95
181 172 96
181 172 96
179 170 93
182 172 97
183 174 103
181 172 96
181 171 96
180 171 95
179 170 93
184 174 103
179 170 92
181 171 94
180 171 94
181 172 95
177 169 91
176 169 89
182 172 96
182 172 97
180 171 95
178 169 91
182 172 99
182 173 99
182 172 98
180 171 95
178 169 93
181 172 97
178 170 91
183 173 99
180 171 95
180 171 95
180 170 91
179 170 93
179 171 94
182 172 97
182 173 99
179 170 93
182 172 95
179 170 93
179 170 91
179 169 88
180 171 95
179 170 93
182 172 95
182 173 97
180 171 95
179 170 91
181 171 94
180 171 93
177 169 87
177 169 89
179 170 90
183 173 99
179 170 92
179 170 93
219 235 255
219 235 255
219 234 255
219 234 255
219 234 255
219 234 255
219 234 255
219 234 255
219 235 255
219 235 255
219 235 255
219 235 255
219 235 255
219 235 255
219 235 255
219 235 255
219 235 255
219 235 255
219 235 255
219 235 255
219 235 255
219 235 255
219 235 255
219 235 255
219 235 255
219 235 255
219 235 255
219 235 255
219 235 255
219 235 255
219 235 255
219 235 255
219 235 255
219 235 255
219 235 255
219 235 255
219 235 255
219 235 255
219 235 255
219 235 255
219 235 255
219 235 255
219 235 255
219 235 255
219 235 255
219 235 255
219 235 255
219 235 255
219 235 255
219 235 255
219 234 255
219 234 255
219 234 255
219 235 255
219 235 255
219 235 255
219 234 255
219 234 255
219 235 255
219 234 255
219 234 255
219 234 255
219 234 255
219 234 255
219 234 255
219 234 255
219 234 255
219 234 255
219 234 255
219 234 255
219 234 255
219 234 255
219 234 255
219 234 255
219 234 255
219 234 255
219 234 255
219 234 255
219 234 255
219 234 255
219 234 255
219 234 255
219 234 255
219 234 255
219 234 255
219 234 255
219 234 255
219 234 255
219 234 255
219 234 255
219 234 255
219 234 255
219 234 255
219 234 255
219 234 255
219 234 255
219 234 255
219 234 255
219 234 255
219 234 255
219 234 255
219 234 255
219 234 255
219 234 255
219 234 255
219 234 255
219 234 255
219 234 255
219 234 255
219 234 255
219 234 255
219 234 255
219 234 255
219 234 255
219 234 255
219 234 255
219 234 255
219 234 255
219 234 255
219 234 255
219 234 255
219 234 255
219 234 255
219 234 255
219 234 255
219 234 255
219 234 255
218 234 255
218 234 255
218 234 255
218 234 255
218 234 255
218 234 255
210 226 248
57 90 140
54 87 134
59 93 136
59 94 150
58 92 136
56 90 135
57 90 129
58 91 133
57 91 136
57 90 133
52 84 130
54 86 139
53 86 133
188 204 227
171 188 213
59 94 142
60 94 129
59 95 148
60 94 137
59 94 139
60 95 139
58 93 133
59 94 145
61 96 143
59 93 135
61 97 149
59 93 128
60 95 136
60 95 136
59 94 125
59 94 137
59 93 130
60 95 140
60 95 136
60 95 139
60 95 136
61 96 139
60 95 140
61 96 147
60 94 133
60 94 137
60 95 135
61 96 137
59 93 126
60 95 141
60 95 142
60 95 133
60 95 134
59 94 130
61 96 140
61 96 141
59 94 131
59 93 130
60 95 140
61 96 142
58 92 122
59 93 139
60 95 139
61 96 137
60 95 135
60 95 137
59 94 134
61 95 139
60 94 133
61 96 141
61 96 144
61 96 139
60 95 136
60 95 134
60 95 140
61 96 147
61 95 144
60 94 134
60 95 129
60 95 140
60 94 140
60 95 140
61 95 144
60 94 135
60 95 137
60 95 143
61 95 135
60 94 139
60 94 140
60 95 145
60 95 143
61 95 148
61 95 146
60 94 140
60 94 135
59 93 138
59 93 135
60 93 139
58 92 131
60 95 146
60 94 134
59 93 139
58 91 134
59 92 134
58 89 120
61 95 142
59 93 134
59 92 130
59 92 131
58 92 136
59 93 139
59 91 136
59 91 134
58 90 128
58 89 129
56 87 122
59 91 135
57 88 122
54 84 116
55 84 117
55 84 112
52 78 107
79 85 82
90 87 49
80 79 47
67 68 44
60 62 41
42 49 36
28 36 26
32 41 26
36 47 33
40 52 41
38 50 40
41 54 41
44 57 45
44 57 45
42 55 44
46 61 47
45 59 48
47 63 51
48 63 50
49 65 51
48 65 57
48 64 50
62 74 60
77 84 61
89 94 69
109 110 72
116 116 75
101 105 73
121 121 74
134 132 82
119 120 76
133 131 81
142 139 82
127 127 74
142 139 81
146 143 84
149 145 80
154 149 88
149 145 80
163 157 92
158 152 87
160 154 86
166 159 88
165 158 91
168 162 91
168 161 90
177 168 93
175 167 94
177 169 95
173 165 86
180 171 98
180 171 98
180 171 93
180 170 94
182 172 100
177 169 93
180 171 95
181 171 95
176 168 87
182 173 97
182 173 98
179 170 94
177 169 92
178 170 93
179 170 93
179 170 95
182 172 97
180 171 93
177 169 90
179 170 93
178 169 90
181 172 98
175 167 90
181 171 96
179 170 92
181 171 94
178 170 93
181 171 95
178 170 92
180 171 96
180 171 94
181 172 95
183 173 97
183 173 98
181 171 95
179 171 97
178 170 93
181 171 95
182 172 100
180 171 95
175 167 85
181 171 95
181 172 97
181 171 94
181 171 94
181 171 97
180 171 93
183 173 101
179 170 90
177 169 89
182 172 96
180 171 95
180 171 93
178 170 91
181 172 97
177 169 88
184 174 101
182 172 98
180 171 94
178 170 91
180 171 93
179 170 93
178 170 90
180 171 95
182 172 96
184 174 101
177 169 91
179 170 92
182 172 97
180 171 96
181 172 97
180 171 95
180 171 93
179 170 92
178 169 90
177 169 91
177 169 87
179 170 93
179 170 92
179 170 95
176 168 88
181 172 97
181 171 94
180 171 92
178 169 90
179 170 91
180 171 93
181 171 95
179 170 91
178 170 91
181 172 95
179 170 93
178 169 90
179 170 91
183 172 96
182 172 97
182 172 96
178 169 88
179 170 93
220 235 255
220 235 255
220 235 255
220 235 255
220 235 255
220 235 255
220 235 255
220 235 255
220 235 255
220 235 255
220 235 255
220 235 255
220 235 255
220 235 255
220 235 255
220 235 255
220 235 255
220 235 255
220 235 255
220 235 255
220 235 255
220 235 255
220 235 255
220 235 255
220 235 255
220 235 255
220 235 255
220 235 255
220 235 255
220 235 255
220 235 255
220 235 255
220 235 255
220 235 255
220 235 255
220 235 255
220 235 255
220 235 255
220 235 255
220 235 255
220 235 255
220 235 255
220 235 255
220 235 255
220 235 255
220 235 255
220 235 255
220 235 255
220 235 255
220 235 255
220 235 255
220 235 255
220 235 255
220 235 255
220 235 255
220 235 255
220 235 255
220 235 255
220 235 255
220 235 255
220 235 255
220 235 255
220 235 255
220 235 255
220 235 255
220 235 255
220 235 255
220 235 255
220 235 255
220 235 255
220 235 255
220 235 255
220 235 255
220 235 255
220 235 255
220 235 255
220 235 255
220 235 255
220 235 255
220 235 255
220 235 255
220 235 255
220 235 255
220 235 255
220 235 255
220 235 255
220 235 255
220 235 255
220 235 255
220 235 255
220 235 255
220 235 255
220 235 255
220 235 255
220 235 255
220 235 255
220 235 255
220 235 255
220 235 255
220 235 255
220 235 255
220 235 255
220 235 255
220 235 255
220 235 255
220 235 255
220 235 255
220 235 255
220 235 255
220 235 255
220 235 255
220 235 255
220 235 255
220 235 255
220 235 255
220 235 255
220 235 255
220 235 255
220 235 255
220 235 255
220 235 255
219 235 255
220 235 255
219 235 255
219 235 255
219 235 255
219 235 255
219 234 255
219 234 255
219 234 255
219 234 255
219 234 255
219 234 255
214 229 251
58 92 140
55 88 128
58 92 135
57 91 129
57 91 126
58 92 134
58 92 139
58 92 144
55 87 128
53 86 124
53 85 122
52 84 136
53 86 126
159 176 203
161 179 205
60 95 140
58 92 128
58 92 133
60 95 140
59 94 128
61 96 142
60 95 139
59 94 136
60 95 139
59 94 131
60 95 145
61 95 142
60 95 136
61 95 139
59 93 131
58 92 121
60 95 134
60 94 136
61 96 147
59 94 133
60 94 133
59 93 131
61 95 137
60 95 135
61 96 140
60 95 139
59 93 131
60 95 133
60 95 136
59 94 133
60 94 140
61 96 141
60 94 136
62 97 149
59 94 126
60 95 136
59 94 140
61 96 140
61 95 136
61 96 139
62 97 149
61 96 140
61 96 147
60 94 135
59 94 122
60 94 139
60 94 133
60 95 133
59 94 140
60 94 135
59 93 126
61 96 146
61 95 141
61 96 140
61 96 148
61 96 150
60 94 138
61 95 144
60 95 135
59 93 133
60 95 136
59 93 132
60 95 137
60 94 129
59 94 136
62 97 147
61 96 136
60 95 137
59 93 130
59 93 134
60 94 137
58 92 135
58 92 125
60 94 135
59 94 135
59 93 132
59 93 138
62 96 150
60 94 140
59 92 130
59 92 126
60 94 137
59 92 134
58 91 125
59 93 128
58 91 135
58 91 130
60 93 130
60 93 129
59 91 132
59 91 136
57 88 118
58 90 132
60 92 133
56 88 127
56 86 119
59 90 133
55 85 121
55 84 117
58 89 116
52 80 111
50 77 102
87 93 78
98 95 53
73 73 40
55 56 33
41 44 29
36 43 32
36 47 37
35 45 36
33 44 30
36 47 32
43 55 40
38 50 33
43 56 41
42 54 40
45 59 46
45 60 47
48 63 50
46 60 46
47 62 49
49 65 53
50 65 53
51 68 58
61 72 53
73 83 62
83 90 65
94 98 65
110 111 70
106 107 64
116 116 66
116 117 73
121 122 74
132 130 80
138 135 76
135 133 80
148 144 85
141 138 82
156 151 89
157 151 90
161 155 89
152 148 82
164 157 92
168 161 90
168 161 85
165 159 83
171 164 92
173 165 92
174 166 90
177 168 93
179 170 93
178 169 90
180 171 97
177 169 91
176 168 90
179 170 93
180 170 92
177 169 89
180 171 96
180 171 94
181 172 96
181 171 95
180 171 93
178 169 91
178 169 90
176 168 88
177 168 90
179 170 92
180 170 94
175 167 87
177 168 87
179 170 93
182 172 98
180 171 95
177 168 90
179 171 95
178 169 89
180 171 93
181 171 95
182 173 98
178 169 88
182 173 100
177 169 89
178 169 91
180 171 93
180 171 93
178 169 92
179 170 94
179 170 92
180 171 95
179 171 93
180 170 91
179 170 93
177 169 90
178 169 93
178 169 91
178 170 89
180 171 94
181 171 92
180 170 93
179 170 94
180 171 93
180 171 93
177 169 88
180 170 92
178 169 88
182 172 97
180 171 94
180 171 93
180 171 93
178 170 91
177 169 90
180 171 93
180 171 94
179 170 93
177 168 87
177 169 88
177 168 88
182 172 98
181 171 97
180 171 94
180 170 91
178 170 94
179 170 93
178 170 91
182 172 97
177 168 90
180 171 93
178 169 92
176 168 88
178 169 90
180 170 95
180 171 95
176 168 88
181 171 93
181 171 95
181 171 95
179 170 91
181 171 95
181 171 92
179 170 90
179 170 90
179 169 89
179 170 90
180 171 93
178 169 90
178 169 90
182 172 97
179 170 92
181 171 93
178 169 91
221 235 255
221 235 255
221 235 255
221 235 255
221 235 255
221 235 255
221 235 255
221 235 255
221 235 255
221 235 255
221 235 255
221 235 255
221 235 255
221 235 255
221 235 255
221 235 255
221 235 255
221 235 255
221 235 255
221 235 255
221 235 255
221 235 255
221 235 255
221 235 255
221 235 255
221 235 255
221 235 255
221 235 255
221 235 255
221 235 255
221 235 255
221 235 255
221 235 255
221 235 255
221 235 255
221 235 255
221 235 255
221 235 255
221 235 255
221 235 255
221 235 255
221 235 255
221 235 255
221 235 255
221 235 255
221 235 255
221 235 255
221 235 255
221 235 255
221 235 255
221 235 255
221 235 255
221 235 255
221 235 255
221 235 255
221 235 255
221 235 255
221 235 255
221 235 255
221 235 255
221 235 255
221 235 255
221 235 255
221 235 255
221 235 255
221 235 255
221 235 255
221 235 255
221 235 255
221 235 255
221 235 255
221 235 255
221 235 255
221 235 255
221 235 255
221 235 255
221 235 255
221 235 255
221 235 255
221 235 255
221 235 255
221 235 255
221 235 255
221 235 255
221 235 255
220 235 255
221 235 255
221 235 255
221 235 255
221 235 255
221 235 255
221 235 255
221 235 255
221 235 255
221 235 255
220 235 255
220 235 255
220 235 255
220 235 255
220 235 255
220 235 255
220 235 255
221 235 255
220 235 255
220 235 255
220 235 255
220 235 255
220 235 255
220 235 255
220 235 255
221 235 255
220 235 255
220 235 255
220 235 255
220 235 255
220 235 255
220 235 255
220 235 255
220 235 255
220 235 255
220 235 255
220 235 255
220 235 255
220 235 255
220 235 255
220 235 255
220 235 255
220 235 255
220 235 255
220 235 255
220 235 255
220 235 255
220 235 255
219 234 255
56 90 131
53 85 124
59 93 139
59 94 145
58 93 142
57 90 133
57 91 145
56 90 130
56 90 129
57 91 144
52 84 131
53 84 122
53 84 128
146 165 197
161 178 198
58 92 127
60 95 136
61 95 137
60 94 134
58 92 129
59 94 135
60 95 133
59 93 133
59 94 136
59 94 137
59 94 129
60 95 139
61 96 147
60 95 140
61 96 142
60 95 142
60 94 128
60 95 139
59 93 135
60 94 134
61 96 148
59 93 136
60 95 133
60 95 144
60 94 129
59 93 128
59 94 126
62 97 149
60 95 141
60 94 130
59 94 129
61 96 145
59 93 130
61 96 139
61 96 149
59 93 128
60 95 134
60 94 131
60 94 133
60 95 135
60 95 135
59 92 130
59 93 131
60 95 135
60 95 134
60 95 137
59 93 133
61 95 134
60 94 129
59 93 126
61 96 134
60 94 136
61 95 143
60 95 144
60 94 135
59 93 124
60 94 128
61 95 135
60 95 136
59 93 131
60 94 129
60 94 136
59 93 128
59 93 133
60 95 134
60 94 132
60 94 137
61 96 142
61 95 146
60 93 133
59 93 129
60 94 137
59 93 140
60 94 144
60 94 143
60 94 140
59 93 131
60 93 133
59 93 135
60 94 137
59 92 125
59 93 131
57 90 129
59 93 128
58 91 128
58 89 121
58 91 133
59 92 137
57 89 123
58 91 126
58 90 122
59 92 132
59 92 138
59 92 136
59 91 138
57 88 122
55 85 114
55 86 117
55 84 103
52 80 110
51 78 104
53 80 105
81 88 75
94 92 49
71 71 38
48 51 34
38 43 28
28 35 21
29 38 27
29 38 27
37 48 37
39 50 35
39 51 38
39 51 35
41 52 38
42 55 40
44 58 46
44 57 43
44 58 47
46 60 48
47 62 45
47 63 52
46 61 43
47 62 50
55 67 49
71 81 58
93 97 61
104 107 70
105 107 65
124 124 73
117 118 73
116 118 67
132 130 77
129 128 75
131 130 78
121 121 69
146 142 83
143 140 81
142 140 76
149 145 80
158 152 83
159 153 87
154 149 86
161 156 82
164 157 86
172 164 92
169 161 86
169 163 79
177 168 91
174 166 86
177 168 90
176 168 88
177 168 89
174 167 86
176 168 87
180 171 93
182 172 97
174 166 89
177 168 89
177 169 90
176 167 85
177 168 90
176 168 88
176 168 90
178 169 90
178 169 92
182 172 98
180 170 93
178 169 90
175 168 85
179 170 93
179 170 89
178 169 89
180 171 95
178 169 89
176 168 86
175 167 86
179 170 90
176 167 85
179 169 91
182 172 96
178 169 87
181 172 96
179 170 93
179 170 90
181 171 95
178 170 90
178 170 89
178 169 90
183 173 97
179 170 93
178 169 89
178 169 86
177 168 89
180 170 91
176 168 87
176 168 87
179 170 93
176 167 86
179 170 90
182 172 95
177 169 91
178 169 87
179 170 93
178 169 90
180 171 93
179 170 90
182 172 95
178 169 90
183 172 97
179 170 93
180 171 92
177 169 87
179 170 92
178 169 90
178 169 89
181 171 93
178 170 91
179 170 90
179 170 90
177 168 88
180 171 93
179 169 93
176 168 86
179 170 89
178 169 90
182 172 96
179 170 93
178 169 90
177 169 90
181 171 95
179 170 87
179 170 90
177 169 91
177 168 87
178 169 87
178 169 90
180 170 92
179 170 89
179 169 90
178 170 92
178 169 90
181 171 94
180 171 93
179 170 93
177 168 87
181 171 93
179 170 92
180 170 91
181 172 95
180 171 95
221 236 255
221 236 255
221 236 255
221 236 255
221 236 255
221 236 255
221 236 255
221 236 255
221 236 255
221 236 255
221 236 255
221 236 255
221 236 255
221 236 255
221 236 255
221 236 255
221 236 255
221 236 255
221 236 255
221 236 255
221 236 255
221 236 255
221 236 255
221 236 255
221 236 255
221 236 255
221 236 255
221 236 255
221 236 255
221 236 255
221 236 255
221 236 255
221 236 255
221 236 255
221 236 255
221 236 255
221 236 255
221 236 255
221 236 255
221 236 255
221 236 255
221 236 255
221 236 255
221 236 255
221 236 255
221 236 255
221 236 255
221 236 255
221 236 255
221 236 255
221 236 255
221 236 255
221 236 255
221 236 255
221 236 255
221 236 255
221 236 255
221 236 255
221 236 255
221 236 255
221 236 255
221 236 255
221 236 255
221 236 255
221 236 255
221 236 255
221 236 255
221 236 255
221 236 255
221 236 255
221 236 255
221 236 255
221 236 255
221 236 255
221 236 255
221 236 255
221 236 255
221 235 255
221 236 255
221 236 255
221 236 255
221 236 255
221 236 255
221 236 255
221 236 255
221 236 255
221 236 255
221 236 255
221 236 255
221 236 255
221 236 255
221 235 255
221 236 255
221 236 255
221 236 255
221 236 255
221 236 255
221 236 255
221 236 255
221 236 255
221 236 255
221 236 255
221 236 255
221 236 255
221 236 255
221 236 255
221 236 255
221 236 255
221 236 255
221 236 255
221 236 255
221 236 255
221 236 255
221 235 255
221 236 255
221 236 255
221 236 255
221 236 255
221 236 255
221 236 255
221 236 255
221 236 255
221 236 255
221 236 255
221 236 255
221 236 255
221 236 255
221 235 255
221 236 255
221 236 255
221 236 255
221 236 255
221 236 255
219 234 254
56 90 131
53 86 124
58 93 127
57 91 143
58 92 133
56 90 132
58 92 140
55 88 124
56 90 125
54 87 135
53 85 125
51 82 123
50 81 128
140 158 192
153 171 200
58 92 129
58 92 135
58 92 126
60 95 139
59 93 137
59 93 135
60 95 136
59 94 131
59 94 133
59 93 131
59 93 125
60 95 134
58 93 128
61 95 137
59 94 125
61 96 141
60 94 136
60 95 134
58 92 130
60 94 135
59 94 133
59 93 130
61 95 142
59 93 130
61 96 144
60 94 133
62 97 147
59 94 134
59 93 124
60 95 133
60 95 141
61 96 140
59 93 126
60 96 144
59 94 136
61 96 143
61 96 140
58 92 117
59 93 122
60 94 131
60 95 141
60 95 135
61 96 137
61 95 142
58 92 131
60 95 135
61 96 144
60 95 141
60 94 141
61 96 140
58 92 133
60 95 131
60 94 137
60 94 133
58 92 128
60 95 135
60 94 135
60 95 133
61 95 140
60 95 130
60 94 139
60 94 131
59 94 137
60 95 138
60 94 129
60 95 138
59 92 128
58 92 115
60 94 140
60 94 128
59 93 133
60 95 136
60 94 133
59 94 139
60 94 137
60 93 131
59 93 130
60 94 133
59 93 138
60 94 140
59 92 124
58 91 132
60 94 137
58 91 118
59 94 140
58 91 121
60 93 137
57 89 120
60 93 136
58 90 125
59 92 129
58 89 109
57 88 127
56 87 113
56 87 120
59 91 128
55 84 112
57 86 115
52 81 105
54 83 117
50 77 97
50 75 101
80 87 80
94 92 46
62 61 32
50 52 25
53 54 32
29 37 22
28 37 23
31 41 26
31 40 27
36 47 35
34 43 29
40 53 40
40 53 40
39 50 39
43 56 43
42 56 42
44 57 41
44 59 40
49 64 53
45 59 45
45 59 41
46 62 49
59 73 52
65 76 54
82 89 62
88 94 63
95 100 70
109 110 67
116 117 68
114 116 74
124 123 68
132 131 74
143 139 78
134 131 74
129 127 73
146 141 77
141 138 75
148 144 79
146 142 79
157 151 82
151 146 75
160 153 86
158 152 82
169 162 91
167 160 83
170 163 80
172 165 86
177 167 93
175 167 90
175 167 85
177 168 90
174 166 87
181 171 96
177 168 92
177 169 88
180 171 93
179 170 90
174 166 85
179 169 88
178 169 88
178 169 91
176 168 84
175 168 89
179 170 90
177 168 90
178 169 92
179 170 90
175 167 86
174 166 84
179 170 92
179 170 91
179 170 90
176 168 87
179 170 92
180 170 93
180 171 92
174 166 85
177 168 87
175 167 82
178 169 87
176 167 83
179 169 91
178 169 88
177 168 87
177 168 84
181 171 95
182 172 96
177 169 88
174 166 83
181 171 93
178 169 89
179 170 90
178 169 85
179 170 89
176 168 87
178 169 89
178 169 90
177 169 87
176 167 84
177 168 88
179 170 91
176 168 87
181 171 93
173 165 76
179 170 91
176 168 84
182 172 96
179 170 92
180 171 93
182 172 95
178 169 90
179 169 90
180 170 94
179 170 91
178 169 90
179 170 90
178 169 89
179 170 92
179 170 91
178 169 88
175 167 80
177 168 84
179 170 93
180 170 90
178 169 88
180 170 92
180 171 93
180 171 91
178 169 90
175 167 87
176 167 84
178 169 89
180 171 95
174 167 80
179 170 90
178 169 87
180 170 92
175 167 83
177 169 89
180 170 92
178 169 87
180 170 92
178 169 86
180 170 93
181 171 93
178 169 90
176 168 85
179 170 90
182 172 95
222 236 255
222 236 255
222 236 255
222 236 255
222 236 255
222 236 255
222 236 255
222 236 255
222 236 255
222 236 255
222 236 255
222 236 255
222 236 255
222 236 255
222 236 255
222 236 255
222 236 255
222 236 255
222 236 255
222 236 255
222 236 255
222 236 255
222 236 255
222 236 255
222 236 255
222 236 255
222 236 255
222 236 255
222 236 255
222 236 255
222 236 255
222 236 255
222 236 255
222 236 255
222 236 255
222 236 255
222 236 255
222 236 255
222 236 255
222 236 255
222 236 255
222 236 255
222 236 255
222 236 255
222 236 255
222 236 255
222 236 255
222 236 255
222 236 255
222 236 255
222 236 255
222 236 255
222 236 255
222 236 255
222 236 255
222 236 255
222 236 255
222 236 255
222 236 255
222 236 255
222 236 255
222 236 255
222 236 255
222 236 255
222 236 255
222 236 255
222 236 255
222 236 255
222 236 255
222 236 255
222 236 255
222 236 255
222 236 255
222 236 255
222 236 255
222 236 255
222 236 255
222 236 255
222 236 255
222 236 255
222 236 255
222 236 255
222 236 255
222 236 255
222 236 255
222 236 255
222 236 255
222 236 255
222 236 255
222 236 255
222 236 255
222 236 255
222 236 255
222 236 255
222 236 255
222 236 255
222 236 255
222 236 255
222 236 255
222 236 255
222 236 255
222 236 255
222 236 255
222 236 255
222 236 255
222 236 255
222 236 255
222 236 255
222 236 255
222 236 255
222 236 255
222 236 255
222 236 255
222 236 255
222 236 255
222 236 255
222 236 255
222 236 255
222 236 255
222 236 255
222 236 255
222 236 255
222 236 255
222 236 255
222 236 255
222 236 255
222 236 255
222 236 255
222 236 255
222 236 255
222 236 255
222 236 255
222 236 255
221 235 255
57 90 128
51 81 122
57 91 124
59 93 141
58 92 131
57 90 129
58 92 131
55 88 122
56 89 131
55 87 128
50 81 125
50 81 131
55 88 133
152 168 191
147 165 191
61 96 147
59 93 129
59 94 138
59 93 125
59 94 131
60 95 137
60 94 139
60 95 136
59 93 133
59 93 139
58 92 124
60 95 141
60 94 129
60 95 134
60 95 128
60 95 139
60 94 135
60 95 143
59 94 139
60 95 135
61 96 140
60 95 140
60 95 140
61 95 140
59 94 137
60 95 134
59 93 117
59 94 131
59 94 118
59 94 128
60 95 136
58 93 124
60 94 131
61 95 144
60 95 131
60 94 133
60 95 133
58 92 125
61 95 140
59 93 134
58 92 114
60 94 134
60 95 136
59 93 129
60 95 141
59 94 140
60 95 129
59 93 134
59 94 135
60 94 134
60 95 136
58 92 126
59 94 135
59 93 130
59 93 134
61 96 143
59 93 129
60 95 135
58 92 124
61 95 139
59 93 124
60 94 141
59 93 134
60 94 145
59 93 129
60 94 134
58 91 112
59 93 133
60 94 146
59 92 127
60 94 130
59 93 140
58 92 119
60 94 134
60 94 132
60 94 132
59 92 122
61 94 140
60 93 130
59 93 131
60 94 140
59 92 128
59 92 138
59 92 138
59 93 139
57 90 127
58 91 126
57 90 121
58 90 118
57 89 115
56 88 114
58 89 129
58 89 121
58 90 124
57 88 116
57 88 122
56 87 116
56 88 122
54 83 101
54 83 111
50 77 97
49 75 94
78 86 83
89 86 46
71 70 34
63 64 33
35 40 22
29 36 21
32 42 25
34 44 30
34 44 34
36 47 31
39 50 32
39 51 36
40 53 41
41 53 41
40 53 35
42 55 34
45 60 43
46 61 48
44 58 43
48 63 48
50 65 50
48 65 49
57 69 48
74 81 53
88 93 56
94 99 61
91 95 63
105 108 68
112 113 66
109 111 61
114 115 63
115 117 71
133 131 72
123 123 64
148 143 78
144 140 78
142 139 70
147 142 81
153 148 77
155 150 81
156 151 83
154 149 79
158 152 84
161 155 84
173 165 84
169 162 81
165 159 75
176 167 90
172 165 80
170 162 82
170 163 78
175 167 84
174 166 85
169 162 76
174 166 84
178 169 84
179 169 93
176 167 84
174 167 86
175 167 81
179 169 90
177 168 88
179 169 87
174 166 85
176 167 90
173 165 81
175 167 84
174 165 85
180 171 93
177 168 88
173 165 77
179 169 86
175 167 82
178 169 90
176 168 88
180 170 93
175 167 85
177 168 89
178 170 91
178 168 89
178 169 86
179 170 89
176 168 85
175 167 82
179 170 93
177 168 89
177 168 88
175 167 83
175 167 84
176 168 85
177 169 88
177 168 87
179 170 89
177 168 84
175 167 84
174 166 82
177 168 87
176 167 82
175 167 84
177 168 85
180 170 91
178 169 88
178 169 86
177 169 87
179 169 87
178 169 90
177 168 88
179 170 89
182 172 93
177 168 86
178 169 87
177 168 86
177 168 86
174 166 80
177 169 90
180 170 90
174 166 82
178 169 88
179 170 89
180 170 92
176 168 87
182 172 94
175 166 84
182 172 94
178 169 87
179 170 91
177 168 84
179 170 89
179 170 89
177 168 83
179 170 88
177 168 86
176 168 84
179 170 90
175 166 80
177 169 87
181 171 93
180 171 95
176 168 87
179 170 90
175 167 84
177 168 87
178 169 86
179 170 90
179 170 90
179 170 92
179 170 93
175 167 83
178 170 91
222 236 255
222 236 255
222 236 255
222 236 255
222 236 255
222 236 255
222 236 255
222 236 255
222 236 255
222 236 255
222 236 255
222 236 255
222 236 255
222 236 255
222 236 255
222 236 255
222 236 255
222 236 255
222 236 255
222 236 255
222 236 255
222 236 255
222 236 255
222 236 255
222 236 255
222 236 255
222 236 255
222 236 255
222 236 255
222 236 255
222 236 255
222 236 255
222 236 255
222 236 255
222 236 255
222 236 255
222 236 255
222 236 255
222 236 255
222 236 255
222 236 255
222 236 255
222 236 255
222 236 255
222 236 255
222 236 255
222 236 255
222 236 255
222 236 255
222 236 255
222 236 255
222 236 255
222 236 255
222 236 255
222 236 255
222 236 255
222 236 255
222 236 255
222 236 255
222 236 255
222 236 255
222 236 255
222 236 255
222 236 255
222 236 255
222 236 255
222 236 255
222 236 255
222 236 255
222 236 255
222 236 255
222 236 255
222 236 255
222 236 255
222 236 255
222 236 255
222 236 255
222 236 255
222 236 255
223 236 255
222 236 255
222 236 255
223 236 255
223 236 255
223 236 255
222 236 255
223 236 255
223 236 255
223 236 255
223 236 255
223 236 255
223 236 255
223 236 255
223 236 255
223 236 255
223 236 255
223 236 255
223 236 255
223 236 255
223 236 255
223 236 255
223 236 255
223 236 255
223 236 255
223 236 255
223 236 255
223 236 255
223 236 255
223 236 255
223 236 255
223 236 255
223 236 255
223 236 255
223 236 255
223 236 255
223 236 255
223 236 255
223 236 255
223 236 255
223 236 255
223 236 255
223 236 255
223 236 255
223 236 255
223 237 255
223 237 255
223 237 255
223 237 255
223 237 255
223 237 255
223 237 255
223 237 255
223 237 255
217 230 249
57 90 121
55 88 118
58 92 126
56 90 121
58 92 128
55 88 121
54 87 113
59 93 136
54 86 119
54 87 114
54 86 108
51 81 114
49 78 113
163 179 201
162 179 203
57 91 124
59 94 135
58 92 126
58 93 129
59 94 136
60 95 140
59 93 131
60 95 140
60 94 131
60 96 142
58 92 125
60 96 137
60 94 131
59 93 122
60 95 136
60 94 130
60 95 141
60 94 131
62 97 150
60 95 130
59 93 125
61 96 140
60 95 135
59 93 124
60 94 129
59 94 136
60 94 131
59 93 136
59 93 136
60 95 143
60 94 131
60 95 130
59 94 128
59 93 129
61 97 145
58 93 122
60 95 135
60 94 129
60 95 135
59 93 122
60 95 136
59 93 128
59 93 126
60 95 136
59 93 124
60 95 131
59 93 129
60 95 133
60 95 139
60 94 139
62 97 150
57 91 114
60 94 126
59 93 128
59 94 131
59 94 131
60 94 134
58 92 120
60 94 136
59 92 126
59 93 131
59 93 128
60 94 133
60 94 135
60 94 133
60 93 134
60 94 140
57 91 132
58 92 120
60 95 135
58 93 131
58 92 127
59 93 133
61 95 140
58 92 128
59 92 141
60 93 121
58 91 122
60 93 132
59 92 132
58 91 123
58 91 119
59 92 131
59 92 134
59 93 133
57 90 120
59 92 134
58 91 129
57 90 120
59 93 130
57 88 118
59 92 131
58 90 124
55 86 112
57 87 125
57 87 120
55 84 106
54 83 120
53 80 108
54 82 109
52 80 109
50 75 87
76 83 63
93 90 46
76 75 39
55 57 24
38 41 24
27 34 19
31 39 24
30 39 28
32 41 26
36 46 32
36 46 31
40 51 34
39 50 34
44 56 34
42 53 35
40 53 38
45 59 41
44 59 43
47 61 45
46 60 40
48 63 48
49 64 49
51 65 39
70 78 54
83 89 52
100 104 60
101 103 62
104 107 63
120 119 65
117 118 62
113 114 67
126 125 72
117 117 64
131 129 69
144 140 79
138 135 76
139 135 77
146 142 76
153 148 79
153 149 74
152 147 77
159 153 80
167 159 83
155 150 78
171 162 85
172 165 83
169 161 83
172 164 84
172 165 78
179 169 90
173 165 80
177 168 87
174 166 83
175 166 84
172 164 78
174 166 83
173 165 75
178 169 86
174 166 81
177 168 87
172 164 78
178 169 88
178 169 87
176 167 84
176 168 84
173 166 80
176 167 87
175 167 86
175 167 83
178 169 87
177 168 86
177 168 87
176 168 84
176 167 83
175 166 82
176 168 84
175 167 82
175 166 84
178 168 89
173 165 78
177 168 87
176 168 84
176 167 81
174 166 82
175 167 84
179 169 87
179 169 90
178 169 87
177 168 84
176 167 84
177 168 86
178 169 90
175 167 79
174 166 80
180 171 94
177 168 87
179 170 91
177 168 85
180 170 91
180 170 93
170 163 78
176 167 82
178 169 87
176 167 82
176 167 86
175 166 84
177 168 84
177 168 85
180 170 92
175 166 84
176 168 84
176 168 84
178 169 90
176 168 86
174 166 77
179 170 90
178 169 87
178 169 87
174 166 80
178 169 86
178 169 88
177 169 88
175 167 82
175 166 83
176 168 84
176 167 84
176 167 84
179 170 87
178 169 90
179 170 90
175 168 84
178 169 85
180 171 92
176 167 84
175 167 84
176 168 85
179 169 86
181 171 92
178 169 88
180 170 90
178 170 91
178 169 90
178 169 89
178 169 89
176 167 85
178 169 89
177 168 84
178 169 89
177 168 84
223 237 255
223 237 255
223 237 255
223 237 255
223 237 255
223 237 255
223 237 255
223 237 255
223 237 255
223 237 255
223 237 255
223 237 255
223 237 255
223 237 255
223 237 255
223 237 255
223 237 255
223 237 255
223 237 255
223 237 255
223 237 255
223 237 255
223 237 255
223 237 255
223 237 255
223 237 255
223 237 255
223 237 255
223 237 255
223 236 255
223 236 255
223 236 255
223 237 255
223 237 255
223 237 255
223 237 255
223 237 255
223 236 255
223 237 255
223 236 255
223 237 255
223 237 255
223 237 255
223 237 255
223 237 255
223 237 255
223 237 255
223 237 255
223 237 255
223 237 255
223 237 255
223 237 255
223 237 255
223 237 255
223 237 255
223 237 255
223 237 255
223 237 255
223 237 255
223 237 255
223 237 255
223 237 255
223 237 255
223 237 255
223 237 255
223 237 255
223 237 255
223 237 255
223 237 255
223 237 255
223 237 255
223 237 255
223 237 255
223 237 255
223 237 255
223 237 255
223 237 255
223 237 255
223 237 255
223 237 255
223 237 255
223 237 255
223 237 255
223 237 255
223 237 255
223 237 255
223 237 255
223 237 255
223 237 255
223 237 255
223 237 255
223 237 255
223 237 255
223 237 255
223 237 255
223 237 255
223 237 255
223 237 255
223 237 255
223 237 255
223 237 255
223 237 255
223 237 255
223 237 255
223 237 255
223 237 255
223 237 255
223 237 255
223 237 255
223 237 255
223 237 255
224 237 255
224 237 255
224 237 255
224 237 255
224 237 255
224 237 255
224 237 255
224 237 255
224 237 255
224 237 255
224 237 255
224 237 255
224 237 255
224 237 255
224 237 255
224 237 255
224 237 255
224 237 255
224 237 255
224 237 255
224 237 255
224 237 255
204 218 231
55 87 113
53 86 115
58 93 132
57 90 126
56 89 126
55 88 115
55 89 120
55 87 120
56 89 129
55 86 111
53 85 104
52 83 116
52 84 107
177 192 210
158 175 200
61 95 143
58 93 135
59 94 136
58 92 125
59 94 136
59 94 131
58 93 133
59 94 135
59 94 129
60 95 136
61 95 135
58 92 122
60 94 135
60 95 142
60 94 130
58 92 118
59 93 122
58 93 122
58 93 131
59 94 134
60 95 131
60 95 128
59 93 125
59 93 129
60 94 131
60 95 130
60 94 133
60 94 130
59 94 129
60 94 121
61 96 140
60 95 133
61 97 147
59 93 120
60 94 133
60 95 144
60 95 136
61 96 143
60 95 137
60 95 137
59 93 139
59 93 129
58 93 133
61 96 143
60 94 134
59 93 125
58 92 131
60 94 129
59 94 128
61 95 136
59 93 131
59 94 133
58 92 124
60 94 128
58 91 129
59 93 126
59 93 132
60 94 134
60 94 133
60 95 138
59 93 137
60 95 143
58 91 114
61 95 143
59 92 124
60 93 132
59 93 124
60 94 126
58 92 120
61 96 138
57 90 121
58 92 131
58 92 128
59 93 132
60 94 138
59 92 132
60 93 129
59 92 122
59 92 126
60 94 139
60 94 132
59 93 127
56 88 116
58 90 125
58 90 121
61 95 140
58 90 123
59 92 132
59 91 127
57 89 124
57 89 116
56 86 106
57 88 126
55 86 118
58 90 123
53 82 96
56 86 120
56 86 113
54 84 115
54 82 109
51 79 100
50 76 99
89 91 64
89 86 46
76 75 32
66 67 33
46 51 21
34 40 18
30 38 22
31 39 21
31 40 22
37 48 29
35 45 29
37 48 29
41 54 39
42 55 42
42 54 32
40 52 34
45 58 44
46 59 44
48 63 47
49 64 52
48 63 46
52 67 46
53 67 42
72 80 46
79 86 49
96 100 55
103 105 56
108 110 64
104 106 55
118 117 65
130 128 66
119 120 63
126 124 64
130 128 67
133 130 62
137 134 69
135 133 58
144 141 72
148 144 73
151 145 80
150 146 67
160 154 83
156 152 78
155 150 77
160 155 76
163 157 75
168 161 78
168 161 74
172 164 79
175 166 85
173 165 80
174 166 80
168 161 70
175 167 82
174 166 80
174 165 82
175 167 82
172 164 78
172 164 77
175 166 84
171 163 76
177 168 85
174 166 83
174 166 81
172 164 75
175 167 85
173 165 78
176 167 84
173 165 78
175 167 82
176 167 84
177 168 86
177 168 85
175 167 83
170 163 75
170 163 75
176 168 84
176 167 82
177 168 85
175 166 82
176 167 82
176 167 83
174 166 83
176 167 84
176 168 84
176 167 82
177 168 84
179 169 90
177 168 86
175 167 80
172 164 78
176 167 83
175 167 81
175 166 80
177 168 88
181 171 91
175 167 83
177 168 86
178 169 88
173 165 75
176 167 82
176 167 85
177 168 85
176 167 81
179 170 89
176 167 83
177 168 87
176 167 82
177 168 85
177 168 84
176 168 82
175 166 82
175 166 80
173 166 80
176 168 83
173 165 80
178 169 88
176 167 83
177 168 89
178 169 87
176 168 82
181 171 94
175 167 83
177 168 84
172 164 74
177 168 86
174 166 81
175 167 81
182 171 94
172 165 74
173 166 82
179 170 90
177 168 82
177 168 87
173 166 78
178 169 89
180 171 92
178 169 89
177 168 84
176 168 85
176 167 82
178 169 87
173 166 76
175 167 83
176 167 85
178 169 89
177 169 87
175 167 84
179 169 89
224 237 255
224 237 255
224 237 255
224 237 255
224 237 255
224 237 255
224 237 255
224 237 255
224 237 255
224 237 255
224 237 255
224 237 255
224 237 255
224 237 255
224 237 255
224 237 255
224 237 255
224 237 255
224 237 255
224 237 255
224 237 255
224 237 255
224 237 255
224 237 255
224 237 255
224 237 255
223 237 255
224 237 255
224 237 255
224 237 255
224 237 255
224 237 255
224 237 255
224 237 255
224 237 255
224 237 255
224 237 255
224 237 255
224 237 255
224 237 255
224 237 255
224 237 255
224 237 255
224 237 255
224 237 255
224 237 255
224 237 255
224 237 255
224 237 255
224 237 255
224 237 255
224 237 255
224 237 255
224 237 255
224 237 255
224 237 255
224 237 255
224 237 255
224 237 255
224 237 255
224 237 255
224 237 255
224 237 255
224 237 255
224 237 255
224 237 255
224 237 255
224 237 255
224 237 255
224 237 255
224 237 255
224 237 255
224 237 255
224 237 255
224 237 255
224 237 255
224 237 255
224 237 255
224 237 255
224 237 255
224 237 255
224 237 255
224 237 255
224 237 255
224 237 255
224 237 255
224 237 255
224 237 255
224 237 255
224 237 255
224 237 255
224 237 255
224 237 255
224 237 255
224 237 255
224 237 255
224 237 255
224 237 255
224 237 255
224 237 255
224 237 255
224 237 255
224 237 255
224 237 255
224 237 255
224 237 255
224 237 255
224 237 255
224 237 255
224 237 255
224 237 255
224 237 255
224 237 255
224 237 255
224 237 255
224 237 255
224 237 255
224 237 254
223 236 252
221 235 246
218 232 236
217 231 233
208 224 207
207 223 203
205 222 194
201 219 179
202 219 182
197 215 167
200 218 175
191 211 142
184 205 102
182 204 92
178 200 62
160 183 54
56 89 121
54 87 123
56 89 114
56 89 129
56 89 124
56 89 121
56 90 134
56 88 131
52 83 118
53 86 111
51 82 115
53 84 115
52 83 105
188 202 221
179 195 214
57 91 122
58 92 126
60 94 129
59 93 141
59 94 128
59 93 129
58 92 115
60 95 136
57 91 118
60 94 131
59 93 130
60 95 133
59 94 135
59 93 130
59 94 134
60 95 135
59 93 130
60 95 139
61 96 140
59 92 126
60 94 135
60 95 136
61 97 144
60 94 126
59 93 122
60 95 140
58 92 128
60 94 136
58 92 120
61 96 144
60 95 140
59 93 126
61 96 144
60 94 135
59 93 128
59 93 129
60 95 133
59 93 133
60 95 135
59 94 125
59 93 122
58 92 130
60 94 124
61 96 140
60 94 141
59 93 125
58 93 125
60 95 133
59 94 128
60 95 136
60 94 134
60 94 128
59 94 122
57 91 121
59 93 130
61 96 140
60 95 136
60 94 137
61 96 138
58 93 125
61 96 139
60 95 136
58 92 128
60 94 130
61 95 132
60 94 126
60 93 124
60 94 137
58 92 129
58 92 131
60 94 137
59 93 127
60 94 133
59 93 129
59 93 132
59 93 138
58 91 129
58 91 127
58 91 120
58 91 120
60 93 133
60 93 136
60 93 130
58 91 124
59 92 128
58 90 126
57 89 115
58 90 114
58 91 125
56 88 121
59 91 124
56 87 122
58 89 127
56 87 123
57 87 118
55 85 113
56 85 117
54 83 109
56 87 111
54 82 99
51 78 93
50 74 106
93 95 59
104 102 45
87 85 42
52 53 21
47 50 21
28 33 14
27 35 21
28 36 19
34 43 25
36 47 30
36 46 32
38 49 30
41 53 34
42 55 34
43 55 39
43 56 40
42 55 36
45 59 44
46 59 42
47 61 44
48 63 50
49 63 45
58 70 44
64 75 52
89 94 52
93 97 55
94 99 56
110 112 58
101 104 57
114 114 60
116 116 59
118 119 61
126 125 66
131 130 65
143 140 71
136 134 71
143 139 75
142 139 67
150 146 77
158 152 75
155 149 74
153 148 71
158 152 76
155 150 69
161 155 74
164 157 76
167 160 77
171 163 78
172 164 84
169 162 75
170 162 71
175 166 84
175 167 81
173 164 83
171 163 75
171 164 75
174 166 82
169 162 68
172 164 80
172 164 80
173 165 76
174 165 80
176 167 80
177 168 87
169 161 74
176 167 86
173 165 79
175 167 79
169 162 75
175 167 83
169 161 74
173 165 77
177 168 87
174 166 81
178 169 85
171 164 75
177 168 87
175 167 82
176 168 83
174 166 78
177 168 84
172 164 75
172 164 74
177 168 82
174 166 81
172 165 79
175 167 81
171 163 76
177 168 84
177 168 84
175 167 82
175 167 80
173 165 78
174 166 81
175 167 82
178 169 87
178 168 87
177 168 87
177 168 84
172 165 78
173 165 80
169 162 74
175 166 81
177 168 85
172 165 77
172 164 77
176 168 84
179 169 87
176 167 86
175 167 80
172 164 75
174 166 80
174 166 80
176 167 81
177 168 83
178 169 87
179 169 88
177 168 84
177 167 85
172 164 75
176 167 83
177 168 86
177 168 85
177 168 86
177 168 84
174 166 79
177 168 84
177 168 82
177 168 86
175 166 80
179 170 89
174 166 78
176 168 84
179 170 90
175 167 80
177 168 86
174 166 82
178 169 85
178 168 85
177 167 82
175 167 82
177 168 86
175 167 80
175 167 82
175 167 82
179 169 86
176 167 83
178 168 87
177 167 83
224 237 255
224 237 255
224 237 255
224 237 255
224 237 255
224 237 255
224 237 255
224 237 255
224 237 255
224 237 255
224 237 255
224 237 255
224 237 255
224 237 255
224 237 255
224 237 255
224 237 255
224 237 255
224 237 255
224 237 255
224 237 255
224 237 255
224 237 255
224 237 255
224 237 255
224 237 255
224 237 255
224 237 255
224 237 255
224 237 255
224 237 255
224 237 255
224 237 255
224 237 255
224 237 255
224 237 255
224 237 255
224 237 255
224 237 255
224 237 255
224 237 255
224 237 255
224 237 255
224 237 255
224 237 255
224 237 255
224 237 255
224 237 255
224 237 255
224 237 255
224 237 255
224 237 255
224 237 255
224 237 255
224 237 255
224 237 255
224 237 255
224 237 255
224 237 255
224 237 255
224 237 255
224 237 255
224 237 255
224 237 255
224 237 255
224 237 255
224 237 255
224 237 255
224 237 255
224 237 255
224 237 255
224 237 255
224 237 255
224 237 255
224 237 255
224 237 255
224 237 255
224 237 255
224 237 255
224 237 255
224 237 255
224 237 255
224 237 255
224 237 255
224 237 255
225 237 255
224 237 255
225 237 255
225 237 255
225 237 255
225 237 255
225 237 255
225 237 255
223 236 250
219 233 238
222 235 248
222 235 246
216 231 231
215 230 227
212 228 220
207 223 203
212 227 217
208 224 201
207 223 203
206 222 198
206 222 198
196 215 163
199 217 173
198 216 169
198 216 165
191 211 147
187 207 120
189 209 130
185 205 111
186 207 120
181 203 92
178 201 57
173 197 0
176 198 0
175 198 0
173 196 0
176 198 0
175 198 0
173 197 0
171 196 0
174 197 0
174 198 0
173 197 0
174 197 0
174 198 0
175 198 0
175 198 0
174 198 0
155 178 57
54 86 101
53 86 110
55 88 112
56 89 117
58 91 116
55 87 103
55 88 121
57 90 127
54 87 117
56 88 120
50 81 106
53 84 119
53 84 111
214 228 236
185 199 218
60 95 141
59 93 122
61 96 143
58 92 124
59 93 134
58 93 129
59 94 129
60 94 131
59 94 133
59 93 130
58 93 122
60 94 129
60 94 131
60 94 130
60 94 128
60 95 139
60 95 139
60 95 137
59 93 124
61 96 136
59 94 126
59 93 130
59 94 139
60 95 129
60 95 134
58 92 125
58 91 126
59 93 133
59 94 129
59 92 130
58 92 122
59 93 124
59 92 124
60 94 136
60 95 134
59 94 131
59 94 122
59 94 130
61 96 142
59 93 130
60 94 131
60 95 140
58 92 125
60 94 128
58 92 124
62 97 143
62 98 154
62 97 142
58 92 118
60 94 128
61 95 133
60 95 139
59 93 130
59 93 129
59 93 126
60 94 134
60 94 129
58 92 117
60 94 129
60 94 134
60 94 130
58 91 121
59 93 130
59 93 125
59 93 133
59 92 133
59 93 135
61 94 145
59 93 133
58 93 120
59 93 130
59 93 134
58 92 126
60 94 133
56 89 116
60 93 135
57 91 121
58 90 118
60 94 133
59 93 132
57 91 125
56 89 112
58 91 117
59 93 121
59 91 124
59 92 133
58 90 120
58 90 131
57 89 120
56 87 110
58 90 118
58 90 119
58 89 118
56 87 115
58 89 122
56 87 114
54 84 109
54 83 114
54 83 103
54 81 104
51 78 99
49 74 87
108 108 64
99 96 42
78 75 36
63 64 22
58 59 25
34 41 19
44 50 26
35 46 32
34 43 31
32 41 21
33 42 25
37 48 27
39 50 34
42 54 39
43 56 37
41 53 35
43 56 39
41 54 35
45 59 45
45 59 43
47 63 49
50 64 42
64 74 40
76 83 50
74 82 52
88 93 49
102 104 57
103 105 57
102 104 58
105 107 54
125 123 60
122 121 60
130 128 63
131 128 64
130 128 63
136 133 66
135 133 66
139 136 69
145 141 67
149 144 77
153 148 74
149 145 63
156 150 72
160 153 76
162 155 71
163 157 75
164 158 71
168 160 74
167 161 72
169 161 72
177 168 87
172 164 77
171 163 75
171 163 75
173 164 80
173 165 77
168 161 72
170 163 72
168 160 69
173 165 76
173 165 78
170 163 75
174 165 80
170 163 70
169 161 74
173 165 76
176 167 84
176 167 85
171 163 77
174 165 76
174 165 76
169 162 70
167 161 67
171 164 75
172 164 75
172 164 76
173 165 80
172 164 70
176 167 84
172 164 75
170 161 79
171 164 73
175 167 83
175 166 81
173 165 79
174 166 80
174 166 80
173 165 77
175 166 78
174 166 80
175 167 83
173 165 74
174 166 80
176 168 83
175 166 80
173 164 79
176 167 79
177 168 86
174 165 80
175 167 80
173 166 78
172 165 75
177 168 83
175 167 84
175 166 80
174 166 80
176 167 83
175 166 82
174 166 80
176 167 84
177 168 84
174 166 80
170 162 75
175 166 78
172 165 76
171 164 71
177 168 84
172 164 72
171 164 75
177 168 84
173 165 75
177 169 86
177 168 83
176 167 83
172 164 75
173 165 75
175 166 80
177 167 84
176 167 83
174 166 77
176 167 83
173 165 82
179 169 87
175 166 80
173 166 77
175 167 80
175 166 81
173 165 78
176 167 80
177 168 84
179 170 90
176 168 84
175 166 80
176 167 82
177 168 84
177 169 84
174 166 79
178 169 88
176 168 84
225 238 255
225 238 255
224 237 254
222 235 248
223 236 250
224 237 254
225 238 255
225 238 255
225 238 255
225 238 255
225 238 255
225 238 255
225 238 255
225 238 255
225 238 255
225 238 255
225 238 255
225 238 255
225 238 255
225 238 255
225 238 255
225 238 255
225 238 255
225 238 255
225 238 255
225 238 255
225 237 255
225 237 255
225 237 255
225 237 255
225 237 255
225 237 255
225 237 255
225 237 255
225 237 255
225 237 255
225 237 255
225 237 255
225 237 255
225 238 255
225 238 255
225 237 255
225 237 255
225 238 255
225 238 255
225 238 255
225 238 255
225 238 255
225 238 255
225 238 255
225 238 255
224 237 254
224 237 253
223 236 249
222 235 248
220 234 241
219 233 237
220 234 241
217 231 234
215 229 224
217 231 233
217 231 233
216 231 228
214 229 226
207 223 203
209 225 207
209 225 207
208 224 201
212 228 218
206 223 201
208 224 203
205 222 193
206 223 196
206 222 198
204 221 191
204 221 191
204 221 188
197 215 167
195 214 157
195 213 151
193 213 155
190 210 135
188 209 135
190 210 137
189 209 133
185 206 108
187 207 122
182 204 92
179 201 72
181 203 88
181 203 88
176 199 44
174 198 25
175 198 0
174 198 0
175 198 0
174 198 0
175 198 0
175 198 0
173 197 0
176 198 0
175 198 0
174 198 0
174 198 0
175 198 0
174 197 0
175 198 0
175 198 0
177 199 0
175 198 0
173 197 0
175 198 0
173 197 0
174 198 0
174 198 0
176 199 0
175 198 0
173 197 0
173 197 0
174 197 0
174 197 0
174 198 0
174 197 0
175 198 0
174 197 0
174 197 0
174 197 0
174 198 0
174 198 0
172 195 0
175 198 0
173 196 0
175 198 0
141 166 70
52 83 94
56 88 128
56 89 120
57 90 122
56 88 120
58 92 119
55 88 107
54 87 120
53 85 103
54 86 119
52 84 108
52 83 109
69 97 89
184 205 108
205 219 239
58 92 126
58 92 124
59 94 131
59 93 131
58 92 133
58 92 131
60 95 141
60 94 137
60 94 135
59 94 126
60 95 134
60 94 131
59 93 122
59 94 130
58 92 121
60 95 137
59 93 126
58 92 121
59 94 129
59 94 128
60 95 134
58 92 118
59 93 128
59 93 125
60 94 126
60 95 128
60 94 133
60 95 134
59 94 128
58 92 129
60 94 133
59 93 126
60 94 128
59 93 135
60 95 140
59 94 133
60 94 126
59 94 128
61 96 136
59 93 133
60 94 128
60 95 140
59 93 130
59 94 126
60 95 131
59 93 125
60 94 131
60 94 135
59 94 128
61 96 143
60 95 139
60 94 126
60 94 128
60 95 134
60 95 133
59 94 128
59 93 126
60 93 123
60 94 134
58 92 124
60 94 131
60 94 124
60 94 134
61 95 140
59 93 132
60 94 138
59 93 132
57 91 120
58 93 128
59 93 128
59 93 130
59 93 129
60 94 140
57 91 126
59 93 127
58 91 126
58 90 123
58 90 122
58 92 124
57 90 110
58 90 117
59 93 126
59 92 126
57 89 121
58 91 130
59 91 124
59 92 128
56 88 111
57 90 111
58 90 124
57 88 116
57 89 124
55 85 111
56 87 109
55 85 100
56 86 111
56 87 124
55 83 106
55 85 113
54 83 111
50 77 100
46 70 85
126 123 81
96 91 47
79 78 33
61 63 25
50 51 24
58 59 18
46 52 19
35 45 29
32 41 22
34 44 23
37 46 26
37 47 32
39 51 39
38 49 32
39 51 33
44 56 42
44 58 41
46 60 46
44 57 44
45 59 37
45 59 41
57 68 38
68 78 44
72 81 41
90 95 44
79 86 43
98 100 48
97 102 52
116 117 52
111 112 55
118 117 54
114 115 50
128 126 63
125 124 62
143 139 65
139 135 65
141 137 65
147 142 69
152 147 69
147 143 60
147 144 64
162 155 80
159 154 70
159 153 74
155 150 61
164 158 71
167 159 73
165 158 70
168 160 73
161 155 58
172 164 75
174 165 80
164 158 65
169 162 74
169 162 72
171 163 75
170 163 73
166 160 63
173 165 80
167 160 71
173 166 78
171 163 76
171 163 77
171 163 76
169 162 68
171 163 74
173 165 76
171 163 71
172 164 78
169 162 72
170 163 74
174 166 78
172 164 80
172 164 72
173 164 77
172 163 78
173 165 79
178 168 84
173 165 76
171 164 69
170 163 73
174 166 77
170 163 74
170 163 73
173 165 75
174 165 80
174 165 78
175 166 80
174 166 77
173 165 73
173 165 72
175 166 79
174 166 80
175 166 82
171 164 75
170 162 68
173 165 80
174 166 80
173 165 75
179 169 85
169 161 71
177 168 85
177 168 82
176 168 80
174 165 79
174 166 75
174 165 81
173 165 79
172 163 76
173 165 75
176 167 83
176 167 83
174 165 77
176 168 84
175 167 79
172 164 75
173 165 76
173 165 75
173 165 78
176 167 80
171 163 77
170 163 70
176 167 84
175 167 80
172 164 76
175 166 82
175 166 81
173 165 75
174 166 79
178 168 84
175 167 80
175 167 80
178 169 90
176 168 84
177 168 86
179 169 87
175 166 80
175 167 83
176 168 85
174 165 81
174 166 80
175 167 80
175 167 81
176 167 82
175 167 82
175 166 81
177 168 82
172 165 76
175 166 80
181 203 92
178 200 67
175 198 0
174 198 0
174 198 0
174 198 0
175 198 0
175 199 44
175 199 36
179 201 62
180 202 80
178 201 67
178 201 67
182 203 92
180 202 72
185 205 99
184 205 105
187 207 120
187 207 117
186 206 108
185 206 111
188 208 122
185 206 108
192 211 135
187 207 122
186 207 114
187 208 128
185 206 111
189 209 128
184 205 105
182 204 102
183 204 102
186 207 114
178 201 62
182 204 95
187 208 125
183 205 108
186 207 117
183 205 102
182 204 95
186 206 111
182 204 95
184 205 102
184 205 95
179 202 76
178 201 67
177 200 44
176 199 44
176 199 44
174 198 25
175 198 0
176 199 0
176 198 0
174 198 0
173 197 0
174 198 0
176 199 0
177 199 0
174 198 0
175 198 0
174 197 0
174 197 0
174 198 0
173 197 0
173 197 0
173 197 0
173 197 0
175 198 0
174 198 0
174 198 0
176 198 0
174 198 0
174 198 0
173 197 0
173 197 0
174 198 0
174 197 0
175 198 0
174 197 0
175 198 0
175 198 0
175 198 0
175 198 0
174 198 0
174 198 0
174 198 0
174 198 0
173 197 0
175 198 0
174 198 0
174 198 0
176 198 0
173 197 0
174 197 0
175 198 0
174 198 0
174 198 0
175 198 0
174 197 0
173 197 0
173 197 0
173 197 0
175 198 0
173 197 0
175 198 0
175 198 0
175 198 0
174 197 0
173 197 0
173 197 0
174 197 0
173 197 0
174 198 0
173 196 0
174 198 0
174 197 0
174 198 0
173 196 0
173 197 0
174 198 0
175 198 0
173 197 0
174 197 0
172 197 0
174 197 0
174 198 0
175 198 0
173 197 0
172 195 0
173 197 0
173 197 0
174 198 0
174 198 0
128 151 80
54 86 99
55 88 111
58 92 124
55 88 118
55 88 117
56 89 113
55 87 120
57 89 121
54 86 111
54 86 115
52 83 106
55 88 105
117 141 88
174 197 0
202 217 212
57 91 126
56 90 122
59 93 124
59 94 135
59 93 129
59 94 118
58 92 130
59 93 129
59 93 124
59 94 121
59 94 130
58 92 117
60 94 136
59 93 128
58 93 133
60 95 136
58 92 126
59 92 125
59 93 130
60 94 130
59 92 120
59 94 124
59 93 121
58 92 118
59 94 139
60 94 131
59 94 131
59 93 124
60 94 128
59 93 117
59 93 131
60 94 131
59 93 125
60 94 135
59 93 126
59 93 128
59 93 122
60 94 134
61 95 137
60 94 133
59 92 128
58 92 126
59 94 135
58 92 125
60 94 130
58 92 125
60 94 136
62 96 145
60 94 134
60 95 131
59 92 121
60 94 126
60 94 134
60 94 135
59 93 130
61 96 139
59 93 133
61 96 133
59 93 129
59 93 130
59 93 133
59 93 128
60 95 130
59 92 129
59 93 129
59 93 129
59 92 130
58 91 126
58 91 126
58 92 129
59 92 121
60 94 134
60 93 134
60 94 132
58 92 123
59 92 126
60 95 133
59 92 131
56 89 118
59 93 124
59 92 120
58 91 121
57 89 116
58 91 122
56 89 121
59 93 128
56 87 111
57 88 121
56 88 120
55 85 112
57 88 117
56 86 107
55 85 113
56 86 118
56 88 113
57 88 114
54 82 113
55 84 116
53 82 106
51 76 93
50 76 95
47 70 77
163 167 151
109 105 52
88 87 35
68 67 23
62 64 21
58 61 22
50 57 25
42 49 24
35 44 23
34 45 26
35 44 24
40 52 33
40 52 32
41 53 30
39 52 35
40 51 30
43 56 36
43 56 35
44 58 43
45 59 40
47 60 40
61 71 36
59 70 39
84 90 44
89 94 56
85 90 46
94 98 52
94 99 43
105 105 51
99 103 44
112 113 55
118 116 63
122 121 53
128 127 48
133 130 58
132 130 58
140 136 67
142 139 67
146 141 62
149 144 64
141 138 54
157 151 69
150 146 62
154 149 64
159 153 65
162 155 67
165 159 72
161 155 59
166 159 69
170 161 74
164 158 64
166 160 67
166 159 69
165 158 70
169 162 71
167 160 68
168 160 73
168 161 70
168 161 66
169 162 72
168 161 66
175 166 83
169 162 71
174 166 80
167 161 63
168 161 68
167 160 72
168 161 74
173 165 74
169 163 68
171 163 71
168 161 69
170 163 71
167 160 67
164 158 57
170 163 68
172 164 75
172 164 80
175 166 78
172 164 75
175 167 80
173 165 72
178 168 85
170 163 74
174 166 78
171 163 70
168 161 66
169 162 65
179 170 88
178 169 84
174 166 78
171 164 71
172 164 78
171 164 72
172 164 74
174 165 81
173 165 79
175 166 80
175 167 81
168 161 68
174 165 74
171 164 74
171 164 76
170 163 69
169 162 69
172 164 75
176 167 81
173 165 79
173 165 78
172 164 75
173 165 77
173 164 75
169 162 69
171 164 72
176 168 83
173 164 75
176 168 81
171 164 73
169 162 72
172 164 76
175 166 78
170 162 74
176 167 79
173 165 75
173 165 75
172 164 77
171 163 73
178 169 84
172 164 75
175 167 79
174 165 80
176 167 81
173 165 75
172 164 76
175 167 80
174 166 79
175 167 80
173 166 79
171 164 73
174 165 75
176 167 83
174 165 80
173 164 75
174 166 79
177 168 84
175 166 82
175 167 80
177 168 84
172 164 74
174 198 0
174 198 0
175 198 0
175 198 0
175 198 0
174 197 0
174 198 0
175 198 0
174 198 0
175 198 0
174 198 0
174 198 0
173 197 0
176 199 0
175 198 0
174 197 0
176 199 0
174 198 0
176 198 0
176 199 0
173 197 0
174 198 0
173 197 0
174 197 0
175 198 0
174 198 0
174 198 0
175 198 0
173 197 0
175 198 0
174 198 0
175 198 0
174 198 0
176 199 0
173 197 0
174 198 0
177 199 0
175 198 0
174 198 0
174 197 0
174 197 0
174 197 0
174 198 0
175 198 0
174 198 0
174 198 0
176 199 0
175 198 0
174 198 0
173 197 0
175 198 0
174 197 0
176 199 0
174 197 0
174 197 0
175 198 0
173 197 0
174 198 0
174 197 0
175 198 0
174 198 0
174 198 0
174 198 0
174 198 0
174 198 0
174 197 0
175 198 0
175 198 0
174 198 0
174 198 0
174 198 0
173 197 0
175 198 0
175 198 0
174 197 0
174 197 0
173 197 0
174 198 0
173 197 0
174 198 0
172 196 0
173 197 0
174 198 0
174 197 0
173 197 0
174 198 0
173 197 0
175 198 0
175 198 0
175 198 0
173 197 0
175 198 0
175 198 0
173 197 0
174 198 0
174 198 0
175 198 0
176 199 0
175 198 0
175 198 0
173 197 0
175 198 0
174 198 0
175 198 0
174 197 0
174 197 0
176 199 0
175 198 0
173 197 0
174 198 0
173 197 0
174 197 0
174 197 0
173 197 0
174 197 0
173 197 0
169 194 0
174 197 0
173 197 0
174 198 0
173 197 0
174 198 0
174 198 0
171 194 0
174 198 0
175 198 0
174 198 0
174 197 0
170 194 0
175 198 0
170 194 0
171 195 0
172 195 0
113 136 76
54 85 95
53 85 104
55 87 107
56 89 114
55 87 105
56 88 115
57 89 124
56 89 116
54 87 105
52 83 99
54 86 114
56 89 120
150 173 57
172 196 0
216 231 233
68 98 129
55 89 114
57 91 104
58 92 125
58 92 114
59 93 128
58 92 120
59 94 134
58 92 126
60 94 128
58 92 122
60 94 133
59 93 128
58 92 130
59 93 118
59 93 126
60 94 128
58 92 118
60 95 139
60 94 130
59 94 122
58 91 120
60 95 135
59 93 126
60 94 131
59 93 128
60 94 135
59 93 124
60 94 129
58 93 113
59 93 121
60 94 129
61 96 137
59 94 129
61 96 142
59 94 129
59 93 126
60 95 129
59 94 134
59 93 122
61 96 135
58 93 130
59 94 126
59 94 126
59 92 129
59 93 126
60 94 133
60 94 141
58 92 128
59 93 128
59 94 129
60 94 130
60 94 131
59 93 134
59 93 125
59 93 130
61 94 140
58 92 126
60 94 128
59 93 139
60 94 136
59 93 128
59 93 131
59 93 122
58 91 116
59 92 118
60 95 138
60 94 128
60 94 137
58 92 120
59 93 138
59 92 123
58 91 118
60 93 133
59 93 130
58 91 125
60 94 136
61 94 133
59 93 133
59 93 125
56 89 122
60 93 133
60 93 134
56 88 109
59 92 124
58 90 126
58 90 118
57 88 118
57 88 119
58 90 124
57 88 103
55 84 111
56 86 112
57 87 112
56 86 120
56 86 117
55 84 115
52 79 97
55 84 116
50 75 97
52 78 95
58 81 101
180 185 177
104 101 38
95 92 44
98 95 37
68 68 26
67 69 22
52 54 19
43 48 17
38 45 23
37 46 20
35 45 23
35 45 21
41 54 37
39 50 30
40 52 32
42 55 38
42 56 32
42 55 33
45 59 37
47 61 39
47 60 36
70 79 46
67 77 44
73 80 38
82 87 43
79 86 37
91 96 41
98 102 45
104 105 46
112 113 49
121 121 55
111 112 54
126 125 55
132 129 59
122 122 51
125 124 47
127 125 57
138 136 51
141 138 56
150 145 65
149 144 64
148 144 61
159 153 67
151 146 63
159 152 75
153 149 61
152 147 60
168 161 68
161 155 61
162 155 60
164 158 65
165 158 68
168 161 70
163 156 61
162 156 61
171 163 75
167 160 69
168 160 73
169 161 73
168 161 75
169 161 71
167 159 72
168 161 67
168 161 68
166 160 63
169 162 69
170 162 73
170 162 73
170 162 75
165 159 65
172 164 72
173 165 75
167 160 69
172 164 71
172 163 72
168 161 66
170 162 63
167 160 62
171 164 71
174 166 78
167 161 68
168 162 70
176 167 84
171 162 76
172 163 73
168 162 66
168 161 68
173 165 74
170 163 69
168 161 67
170 163 69
167 161 64
174 166 76
170 163 68
168 161 69
173 164 72
174 164 79
172 165 79
171 163 72
173 165 75
171 163 72
173 165 74
173 165 78
173 165 75
167 160 68
176 167 82
171 163 73
171 163 73
172 165 75
174 166 78
172 164 75
174 165 79
173 164 77
172 164 75
172 164 75
174 165 76
175 167 80
169 162 69
173 165 75
176 167 84
170 163 67
172 164 77
174 165 83
176 167 81
171 164 73
174 166 77
173 165 75
176 167 84
171 163 72
171 163 72
174 166 80
174 166 75
173 165 76
176 167 82
171 164 74
173 165 75
177 168 84
176 168 84
175 166 78
170 162 74
176 167 83
171 164 77
172 165 74
172 164 74
177 167 80
175 166 79
176 167 80
172 164 75
173 165 77
173 197 0
173 197 0
176 198 0
174 198 0
174 198 0
175 198 0
173 197 0
174 198 0
176 199 0
174 198 0
173 197 0
175 198 0
174 198 0
174 198 0
175 198 0
174 197 0
175 198 0
174 198 0
173 197 0
174 198 0
174 198 0
175 198 0
175 198 0
174 198 0
174 197 0
175 198 0
174 198 0
173 197 0
174 198 0
173 197 0
175 198 0
174 198 0
174 197 0
175 198 0
175 198 0
175 198 0
173 197 0
174 198 0
175 198 0
174 198 0
174 198 0
174 198 0
173 197 0
175 198 0
173 197 0
174 198 0
175 198 0
174 198 0
175 198 0
175 198 0
174 198 0
173 197 0
173 197 0
175 198 0
173 197 0
174 197 0
176 199 0
175 198 0
175 198 0
176 198 0
174 198 0
176 198 0
176 198 0
173 197 0
174 197 0
176 199 0
175 198 0
174 197 0
175 198 0
175 198 0
174 197 0
176 198 0
175 198 0
176 198 0
175 198 0
176 199 0
176 198 0
175 198 0
174 197 0
173 196 0
175 198 0
173 197 0
173 196 0
173 197 0
174 198 0
176 199 0
176 199 0
175 198 0
173 197 0
174 197 0
172 196 0
173 196 0
173 197 0
174 198 0
173 197 0
175 198 0
173 197 0
173 197 0
172 196 0
172 196 0
174 198 0
174 198 0
174 197 0
175 198 0
174 198 0
172 197 0
175 198 0
173 196 0
174 197 0
174 198 0
173 197 0
176 199 0
174 198 0
171 195 0
173 197 0
173 197 0
175 198 0
174 197 0
173 197 0
173 196 0
172 195 0
174 197 0
175 198 0
172 196 0
176 198 0
173 196 0
174 197 0
173 197 0
173 197 0
173 196 0
173 196 0
169 192 0
173 196 0
88 113 94
55 88 107
56 88 110
56 88 108
56 89 110
54 86 111
55 87 108
57 90 112
54 86 110
53 85 105
52 82 95
53 85 114
74 102 92
173 197 0
176 199 0
215 230 228
115 136 159
59 92 121
57 91 117
57 91 124
57 91 120
59 94 129
59 93 126
58 92 128
58 92 120
58 92 121
58 93 128
58 92 122
59 93 129
59 93 128
60 95 135
59 93 134
59 93 128
60 94 131
57 91 121
60 94 126
59 94 129
59 94 133
59 93 121
61 96 135
59 93 128
60 94 128
60 94 135
60 94 128
60 95 129
60 94 130
59 93 122
60 95 133
61 96 141
60 94 130
59 94 129
59 94 128
59 93 125
59 94 129
60 94 133
59 93 126
60 93 130
59 93 125
59 93 120
60 94 134
59 93 134
59 93 125
60 95 134
60 95 135
60 95 140
59 93 122
59 94 132
61 95 137
60 95 129
59 92 120
59 92 120
61 95 139
59 93 114
60 94 131
60 95 128
59 92 120
59 93 129
59 94 124
60 94 140
58 92 122
59 92 120
59 92 121
60 94 126
59 93 124
58 92 121
59 91 124
60 94 132
58 91 118
60 95 135
59 93 131
57 90 112
59 93 131
59 92 119
58 91 132
59 92 128
59 92 127
59 92 131
59 92 125
58 91 127
56 89 114
56 88 124
59 92 125
59 91 129
57 88 115
58 90 123
58 88 113
56 87 101
57 87 112
55 86 116
56 86 108
54 83 108
54 84 116
54 85 105
54 84 106
52 79 91
53 80 99
50 75 78
109 123 131
210 220 231
125 119 59
102 99 37
78 78 22
75 74 24
73 74 23
56 58 23
67 70 22
46 52 20
37 46 23
37 48 25
35 45 23
37 48 27
39 49 31
40 51 30
43 57 38
42 55 35
43 57 35
51 63 43
49 61 33
52 64 40
66 75 35
67 77 44
78 84 38
82 88 43
86 91 35
88 93 41
103 105 47
114 113 55
101 103 44
104 107 44
113 113 51
117 117 47
128 127 60
128 126 53
129 128 60
142 137 61
137 134 57
146 142 53
146 142 67
145 142 51
152 148 60
149 145 62
151 146 60
164 157 64
154 148 58
161 155 66
165 158 62
164 157 63
156 151 57
164 157 64
166 159 64
167 159 64
166 159 65
158 153 57
164 157 59
163 157 62
165 159 61
165 158 66
167 160 69
160 154 49
170 162 71
167 160 64
169 161 64
165 159 61
170 162 75
167 160 68
162 155 60
167 160 68
169 162 72
169 162 69
168 161 65
167 160 68
162 156 57
166 159 62
171 163 71
168 161 69
170 162 71
165 158 62
169 161 70
172 164 77
172 164 73
170 162 69
174 165 79
172 165 73
168 161 65
172 164 76
170 163 68
170 163 73
165 158 65
175 166 81
172 164 74
168 161 70
172 164 72
168 161 67
166 160 63
168 161 68
171 162 75
167 161 65
170 163 73
172 164 75
167 160 65
170 163 68
170 163 71
176 167 80
170 162 74
169 161 65
172 164 76
173 165 72
168 161 67
175 167 78
172 164 73
172 164 78
169 162 69
171 163 72
174 166 80
169 162 70
171 164 73
173 165 75
172 164 74
176 167 82
170 163 72
171 164 70
175 167 80
168 161 64
173 164 75
169 161 69
173 165 76
173 165 77
174 166 74
174 165 75
175 166 80
177 167 82
170 162 71
178 168 84
174 165 75
175 166 80
170 162 71
175 167 81
175 167 80
178 168 85
173 165 77
173 164 77
173 165 76
175 166 79
176 167 79
171 164 74
173 165 75
172 164 75
173 197 0
175 198 0
175 198 0
173 197 0
174 198 0
174 197 0
174 198 0
174 198 0
175 198 0
175 198 0
174 198 0
175 198 0
174 197 0
174 197 0
176 198 0
175 198 0
174 198 0
174 198 0
174 198 0
174 198 0
175 198 0
175 198 0
175 198 0
173 197 0
174 197 0
175 198 0
174 198 0
174 197 0
175 198 0
173 197 0
175 198 0
174 197 0
175 198 0
175 198 0
173 197 0
174 198 0
174 198 0
174 198 0
176 199 0
173 197 0
175 198 0
174 198 0
173 197 0
176 199 0
175 198 0
173 197 0
174 198 0
173 197 0
173 197 0
174 197 0
174 198 0
175 198 0
173 197 0
174 197 0
175 198 0
174 198 0
173 197 0
174 198 0
174 197 0
175 198 0
175 198 0
174 198 0
174 197 0
174 197 0
175 198 0
175 198 0
174 198 0
174 196 0
174 198 0
174 198 0
176 199 0
173 197 0
175 198 0
174 198 0
174 198 0
175 198 0
174 198 0
173 197 0
174 198 0
175 198 0
175 198 0
174 198 0
173 197 0
174 198 0
176 199 0
176 199 0
175 198 0
174 198 0
174 198 0
175 198 0
170 195 0
174 198 0
174 197 0
173 197 0
174 197 0
174 198 0
173 196 0
173 197 0
174 198 0
174 198 0
175 198 0
172 197 0
174 197 0
174 198 0
174 198 0
172 195 0
173 196 0
173 196 0
176 199 0
175 198 0
172 196 0
173 196 0
171 195 0
174 197 0
173 197 0
175 197 0
174 197 0
175 198 0
173 197 0
171 195 0
171 195 0
173 196 0
173 196 0
171 195 0
171 195 0
172 196 0
171 194 0
172 195 0
169 192 0
173 196 0
168 191 0
165 188 0
162 185 18
62 92 98
55 88 103
54 87 103
56 90 112
56 89 108
54 87 106
55 88 113
55 88 112
56 89 110
54 87 101
53 85 101
54 86 102
131 154 67
173 197 0
174 197 25
223 236 253
153 169 185
58 92 126
59 93 118
59 93 124
58 92 133
57 90 110
57 91 118
60 94 125
59 93 133
58 92 120
58 92 122
58 92 125
58 93 128
58 92 113
59 93 122
59 93 126
59 93 124
59 93 128
59 94 125
59 92 124
59 93 128
60 94 129
59 94 134
57 91 114
58 92 115
58 92 124
59 93 129
60 94 124
59 93 129
59 93 129
58 92 121
60 95 134
57 90 113
59 93 124
60 94 129
60 95 136
59 92 134
58 93 122
58 92 124
58 92 120
59 94 133
59 94 129
59 94 128
60 94 128
60 94 134
59 94 129
61 95 139
59 93 126
60 95 134
59 93 128
57 90 117
60 95 135
59 93 125
60 94 133
59 93 122
59 93 126
59 92 131
60 94 129
60 95 136
58 92 120
57 90 109
60 94 126
59 93 128
59 93 124
61 95 129
58 92 124
60 93 131
59 93 129
59 93 134
61 95 140
59 93 124
59 92 126
60 93 134
58 92 128
59 92 124
58 90 125
56 89 107
57 90 122
58 92 121
60 94 127
55 87 115
58 90 125
58 91 120
59 92 134
57 89 115
57 89 122
59 92 124
57 89 118
56 87 108
56 88 113
57 89 125
56 86 107
54 83 99
57 88 117
55 85 113
53 82 105
54 83 102
54 81 96
53 81 97
54 82 103
50 75 85
153 166 179
221 234 251
125 120 60
99 97 46
94 91 38
83 84 31
77 78 23
80 82 17
54 59 19
51 57 23
48 55 26
45 55 33
36 47 25
39 51 32
40 52 27
38 49 30
42 55 31
41 54 38
42 55 38
58 68 39
54 66 43
52 63 36
69 77 37
76 83 38
68 76 34
70 77 29
80 85 36
86 89 40
93 97 44
109 110 45
104 106 47
107 108 45
118 118 44
117 117 48
116 116 53
129 126 58
125 125 42
141 137 54
133 131 54
138 135 58
147 143 58
145 142 55
143 139 57
155 150 61
151 146 56
159 152 65
161 155 62
163 156 64
162 155 65
160 155 59
159 153 52
161 155 58
166 159 67
162 156 65
162 156 59
163 157 64
166 159 59
169 161 74
166 160 59
163 157 57
159 154 58
165 159 58
161 155 63
163 156 62
162 156 57
165 159 68
166 158 64
163 156 67
170 162 72
165 158 60
164 158 59
169 161 69
163 157 61
168 161 67
169 161 70
163 157 57
169 161 65
168 160 75
166 159 66
165 158 62
167 160 65
171 163 76
170 162 75
166 160 62
167 160 67
168 161 66
165 158 61
171 163 70
167 161 62
173 164 74
172 164 75
165 159 60
170 162 69
168 161 66
168 161 71
165 159 61
168 161 66
170 163 64
169 162 68
172 165 73
171 163 74
171 163 71
170 162 68
174 165 77
170 163 69
171 163 69
168 161 63
168 161 66
171 164 69
170 162 68
174 166 80
168 162 63
170 163 69
169 162 69
171 163 74
168 161 67
168 162 66
172 164 73
176 167 80
170 162 70
170 163 66
176 167 80
169 162 65
168 162 68
174 166 75
174 166 79
170 163 69
171 163 70
172 164 74
171 164 69
174 166 76
169 162 64
174 166 77
178 168 81
173 164 77
172 165 70
171 163 72
176 167 81
178 168 82
173 165 75
175 165 79
173 164 71
173 165 74
170 163 65
170 163 71
171 163 69
174 165 76
174 166 79
169 162 69
173 164 75
173 197 0
175 198 0
174 197 0
176 199 0
174 198 0
173 197 0
174 198 0
174 198 0
173 197 0
174 198 0
174 198 0
173 197 0
174 198 0
173 197 0
174 198 0
174 198 0
175 198 0
176 199 0
175 198 0
173 197 0
176 199 0
173 197 0
174 198 0
175 198 0
174 197 0
173 197 0
175 198 0
174 198 0
173 197 0
174 198 0
175 198 0
175 198 0
175 198 0
173 197 0
174 198 0
175 198 0
175 198 0
174 197 0
175 198 0
175 198 0
173 197 0
176 198 0
174 198 0
175 198 0
174 198 0
174 198 0
174 198 0
173 197 0
174 198 0
174 197 0
174 198 0
173 197 0
175 198 0
174 198 0
174 197 0
174 197 0
174 198 0
174 198 0
175 198 0
173 197 0
175 198 0
173 197 0
175 198 0
172 196 0
175 198 0
174 198 0
175 198 0
174 197 0
173 197 0
174 198 0
174 197 0
176 198 0
175 198 0
174 197 0
174 198 0
174 197 0
172 196 0
174 198 0
173 197 0
174 198 0
174 198 0
174 198 0
173 197 0
175 198 0
174 197 0
174 197 0
174 197 0
173 197 0
174 198 0
174 197 0
173 196 0
173 197 0
172 196 0
175 198 0
173 197 0
171 195 0
174 198 0
172 197 0
175 198 0
172 196 0
172 196 0
174 197 0
173 197 0
174 198 0
172 196 0
173 197 0
174 198 0
173 197 0
173 197 0
172 195 0
170 194 0
173 197 0
174 197 0
171 194 0
171 194 0
174 197 0
174 198 0
173 196 0
174 197 0
171 195 0
173 197 0
172 195 0
170 193 0
175 198 0
172 195 0
173 196 0
170 194 0
172 195 0
172 195 0
172 195 0
170 193 0
163 187 0
141 164 51
52 84 91
56 88 107
57 91 125
55 87 98
57 90 110
54 86 109
55 87 104
55 87 102
54 86 97
55 87 98
54 87 105
63 93 94
168 191 18
173 197 0
183 205 105
216 230 228
171 188 189
57 91 115
58 93 118
57 91 115
57 91 110
57 91 124
58 91 118
59 94 125
57 91 122
60 94 129
58 92 124
59 93 130
59 93 130
58 92 122
58 92 128
59 93 124
59 94 128
59 93 131
59 92 126
59 92 129
59 93 125
60 95 130
58 91 117
60 95 129
59 93 124
59 93 126
58 92 125
59 93 129
58 92 125
58 92 118
60 94 133
60 94 136
57 91 113
59 93 114
58 92 117
59 93 126
59 93 124
59 92 124
59 93 131
59 94 122
59 93 113
60 95 126
59 93 126
58 91 120
60 94 130
60 94 130
59 94 131
58 92 114
60 95 130
58 91 121
57 91 121
59 93 121
57 90 114
59 92 123
60 94 131
58 92 120
59 93 118
59 93 128
59 93 129
59 93 126
60 94 134
60 94 132
58 92 124
56 89 107
59 93 133
59 93 124
59 91 126
58 92 128
58 92 131
59 93 140
60 94 133
57 90 122
60 93 134
57 90 114
58 91 118
58 92 118
58 91 119
59 92 122
58 91 117
57 89 118
58 92 127
58 91 123
59 91 121
58 91 131
59 92 120
58 90 124
57 88 113
56 87 108
57 88 124
57 89 124
58 90 122
56 87 115
56 87 114
56 87 120
55 85 108
54 83 103
57 87 108
52 79 92
52 80 92
51 75 70
53 80 97
168 183 177
217 232 234
149 150 111
97 93 45
108 105 41
98 95 40
75 75 26
48 52 11
68 70 18
65 68 13
51 57 22
52 57 21
42 51 23
42 51 27
40 51 27
45 54 27
43 55 33
42 54 32
51 61 34
50 62 37
55 66 36
57 66 36
72 79 35
67 74 30
77 82 31
78 84 32
81 85 30
76 83 46
94 97 41
101 103 40
105 106 37
99 101 47
107 111 41
120 119 45
118 119 47
116 118 45
127 126 49
129 127 48
141 137 52
137 135 52
149 145 48
146 143 51
151 146 58
142 138 53
155 149 57
156 151 51
157 151 59
161 154 60
158 153 60
156 150 53
166 158 67
161 155 60
158 152 56
163 157 62
163 157 60
164 158 61
156 151 47
163 157 59
161 155 52
161 155 56
163 157 57
163 156 63
167 160 61
164 158 59
165 158 60
162 155 60
168 161 67
161 155 53
169 161 65
163 157 57
163 156 64
161 155 57
166 159 63
160 154 56
165 158 64
167 160 64
164 158 61
169 161 66
169 162 64
165 158 62
167 160 66
169 161 63
166 159 59
162 156 54
166 159 63
173 165 73
167 160 63
169 161 65
167 160 61
169 161 65
164 158 53
168 160 68
165 158 64
170 163 70
166 159 60
171 163 70
170 162 67
165 158 64
168 161 62
166 159 64
168 162 64
170 162 69
170 162 69
168 161 66
168 161 60
171 163 69
173 164 74
170 163 66
171 163 72
169 161 69
168 161 68
169 161 70
170 162 69
172 164 70
170 163 70
172 163 74
174 165 77
168 161 60
166 160 61
169 162 65
167 160 61
171 164 69
170 163 70
169 162 69
168 162 66
175 166 75
171 163 72
173 165 75
170 163 65
171 163 69
171 163 72
173 165 76
170 163 65
169 161 69
169 163 70
172 164 74
172 164 72
174 166 79
176 167 77
171 163 70
176 166 77
170 163 66
170 163 68
173 165 75
174 165 78
170 162 65
173 165 75
170 162 73
178 169 84
173 165 76
176 199 0
174 197 0
173 197 0
174 198 0
174 197 0
175 198 0
174 197 0
175 198 0
174 197 0
175 198 0
174 198 0
173 197 0
175 198 0
174 198 0
175 198 0
174 197 0
175 198 0
174 197 0
174 198 0
174 198 0
172 197 0
173 197 0
174 198 0
174 198 0
175 198 0
174 197 0
175 198 0
174 197 0
174 197 0
174 198 0
175 197 0
173 197 0
175 198 0
173 197 0
173 197 0
173 197 0
175 198 0
174 198 0
174 198 0
174 198 0
173 197 0
177 199 0
176 198 0
176 199 0
176 199 0
174 198 0
175 198 0
175 198 0
174 198 0
175 198 0
175 198 0
171 196 0
175 198 0
174 198 0
175 198 0
174 198 0
173 197 0
173 196 0
173 197 0
174 198 0
176 199 0
174 198 0
173 197 0
173 197 0
172 196 0
173 197 0
176 199 0
173 197 0
175 198 0
174 198 0
175 198 0
173 196 0
175 198 0
173 197 0
175 198 0
175 198 0
176 199 0
175 198 0
173 196 0
173 197 0
175 198 0
173 196 0
175 198 0
173 197 0
172 197 0
173 196 0
173 197 0
176 198 0
174 197 0
174 198 0
174 198 0
173 197 0
173 197 0
174 198 0
173 197 0
172 196 0
174 198 0
172 196 0
173 196 0
173 197 0
173 196 0
174 198 0
174 197 0
174 197 0
172 196 0
174 197 0
170 194 0
171 195 0
171 195 0
173 197 0
172 196 0
172 196 0
171 195 0
173 197 0
171 194 0
172 196 0
169 193 0
172 195 0
174 197 0
168 192 0
171 195 0
170 194 0
171 194 0
173 196 0
167 190 0
169 192 0
168 192 0
167 191 0
169 192 0
166 190 0
159 182 0
166 189 0
119 143 76
55 87 99
56 89 107
56 89 101
55 87 99
55 88 117
54 86 99
55 87 102
53 84 87
51 82 88
53 85 104
54 86 100
129 153 72
172 196 0
170 194 0
173 197 0
174 197 0
161 185 25
57 91 118
56 90 113
58 92 124
57 91 111
58 92 115
58 92 124
57 90 114
58 92 115
57 91 117
57 91 118
59 93 125
60 94 130
58 92 125
60 94 134
59 93 125
58 92 122
56 90 115
58 92 122
59 93 121
58 92 130
59 93 121
60 94 133
59 93 130
58 92 122
58 92 122
59 93 128
59 93 118
58 92 115
59 93 133
58 92 133
60 94 124
60 95 129
58 92 115
58 92 126
57 91 121
59 93 125
59 93 134
59 92 121
59 94 122
60 95 139
60 95 129
59 94 129
59 93 128
60 94 125
59 92 131
59 93 128
59 93 130
60 94 129
60 94 130
60 94 134
59 93 124
60 94 129
59 93 128
58 92 114
59 92 126
59 93 129
58 92 122
60 94 133
58 92 126
58 92 117
57 90 115
57 90 120
58 91 118
59 93 133
58 92 128
60 95 137
58 91 115
59 92 117
58 91 121
57 90 122
59 93 132
59 92 128
60 94 131
58 91 121
59 93 127
60 93 125
58 92 118
58 91 122
58 90 126
57 90 126
56 87 115
58 90 115
58 90 126
58 90 121
57 90 114
52 82 97
55 87 114
55 85 108
58 90 119
55 86 108
55 84 100
57 88 121
56 87 111
53 82 93
55 85 104
55 84 114
54 83 104
52 79 98
50 75 84
48 72 83
167 190 32
174 198 0
154 163 45
115 111 47
104 102 36
94 92 32
93 91 31
73 75 22
82 83 13
62 66 18
63 67 19
54 59 19
51 58 23
55 62 27
43 52 25
44 54 30
42 54 30
52 62 34
54 61 24
44 56 27
61 68 30
54 64 36
64 73 30
69 76 31
81 85 25
72 80 34
81 85 32
81 86 30
96 99 35
95 98 37
110 111 41
114 115 37
111 112 36
124 124 45
125 124 51
127 125 46
123 121 47
129 126 50
136 134 48
125 123 36
135 133 52
148 143 54
152 147 54
152 147 54
145 141 46
154 149 53
156 151 45
157 151 51
156 151 52
160 154 52
157 153 45
152 147 49
158 152 54
160 155 49
162 156 59
153 149 45
160 155 56
164 157 56
152 147 44
157 152 49
164 156 64
159 154 48
161 156 48
162 156 56
160 154 53
165 159 62
165 158 60
161 155 58
165 158 58
166 159 62
162 156 52
161 156 47
163 158 54
162 157 49
161 156 54
161 155 52
169 161 69
163 157 56
166 159 61
167 160 62
162 156 57
164 158 57
169 162 62
162 156 62
161 156 52
163 157 60
163 157 51
162 155 53
162 156 54
168 161 66
167 160 65
166 159 65
171 163 65
166 159 61
169 162 67
167 160 64
170 163 66
170 163 68
164 157 57
170 163 67
166 159 62
166 159 63
169 161 63
170 163 68
170 162 70
167 160 60
165 158 59
175 166 76
170 162 65
168 162 62
171 163 71
169 161 68
169 161 66
169 162 67
171 163 68
169 162 65
168 161 64
170 162 70
172 164 70
170 163 69
169 162 67
169 161 64
174 166 74
166 158 65
172 164 73
171 163 72
169 162 70
173 165 72
170 162 69
168 160 69
171 164 73
166 159 56
175 166 78
170 162 69
169 161 64
171 163 73
172 164 73
171 163 73
173 164 75
168 161 64
173 165 75
172 164 71
174 165 76
175 165 79
171 162 69
175 166 75
171 164 72
174 166 77
168 161 62
172 165 74
174 197 0
173 197 0
174 197 0
174 198 0
175 198 0
173 197 0
176 199 0
174 197 0
174 198 0
175 198 0
175 198 0
174 198 0
176 199 0
175 198 0
174 198 0
174 197 0
175 198 0
173 197 0
173 197 0
174 197 0
174 197 0
175 198 0
174 197 0
174 198 0
175 198 0
173 197 0
173 197 0
175 198 0
174 198 0
175 198 0
176 199 0
174 197 0
173 197 0
174 197 0
173 197 0
175 198 0
174 198 0
176 199 0
174 197 0
173 197 0
174 198 0
175 198 0
174 198 0
174 198 0
174 198 0
174 197 0
172 197 0
173 196 0
174 198 0
175 198 0
173 197 0
174 197 0
174 198 0
174 198 0
175 198 0
174 197 0
176 199 0
172 196 0
172 196 0
175 198 0
174 198 0
174 198 0
174 198 0
173 197 0
172 196 0
174 198 0
174 197 0
172 197 0
175 198 0
175 198 0
175 198 0
175 198 0
175 198 0
173 197 0
175 198 0
172 196 0
174 198 0
174 198 0
175 198 0
173 197 0
172 196 0
174 197 0
172 196 0
173 197 0
174 198 0
174 198 0
172 196 0
172 196 0
172 196 0
173 197 0
172 196 0
174 198 0
174 198 0
175 198 0
173 197 0
174 197 0
172 196 0
174 198 0
172 196 0
174 197 0
174 197 0
172 196 0
173 197 0
174 197 0
171 194 0
168 192 0
172 195 0
173 196 0
174 197 0
172 195 0
175 198 0
174 197 0
171 195 0
173 196 0
174 197 0
176 199 0
172 196 0
173 197 0
169 192 0
170 193 0
169 193 0
167 191 0
173 196 0
168 192 0
171 195 0
167 191 0
168 192 0
169 193 0
165 188 0
166 189 0
158 182 0
158 180 0
81 107 80
56 89 95
53 84 96
56 89 89
54 86 101
56 88 107
57 90 105
54 86 97
55 88 109
53 84 99
53 85 85
93 118 79
169 193 25
171 195 0
172 196 0
175 198 0
173 197 0
176 198 0
73 103 110
57 91 108
58 92 121
58 92 117
58 91 124
56 90 115
57 90 107
57 90 121
58 92 120
59 93 133
60 94 126
59 93 125
57 90 124
58 92 126
58 92 120
58 92 118
60 95 135
59 93 130
58 92 121
58 91 122
58 92 118
56 89 110
58 92 126
60 95 124
60 95 139
58 92 126
58 92 122
59 93 125
57 91 122
59 93 120
59 93 133
60 95 134
60 94 135
58 92 122
58 92 135
60 95 128
57 91 124
60 94 133
60 94 134
59 93 129
59 94 130
57 90 126
61 96 135
58 91 122
59 93 129
59 93 128
60 94 131
59 93 122
58 92 121
58 92 121
59 93 128
59 93 126
59 93 125
59 93 124
58 92 124
59 92 113
58 91 113
58 91 117
59 93 129
58 91 124
58 91 123
58 92 131
58 92 121
58 92 117
59 93 124
59 93 118
57 90 123
57 90 122
59 92 140
59 92 118
57 89 121
59 92 131
59 92 130
59 92 125
58 91 127
57 89 107
57 89 124
57 88 116
58 91 125
57 89 116
59 92 122
57 89 116
59 91 123
56 87 114
56 87 117
57 88 118
58 90 122
56 86 106
57 88 115
57 90 113
58 89 113
55 85 117
56 86 105
56 88 110
55 85 116
53 82 93
54 81 92
52 79 100
45 67 67
75 95 73
175 198 0
176 199 0
161 177 28
130 124 57
120 116 49
91 89 29
86 86 26
80 80 25
77 78 27
65 66 25
68 71 16
55 60 21
60 66 24
46 54 22
48 55 26
43 53 25
58 63 29
49 58 25
53 59 23
59 64 23
58 67 29
66 72 28
67 73 28
72 78 33
73 79 33
86 90 26
88 92 34
93 96 26
97 99 36
97 100 30
95 98 32
100 104 36
113 113 41
120 119 39
118 118 42
121 121 41
127 125 48
134 132 46
137 134 48
131 130 38
140 137 42
139 135 51
135 131 50
144 140 42
149 144 51
151 146 44
153 149 53
155 149 56
153 147 49
158 152 51
153 148 44
158 153 44
160 154 52
158 151 53
158 153 54
161 156 56
154 149 51
160 155 56
161 154 60
156 151 48
157 152 47
160 155 53
160 155 44
159 154 47
165 159 57
161 156 49
161 156 49
158 152 51
162 156 56
162 156 63
163 158 53
163 157 54
157 152 45
163 157 58
161 155 53
166 159 65
162 157 49
164 158 57
163 156 61
161 155 49
164 158 54
164 158 58
163 157 54
163 156 54
167 161 62
162 156 59
163 156 54
168 162 63
166 160 63
160 155 52
167 159 65
164 157 54
164 158 57
173 163 76
166 160 60
168 161 65
169 161 68
167 159 63
171 163 68
167 161 67
166 160 60
170 163 68
161 156 56
167 160 62
168 161 64
167 159 63
167 159 62
172 164 72
166 159 63
168 161 64
165 158 60
168 161 63
168 162 65
170 162 71
169 162 66
169 162 66
171 163 70
163 156 56
167 160 59
170 162 65
162 157 51
166 158 63
170 162 68
173 164 74
171 163 71
171 163 73
173 165 72
172 163 75
169 162 66
170 162 72
170 162 69
167 160 59
174 165 75
172 164 71
173 165 73
169 161 65
176 166 80
169 162 65
174 165 77
170 162 70
173 164 75
170 162 68
169 162 68
172 164 75
169 162 64
173 165 73
172 164 72
169 161 64
171 164 71
173 165 75
174 198 0
174 198 0
173 197 0
174 198 0
174 197 0
174 198 0
174 198 0
175 198 0
175 198 0
172 196 0
173 197 0
174 198 0
174 197 0
173 197 0
174 197 0
175 198 0
174 198 0
174 197 0
174 198 0
175 198 0
175 198 0
172 197 0
174 198 0
175 198 0
174 198 0
176 198 0
174 197 0
176 198 0
176 198 0
174 198 0
175 198 0
174 198 0
175 198 0
173 197 0
175 198 0
176 198 0
174 198 0
174 198 0
175 198 0
174 198 0
173 197 0
172 196 0
173 197 0
174 198 0
171 196 0
175 198 0
173 197 0
173 197 0
175 198 0
173 197 0
175 198 0
175 198 0
175 198 0
174 198 0
174 198 0
173 197 0
173 197 0
173 197 0
174 198 0
176 199 0
171 195 0
173 197 0
175 198 0
175 198 0
172 196 0
174 197 0
174 198 0
174 198 0
173 197 0
173 197 0
174 198 0
173 197 0
175 198 0
172 196 0
173 197 0
173 196 0
172 195 0
174 197 0
175 198 0
174 198 0
174 198 0
174 198 0
174 197 0
173 197 0
175 198 0
174 197 0
174 197 0
173 197 0
174 197 0
173 197 0
173 197 0
174 197 0
174 197 0
172 196 0
172 196 0
172 196 0
175 198 0
171 195 0
171 195 0
173 197 0
173 196 0
174 198 0
175 198 0
173 196 0
171 195 0
174 198 0
173 197 0
172 196 0
170 194 0
174 197 0
173 196 0
170 194 0
170 193 0
168 192 0
168 192 0
171 194 0
172 195 0
171 194 0
171 195 0
169 193 0
170 195 0
169 192 0
168 192 0
171 194 0
166 189 0
168 192 0
166 189 0
162 186 0
161 184 0
161 185 0
158 181 0
150 173 31
52 81 72
53 85 92
54 86 92
55 87 93
54 87 103
54 86 95
54 85 84
53 84 89
54 86 95
53 84 81
62 93 102
146 169 51
172 196 0
169 193 0
173 197 0
174 198 0
173 197 0
175 198 0
117 141 84
56 89 113
57 90 99
57 91 113
56 90 113
58 91 102
58 91 115
58 92 129
58 92 130
57 91 124
57 91 115
57 91 117
59 92 124
59 93 125
57 91 111
58 91 120
59 93 134
58 92 113
58 92 121
59 93 120
58 92 130
56 89 103
60 94 130
60 94 131
57 91 110
60 94 134
57 90 113
60 94 133
57 91 117
59 93 131
57 91 115
57 91 121
58 92 128
59 93 126
59 93 128
59 93 121
60 94 128
59 93 126
59 92 118
60 95 128
58 92 125
60 95 131
60 94 130
60 94 126
60 94 128
58 92 131
58 92 125
57 91 113
59 92 114
57 90 124
59 93 124
58 92 118
58 91 120
59 93 120
58 92 124
59 93 129
60 93 129
58 91 110
58 92 126
61 95 139
58 91 121
58 92 121
58 92 121
58 92 130
57 90 117
60 94 135
58 91 120
58 92 118
58 92 134
57 90 113
58 91 118
57 91 114
58 91 129
58 91 130
57 90 109
58 92 123
57 90 103
57 90 115
57 89 110
59 92 121
58 91 124
55 86 102
58 90 121
56 88 114
58 90 116
57 88 114
56 87 108
57 88 115
58 89 127
54 84 111
54 83 93
54 82 103
53 81 104
56 87 113
53 81 91
53 80 99
50 76 87
50 77 85
47 72 79
112 132 63
175 198 0
176 198 0
175 198 0
124 123 44
103 100 43
94 92 33
93 93 34
81 82 20
79 80 26
86 86 27
64 68 17
71 75 17
63 68 19
66 69 18
58 64 23
49 57 27
53 61 28
54 61 25
57 65 24
64 70 29
56 64 30
69 73 26
66 74 31
71 75 23
71 78 34
71 75 27
86 90 31
93 96 30
94 96 28
105 107 30
112 113 27
107 109 30
102 105 30
113 114 39
118 117 31
123 122 41
136 133 45
133 131 34
136 132 47
128 126 47
136 134 41
134 133 37
141 137 45
143 140 33
152 148 43
147 142 44
152 147 46
152 148 42
152 148 42
158 152 54
155 150 44
158 153 48
162 155 61
152 147 39
149 146 39
155 149 51
155 151 48
155 150 47
159 153 47
155 151 37
157 153 44
154 150 41
157 152 42
160 154 51
160 154 51
162 156 53
160 155 48
162 156 54
162 156 52
159 152 51
156 151 51
160 154 52
161 156 49
158 153 48
163 157 58
164 158 54
152 148 37
157 152 48
158 153 48
159 153 44
161 156 44
163 156 49
159 153 49
163 157 54
165 158 60
165 158 61
166 159 59
166 159 57
159 153 48
163 156 56
160 155 54
163 157 56
164 158 56
168 160 63
166 159 63
160 153 47
169 161 66
162 157 53
165 160 60
168 160 63
165 158 56
168 161 63
168 160 59
164 157 57
163 157 54
166 159 63
169 161 64
168 161 65
164 157 61
164 157 58
163 157 54
166 160 61
167 161 57
171 163 69
163 157 56
169 162 69
167 160 62
167 160 62
166 160 59
168 161 61
166 159 58
165 159 57
165 159 57
172 163 71
170 163 65
168 160 64
168 161 62
167 160 63
168 162 62
170 162 66
169 162 68
171 163 69
170 161 67
167 161 62
168 161 67
174 165 75
170 162 70
172 164 74
173 164 71
170 162 67
171 163 68
170 162 69
175 166 77
170 163 66
169 162 65
170 163 71
172 164 71
169 162 69
170 162 67
171 164 74
174 197 0
176 199 0
175 198 0
173 197 0
173 196 0
175 197 0
174 197 0
174 197 0
173 197 0
174 197 0
172 196 0
174 197 0
174 197 0
174 197 0
174 198 0
173 197 0
175 198 0
174 198 0
174 198 0
173 197 0
174 198 0
173 197 0
172 197 0
175 198 0
174 197 0
173 197 0
176 198 0
174 198 0
174 198 0
173 197 0
174 197 0
174 198 0
175 198 0
173 197 0
175 198 0
173 197 0
173 197 0
174 198 0
173 197 0
175 198 0
175 198 0
175 198 0
173 197 0
174 197 0
173 197 0
173 197 0
173 196 0
174 197 0
175 198 0
174 197 0
174 197 0
174 197 0
174 198 0
173 197 0
173 196 0
173 197 0
176 198 0
173 197 0
175 198 0
173 197 0
174 197 0
174 197 0
173 196 0
174 198 0
174 197 0
174 197 0
173 197 0
174 198 0
172 196 0
174 198 0
175 198 0
173 197 0
173 197 0
174 198 0
176 199 0
174 198 0
173 196 0
172 196 0
173 197 0
173 197 0
174 197 0
171 194 0
172 196 0
173 197 0
173 197 0
172 195 0
174 198 0
172 196 0
173 196 0
174 197 0
173 196 0
174 197 0
172 196 0
172 196 0
172 196 0
172 196 0
174 197 0
172 196 0
171 195 0
171 195 0
169 193 0
170 193 0
171 194 0
173 196 0
173 197 0
174 197 0
174 197 0
173 196 0
171 195 0
173 196 0
168 192 0
169 192 0
171 195 0
171 194 0
169 193 0
170 193 0
165 189 0
167 191 0
171 195 0
166 190 0
168 192 0
169 192 0
165 188 0
166 190 0
166 189 0
169 193 0
160 183 0
160 183 0
168 190 0
165 189 0
149 171 0
117 139 57
53 84 89
52 83 80
56 88 99
55 87 97
53 85 92
54 85 95
54 86 92
54 86 99
53 84 86
51 81 82
131 154 70
167 191 0
170 194 0
172 195 0
176 198 0
175 198 0
174 198 0
174 198 0
150 174 54
56 89 115
57 90 115
56 89 103
55 88 108
57 90 114
58 92 118
58 92 120
59 93 122
58 92 115
58 92 118
58 92 122
59 93 120
58 91 122
59 92 124
58 92 126
60 93 118
57 91 108
59 93 124
59 93 122
58 92 118
57 91 115
58 92 120
60 94 128
59 93 125
56 89 102
57 91 121
59 94 129
58 92 126
58 92 120
60 94 131
59 94 129
60 94 130
60 95 135
58 92 118
59 94 137
57 90 107
58 92 120
58 92 121
58 91 117
59 93 121
59 93 126
57 91 115
60 94 130
60 94 131
60 94 126
57 90 107
58 91 117
58 92 117
60 94 129
60 95 126
58 93 115
61 95 134
59 93 129
58 92 122
55 87 107
57 91 114
57 91 114
59 93 124
58 91 125
58 91 121
60 93 126
59 93 129
59 92 124
59 92 125
58 91 124
58 91 120
56 89 122
59 93 131
58 90 118
58 91 120
59 92 118
57 89 110
58 92 120
60 95 136
59 93 121
58 91 110
58 91 124
57 89 107
57 91 115
58 90 114
56 88 106
58 90 118
55 88 108
57 88 118
57 89 113
58 90 119
58 90 115
57 89 122
57 89 119
54 83 108
54 85 109
55 84 97
53 83 100
53 82 98
55 84 103
50 76 73
52 79 97
48 72 83
148 169 41
174 197 0
172 197 0
174 198 0
154 165 39
123 120 46
126 121 49
99 97 25
105 102 37
94 93 22
93 94 27
90 89 15
81 84 17
62 65 14
63 66 20
58 64 18
61 66 21
56 61 19
64 68 27
63 69 27
55 62 23
67 71 23
62 69 27
71 76 28
75 78 24
74 79 34
88 91 26
75 82 30
85 90 35
89 92 22
92 96 34
102 103 28
109 109 32
101 104 23
103 105 30
123 122 36
126 124 34
128 126 29
121 120 18
132 130 32
128 128 36
134 131 33
147 142 43
140 136 36
143 139 44
139 137 33
148 143 40
151 146 39
149 145 44
152 147 37
151 147 41
154 149 36
149 145 34
152 147 39
159 153 51
157 152 47
154 151 32
156 151 44
154 149 44
160 155 52
156 151 49
160 154 45
148 145 30
156 151 42
157 152 47
158 154 42
157 152 45
155 150 48
158 152 44
159 153 51
156 151 37
160 154 48
160 155 45
160 155 47
162 156 53
156 151 37
157 152 41
157 153 39
160 154 47
162 156 53
162 157 53
164 158 57
161 156 48
162 157 48
161 155 51
163 156 53
163 157 59
160 155 42
162 155 56
161 156 52
160 154 42
163 156 59
167 160 60
158 152 48
166 160 57
164 157 59
166 160 57
167 160 56
162 156 53
167 160 61
165 159 56
166 160 60
163 157 53
166 159 58
163 156 56
168 160 62
165 160 53
163 157 58
170 162 65
167 159 62
163 157 56
171 163 71
166 159 61
167 160 58
169 161 68
165 158 54
163 157 49
169 162 66
166 159 58
166 159 58
169 162 66
170 162 61
163 157 54
167 160 61
165 158 59
168 161 64
165 159 57
170 163 67
168 161 61
168 161 67
168 160 66
169 161 63
165 158 60
172 164 70
166 160 60
164 157 57
168 161 66
172 164 71
169 162 69
170 163 71
168 161 68
166 160 59
170 163 69
169 162 64
168 161 66
167 160 63
176 166 77
172 164 73
175 166 80
171 163 70
170 163 68
173 197 0
173 197 0
174 198 0
173 197 0
172 196 0
173 196 0
174 197 0
174 197 0
175 198 0
174 197 0
175 198 0
172 196 0
173 197 0
175 198 0
173 197 0
176 198 0
173 197 0
173 197 0
173 197 0
175 198 0
175 198 0
175 198 0
174 197 0
175 198 0
174 198 0
173 197 0
176 198 0
174 197 0
174 197 0
174 198 0
173 197 0
174 198 0
174 198 0
175 198 0
174 198 0
174 197 0
172 196 0
174 198 0
174 198 0
174 198 0
174 198 0
174 197 0
173 196 0
173 197 0
174 197 0
174 198 0
174 197 0
170 194 0
174 197 0
172 196 0
174 198 0
175 198 0
173 197 0
175 198 0
173 197 0
176 199 0
176 198 0
173 196 0
173 197 0
174 198 0
173 197 0
171 195 0
172 196 0
174 197 0
174 197 0
173 196 0
173 197 0
174 197 0
174 198 0
174 197 0
175 197 0
173 197 0
173 197 0
174 197 0
172 195 0
173 197 0
175 198 0
175 198 0
175 198 0
175 198 0
172 196 0
172 196 0
172 196 0
173 197 0
171 195 0
172 196 0
173 196 0
174 197 0
170 194 0
172 196 0
170 194 0
171 195 0
174 198 0
175 198 0
173 197 0
171 195 0
173 196 0
171 195 0
171 195 0
171 195 0
172 195 0
171 194 0
171 194 0
169 193 0
171 194 0
170 194 0
174 197 0
170 193 0
171 195 0
173 196 0
171 195 0
170 193 0
169 193 0
168 192 0
170 194 0
166 189 0
169 192 0
171 194 0
170 193 0
171 194 0
164 188 0
167 191 0
165 189 0
161 184 0
164 187 0
168 192 0
159 183 0
168 191 0
160 183 0
152 174 0
148 170 0
81 105 62
52 83 84
55 87 90
53 85 83
52 84 82
54 85 76
57 89 101
53 84 79
54 85 94
54 86 100
123 146 72
159 183 0
172 195 0
166 189 0
174 197 0
173 197 0
174 198 0
174 198 0
175 198 0
173 196 18
56 89 112
56 89 111
59 92 122
58 91 118
57 90 110
58 92 113
57 90 125
57 90 118
58 92 114
58 92 110
60 94 129
59 93 118
59 93 125
58 91 126
58 92 120
58 92 122
58 92 122
59 92 126
57 90 107
57 91 121
58 91 114
59 93 133
59 92 125
58 92 130
59 93 133
58 92 121
59 93 124
58 91 115
59 93 117
57 90 115
57 91 124
59 93 121
58 92 130
59 93 124
59 92 125
58 91 117
58 92 124
59 93 129
58 92 115
59 94 126
58 92 114
59 93 131
59 92 124
58 91 117
58 92 124
58 92 121
58 92 118
58 92 121
58 93 115
58 92 116
58 91 115
57 91 122
56 89 113
58 91 117
59 93 129
58 92 121
56 89 111
57 90 115
59 92 128
58 92 124
58 92 125
58 92 123
56 88 111
59 93 124
57 91 115
58 92 108
58 91 120
58 91 114
58 91 120
58 91 113
57 90 120
57 89 115
58 90 118
57 89 114
57 90 111
57 90 110
58 91 120
58 90 119
59 92 126
57 89 114
57 89 118
57 89 118
57 88 109
57 89 109
56 88 108
57 90 118
55 86 108
56 87 112
54 84 94
55 86 111
55 85 103
53 82 99
53 82 103
52 82 101
53 82 101
51 79 94
47 71 66
66 87 73
174 197 0
174 197 0
173 197 0
173 197 0
167 186 22
115 111 41
112 108 46
118 114 37
97 96 30
84 85 28
94 92 25
80 82 23
81 84 21
75 77 14
71 75 18
65 70 21
71 74 24
70 75 21
64 69 26
62 68 24
59 66 28
67 72 24
65 70 27
74 78 30
70 73 24
76 79 24
77 80 22
86 88 25
89 91 27
94 94 24
100 103 23
98 98 31
95 98 18
113 113 27
108 109 23
118 115 27
118 117 33
123 123 20
130 129 37
128 127 36
125 124 33
129 127 31
132 130 25
135 133 24
144 141 38
149 144 44
145 140 32
145 141 34
146 143 32
147 143 41
149 144 39
147 143 39
151 146 37
147 144 28
146 142 28
153 148 41
153 149 37
150 146 41
151 146 42
158 152 52
153 148 47
155 150 41
150 146 44
154 149 42
156 151 45
148 145 28
156 151 47
156 150 44
150 146 32
156 152 41
157 151 41
157 153 41
158 153 47
155 150 41
152 149 32
159 154 45
158 154 37
150 147 34
157 152 42
158 152 42
158 153 45
155 150 44
163 156 53
158 152 47
157 152 45
159 154 42
165 157 57
158 152 42
162 156 54
159 155 48
166 158 61
161 156 47
160 154 52
164 158 57
165 158 56
163 157 45
161 155 49
164 156 56
164 158 58
164 158 54
165 158 56
161 155 48
163 157 53
166 159 63
159 154 42
164 158 54
161 155 49
167 160 57
163 157 59
169 162 65
164 158 57
163 156 54
161 155 52
168 160 63
164 157 58
163 157 52
163 157 53
165 158 60
170 162 67
166 160 63
169 160 67
168 161 67
167 160 61
168 160 64
165 158 56
164 158 56
169 162 63
163 157 49
167 160 59
168 161 62
168 162 63
166 159 56
166 159 60
170 162 68
169 162 65
167 160 62
173 165 72
170 162 64
168 161 64
171 163 72
165 159 57
169 162 65
168 161 62
169 161 67
166 160 58
173 165 72
173 165 74
173 164 74
173 165 75
170 163 69
167 161 63
172 196 0
175 198 0
174 197 0
172 196 0
173 196 0
171 195 0
175 198 0
174 198 0
174 197 0
173 197 0
174 197 0
174 197 0
175 198 0
176 199 0
173 197 0
175 198 0
173 196 0
172 196 0
175 198 0
173 197 0
173 196 0
174 198 0
173 197 0
175 198 0
174 197 0
173 197 0
174 197 0
173 197 0
175 198 0
174 197 0
173 197 0
175 198 0
175 198 0
175 198 0
171 196 0
173 197 0
174 197 0
173 197 0
174 197 0
173 197 0
173 197 0
173 197 0
174 198 0
174 197 0
172 196 0
172 195 0
175 198 0
172 196 0
174 197 0
174 197 0
173 196 0
173 196 0
173 197 0
176 199 0
174 198 0
174 197 0
174 197 0
174 197 0
176 198 0
172 196 0
175 198 0
175 198 0
172 196 0
173 197 0
174 197 0
174 197 0
173 197 0
174 197 0
174 197 0
173 197 0
174 197 0
174 197 0
172 196 0
173 197 0
173 196 0
173 197 0
174 197 0
174 197 0
173 197 0
173 196 0
172 196 0
172 196 0
175 198 0
171 195 0
173 196 0
172 195 0
171 195 0
174 197 0
173 197 0
172 196 0
172 196 0
174 197 0
174 198 0
171 195 0
169 193 0
172 195 0
172 196 0
170 193 0
173 196 0
173 196 0
171 195 0
172 196 0
172 195 0
171 195 0
171 195 0
172 195 0
170 193 0
172 195 0
168 191 0
171 194 0
171 195 0
169 192 0
166 190 0
168 192 0
168 192 0
170 193 0
171 194 0
167 190 0
169 193 0
166 190 0
166 191 0
168 192 0
168 191 0
163 186 0
164 189 0
160 184 0
164 187 0
153 176 0
156 178 0
143 165 0
115 136 31
53 84 82
53 84 78
52 83 82
55 88 89
53 84 76
53 85 97
54 86 90
54 85 90
55 87 88
106 130 57
157 179 18
160 183 0
167 190 0
167 191 0
172 195 0
175 198 0
174 198 0
174 198 0
173 196 0
173 197 0
101 125 88
54 85 88
58 92 128
56 89 100
56 89 103
57 90 115
58 91 124
57 91 117
57 90 111
57 90 117
57 91 108
59 92 117
59 93 120
58 91 117
58 92 114
57 90 120
58 92 124
58 92 121
58 92 120
58 91 121
57 91 121
57 90 110
57 90 105
57 91 126
57 91 115
57 90 105
58 91 120
58 92 115
58 92 126
57 91 117
57 90 115
57 91 124
57 90 114
59 93 133
58 92 113
57 90 108
59 92 118
57 91 117
57 90 103
58 92 120
58 92 125
57 90 111
58 92 118
59 92 128
57 91 107
59 94 129
58 91 122
59 92 121
58 93 129
58 92 120
60 94 134
59 93 126
60 94 130
57 90 129
59 92 126
59 93 125
58 92 121
58 91 110
60 94 124
60 94 126
58 92 129
58 90 122
58 91 132
59 93 128
58 91 115
56 88 108
58 90 118
58 91 116
58 92 117
55 87 111
57 90 116
58 91 127
56 88 110
57 90 121
57 89 111
57 90 118
57 89 111
56 89 108
58 90 124
58 90 111
56 88 111
57 88 112
57 89 119
57 89 116
59 92 127
53 82 93
54 84 109
52 81 92
54 84 101
54 84 99
53 83 107
53 82 103
54 83 107
53 81 95
50 77 93
51 77 87
47 71 81
110 130 59
173 197 0
172 196 0
172 196 0
174 197 0
176 199 0
135 142 30
111 107 42
120 116 43
97 96 26
78 78 22
94 91 30
88 88 19
86 87 14
72 74 14
83 83 11
67 71 19
71 76 28
73 75 20
66 69 18
64 68 17
58 63 19
66 72 26
68 74 27
82 85 18
71 77 27
84 87 28
76 81 30
88 90 26
91 94 24
96 98 33
102 103 23
99 101 22
105 105 20
115 116 21
119 118 24
115 116 23
115 114 18
112 113 21
123 122 25
116 116 21
129 128 24
132 130 31
132 130 28
145 141 40
138 134 34
144 140 31
146 141 37
142 139 32
141 139 19
144 142 19
147 143 25
150 146 36
154 149 36
150 145 30
148 144 32
149 145 25
151 147 32
156 151 42
151 147 37
150 145 36
157 153 37
152 147 37
155 149 39
151 147 30
155 150 34
156 150 47
157 152 44
153 148 37
155 149 42
156 153 36
159 153 45
155 151 36
156 150 45
159 154 49
158 152 47
160 155 44
155 149 47
160 154 51
158 152 48
161 155 45
154 150 30
158 152 45
154 149 45
162 156 52
156 150 47
158 153 41
160 154 47
163 157 53
160 155 41
159 153 47
164 156 48
156 151 36
164 158 53
160 154 42
159 155 41
164 157 49
160 155 45
165 158 54
162 156 51
160 154 42
161 155 51
164 158 53
161 155 54
159 154 47
165 158 58
164 157 49
167 160 65
160 155 44
162 156 53
165 158 56
160 154 45
161 156 49
162 156 49
163 157 51
162 157 54
163 156 51
161 155 42
164 157 57
167 160 62
166 159 61
166 159 59
164 158 59
167 159 61
167 160 63
168 161 61
163 157 53
169 161 68
161 155 48
166 159 60
167 159 63
166 160 61
171 162 69
169 162 67
174 165 75
166 159 59
168 161 64
164 158 54
171 163 69
166 159 59
167 160 58
172 163 72
165 158 58
168 161 66
169 162 63
165 159 56
168 161 63
170 163 67
170 162 65
170 162 69
172 164 72
171 163 70
173 196 0
173 197 0
174 197 0
172 196 0
173 197 0
174 197 0
172 196 0
175 198 0
172 196 0
174 197 0
173 197 0
174 197 0
175 198 0
171 195 0
174 198 0
174 198 0
173 197 0
174 197 0
177 199 0
172 195 0
171 195 0
172 197 0
174 198 0
174 198 0
175 198 0
175 198 0
174 198 0
173 197 0
173 197 0
175 198 0
175 198 0
174 197 0
173 197 0
174 197 0
175 198 0
174 198 0
174 198 0
174 197 0
174 198 0
174 198 0
174 197 0
173 197 0
174 197 0
173 197 0
174 198 0
175 198 0
175 198 0
173 197 0
171 196 0
175 198 0
172 197 0
174 197 0
174 198 0
171 195 0
174 197 0
175 198 0
173 197 0
175 198 0
175 198 0
174 197 0
173 197 0
175 198 0
172 196 0
172 196 0
174 198 0
172 196 0
173 196 0
172 196 0
173 197 0
171 195 0
174 198 0
174 197 0
174 198 0
173 196 0
172 196 0
173 197 0
174 197 0
171 195 0
174 197 0
172 195 0
173 197 0
173 197 0
174 197 0
172 196 0
174 197 0
173 196 0
173 197 0
172 196 0
175 198 0
173 197 0
170 194 0
175 198 0
172 196 0
173 197 0
169 192 0
170 194 0
172 196 0
173 197 0
171 195 0
172 195 0
172 196 0
171 195 0
171 195 0
174 197 0
171 195 0
167 190 0
173 197 0
173 196 0
171 194 0
167 191 0
172 195 0
169 192 0
167 190 0
168 191 0
166 190 0
170 193 0
166 189 0
165 189 0
163 187 0
160 184 0
161 185 0
169 191 0
164 187 0
160 183 0
154 177 0
157 180 0
158 181 0
157 180 0
148 171 0
133 154 0
92 115 60
52 83 74
55 87 80
52 83 78
49 79 72
52 83 88
52 82 70
53 85 67
60 89 70
113 137 51
150 172 0
157 180 0
153 177 0
159 183 0
172 196 0
175 198 0
174 197 0
172 196 0
173 197 0
171 195 0
174 197 0
153 176 62
57 91 115
56 88 108
57 91 118
58 93 121
57 90 117
57 90 110
55 88 110
58 92 124
57 91 107
59 94 125
56 89 111
56 90 114
58 91 118
58 92 114
58 92 121
58 91 111
58 92 118
59 93 126
57 90 111
58 91 110
59 93 125
57 90 107
58 92 124
57 90 107
57 90 111
56 90 111
59 93 121
59 92 121
56 89 99
58 91 115
58 91 120
58 92 121
57 90 102
59 93 126
58 92 122
59 92 117
58 92 120
56 89 113
58 92 122
58 91 118
58 92 117
58 91 121
57 91 110
59 93 131
59 93 120
58 92 114
58 91 114
59 92 115
58 91 114
57 91 107
58 91 120
56 89 108
58 92 124
58 91 113
59 93 118
59 93 117
59 93 126
57 91 117
57 90 113
58 91 110
58 91 114
57 90 121
59 93 124
57 91 113
57 90 125
58 91 121
59 92 119
56 89 113
56 89 120
59 92 123
59 92 129
58 91 114
58 91 122
57 90 110
56 88 111
57 89 114
58 90 116
58 90 118
57 89 112
56 89 110
58 91 119
57 88 116
56 87 115
58 90 122
55 86 119
54 83 96
53 82 92
54 84 102
53 82 96
54 82 98
52 80 86
53 81 87
53 80 98
50 77 74
50 75 85
49 75 91
149 170 35
173 196 0
175 198 0
174 198 0
173 197 0
175 198 0
158 175 25
126 120 44
107 103 38
116 112 43
104 101 32
91 91 26
100 99 30
88 89 14
87 88 17
83 83 16
69 72 15
67 70 15
77 78 21
64 69 21
78 80 18
67 72 17
72 76 17
83 83 17
74 75 23
71 76 25
85 87 21
84 88 23
80 83 18
96 98 19
94 96 24
96 97 20
105 107 24
98 99 18
105 105 13
109 109 19
114 115 24
117 116 14
118 117 21
123 121 11
127 126 23
124 124 11
130 127 26
132 129 18
138 134 30
144 141 19
141 138 19
139 136 25
145 142 19
144 141 11
146 142 19
146 141 22
144 141 11
143 137 32
142 139 19
147 143 30
149 146 22
151 148 25
150 147 32
152 149 34
151 149 22
147 143 22
153 150 32
151 149 19
149 146 22
152 148 28
150 147 32
151 147 32
148 145 19
153 149 16
153 150 28
156 150 34
152 148 30
157 151 37
155 151 34
156 152 32
152 148 30
157 153 36
159 153 48
158 152 42
157 152 41
156 151 32
157 152 41
153 150 28
159 153 42
161 156 44
151 147 32
161 154 45
155 151 30
159 154 39
154 149 42
157 151 39
160 154 49
155 150 34
161 154 47
162 155 49
160 154 48
159 153 42
158 153 44
160 154 45
163 156 54
165 158 53
161 156 45
164 158 48
156 152 41
164 157 54
161 154 49
162 156 45
164 158 53
162 155 45
158 153 47
160 153 49
161 156 44
159 154 44
165 157 58
165 158 58
162 156 48
161 155 57
158 152 39
165 158 53
167 160 59
166 159 60
162 156 48
163 157 49
161 155 53
166 159 56
163 157 53
162 157 54
165 159 52
165 158 58
167 159 62
164 158 57
163 156 59
168 160 62
167 160 59
167 160 63
169 161 64
167 160 59
165 157 56
168 161 63
166 158 61
171 163 68
167 159 60
166 159 58
168 161 66
166 159 59
168 161 63
170 162 65
171 163 68
170 163 68
167 161 62
167 160 62
175 198 0
174 197 0
174 198 0
173 197 0
173 196 0
174 197 0
173 197 0
175 198 0
173 197 0
174 197 0
174 198 0
173 197 0
174 197 0
173 197 0
175 198 0
173 197 0
173 197 0
175 198 0
175 198 0
175 198 0
175 198 0
173 197 0
175 198 0
174 198 0
173 197 0
172 196 0
175 198 0
173 197 0
174 198 0
175 198 0
174 198 0
175 198 0
176 199 0
174 197 0
173 197 0
173 197 0
174 198 0
174 198 0
172 196 0
174 198 0
174 198 0
173 197 0
173 196 0
174 198 0
174 198 0
174 198 0
174 196 0
175 198 0
173 197 0
174 197 0
173 197 0
174 197 0
173 197 0
175 197 0
172 196 0
173 196 0
172 196 0
173 196 0
172 196 0
174 198 0
172 196 0
173 197 0
174 198 0
173 197 0
171 196 0
174 197 0
174 197 0
174 197 0
174 197 0
171 195 0
174 197 0
174 198 0
173 197 0
174 198 0
173 197 0
173 197 0
172 194 0
174 198 0
171 195 0
174 198 0
172 196 0
173 196 0
171 195 0
171 195 0
173 197 0
171 195 0
172 195 0
171 194 0
173 196 0
173 196 0
172 196 0
172 195 0
168 192 0
173 196 0
171 195 0
172 195 0
170 194 0
173 196 0
173 196 0
169 193 0
171 195 0
176 198 0
171 195 0
169 193 0
172 195 0
169 192 0
169 193 0
171 194 0
166 189 0
167 191 0
169 192 0
168 191 0
168 191 0
166 189 0
169 193 0
165 188 0
164 188 0
166 189 0
161 184 0
161 184 0
161 185 0
166 189 0
166 190 0
164 186 0
156 179 0
151 174 0
157 180 0
152 174 0
149 169 0
108 127 31
49 78 57
50 80 78
54 85 76
52 83 78
50 81 62
50 80 70
51 82 62
87 111 57
130 151 18
139 161 0
148 171 0
154 176 0
163 187 0
166 190 0
170 193 0
173 196 0
173 197 0
175 197 0
173 196 0
172 196 0
172 196 0
171 195 25
70 99 97
56 88 108
57 91 120
55 88 105
56 89 122
56 89 107
56 89 110
58 91 115
57 89 110
57 91 114
57 90 107
57 90 115
60 94 122
57 90 110
59 93 120
57 91 113
58 92 131
57 90 125
58 92 108
59 93 129
57 90 108
58 92 117
57 90 114
58 91 107
55 88 105
61 95 136
58 92 121
59 93 114
56 89 100
58 91 121
57 90 114
57 91 108
57 90 115
58 92 121
59 93 121
58 92 117
57 90 124
58 91 125
58 91 120
57 91 122
58 91 130
58 91 128
58 92 120
59 93 120
60 94 128
58 92 120
58 91 120
58 92 120
57 90 110
58 92 115
59 93 131
57 90 122
58 92 118
58 91 115
58 92 125
58 91 115
59 93 133
58 92 121
59 93 128
59 93 133
57 90 108
56 89 118
59 93 126
57 90 113
58 91 123
58 90 117
57 89 107
57 90 110
58 90 113
58 91 124
58 91 125
58 90 115
57 89 124
56 88 102
56 87 112
57 89 113
56 87 112
55 85 110
57 88 110
57 89 114
56 88 114
55 87 104
56 87 120
55 85 117
56 87 116
56 86 102
55 85 107
56 86 108
55 85 102
51 79 87
52 79 90
53 82 97
53 80 99
51 77 80
48 72 72
69 92 82
173 196 0
171 195 0
173 196 0
175 198 0
173 196 0
169 192 0
171 194 0
139 141 44
133 127 61
117 113 47
105 102 22
113 110 36
96 94 21
100 98 23
80 81 16
84 84 10
71 72 20
80 82 13
72 73 22
73 76 18
73 76 20
84 85 14
88 88 20
77 79 12
82 84 21
78 81 22
81 83 21
86 88 18
81 83 19
87 89 27
88 91 31
92 92 12
110 110 18
105 105 18
108 109 18
108 107 18
114 114 19
112 112 16
120 118 18
118 118 16
124 124 11
133 131 14
133 131 11
134 133 0
135 131 0
138 136 8
136 135 0
142 139 11
136 134 0
139 138 11
134 132 0
138 134 11
143 139 11
141 139 11
147 144 0
143 140 19
146 144 16
142 139 19
153 148 22
150 147 11
153 150 11
148 145 25
149 146 22
153 149 22
147 144 16
147 144 16
142 138 11
148 144 19
151 147 34
152 148 32
152 148 28
153 148 19
153 148 32
153 149 36
152 148 30
153 150 28
156 150 32
148 146 22
155 150 30
155 150 30
154 150 28
155 150 28
158 152 42
152 149 28
156 151 36
160 155 41
151 147 32
158 152 41
155 151 36
158 153 44
159 153 37
157 152 37
159 153 42
155 150 44
155 151 36
159 153 47
155 151 34
157 152 36
157 152 39
154 150 39
162 156 48
160 155 39
164 157 52
158 154 42
159 154 41
164 157 51
161 156 48
160 155 41
163 157 53
163 158 47
161 155 49
161 156 45
161 155 56
161 155 47
158 154 41
160 155 48
166 159 57
164 158 54
161 155 51
163 157 48
164 157 53
163 157 48
164 158 52
162 156 51
162 157 49
164 157 53
162 156 47
162 156 49
164 158 56
163 156 52
166 159 58
170 161 64
166 159 60
162 156 45
164 158 53
167 160 58
165 159 56
166 159 57
169 161 65
169 162 63
167 160 60
166 159 60
164 158 56
165 158 56
167 160 66
166 159 60
169 160 66
166 160 62
169 161 67
170 163 69
165 159 58
168 161 64
175 198 0
174 198 0
173 197 0
172 197 0
174 198 0
173 197 0
173 197 0
173 197 0
173 197 0
175 198 0
174 197 0
172 196 0
173 197 0
174 198 0
173 197 0
173 197 0
173 197 0
174 198 0
175 197 0
173 197 0
174 197 0
172 197 0
175 198 0
174 198 0
175 198 0
175 198 0
174 198 0
174 198 0
174 198 0
175 198 0
173 197 0
175 198 0
172 196 0
173 197 0
174 198 0
175 198 0
171 196 0
174 197 0
174 197 0
174 197 0
172 196 0
174 197 0
175 198 0
175 197 0
172 196 0
174 198 0
174 197 0
174 197 0
173 197 0
173 196 0
174 198 0
173 196 0
174 198 0
173 197 0
172 196 0
172 196 0
173 197 0
175 198 0
172 196 0
175 198 0
174 197 0
173 197 0
174 197 0
173 197 0
174 197 0
174 197 0
173 197 0
172 196 0
173 196 0
175 198 0
173 196 0
173 197 0
172 196 0
172 196 0
174 197 0
174 198 0
174 198 0
174 197 0
173 197 0
173 197 0
174 196 0
174 198 0
171 195 0
171 195 0
171 195 0
171 194 0
170 193 0
174 197 0
172 196 0
172 195 0
169 193 0
172 195 0
170 194 0
169 192 0
172 194 0
172 195 0
171 195 0
169 192 0
169 192 0
173 196 0
175 198 0
170 194 0
171 194 0
171 194 0
173 196 0
172 195 0
170 193 0
171 194 0
170 193 0
168 191 0
165 188 0
165 188 0
166 189 0
168 192 0
163 187 0
165 189 0
164 187 0
165 189 0
164 186 0
158 180 0
156 179 0
162 184 0
159 182 0
154 177 0
154 177 0
148 170 0
147 170 0
146 167 0
127 145 0
67 89 51
50 80 60
46 74 54
47 76 36
50 80 70
54 84 70
83 104 54
112 132 40
134 155 0
136 158 0
151 173 0
148 170 0
159 183 0
169 192 0
166 190 0
174 197 0
174 198 0
172 196 0
171 196 0
174 197 0
174 197 0
171 194 0
171 195 0
128 151 80
57 89 113
55 87 102
54 87 102
54 87 100
57 90 100
56 89 110
57 90 110
58 91 122
56 90 108
57 90 107
58 92 115
56 89 103
57 91 111
58 92 117
57 90 122
58 92 115
58 91 122
59 93 124
56 90 107
57 91 118
57 90 114
56 89 107
58 92 120
57 90 113
58 92 120
58 92 115
59 92 125
59 93 128
59 92 118
58 92 120
59 94 124
57 90 110
58 92 122
57 90 111
56 89 113
56 90 113
58 92 122
57 89 108
58 91 121
57 91 122
58 92 124
58 91 114
57 90 110
58 92 115
60 93 128
58 92 117
57 91 124
58 91 117
58 92 114
60 93 129
57 90 114
59 93 125
58 91 122
56 89 115
58 91 110
57 90 125
57 90 114
59 93 117
58 91 119
58 92 121
58 91 124
57 90 117
56 88 114
57 90 118
57 90 113
56 89 113
57 90 107
58 91 120
59 94 120
57 90 113
57 90 113
58 90 120
57 90 120
57 89 109
54 83 98
56 89 106
57 88 114
57 88 111
58 90 119
54 85 90
56 88 106
56 87 110
57 88 112
54 84 109
54 84 102
51 80 89
57 88 108
56 87 96
52 79 91
53 80 94
52 80 93
51 77 86
52 80 85
49 73 62
127 148 46
174 198 0
174 197 0
173 197 0
171 194 0
172 195 0
172 195 0
173 197 0
151 164 32
124 118 41
115 111 36
110 107 33
105 103 30
108 104 33
93 92 27
84 85 18
92 90 15
83 84 15
89 87 11
81 83 19
85 87 23
78 78 11
72 71 19
80 81 18
66 69 16
71 73 22
77 79 18
83 85 22
87 88 20
93 95 19
97 98 20
100 101 18
102 103 19
105 106 20
98 99 20
117 116 16
112 112 18
113 112 11
119 119 18
119 118 11
125 123 18
113 113 16
119 118 8
131 129 8
124 123 0
138 135 0
139 136 8
143 140 0
136 135 0
140 138 0
134 131 0
139 135 0
135 133 0
141 138 0
138 136 0
138 135 0
141 140 0
138 136 0
140 140 0
143 140 0
140 139 0
142 139 0
143 140 0
145 142 11
148 144 0
147 145 19
149 146 16
150 146 16
147 144 19
147 144 19
150 146 19
149 145 11
149 146 19
148 144 11
152 149 22
145 143 11
151 147 19
154 150 22
149 145 16
152 149 22
151 148 22
154 149 28
154 150 30
151 148 30
151 146 30
151 148 32
158 153 36
161 155 44
157 152 32
151 147 30
155 149 25
154 150 30
159 154 36
152 148 32
157 151 39
158 153 39
158 152 39
158 153 41
159 153 41
154 150 36
153 148 28
161 155 45
155 150 28
158 153 42
160 155 39
161 156 44
158 153 44
162 155 51
157 153 36
162 155 49
163 156 49
160 155 39
163 156 49
162 156 49
163 157 49
159 153 44
161 155 45
161 156 42
160 155 39
162 157 47
166 158 58
161 155 54
162 156 53
155 151 34
163 157 53
162 156 51
166 159 58
162 156 47
167 160 60
161 155 45
165 157 58
164 158 52
165 158 54
167 160 56
165 158 59
160 155 47
162 156 52
162 156 54
163 157 54
164 157 58
162 156 52
167 160 61
163 157 51
164 158 57
168 161 63
169 161 61
171 163 71
165 159 54
166 160 58
167 160 59
165 159 58
168 160 68
167 160 62
174 197 0
174 197 0
174 197 0
173 197 0
175 198 0
173 197 0
175 198 0
172 195 0
174 197 0
173 196 0
173 197 0
171 195 0
174 197 0
174 197 0
173 196 0
174 197 0
175 198 0
172 196 0
174 197 0
173 196 0
174 197 0
172 196 0
174 197 0
173 197 0
173 197 0
174 197 0
176 199 0
173 197 0
173 197 0
174 197 0
172 196 0
173 197 0
174 197 0
173 196 0
171 196 0
174 197 0
172 197 0
174 198 0
172 196 0
173 197 0
173 196 0
173 197 0
174 197 0
173 197 0
175 198 0
173 196 0
172 196 0
173 196 0
174 197 0
174 197 0
174 197 0
174 198 0
172 196 0
173 196 0
172 196 0
173 197 0
174 197 0
172 196 0
171 195 0
174 198 0
172 196 0
174 198 0
172 195 0
174 197 0
171 195 0
175 198 0
170 194 0
175 198 0
173 197 0
175 197 0
173 196 0
173 196 0
174 197 0
172 195 0
173 197 0
171 195 0
176 199 0
172 196 0
172 196 0
172 196 0
175 198 0
172 195 0
173 196 0
173 197 0
171 194 0
172 195 0
172 194 0
173 196 0
172 195 0
173 196 0
172 195 0
169 192 0
172 196 0
175 198 0
173 196 0
172 195 0
171 194 0
175 197 0
173 196 0
172 195 0
169 193 0
168 190 0
171 193 0
167 190 0
169 192 0
168 191 0
169 193 0
170 193 0
165 188 0
170 194 0
163 186 0
168 190 0
167 190 0
162 185 0
167 190 0
160 183 0
167 190 0
160 182 0
158 181 0
161 183 0
168 191 0
161 184 0
161 185 0
155 177 0
158 181 0
150 172 0
140 160 0
128 148 0
103 119 0
57 74 25
82 101 36
54 77 47
75 93 31
102 119 31
107 124 0
116 135 0
125 145 0
140 161 0
141 162 0
144 166 0
145 167 0
157 180 0
163 186 0
168 192 0
173 196 0
174 197 0
174 197 0
174 197 0
173 196 0
173 197 0
172 194 0
172 196 0
157 181 40
60 91 106
55 87 107
57 90 97
57 90 118
56 89 108
58 91 110
55 87 99
58 91 115
57 90 111
58 91 114
56 89 117
57 91 113
59 93 110
58 92 122
57 91 102
58 91 115
56 89 108
58 91 117
56 90 100
57 91 117
57 91 103
58 92 121
58 92 118
56 90 107
58 91 114
57 91 111
58 92 121
58 92 122
57 90 120
57 90 118
57 90 117
56 89 117
57 90 110
58 92 121
57 91 111
57 91 110
58 91 125
59 93 129
56 89 102
59 92 121
59 93 125
57 90 110
60 94 129
60 95 128
57 90 108
58 91 117
58 92 124
58 91 118
57 89 120
56 88 100
58 92 114
57 90 115
57 90 122
57 90 114
59 92 126
59 92 122
56 89 108
60 94 126
57 89 107
57 90 107
57 90 106
56 89 111
57 89 116
57 90 120
57 89 112
56 88 116
59 92 124
56 89 113
56 88 113
58 91 117
57 89 112
56 89 111
53 83 99
55 86 107
57 89 116
57 89 113
55 86 114
55 87 108
56 88 107
56 88 113
57 89 112
56 88 110
55 85 104
54 85 109
55 86 111
54 83 91
54 84 94
54 83 96
54 84 103
52 80 90
52 79 87
50 78 73
49 74 64
51 76 67
168 190 0
175 198 0
171 194 0
172 196 0
170 194 0
172 195 0
173 196 0
171 195 0
172 195 11
136 137 42
132 125 41
110 107 32
100 98 34
103 101 25
105 103 24
89 89 16
92 92 13
82 82 11
92 90 8
85 85 8
86 87 20
84 85 12
73 75 20
69 72 17
72 73 9
78 79 20
76 79 14
77 81 16
85 87 19
87 88 14
85 86 20
96 95 14
94 95 23
94 96 16
116 116 11
108 108 18
114 112 16
104 105 18
114 113 16
108 108 16
115 114 14
114 113 11
118 118 8
127 126 8
131 129 8
134 133 8
132 130 0
130 128 0
135 133 0
135 132 0
137 135 0
132 129 0
137 134 0
139 138 0
136 133 0
147 144 0
143 140 0
141 138 0
146 142 0
142 139 0
143 139 0
144 142 0
147 144 0
142 140 0
144 141 0
145 141 0
148 146 0
146 143 0
151 147 0
147 144 0
145 143 0
148 145 11
147 144 11
145 143 0
147 143 11
147 144 11
149 146 11
151 147 30
147 145 22
150 147 16
156 152 25
151 148 19
151 147 16
153 149 25
151 147 19
154 150 28
149 145 25
151 147 19
150 147 22
155 149 34
152 148 19
152 149 19
151 147 28
155 150 34
158 153 34
156 152 36
159 153 34
154 150 22
153 150 37
157 152 36
159 154 37
152 149 30
156 151 32
154 150 37
158 153 39
158 152 42
155 150 30
156 151 41
161 155 44
161 154 45
160 153 45
157 152 39
158 153 34
158 152 45
161 155 47
158 151 48
157 152 39
160 154 41
159 153 45
161 154 47
162 156 47
161 155 47
159 153 41
163 156 49
161 156 45
164 157 54
165 158 53
161 156 44
166 159 56
166 159 57
162 156 47
164 157 53
163 158 49
165 158 56
160 155 41
166 159 61
161 155 47
164 156 56
164 158 52
161 155 48
162 157 49
164 158 54
165 159 56
167 160 53
165 158 57
161 155 48
164 158 56
161 155 44
166 159 63
169 160 64
167 160 63
166 159 60
167 159 62
175 198 0
174 198 0
172 196 0
174 197 0
173 197 0
170 194 0
170 195 0
173 196 0
172 196 0
174 198 0
172 196 0
173 196 0
173 196 0
173 197 0
174 198 0
174 198 0
173 197 0
172 196 0
174 197 0
175 198 0
174 198 0
175 197 0
175 198 0
175 198 0
173 197 0
174 197 0
174 197 0
173 197 0
175 198 0
174 198 0
176 199 0
175 198 0
174 197 0
175 198 0
172 195 0
173 197 0
173 197 0
174 198 0
173 197 0
172 196 0
173 197 0
174 197 0
173 196 0
174 197 0
175 198 0
175 198 0
171 194 0
173 196 0
173 197 0
172 196 0
174 197 0
174 197 0
174 197 0
173 197 0
173 197 0
172 195 0
173 196 0
174 197 0
175 198 0
173 196 0
175 198 0
173 196 0
173 196 0
175 198 0
172 196 0
174 198 0
172 195 0
173 196 0
173 197 0
172 195 0
171 195 0
174 197 0
172 195 0
173 196 0
173 197 0
171 194 0
175 198 0
170 194 0
170 194 0
172 195 0
173 195 0
168 191 0
173 196 0
173 196 0
172 196 0
172 196 0
170 193 0
172 195 0
171 194 0
171 195 0
175 197 0
169 192 0
169 193 0
173 197 0
172 194 0
170 193 0
170 194 0
170 192 0
169 193 0
171 194 0
170 193 0
173 195 0
171 193 0
169 192 0
169 191 0
168 191 0
166 189 0
166 189 0
171 194 0
168 191 0
161 184 0
166 189 0
165 188 0
163 186 0
166 189 0
163 185 0
160 183 0
159 183 0
153 177 0
161 184 0
166 189 0
165 188 0
153 177 0
154 177 0
147 168 0
138 160 0
129 148 0
112 129 0
100 115 0
85 100 0
87 101 0
96 112 0
116 132 0
118 135 0
126 144 0
120 140 0
135 156 0
128 148 0
138 159 0
148 169 0
160 183 0
156 180 0
162 186 0
168 191 0
172 196 0
172 196 0
171 195 0
173 196 0
174 197 0
170 194 0
172 195 0
169 192 0
172 196 0
110 134 82
54 87 102
55 88 105
56 89 118
54 85 102
57 91 124
56 89 103
56 88 113
58 91 113
59 92 117
59 92 120
56 89 95
57 91 105
55 88 110
56 89 110
57 91 102
56 89 100
57 90 115
58 92 118
56 88 120
57 91 113
58 91 122
58 91 105
57 90 110
56 89 102
58 92 125
56 89 108
57 90 111
58 91 117
55 88 110
57 90 114
56 88 107
59 93 125
56 90 118
58 91 108
58 92 111
57 90 120
57 90 110
57 90 103
57 90 117
58 91 121
58 92 121
56 89 111
58 91 118
59 92 118
58 91 124
57 90 113
56 89 115
56 89 108
59 93 125
57 90 111
57 90 105
59 92 121
58 91 125
57 90 111
56 88 105
59 93 121
58 91 117
58 90 110
56 87 107
58 91 115
56 88 99
57 89 108
57 90 113
57 90 107
58 90 112
56 88 101
59 92 124
57 90 115
59 92 121
57 90 113
56 87 105
55 86 94
55 86 99
57 89 121
55 87 106
55 87 108
55 87 108
55 86 101
55 86 107
54 84 99
54 85 107
55 85 107
53 84 97
56 86 107
55 84 101
53 83 96
54 83 95
53 82 96
50 76 89
50 77 75
51 78 81
45 69 65
117 138 57
169 192 0
172 195 0
171 193 0
172 195 0
174 197 0
172 195 0
171 193 0
174 197 0
173 196 0
156 172 32
126 121 36
123 118 37
111 105 37
108 106 24
113 110 24
108 107 28
83 85 4
85 86 3
94 93 9
83 83 11
81 81 17
93 93 9
75 76 18
86 86 11
81 81 8
88 88 14
81 81 13
91 91 14
90 91 20
98 99 11
91 92 18
100 101 8
98 99 11
107 106 11
96 96 14
104 102 16
116 114 11
120 118 14
117 116 16
115 113 14
125 123 14
122 121 16
120 118 3
122 120 8
132 129 0
126 124 0
132 130 0
138 136 0
129 127 0
134 132 0
136 133 0
137 135 0
138 135 0
145 142 0
137 133 0
138 135 0
144 140 0
135 133 0
141 138 0
137 135 0
142 139 0
142 139 0
141 140 0
146 143 0
143 141 0
146 143 0
144 141 0
145 141 0
146 144 0
143 140 0
145 142 0
146 143 0
147 143 0
148 144 0
147 144 0
149 145 0
150 146 0
148 145 0
152 149 11
149 145 11
145 142 11
151 148 11
147 144 16
148 146 16
153 149 19
149 145 11
149 145 0
152 148 16
148 145 11
154 149 28
152 149 25
149 145 28
155 151 28
151 147 16
154 150 32
152 147 25
152 148 32
159 154 42
153 150 22
147 144 22
156 152 30
155 152 36
157 152 41
156 152 32
160 155 37
155 151 34
161 154 41
155 150 30
152 149 22
159 153 44
159 154 37
158 152 41
157 153 34
160 154 42
159 154 42
162 156 42
156 152 41
160 153 45
163 156 51
157 153 37
162 155 45
161 155 48
163 158 53
157 152 37
160 155 37
162 157 45
161 154 47
161 155 45
162 156 51
163 156 45
161 155 48
160 154 45
163 157 54
162 156 53
164 157 53
166 159 57
166 159 58
159 154 42
165 158 54
169 161 60
165 158 57
168 160 58
168 161 63
165 158 53
166 159 59
166 160 58
166 159 57
165 158 54
164 158 52
165 159 53
167 159 61
167 159 59
165 158 56
173 197 0
173 196 0
175 198 0
174 197 0
173 197 0
173 196 0
172 196 0
173 196 0
175 198 0
174 198 0
173 197 0
172 196 0
172 196 0
172 196 0
174 197 0
174 197 0
174 197 0
174 197 0
173 197 0
173 197 0
173 196 0
173 197 0
174 198 0
174 198 0
173 197 0
172 197 0
174 198 0
175 198 0
173 197 0
171 195 0
174 198 0
173 196 0
172 196 0
175 198 0
175 198 0
174 198 0
174 198 0
175 198 0
170 194 0
174 197 0
173 197 0
175 198 0
174 197 0
173 197 0
172 196 0
173 197 0
174 198 0
174 197 0
175 198 0
172 195 0
171 195 0
173 197 0
174 198 0
173 196 0
173 197 0
175 198 0
174 197 0
174 197 0
174 197 0
174 197 0
172 196 0
174 198 0
172 196 0
171 195 0
172 195 0
172 194 0
174 197 0
173 196 0
174 198 0
177 199 0
172 196 0
174 197 0
173 197 0
172 196 0
172 195 0
174 197 0
169 193 0
174 196 0
170 193 0
173 196 0
173 197 0
173 196 0
173 196 0
173 196 0
173 196 0
172 195 0
171 194 0
174 196 0
170 193 0
170 193 0
171 193 0
172 195 0
170 193 0
172 196 0
169 192 0
170 192 0
172 195 0
171 194 0
169 191 0
169 193 0
167 190 0
172 194 0
169 191 0
170 191 0
174 196 0
167 189 0
168 191 0
166 188 0
170 192 0
165 187 0
161 184 0
161 184 0
163 185 0
167 189 0
161 183 0
163 186 0
158 180 0
155 177 0
154 176 0
154 177 0
161 183 0
152 176 0
151 173 0
146 168 0
147 168 0
141 161 0
126 144 0
114 129 0
94 110 0
94 109 0
100 118 0
98 113 0
109 127 0
95 114 0
121 140 0
126 146 0
131 152 0
136 157 0
140 162 0
155 178 0
155 178 0
157 179 0
168 192 0
172 196 0
174 197 0
173 197 0
174 197 0
174 197 0
175 198 0
171 195 0
173 197 0
172 196 0
174 197 0
154 178 25
58 90 102
54 87 103
58 92 107
55 88 107
57 90 117
57 90 103
57 90 118
56 89 108
57 90 103
57 91 108
57 90 114
57 89 107
58 91 115
57 91 118
55 87 102
56 89 108
58 92 120
57 90 105
56 89 103
57 91 113
56 89 108
56 90 113
57 90 113
56 89 108
58 91 111
58 91 113
58 92 111
58 91 115
58 91 118
58 92 115
58 91 121
56 89 113
57 91 114
58 92 114
58 92 122
57 91 113
58 92 124
57 90 105
58 91 117
57 91 113
58 91 114
59 93 121
55 87 105
57 91 121
56 88 99
57 90 117
55 87 100
57 90 115
59 92 118
59 93 123
56 89 111
58 91 111
57 90 117
57 90 107
56 88 103
58 92 118
58 91 124
58 91 110
56 88 110
57 90 124
57 89 116
59 92 122
56 87 110
53 85 103
56 88 108
53 85 94
58 91 112
55 86 106
56 88 108
55 86 108
59 93 128
57 89 115
56 88 106
56 88 118
56 88 104
58 91 113
56 88 108
58 90 112
57 89 111
55 85 101
54 84 98
55 86 113
54 83 99
55 84 104
52 81 92
53 82 97
55 85 109
51 79 90
53 81 89
49 74 71
50 76 74
47 71 67
158 181 8
174 197 0
174 198 0
173 195 0
171 193 0
173 196 0
168 191 0
173 196 0
173 196 0
173 195 0
171 194 0
133 136 28
119 113 42
117 112 39
118 114 32
106 103 22
89 88 21
90 90 12
98 97 12
92 90 14
95 93 14
77 77 8
99 95 8
83 84 8
93 91 8
78 79 16
88 87 11
102 100 12
90 91 18
100 100 14
103 100 14
95 95 16
87 89 11
102 101 15
105 102 8
108 106 12
104 104 11
98 99 11
121 118 8
116 116 8
122 120 8
123 119 8
124 120 3
122 120 0
133 130 0
126 123 0
125 122 0
125 123 0
135 133 0
135 131 0
132 129 0
135 132 0
138 136 0
134 132 0
140 136 0
138 134 0
135 134 0
139 137 0
132 131 0
141 137 0
143 139 0
143 141 0
142 140 0
143 139 0
139 137 0
141 139 0
147 143 0
142 139 0
146 143 0
151 147 0
146 143 0
147 144 0
144 141 0
146 143 0
146 143 0
149 145 0
147 144 0
146 143 0
148 145 0
149 146 0
144 141 0
150 145 0
148 144 0
150 147 0
151 149 0
148 145 0
149 146 0
146 143 0
151 148 11
148 145 11
149 146 11
151 148 0
148 146 11
151 146 11
151 148 19
151 148 16
153 150 19
154 149 22
154 151 22
155 150 36
153 150 19
156 150 25
153 149 22
153 150 22
157 153 32
156 152 36
158 153 30
154 150 25
155 151 28
153 148 28
155 151 32
155 152 25
156 151 34
156 150 34
154 150 30
158 154 41
158 152 37
158 153 34
158 152 39
158 153 39
156 152 34
155 151 36
158 153 39
157 151 41
159 154 44
159 152 47
161 155 49
161 155 41
157 152 39
162 155 49
163 157 54
158 152 37
159 153 39
161 155 49
160 155 49
160 154 47
161 156 47
158 152 42
167 160 58
164 158 56
165 158 58
163 157 51
161 155 48
165 159 53
167 158 60
160 153 48
166 158 62
165 159 51
163 157 53
163 157 53
165 158 54
170 162 65
165 158 56
164 156 53
174 197 0
169 193 0
175 197 0
174 197 0
173 197 0
173 197 0
172 196 0
174 198 0
172 196 0
175 198 0
173 197 0
169 193 0
172 196 0
173 197 0
174 197 0
173 197 0
173 197 0
173 197 0
175 197 0
174 197 0
174 197 0
174 197 0
172 195 0
172 196 0
174 198 0
172 196 0
174 197 0
173 197 0
173 196 0
173 197 0
173 196 0
170 193 0
174 197 0
172 196 0
172 195 0
174 197 0
174 197 0
171 195 0
173 196 0
172 196 0
173 197 0
174 198 0
173 197 0
171 194 0
172 195 0
172 196 0
173 197 0
171 195 0
173 196 0
174 197 0
175 198 0
175 197 0
174 197 0
175 198 0
175 198 0
172 197 0
176 198 0
173 197 0
172 196 0
174 198 0
172 195 0
173 197 0
173 197 0
174 196 0
175 198 0
172 195 0
175 198 0
174 197 0
172 196 0
171 194 0
172 196 0
174 196 0
174 196 0
175 198 0
171 194 0
175 198 0
174 197 0
174 197 0
172 196 0
172 195 0
172 194 0
174 196 0
170 193 0
175 197 0
174 196 0
173 196 0
173 197 0
173 195 0
172 196 0
177 198 0
173 197 0
173 195 0
171 193 0
172 194 0
168 190 0
172 195 0
174 196 0
173 195 0
168 191 0
175 197 0
172 194 0
169 191 0
164 187 0
170 192 0
168 189 0
170 192 0
164 186 0
165 186 0
167 189 0
169 191 0
168 190 0
164 186 0
167 188 0
159 180 0
162 184 0
165 187 0
157 179 0
159 181 0
158 180 0
158 181 0
152 174 0
156 177 0
147 169 0
146 166 0
135 156 0
124 144 0
118 134 0
105 122 0
108 124 0
94 110 0
101 117 0
115 132 0
109 126 0
115 133 0
121 140 0
120 141 0
141 162 0
142 163 0
146 169 0
159 182 0
160 182 0
167 190 0
174 197 0
171 195 0
173 196 0
173 196 0
167 192 0
174 197 0
171 194 0
172 196 0
173 197 0
170 193 0
173 197 0
170 194 0
120 142 71
56 88 103
56 88 94
55 88 105
56 89 105
57 90 110
56 88 102
55 88 102
56 88 108
58 91 114
59 93 120
57 90 108
55 88 103
58 91 124
57 90 92
56 89 108
59 93 122
57 90 110
59 93 124
57 90 117
57 90 108
57 90 120
59 93 115
58 91 121
58 92 120
58 91 124
57 90 107
57 89 114
58 92 122
58 92 124
58 91 108
57 90 110
57 90 113
57 90 114
57 90 110
57 90 117
58 92 108
57 90 117
54 85 97
57 90 108
55 87 110
58 91 121
58 91 118
57 90 121
56 88 107
56 90 124
56 88 115
57 90 108
60 94 130
57 90 113
57 90 115
58 92 110
57 90 113
56 88 115
57 89 113
59 92 121
55 87 100
57 90 111
56 89 115
55 87 107
57 90 114
58 92 114
57 89 117
57 90 103
56 88 103
56 88 110
56 88 113
54 85 104
55 86 99
57 89 115
58 91 117
57 89 110
56 88 111
56 88 104
56 88 106
55 86 89
56 87 108
54 84 104
54 84 104
54 84 91
55 85 103
53 82 102
56 87 103
55 85 101
55 84 100
54 83 89
53 83 95
53 82 100
52 80 90
51 77 84
47 71 71
117 137 46
167 189 0
171 194 0
169 191 0
168 191 0
172 194 0
171 195 0
169 192 0
170 194 0
169 192 0
171 194 0
172 195 0
159 177 11
123 118 39
118 115 32
112 108 37
116 111 25
101 99 16
105 103 14
95 95 4
91 90 11
91 90 3
99 97 8
79 79 12
93 90 5
86 86 8
85 85 14
77 78 15
81 81 8
97 97 14
87 86 8
91 91 16
94 93 8
99 99 16
98 98 14
105 104 8
99 98 16
106 104 16
109 108 12
105 104 0
109 108 18
118 116 11
122 120 11
116 115 8
126 124 8
124 121 0
119 116 0
129 129 0
126 123 0
133 129 0
137 134 0
135 132 0
137 134 0
132 129 0
134 134 0
141 137 0
137 135 0
145 143 0
135 131 0
140 136 0
146 142 0
139 135 0
140 137 0
144 140 0
144 140 0
138 137 0
143 140 0
136 133 0
139 138 0
145 141 0
145 142 0
138 136 0
143 140 0
140 137 0
149 145 0
148 145 0
143 139 0
144 141 0
145 142 0
146 143 0
148 145 0
146 144 0
151 147 0
146 143 0
152 148 0
151 146 0
150 146 0
146 142 0
147 144 0
152 147 0
146 144 0
146 142 0
149 144 0
149 146 0
154 151 11
149 146 11
153 148 11
152 149 11
152 149 0
155 151 11
149 145 16
155 151 22
151 147 11
153 150 22
156 151 22
154 150 16
153 148 28
153 148 16
156 151 25
155 151 30
154 150 30
152 147 28
154 150 30
154 151 34
155 149 36
156 150 32
157 153 32
159 154 41
155 149 28
158 153 32
154 150 28
156 151 37
161 155 49
158 153 37
154 149 28
160 154 41
160 153 47
156 151 36
157 152 37
158 153 36
162 155 45
162 155 45
159 153 37
159 154 39
163 157 54
158 153 41
163 156 56
158 152 37
162 156 49
162 156 47
159 153 42
159 153 44
161 155 42
161 156 47
161 154 49
162 155 52
166 158 54
160 153 52
163 157 49
164 157 49
163 157 47
168 160 63
165 158 62
169 161 63
165 158 56
174 197 0
174 198 0
172 195 0
173 197 0
173 196 0
173 197 0
174 197 0
174 197 0
171 195 0
172 196 0
173 197 0
171 195 0
172 196 0
171 195 0
171 195 0
173 197 0
175 198 0
172 196 0
170 195 0
173 196 0
173 197 0
173 196 0
173 197 0
174 197 0
172 196 0
173 196 0
172 197 0
173 197 0
175 198 0
172 196 0
174 197 0
175 198 0
173 196 0
174 197 0
173 197 0
174 197 0
175 198 0
173 196 0
176 199 0
172 196 0
172 196 0
174 197 0
173 196 0
173 196 0
173 197 0
171 195 0
174 197 0
172 195 0
172 196 0
174 197 0
175 198 0
172 196 0
174 197 0
173 196 0
175 198 0
173 196 0
172 195 0
172 196 0
174 197 0
169 193 0
173 196 0
174 197 0
175 198 0
174 198 0
173 196 0
173 197 0
174 197 0
172 194 0
174 195 0
174 197 0
174 196 0
175 198 0
172 195 0
172 195 0
174 196 0
173 196 0
173 196 0
170 193 0
172 196 0
172 194 0
171 193 0
175 197 0
173 195 0
171 193 0
169 191 0
174 195 0
172 194 0
174 196 0
174 195 0
172 194 0
171 193 0
173 194 0
175 196 0
173 195 0
171 193 0
169 191 0
172 194 0
172 194 0
170 193 0
173 194 0
171 192 0
169 190 0
167 189 0
166 187 0
167 189 0
170 192 0
168 189 0
165 187 0
165 187 0
171 192 0
169 191 0
165 186 0
166 188 0
166 188 0
166 187 0
160 180 0
157 178 0
157 178 0
152 172 0
151 171 0
156 177 0
143 165 0
152 174 0
141 162 0
134 153 0
118 137 0
112 131 0
127 146 0
111 129 0
112 130 0
114 133 0
118 137 0
121 140 0
123 142 0
132 151 0
126 146 0
134 156 0
142 164 0
154 177 0
154 177 0
165 188 0
167 190 0
172 195 0
172 196 0
171 194 0
172 195 0
168 192 0
171 195 0
169 192 0
173 196 0
169 192 0
169 193 0
172 196 0
173 197 0
156 179 40
69 97 82
56 89 97
56 88 99
56 89 102
55 87 113
56 88 99
56 89 99
56 89 113
56 89 108
57 91 111
56 89 107
57 91 113
55 89 99
55 86 102
56 88 103
56 89 107
57 90 113
60 94 118
58 91 114
59 93 115
56 88 102
57 90 107
57 90 108
57 91 114
56 89 105
56 89 103
55 88 102
58 91 122
56 89 110
53 85 86
57 90 120
57 90 118
59 94 125
57 89 111
58 91 120
57 89 113
58 92 115
57 91 107
56 89 107
57 90 107
56 89 111
58 91 120
58 92 107
58 91 108
56 89 105
57 90 113
57 90 110
58 91 121
57 90 118
57 90 114
59 93 124
56 90 107
54 86 102
58 91 115
56 89 115
57 89 110
55 87 100
56 89 113
56 89 103
56 88 107
57 89 102
58 90 108
55 86 97
54 86 102
59 92 118
54 86 102
56 87 110
56 88 109
55 87 101
55 86 110
57 90 103
56 88 107
56 88 95
57 89 115
56 88 111
57 89 116
56 89 111
56 88 104
54 84 111
54 84 104
54 84 99
54 84 109
52 81 100
54 83 97
50 78 80
54 82 87
51 78 82
49 76 76
49 75 77
48 70 56
162 184 26
167 191 0
169 192 0
172 195 0
169 192 0
172 193 0
171 193 0
169 191 0
174 196 0
170 192 0
173 197 0
170 191 0
171 194 0
141 149 34
123 118 39
114 109 22
114 109 35
106 103 28
107 103 16
111 108 14
100 96 3
107 102 0
94 92 8
105 102 12
95 94 12
93 92 16
96 93 12
83 83 14
93 92 11
93 93 16
92 91 10
90 90 14
91 90 16
93 92 11
103 100 12
104 102 8
98 97 18
109 106 8
115 113 8
107 105 11
112 111 0
108 106 8
120 118 0
121 118 0
109 109 8
122 120 0
128 125 0
130 127 0
127 125 0
130 125 0
133 130 0
135 132 0
133 131 0
140 137 0
129 126 0
135 132 0
133 131 0
136 133 0
143 140 0
139 135 0
138 135 0
136 134 0
140 137 0
135 132 0
136 134 0
140 137 0
143 140 0
145 142 0
140 136 0
141 138 0
144 142 0
140 138 0
142 139 0
145 141 0
144 141 0
142 137 0
146 144 0
146 142 0
144 141 0
146 141 0
144 141 0
146 143 0
146 142 0
148 143 0
149 145 0
146 143 0
147 144 0
149 145 0
148 144 0
152 148 0
149 145 0
149 146 0
147 144 0
146 144 0
154 149 0
150 147 0
152 149 0
152 148 0
152 149 0
145 143 0
149 146 0
152 148 16
150 147 11
150 146 11
150 146 11
149 146 16
151 147 0
150 146 16
154 149 19
154 150 19
154 151 22
155 149 34
154 149 19
152 148 22
154 150 16
158 153 34
156 151 32
154 150 22
155 151 30
157 151 28
152 147 32
157 152 32
156 151 32
153 148 28
155 150 36
156 151 32
158 151 41
157 151 34
156 151 32
155 150 32
162 155 47
158 154 32
160 155 45
166 159 52
157 152 39
159 154 41
162 155 41
165 159 56
159 152 44
162 156 45
161 155 42
163 157 49
161 155 42
164 157 51
160 154 45
163 155 54
160 154 42
159 153 44
160 155 44
162 155 48
163 156 51
162 155 49
164 157 53
165 158 60
165 158 56
172 196 0
172 195 0
174 197 0
173 197 0
170 193 0
173 197 0
173 197 0
174 197 0
173 197 0
172 196 0
173 196 0
172 195 0
174 197 0
174 197 0
174 197 0
174 198 0
173 197 0
173 197 0
173 196 0
173 196 0
173 197 0
174 197 0
174 198 0
173 196 0
173 197 0
172 196 0
174 197 0
172 196 0
173 197 0
174 198 0
172 196 0
174 197 0
172 197 0
172 196 0
174 197 0
174 198 0
173 197 0
174 197 0
173 196 0
173 196 0
174 197 0
173 197 0
171 195 0
175 198 0
173 197 0
174 196 0
173 196 0
174 197 0
174 197 0
174 197 0
174 198 0
173 196 0
173 197 0
174 197 0
173 197 0
174 197 0
173 195 0
173 196 0
175 198 0
172 195 0
173 196 0
172 195 0
169 193 0
174 197 0
173 196 0
173 196 0
171 194 0
175 198 0
172 194 0
176 198 0
176 197 0
175 198 0
174 197 0
172 195 0
173 196 0
172 195 0
176 198 0
170 192 0
172 194 0
172 194 0
174 196 0
172 194 0
174 196 0
172 193 0
173 195 0
174 196 0
172 194 0
174 196 0
173 195 0
172 195 0
172 194 0
173 195 0
171 192 0
169 191 0
175 196 0
173 195 0
171 192 0
170 192 0
173 194 0
172 193 0
169 191 0
168 189 0
172 194 0
167 188 0
164 185 0
163 184 0
168 188 0
167 189 0
169 191 0
163 185 0
167 188 0
160 180 0
164 185 0
160 181 0
160 181 0
163 184 0
149 169 0
153 174 0
154 175 0
144 165 0
150 170 0
143 164 0
140 162 0
131 151 0
128 147 0
118 137 0
116 134 0
122 141 0
115 133 0
105 123 0
111 129 0
116 135 0
134 154 0
136 156 0
131 151 0
129 151 0
141 163 0
137 158 0
154 177 0
160 183 0
168 190 0
169 194 0
170 194 0
171 195 0
171 195 0
170 193 0
169 193 0
171 195 0
172 195 0
169 193 0
172 195 0
166 190 0
167 191 0
170 194 0
169 192 0
116 140 60
55 87 84
56 88 103
54 86 84
54 87 94
56 88 99
58 91 108
56 88 97
58 92 110
56 89 105
57 90 113
57 91 117
56 89 110
56 89 97
58 91 113
56 89 103
55 87 102
56 90 102
55 88 97
57 90 108
57 90 117
56 89 110
56 89 105
57 90 114
58 91 110
55 88 102
56 89 110
56 88 110
57 90 95
58 92 115
56 89 111
55 88 103
56 89 113
58 92 121
57 90 114
56 89 105
57 89 111
59 92 122
57 90 105
57 90 107
56 89 102
57 91 103
57 90 108
58 92 120
56 88 110
56 89 107
57 90 103
57 90 110
56 88 94
58 91 110
57 90 123
57 90 111
56 88 95
55 87 92
57 90 113
55 87 105
59 92 123
57 89 110
56 89 117
56 89 110
57 90 108
57 89 108
57 89 111
52 83 89
56 87 108
56 88 112
55 87 116
57 89 111
57 89 113
55 85 101
57 89 107
55 87 108
56 87 116
53 83 89
56 88 108
56 87 113
53 83 99
55 86 107
55 87 110
55 86 96
54 84 93
52 80 90
53 82 94
50 78 87
54 82 102
52 79 80
49 75 82
51 78 91
48 74 75
122 142 46
166 190 0
163 186 0
165 187 0
169 192 0
172 193 0
166 188 0
171 193 0
172 195 0
171 193 0
171 194 0
172 193 0
168 191 0
169 192 0
165 188 0
117 116 30
122 116 36
119 115 25
114 110 29
110 107 19
113 108 0
111 108 8
102 99 9
104 100 8
108 104 5
94 93 8
100 97 0
92 93 8
104 100 8
93 92 8
96 94 18
105 102 14
96 93 12
88 87 11
93 93 14
98 97 12
101 99 0
112 108 0
115 112 14
105 103 14
112 109 8
116 112 0
119 116 0
118 116 0
108 106 0
113 111 0
126 123 0
126 126 0
130 127 0
137 134 0
128 125 0
132 128 0
134 131 0
136 133 0
131 128 0
129 127 0
137 134 0
136 133 0
138 137 0
137 134 0
140 135 0
139 135 0
140 136 0
142 138 0
137 134 0
136 134 0
140 137 0
139 136 0
144 140 0
143 139 0
145 142 0
143 139 0
149 145 0
145 142 0
146 143 0
147 144 0
143 139 0
144 140 0
145 141 0
144 140 0
148 145 0
145 142 0
142 138 0
145 142 0
147 143 0
145 142 0
144 140 0
149 146 0
143 138 0
150 146 0
146 144 0
147 143 0
144 142 0
149 144 0
149 146 0
143 140 0
148 143 0
147 143 0
153 149 0
148 144 0
148 144 0
150 147 0
150 146 0
148 145 0
147 144 0
148 145 0
149 146 0
152 149 0
148 145 0
154 149 11
151 148 0
151 148 11
150 147 0
151 147 19
153 149 25
154 150 22
151 146 22
152 148 25
150 146 22
152 148 28
158 153 28
153 149 25
152 148 22
157 151 34
153 148 30
153 147 30
159 154 36
158 154 37
155 150 28
157 152 37
155 151 28
157 153 32
157 152 32
158 153 37
157 152 37
160 154 39
159 153 42
156 151 30
163 156 47
159 154 37
161 155 51
162 154 48
162 155 44
164 157 48
159 153 44
158 153 44
164 157 51
161 155 47
160 154 47
165 158 56
163 158 48
162 155 47
163 156 51
162 155 45
164 158 52
163 157 51
173 197 0
173 197 0
173 197 0
171 194 0
171 195 0
174 197 0
176 198 0
170 194 0
173 197 0
171 194 0
173 196 0
175 198 0
174 197 0
174 197 0
170 194 0
172 195 0
174 198 0
172 196 0
174 197 0
173 197 0
174 198 0
172 196 0
173 196 0
173 197 0
175 198 0
174 197 0
173 196 0
174 197 0
173 196 0
172 196 0
173 197 0
172 195 0
174 197 0
175 198 0
172 196 0
175 198 0
173 197 0
174 198 0
174 197 0
175 198 0
175 197 0
174 197 0
172 195 0
172 195 0
172 196 0
174 197 0
172 196 0
172 195 0
174 197 0
173 197 0
174 197 0
175 197 0
174 197 0
174 197 0
173 196 0
175 198 0
174 197 0
174 197 0
176 198 0
172 195 0
172 195 0
173 196 0
174 197 0
172 195 0
174 196 0
173 196 0
173 196 0
175 197 0
176 198 0
174 196 0
169 191 0
175 198 0
172 195 0
177 198 0
175 197 0
176 198 0
176 198 0
174 196 0
175 196 0
175 197 0
173 196 0
175 197 0
175 196 0
173 195 0
173 194 0
175 196 0
176 198 0
175 197 0
174 195 0
174 195 0
172 192 0
172 193 0
176 196 0
171 192 0
172 194 0
175 195 0
174 194 0
173 194 0
170 191 0
171 192 0
173 193 0
167 189 0
169 190 0
166 187 0
165 185 0
167 188 0
164 185 0
167 187 0
161 181 0
163 184 0
162 183 0
159 180 0
166 186 0
156 177 0
158 179 0
152 173 0
163 184 0
149 170 0
150 170 0
149 169 0
148 169 0
139 159 0
135 155 0
121 142 0
123 142 0
123 142 0
125 145 0
127 147 0
119 137 0
121 141 0
117 136 0
129 148 0
129 149 0
140 160 0
132 152 0
134 154 0
153 175 0
150 172 0
161 184 0
169 191 0
169 192 0
169 193 0
170 193 0
172 196 0
171 194 0
173 197 0
173 197 0
171 194 0
166 190 0
171 194 0
171 195 0
171 194 0
173 195 0
168 191 0
171 194 0
163 186 0
69 97 80
54 86 97
54 86 95
56 88 110
56 89 97
54 86 100
55 86 102
55 88 97
57 90 107
55 88 105
57 90 102
57 90 102
55 87 95
59 92 121
56 88 102
56 88 103
56 88 102
56 89 108
56 88 107
57 89 118
57 91 102
57 90 108
57 90 107
57 90 108
54 86 94
56 89 110
56 89 113
57 90 108
56 89 105
58 91 113
58 91 113
57 90 110
58 91 108
56 89 90
58 90 121
56 89 107
55 87 92
57 90 108
56 89 100
55 87 107
57 90 99
57 90 115
58 91 121
55 87 102
55 87 107
59 92 114
56 88 105
55 87 110
56 88 113
55 87 100
55 87 102
56 88 102
55 87 97
56 89 107
58 91 118
57 90 114
55 87 97
57 89 114
57 90 107
57 90 113
56 88 108
58 91 111
57 89 110
55 86 101
56 87 102
57 89 116
56 89 114
57 89 113
53 82 93
55 85 97
54 86 100
53 83 96
55 86 100
55 86 104
57 88 108
52 81 78
53 83 100
54 85 90
52 81 88
51 79 93
55 85 98
52 81 95
51 79 86
53 82 94
51 77 82
52 81 93
49 76 79
56 79 86
165 186 8
165 187 0
166 188 0
168 190 0
168 190 0
165 186 0
166 188 0
166 189 0
169 192 0
168 191 0
172 195 0
171 194 0
168 190 0
169 192 0
169 190 0
156 172 25
113 111 25
117 113 28
118 114 22
113 108 19
108 104 0
105 103 2
98 95 3
104 101 0
96 94 0
104 100 8
99 96 8
86 85 11
93 91 0
100 96 8
90 88 8
88 87 11
101 98 8
100 99 8
98 96 0
105 103 16
98 95 11
99 97 8
105 102 0
112 108 8
113 111 8
119 115 0
126 123 0
121 118 8
118 116 0
119 117 0
126 122 0
128 124 0
131 127 0
126 123 0
129 126 0
129 125 0
128 126 0
126 124 0
124 121 0
133 129 0
131 129 0
127 125 0
137 132 0
135 132 0
134 131 0
135 134 0
140 136 0
142 138 0
137 135 0
140 136 0
136 132 0
131 128 0
146 142 0
139 135 0
143 140 0
143 139 0
145 141 0
141 138 0
138 135 0
141 137 0
142 138 0
143 139 0
146 141 0
145 142 0
145 142 0
145 143 0
145 142 0
146 143 0
142 138 0
147 143 0
151 147 0
146 141 0
149 145 0
143 139 0
145 142 0
149 145 0
149 144 0
148 144 0
145 142 0
148 143 0
149 145 0
150 146 0
151 147 0
150 145 0
151 147 0
147 144 0
151 148 0
147 143 0
151 147 0
150 147 0
151 146 0
146 144 0
151 148 0
149 146 0
153 148 0
147 144 0
152 148 11
152 147 11
152 148 11
152 147 19
152 149 11
150 146 16
151 148 16
154 148 22
155 150 16
154 151 16
153 148 22
154 150 16
158 154 30
153 148 22
153 149 25
158 153 37
152 148 19
152 148 19
158 152 36
157 152 36
158 153 32
156 152 37
157 151 28
158 152 36
158 152 39
158 152 34
161 156 39
155 150 36
161 153 44
162 154 45
158 152 42
162 155 48
164 158 51
159 154 44
159 154 42
159 154 41
161 155 44
159 153 41
163 157 47
166 159 54
160 154 48
163 156 48
164 157 53
168 160 62
173 196 0
173 197 0
173 197 0
174 198 0
175 198 0
173 196 0
171 195 0
170 195 0
174 197 0
173 196 0
173 197 0
174 197 0
172 196 0
169 192 0
169 193 0
172 196 0
173 196 0
175 198 0
174 197 0
175 198 0
174 197 0
173 197 0
172 196 0
173 197 0
170 195 0
172 196 0
172 196 0
173 196 0
174 197 0
174 197 0
174 198 0
173 196 0
170 194 0
175 198 0
170 194 0
173 197 0
172 195 0
171 195 0
175 198 0
173 196 0
172 195 0
176 198 0
172 196 0
174 197 0
174 196 0
172 195 0
173 196 0
173 196 0
175 198 0
173 196 0
172 195 0
172 195 0
172 196 0
173 196 0
171 195 0
171 194 0
175 197 0
176 198 0
171 194 0
173 195 0
175 198 0
174 196 0
175 197 0
175 197 0
173 196 0
175 197 0
173 195 0
174 196 0
173 195 0
172 194 0
174 197 0
176 198 0
172 194 0
175 197 0
175 196 0
176 197 0
174 195 0
175 196 0
172 194 0
175 197 0
172 193 0
174 196 0
176 197 0
173 194 0
171 192 0
177 198 0
175 196 0
175 196 0
169 190 0
172 193 0
175 196 0
172 194 0
171 191 0
176 195 0
170 191 0
174 195 0
176 195 0
170 191 0
175 195 0
169 189 0
166 186 0
165 185 0
168 189 0
169 190 0
166 187 0
172 192 0
165 185 0
165 186 0
166 186 0
159 179 0
164 184 0
156 176 0
153 173 0
152 172 0
157 178 0
150 171 0
152 173 0
147 167 0
138 158 0
152 172 0
151 171 0
134 155 0
132 152 0
123 143 0
123 143 0
124 144 0
126 144 0
128 148 0
125 145 0
126 145 0
136 156 0
124 144 0
135 154 0
136 156 0
131 151 0
148 170 0
148 170 0
150 173 0
153 175 0
168 191 0
173 196 0
168 192 0
167 191 0
169 194 0
172 196 0
166 189 0
168 191 0
169 192 0
173 195 0
168 192 0
166 190 0
169 193 0
164 188 0
170 194 0
164 188 0
167 191 0
146 169 47
53 84 92
57 90 117
55 88 111
54 86 99
58 91 105
57 91 111
55 87 88
56 89 103
54 86 99
56 89 108
57 90 108
57 90 105
57 90 103
57 90 114
55 87 99
56 88 113
57 89 108
55 88 103
57 90 107
54 85 92
56 89 107
57 90 114
57 90 115
56 88 105
55 87 102
56 89 111
55 88 92
57 90 105
58 92 124
58 91 114
56 89 97
54 86 94
56 89 110
56 88 100
58 92 113
56 89 107
56 90 108
56 89 102
55 87 102
57 90 114
58 91 111
57 90 107
57 91 118
55 88 99
57 90 108
58 91 114
56 89 110
54 86 107
56 89 113
56 89 107
56 88 97
55 87 111
56 88 111
55 88 100
56 88 103
58 92 114
58 91 128
58 91 114
55 87 94
55 86 103
57 89 110
58 90 116
56 89 102
58 90 111
55 86 101
55 86 98
53 84 96
54 85 91
55 86 109
56 87 101
53 84 93
55 86 103
54 84 99
55 85 100
54 85 103
54 83 95
54 84 95
54 84 106
51 80 100
52 81 84
51 79 77
54 84 108
49 76 69
50 76 78
47 72 70
47 72 78
134 154 21
166 189 0
169 190 0
167 190 0
169 192 0
168 189 0
164 187 0
164 186 0
170 192 0
168 189 0
168 189 0
162 184 0
168 190 0
170 190 0
167 189 0
169 190 0
172 193 0
140 152 22
123 118 37
101 97 19
116 112 19
116 111 11
101 98 0
107 105 0
108 107 16
104 101 0
94 90 0
109 105 11
99 95 8
101 97 0
93 91 11
105 101 0
95 93 0
99 95 11
107 103 0
114 109 0
105 103 8
98 96 8
94 93 0
112 108 8
109 106 0
106 104 8
115 112 8
117 112 0
116 114 0
124 121 0
123 120 0
125 122 0
131 126 0
127 124 0
124 119 0
126 123 0
127 125 0
129 126 0
129 126 0
136 132 0
137 134 0
134 131 0
130 128 0
135 132 0
135 132 0
135 132 0
134 131 0
141 137 0
135 132 0
138 135 0
144 139 0
137 134 0
139 136 0
139 136 0
141 137 0
140 135 0
141 139 0
142 139 0
140 136 0
135 132 0
142 137 0
144 140 0
144 141 0
146 142 0
147 144 0
146 143 0
142 138 0
144 139 0
142 138 0
145 141 0
145 142 0
146 143 0
146 143 0
144 141 0
145 142 0
146 144 0
145 142 0
148 146 0
150 145 0
150 146 0
145 141 0
148 144 0
147 142 0
149 144 0
151 148 0
148 144 0
150 145 0
148 145 0
145 142 0
148 145 0
148 143 0
147 144 0
151 148 0
152 147 0
150 146 0
152 147 0
151 147 0
152 148 0
152 148 0
151 147 0
149 147 0
152 148 11
155 150 16
153 148 11
153 148 11
150 145 16
151 147 19
153 148 16
152 147 22
156 151 28
155 151 19
152 148 22
156 151 25
157 153 25
156 151 19
156 150 34
156 151 32
156 152 25
154 149 25
153 148 28
155 151 32
158 153 39
156 151 28
159 154 36
156 151 39
155 151 25
159 154 34
160 154 41
157 152 36
159 154 39
160 154 44
158 151 45
162 155 45
165 158 54
156 151 34
161 155 42
164 157 51
161 155 42
164 158 54
164 156 56
164 158 51
175 198 0
171 195 0
172 196 0
174 197 0
171 195 0
173 197 0
173 196 0
171 194 0
172 195 0
173 197 0
171 194 0
174 197 0
171 194 0
172 195 0
173 196 0
172 196 0
172 195 0
172 196 0
172 196 0
175 198 0
174 196 0
173 197 0
172 195 0
174 198 0
172 195 0
173 197 0
175 198 0
174 196 0
174 198 0
175 198 0
173 196 0
173 197 0
176 198 0
174 197 0
172 196 0
174 197 0
175 198 0
175 198 0
172 195 0
174 198 0
174 197 0
173 196 0
172 196 0
174 197 0
171 195 0
173 196 0
172 194 0
175 198 0
171 194 0
175 198 0
175 197 0
175 197 0
171 195 0
173 196 0
172 195 0
176 198 0
171 193 0
173 196 0
176 198 0
173 196 0
173 196 0
175 197 0
175 197 0
172 194 0
177 198 0
173 195 0
175 197 0
172 194 0
174 195 0
177 198 0
172 193 0
173 194 0
173 195 0
173 195 0
175 196 0
173 194 0
174 195 0
172 192 0
175 196 0
176 197 0
174 195 0
178 198 0
175 195 0
174 195 0
175 196 0
176 197 0
174 194 0
171 192 0
180 199 0
172 192 0
172 192 0
173 193 0
172 191 0
174 195 0
171 192 0
168 189 0
168 189 0
172 192 0
172 192 0
169 188 0
177 196 0
168 188 0
167 187 0
165 184 0
170 190 0
166 186 0
168 189 0
163 184 0
160 180 0
167 188 0
166 185 0
168 188 0
155 175 0
160 180 0
155 174 0
157 177 0
153 173 0
154 174 0
152 172 0
143 164 0
134 154 0
132 152 0
134 153 0
129 149 0
143 163 0
127 146 0
136 155 0
139 158 0
130 150 0
119 138 0
138 158 0
127 147 0
138 159 0
138 159 0
140 161 0
137 159 0
152 175 0
151 174 0
165 189 0
170 194 0
167 190 0
168 191 0
167 191 0
169 193 0
172 195 0
171 195 0
165 188 0
171 195 0
166 190 0
168 192 0
171 194 0
170 194 0
168 192 0
168 192 0
169 193 0
167 191 0
169 192 0
115 139 72
55 87 86
53 85 84
56 88 111
54 87 92
55 87 92
56 89 113
56 88 102
56 88 94
54 86 84
56 89 100
56 89 100
55 87 100
55 87 107
57 90 105
54 86 102
55 87 102
54 87 78
57 90 108
55 87 95
56 89 97
56 88 103
57 89 100
56 89 97
57 89 113
58 92 125
56 88 107
57 90 115
54 86 95
57 90 107
56 88 107
57 90 102
54 85 99
59 93 122
56 88 95
55 87 97
58 91 115
55 87 95
53 85 95
57 89 113
56 88 100
57 89 120
57 90 111
56 89 100
56 90 110
55 87 94
57 91 118
56 88 108
57 89 111
57 90 102
54 85 92
55 86 100
55 86 97
57 91 116
57 90 116
57 89 111
56 88 101
54 85 97
57 90 116
53 84 102
56 87 92
56 87 102
58 90 116
56 88 103
54 85 94
56 87 106
51 81 93
55 86 100
55 86 106
57 88 112
55 87 103
54 86 96
57 89 104
53 83 90
53 83 93
53 84 94
55 87 107
55 86 102
52 79 92
52 80 97
50 80 79
52 80 92
54 84 102
49 75 71
46 70 70
117 136 42
167 189 0
166 188 0
160 181 0
162 182 0
168 192 0
168 191 0
165 187 0
167 188 0
168 189 0
167 188 0
166 189 0
166 189 0
163 183 0
163 186 0
169 190 0
163 186 0
172 193 0
167 189 0
139 143 32
115 109 30
118 113 22
111 106 16
119 114 0
101 98 11
106 100 0
115 110 0
105 99 3
103 99 11
101 98 0
96 93 8
98 96 0
100 96 0
102 98 0
96 93 8
100 97 8
100 96 8
109 105 0
112 110 8
108 104 0
102 100 8
113 110 0
113 110 0
112 107 0
111 109 0
117 113 0
113 108 0
127 122 0
118 114 0
126 122 0
121 118 0
119 116 0
127 123 0
130 126 0
127 125 0
132 129 0
135 131 0
125 121 0
133 129 0
136 132 0
138 133 0
129 125 0
142 137 0
137 134 0
137 132 0
140 136 0
139 135 0
141 136 0
135 132 0
138 135 0
131 128 0
133 128 0
140 136 0
142 136 0
144 140 0
137 135 0
139 135 0
140 136 0
139 136 0
145 142 0
142 138 0
141 137 0
142 138 0
138 135 0
143 140 0
147 144 0
149 145 0
148 144 0
147 144 0
143 140 0
148 144 0
144 139 0
146 143 0
148 145 0
151 146 0
146 141 0
148 143 0
150 146 0
145 143 0
146 141 0
142 138 0
146 142 0
149 146 0
147 145 0
151 147 0
149 145 0
151 147 0
147 143 0
146 142 0
148 144 0
146 142 0
150 146 0
146 140 0
152 149 0
151 147 0
150 148 0
150 147 0
150 145 0
151 148 0
147 142 0
153 149 0
149 145 0
149 145 0
150 145 0
150 145 0
151 148 0
150 145 16
149 146 0
153 148 25
151 146 11
155 150 25
153 148 11
154 149 19
156 151 22
152 146 19
156 151 19
157 152 34
151 146 19
155 149 32
160 153 41
155 150 34
160 154 37
155 150 22
161 155 44
158 152 36
159 152 36
158 152 34
158 151 37
161 155 42
158 152 41
157 152 37
162 156 48
164 157 51
160 154 39
157 151 30
163 156 42
163 155 52
162 156 48
174 197 0
171 195 0
170 194 0
175 197 0
173 197 0
173 196 0
172 196 0
174 197 0
168 191 0
171 194 0
172 196 0
174 197 0
174 197 0
173 195 0
171 195 0
170 194 0
174 197 0
171 193 0
173 196 0
173 197 0
173 196 0
172 196 0
174 197 0
172 196 0
172 196 0
174 197 0
172 196 0
172 196 0
176 198 0
173 197 0
171 195 0
171 194 0
172 196 0
173 196 0
175 197 0
173 196 0
173 196 0
171 194 0
173 195 0
174 196 0
171 194 0
174 196 0
175 197 0
174 197 0
174 197 0
175 198 0
173 196 0
172 195 0
176 198 0
174 196 0
173 194 0
175 197 0
173 196 0
173 196 0
173 195 0
174 196 0
174 197 0
174 196 0
175 197 0
175 198 0
174 195 0
174 195 0
171 193 0
175 197 0
173 195 0
175 196 0
174 195 0
175 197 0
175 197 0
174 195 0
175 197 0
177 197 0
177 198 0
174 195 0
171 192 0
173 194 0
175 196 0
177 198 0
174 195 0
175 196 0
174 195 0
170 191 0
174 194 0
172 193 0
173 193 0
172 193 0
172 192 0
169 189 0
171 191 0
174 195 0
170 190 0
171 190 0
172 193 0
171 190 0
171 192 0
171 192 0
167 187 0
171 190 0
168 188 0
168 188 0
166 186 0
162 183 0
167 187 0
168 188 0
166 185 0
168 187 0
163 182 0
159 179 0
163 184 0
155 174 0
158 179 0
158 178 0
157 177 0
151 172 0
156 177 0
153 173 0
149 170 0
153 173 0
155 176 0
143 163 0
131 152 0
134 154 0
145 165 0
133 153 0
143 163 0
133 153 0
129 149 0
129 147 0
139 158 0
139 159 0
142 162 0
140 162 0
141 162 0
153 174 0
151 171 0
150 171 0
158 181 0
157 180 0
163 187 0
169 192 0
172 195 0
168 191 0
166 190 0
170 194 0
169 192 0
165 188 0
169 192 0
161 185 0
168 192 0
168 191 0
166 190 0
168 192 0
167 191 0
166 189 0
167 190 0
168 191 0
163 186 0
155 178 18
81 108 86
50 80 92
53 84 90
54 86 102
54 86 92
54 86 88
53 84 95
53 84 97
54 86 99
56 89 100
55 87 94
55 88 100
54 86 108
56 88 110
53 85 88
55 88 94
55 88 100
57 90 110
54 87 102
55 87 97
57 90 111
55 87 102
55 88 99
53 85 78
56 88 105
54 86 97
56 90 94
56 89 108
56 89 107
55 87 95
56 89 105
56 88 111
56 88 99
56 88 113
57 90 113
57 90 122
56 89 105
56 88 105
57 90 108
57 90 110
56 88 107
56 88 113
55 87 94
55 87 105
56 89 115
56 88 100
57 90 110
56 89 111
54 85 101
56 88 111
58 90 114
55 87 105
57 89 116
55 87 99
54 86 104
55 86 110
54 86 110
55 87 108
58 91 117
52 82 90
55 86 108
54 86 94
56 87 117
54 85 99
56 88 100
55 85 105
59 91 124
53 84 99
57 90 116
55 85 106
56 87 104
55 86 107
53 82 96
53 83 98
53 82 90
54 85 89
50 79 84
51 80 75
52 80 95
52 80 98
51 79 93
48 74 67
50 77 77
66 86 58
155 176 19
164 185 0
164 186 0
165 186 0
166 186 0
161 182 0
163 184 0
165 187 0
163 184 0
165 186 0
168 190 0
165 187 0
163 182 0
163 184 0
166 187 0
170 191 0
164 185 0
166 188 0
169 190 0
157 176 0
113 113 25
109 104 19
114 110 16
105 101 0
109 106 0
100 97 0
102 98 0
116 110 8
94 89 3
108 104 0
117 111 3
105 102 0
101 99 0
99 94 0
98 94 0
95 93 8
104 102 8
100 95 0
103 102 0
102 100 0
114 109 0
108 105 0
112 106 8
111 107 0
118 114 0
111 107 0
126 124 0
122 117 0
127 123 0
119 116 0
130 124 0
121 118 0
128 123 0
121 118 0
133 127 0
130 125 0
124 121 0
132 130 0
134 129 0
134 131 0
133 129 0
133 127 0
132 130 0
126 124 0
139 133 0
133 130 0
141 137 0
146 140 0
135 132 0
141 137 0
139 135 0
141 136 0
139 136 0
142 137 0
141 137 0
140 135 0
144 141 0
139 134 0
138 134 0
143 138 0
145 141 0
142 137 0
142 136 0
146 143 0
144 139 0
143 139 0
146 142 0
149 144 0
146 142 0
145 142 0
142 138 0
147 143 0
145 140 0
149 146 0
145 140 0
144 139 0
148 143 0
149 145 0
151 145 0
149 145 0
150 145 0
149 144 0
146 142 0
145 141 0
147 143 0
147 144 0
147 143 0
153 149 0
152 148 0
149 146 0
147 144 0
151 147 0
150 146 0
148 143 0
148 144 0
149 145 0
151 148 0
153 149 0
152 148 0
152 148 0
150 146 0
151 147 0
151 147 0
150 144 0
149 144 0
151 148 0
151 147 11
150 145 11
151 148 16
152 149 16
155 150 19
154 148 19
157 151 28
151 147 16
158 152 30
155 150 22
153 147 25
154 150 22
157 151 28
156 151 34
156 152 30
155 150 32
153 148 30
153 148 28
158 150 41
157 152 34
155 149 30
159 154 34
156 151 39
163 156 47
156 151 32
159 153 34
159 153 39
162 156 48
159 153 36
160 154 37
158 153 39
163 156 47
175 198 0
172 196 0
173 196 0
172 196 0
171 195 0
172 195 0
171 195 0
171 195 0
175 198 0
170 194 0
172 195 0
172 196 0
172 195 0
171 195 0
176 198 0
170 193 0
172 196 0
171 194 0
170 194 0
173 196 0
173 197 0
172 196 0
174 197 0
172 195 0
170 194 0
174 198 0
174 197 0
176 198 0
173 196 0
174 197 0
173 195 0
171 196 0
173 196 0
174 198 0
172 196 0
171 194 0
175 197 0
176 198 0
173 196 0
173 196 0
177 199 0
174 197 0
174 196 0
172 196 0
171 194 0
174 197 0
174 197 0
172 195 0
175 197 0
174 197 0
174 196 0
174 196 0
172 194 0
176 198 0
177 198 0
172 194 0
175 197 0
175 197 0
176 198 0
176 198 0
173 195 0
175 197 0
177 198 0
175 196 0
174 195 0
174 195 0
174 196 0
177 197 0
174 195 0
173 195 0
175 196 0
176 196 0
174 195 0
174 195 0
170 192 0
176 196 0
175 195 0
175 196 0
171 191 0
174 193 0
172 192 0
174 194 0
171 191 0
172 192 0
172 192 0
170 190 0
170 190 0
166 186 0
172 191 0
168 188 0
168 188 0
176 195 0
168 188 0
168 188 0
173 192 0
170 190 0
166 186 0
166 186 0
165 185 0
167 186 0
161 181 0
168 187 0
161 180 0
161 181 0
159 178 0
164 184 0
151 171 0
163 183 0
154 173 0
146 167 0
159 179 0
145 164 0
155 175 0
149 169 0
160 180 0
143 164 0
141 160 0
151 172 0
139 160 0
139 160 0
141 162 0
142 162 0
136 155 0
135 155 0
137 157 0
142 161 0
138 157 0
137 158 0
126 146 0
137 157 0
134 155 0
138 158 0
140 161 0
142 164 0
151 173 0
152 174 0
160 182 0
167 191 0
165 189 0
170 194 0
166 188 0
168 191 0
170 193 0
169 192 0
168 191 0
168 192 0
166 190 0
167 190 0
169 192 0
164 187 0
168 192 0
166 189 0
165 189 0
169 193 0
163 186 0
171 195 0
169 192 0
162 186 0
141 164 47
59 89 76
53 84 86
52 83 95
54 85 80
55 87 90
54 86 82
56 88 102
54 86 97
55 87 102
54 86 84
55 88 107
54 87 103
56 89 100
55 87 94
51 82 74
56 88 108
56 89 105
55 88 97
57 89 108
55 87 102
57 89 111
55 87 108
56 89 111
56 89 107
58 91 108
56 89 100
56 88 113
55 87 97
56 89 108
57 89 117
57 90 103
57 90 108
56 89 105
55 87 97
56 88 99
57 90 113
54 86 97
55 87 102
59 93 114
55 87 99
53 84 94
56 88 103
55 87 103
56 88 105
56 89 103
57 90 118
57 88 113
56 89 111
55 87 104
56 88 103
55 87 102
53 84 100
56 88 108
57 90 111
55 87 102
56 87 107
54 86 103
55 86 108
55 87 107
56 87 105
54 85 83
55 87 108
55 86 92
56 88 104
54 86 97
55 87 99
53 83 90
53 84 89
53 83 102
52 81 94
54 84 108
53 83 87
53 84 93
51 80 91
54 84 93
52 81 77
50 78 87
50 78 85
50 78 73
52 80 91
49 77 79
48 73 46
140 159 0
159 179 0
157 180 0
158 178 0
161 181 0
159 179 0
164 185 0
157 177 0
164 185 0
167 189 0
165 183 0
168 190 0
156 177 0
165 187 0
164 184 0
169 191 0
170 191 0
161 183 0
161 182 0
168 189 0
165 183 0
159 178 11
111 107 25
102 98 22
109 105 16
108 104 0
105 101 0
103 100 0
100 97 0
112 109 0
108 105 0
101 94 0
106 99 0
106 102 2
101 96 0
102 98 0
101 96 0
106 102 0
106 101 0
101 97 0
105 101 0
112 108 0
106 102 0
119 115 0
110 106 0
112 108 0
116 113 0
119 114 0
127 122 0
131 127 0
126 121 0
128 123 0
124 121 0
130 125 0
127 122 0
129 124 0
132 126 0
128 123 0
133 127 0
131 126 0
129 125 0
137 133 0
129 126 0
137 132 0
128 125 0
136 131 0
145 141 0
140 136 0
138 135 0
142 138 0
132 128 0
138 133 0
140 136 0
138 135 0
136 131 0
139 134 0
141 137 0
140 136 0
141 136 0
143 138 0
145 142 0
145 140 0
139 134 0
143 139 0
140 138 0
146 144 0
144 139 0
142 137 0
146 142 0
145 141 0
146 141 0
147 142 0
148 144 0
148 143 0
142 139 0
143 140 0
145 141 0
149 144 0
146 141 0
153 147 0
146 141 0
147 143 0
151 146 0
142 138 0
146 143 0
144 140 0
148 144 0
149 145 0
148 143 0
147 143 0
149 144 0
149 145 0
146 142 0
144 141 0
147 142 0
153 150 0
147 143 0
149 146 0
150 147 0
147 143 0
151 147 0
150 146 0
151 147 0
153 148 0
151 147 0
150 147 0
149 146 0
151 148 0
152 147 0
154 149 0
149 144 0
153 149 0
151 148 0
151 146 11
149 144 0
152 147 25
156 152 19
158 151 22
154 149 19
153 148 11
157 152 22
154 150 22
155 151 28
156 152 30
157 150 30
154 150 22
160 154 32
156 151 28
157 152 28
161 155 39
157 152 34
158 153 36
160 155 36
160 154 39
156 151 36
159 154 36
156 150 36
161 155 42
158 153 44
170 194 0
172 196 0
173 197 0
173 196 0
172 196 0
172 195 0
171 195 0
174 197 0
172 196 0
171 194 0
169 193 0
171 194 0
172 195 0
173 195 0
172 196 0
174 197 0
173 196 0
172 196 0
172 195 0
171 195 0
171 195 0
173 196 0
175 197 0
172 195 0
174 198 0
170 194 0
174 197 0
173 197 0
173 197 0
173 197 0
174 197 0
173 196 0
172 196 0
174 197 0
175 198 0
173 196 0
174 197 0
173 196 0
175 198 0
174 197 0
174 197 0
172 195 0
175 197 0
176 198 0
172 194 0
175 196 0
170 192 0
175 197 0
174 195 0
176 198 0
174 196 0
176 198 0
176 197 0
175 197 0
176 198 0
173 195 0
175 196 0
174 196 0
176 197 0
174 196 0
172 194 0
171 193 0
174 196 0
174 196 0
176 197 0
177 197 0
172 193 0
175 196 0
172 193 0
172 193 0
176 196 0
175 195 0
175 195 0
172 193 0
173 194 0
173 194 0
177 197 0
176 196 0
174 194 0
176 195 0
177 196 0
169 189 0
170 189 0
173 193 0
169 189 0
167 187 0
168 188 0
167 188 0
170 190 0
167 187 0
167 187 0
169 188 0
168 186 0
168 187 0
165 183 0
168 187 0
164 185 0
167 186 0
164 183 0
161 180 0
159 178 0
163 183 0
157 178 0
162 182 0
167 187 0
162 182 0
162 181 0
160 180 0
154 174 0
157 176 0
156 175 0
156 176 0
158 177 0
154 174 0
151 170 0
148 167 0
147 167 0
151 172 0
141 162 0
149 169 0
140 160 0
133 153 0
141 161 0
138 158 0
137 157 0
139 160 0
137 158 0
132 153 0
138 158 0
141 162 0
142 162 0
147 168 0
145 166 0
139 160 0
145 167 0
158 180 0
165 188 0
167 191 0
170 194 0
168 191 0
171 194 0
164 187 0
168 191 0
167 190 0
160 184 0
169 192 0
164 187 0
172 196 0
157 180 0
166 189 0
164 187 0
163 186 0
159 182 0
168 191 0
163 187 0
162 186 0
164 188 0
162 185 0
161 185 0
119 143 51
51 81 76
53 84 86
55 87 95
54 87 99
55 87 108
56 88 103
54 85 92
54 86 100
56 89 95
53 85 94
54 85 97
57 90 110
54 85 99
56 89 100
53 85 82
56 89 102
56 88 100
56 89 100
54 86 94
54 86 105
55 88 95
54 86 103
55 88 100
55 87 97
56 88 105
57 89 114
56 89 107
56 88 99
55 87 108
56 89 95
56 87 99
56 89 107
55 87 103
56 87 103
55 87 97
55 86 110
57 90 105
55 87 100
56 88 107
56 88 92
55 86 110
56 90 108
56 88 110
54 86 97
54 86 100
55 87 114
56 89 100
55 86 107
52 82 92
56 88 111
55 87 94
56 88 100
52 83 92
53 84 97
56 89 107
53 84 86
54 85 100
55 86 92
55 86 102
54 85 93
55 86 104
54 85 102
54 86 104
56 87 107
55 86 107
56 87 110
54 85 105
54 85 94
53 83 88
55 86 90
53 83 100
49 77 79
50 79 85
51 80 81
52 81 91
50 77 77
49 76 90
52 80 81
51 78 91
47 73 54
116 136 45
155 175 0
161 184 0
163 184 0
155 173 0
161 182 0
154 173 0
161 182 0
162 182 0
160 179 0
161 180 0
160 181 0
164 185 0
160 179 0
163 183 0
163 182 0
161 181 0
163 182 0
162 181 0
157 177 0
162 181 0
166 186 0
164 183 0
146 161 16
109 105 30
105 99 11
111 107 0
104 98 0
109 104 0
109 105 0
112 106 0
110 104 0
94 92 0
97 93 0
108 103 0
112 107 0
106 101 0
106 100 0
112 106 0
109 103 0
112 106 0
103 99 0
105 102 0
107 102 0
108 104 0
110 107 0
114 109 0
115 111 0
124 120 0
120 114 0
124 120 0
124 120 0
119 115 0
122 117 0
123 121 0
128 123 0
128 122 0
133 128 0
126 124 0
127 123 0
123 119 0
129 125 0
137 132 0
136 131 0
128 126 0
129 124 0
132 127 0
135 132 0
134 130 0
135 132 0
138 134 0
134 130 0
138 133 0
140 136 0
135 130 0
138 132 0
136 131 0
139 132 0
141 137 0
141 136 0
137 133 0
135 130 0
146 142 0
144 138 0
146 141 0
147 143 0
140 134 0
144 140 0
148 144 0
145 141 0
148 143 0
150 144 0
147 143 0
147 142 0
146 142 0
142 139 0
148 143 0
150 144 0
144 141 0
149 144 0
143 138 0
144 138 0
150 147 0
146 141 0
148 145 0
148 145 0
148 143 0
149 145 0
150 146 0
150 144 0
147 142 0
148 143 0
145 140 0
149 144 0
149 145 0
151 146 0
151 146 0
150 147 0
151 147 0
149 145 0
150 145 0
150 146 0
150 146 0
150 144 0
150 147 0
149 146 0
150 146 0
152 148 0
152 147 0
149 144 0
152 148 0
153 149 0
151 146 0
151 148 0
152 148 0
151 146 11
154 150 16
147 144 0
149 144 19
152 147 16
154 149 25
152 148 22
152 147 25
155 151 25
153 148 22
157 152 36
154 149 28
154 151 11
155 150 25
158 152 36
156 151 30
156 150 34
158 153 39
160 155 37
162 156 42
157 151 34
158 152 37
158 151 42
158 153 39
163 156 51
173 196 0
174 198 0
172 196 0
173 197 0
172 195 0
170 193 0
174 197 0
173 196 0
170 193 0
173 197 0
173 196 0
173 196 0
172 196 0
171 194 0
170 194 0
174 196 0
171 195 0
169 193 0
171 195 0
172 195 0
172 195 0
169 192 0
171 194 0
169 192 0
172 196 0
173 196 0
171 194 0
175 197 0
175 197 0
170 195 0
174 196 0
173 196 0
174 197 0
170 193 0
173 195 0
172 195 0
174 196 0
174 196 0
174 196 0
172 195 0
172 195 0
173 196 0
173 196 0
175 196 0
175 197 0
175 197 0
173 196 0
174 195 0
172 194 0
176 198 0
173 194 0
175 196 0
173 196 0
175 196 0
175 196 0
175 196 0
176 197 0
176 197 0
176 197 0
178 198 0
176 197 0
176 197 0
175 195 0
174 195 0
173 194 0
177 198 0
175 196 0
174 195 0
172 192 0
175 195 0
176 196 0
175 194 0
175 195 0
171 191 0
174 193 0
169 190 0
171 191 0
170 189 0
174 194 0
171 191 0
173 193 0
170 189 0
169 188 0
167 187 0
168 188 0
168 187 0
167 186 0
163 183 0
170 189 0
164 184 0
162 181 0
171 190 0
163 183 0
164 183 0
167 187 0
160 179 0
164 184 0
163 182 0
159 178 0
162 183 0
161 180 0
156 175 0
161 180 0
161 181 0
151 170 0
156 175 0
159 178 0
156 176 0
158 178 0
156 175 0
148 168 0
155 174 0
148 168 0
148 168 0
151 171 0
145 167 0
145 167 0
144 166 0
137 159 0
141 161 0
138 158 0
141 161 0
153 174 0
143 162 0
151 171 0
135 155 0
146 167 0
136 156 0
145 165 0
137 157 0
145 166 0
146 168 0
153 173 0
153 174 0
161 183 0
166 189 0
168 193 0
169 193 0
173 196 0
169 193 0
162 186 0
167 191 0
165 189 0
164 187 0
163 187 0
165 188 0
165 189 0
165 188 0
162 186 0
164 187 0
163 187 0
160 184 0
164 186 0
158 181 0
161 185 0
162 185 0
165 188 0
164 187 0
160 183 0
157 179 0
101 124 57
51 82 67
54 85 102
52 83 84
52 83 86
55 87 82
55 87 97
54 86 88
53 85 97
52 83 84
55 87 90
53 84 84
54 86 92
56 89 114
54 85 99
54 86 88
56 89 99
55 88 99
56 89 108
54 86 90
55 86 102
54 86 88
57 90 105
55 87 110
55 87 95
55 88 99
54 86 84
57 89 111
53 85 97
55 86 95
55 87 103
56 89 102
55 88 100
57 90 120
55 87 94
56 88 99
53 84 86
55 87 108
56 89 102
56 88 107
56 89 110
55 88 100
55 88 107
56 88 95
55 87 103
53 85 94
57 89 110
54 85 101
55 86 102
53 84 90
55 87 92
54 85 88
56 88 108
54 86 99
56 87 107
54 86 97
53 84 99
52 82 92
54 85 91
56 88 103
55 86 97
55 86 97
53 83 85
53 83 97
53 83 103
52 81 98
55 85 104
53 83 105
53 82 95
54 84 96
52 80 87
50 79 87
52 81 87
54 84 95
51 79 96
49 74 87
49 76 80
49 76 84
48 74 79
97 117 54
154 173 0
153 173 0
163 183 0
157 178 0
158 179 0
158 177 0
160 179 0
155 175 0
155 175 0
158 180 0
161 179 0
159 179 0
164 183 0
156 174 0
159 177 0
165 186 0
164 184 0
160 179 0
161 181 0
163 180 0
159 178 0
166 186 0
155 174 0
165 184 0
139 149 11
104 98 16
117 111 11
106 101 0
107 103 0
107 102 0
112 107 0
102 99 0
103 98 0
99 93 0
107 103 0
109 103 0
110 106 0
101 95 0
112 107 0
102 100 0
104 99 0
103 98 0
109 105 0
102 97 0
115 109 0
107 104 0
116 110 0
120 115 0
125 119 0
116 110 0
119 116 0
119 116 0
113 110 0
130 124 0
117 113 0
121 117 0
124 119 0
128 122 0
126 122 0
131 126 0
133 128 0
134 130 0
136 131 0
125 123 0
135 130 0
128 123 0
131 127 0
138 133 0
139 135 0
140 135 0
134 128 0
137 132 0
134 130 0
137 133 0
137 131 0
138 133 0
144 138 0
148 144 0
135 131 0
139 135 0
139 135 0
142 138 0
144 141 0
143 139 0
140 136 0
143 138 0
144 138 0
144 139 0
142 138 0
141 138 0
144 140 0
142 138 0
139 134 0
140 135 0
148 144 0
145 140 0
141 137 0
141 138 0
148 144 0
143 138 0
145 141 0
147 143 0
150 147 0
145 142 0
150 145 0
146 142 0
148 144 0
149 144 0
152 147 0
147 142 0
147 143 0
150 146 0
148 144 0
148 145 0
153 150 0
150 146 0
148 144 0
150 145 0
151 147 0
151 146 0
147 142 0
152 148 0
146 142 0
149 145 0
150 145 0
150 146 0
150 146 0
151 147 0
151 146 0
153 149 0
151 147 0
149 143 0
149 145 0
150 145 0
151 145 0
151 147 0
149 146 0
151 147 0
149 144 0
152 147 16
150 146 11
154 148 22
154 151 11
155 151 19
153 148 22
155 150 28
154 149 19
154 150 19
155 150 28
155 149 30
153 149 25
155 150 28
157 152 36
158 152 36
157 151 36
156 150 32
156 151 30
157 150 34
156 152 36
159 153 36
173 196 0
172 196 0
172 196 0
174 198 0
171 195 0
172 195 0
173 196 0
170 193 0
169 193 0
172 196 0
172 195 0
172 197 0
171 195 0
172 195 0
173 196 0
171 194 0
169 192 0
172 195 0
174 197 0
172 196 0
172 195 0
169 192 0
170 193 0
172 195 0
170 192 0
172 195 0
168 192 0
171 194 0
174 196 0
175 198 0
170 194 0
170 193 0
173 196 0
173 197 0
175 197 0
173 196 0
174 197 0
174 197 0
174 196 0
172 195 0
173 195 0
174 196 0
174 196 0
174 197 0
173 195 0
171 194 0
175 197 0
176 197 0
173 194 0
177 199 0
171 192 0
175 196 0
177 198 0
172 194 0
175 197 0
175 196 0
172 193 0
173 195 0
173 195 0
176 196 0
176 196 0
175 196 0
172 193 0
179 198 0
172 193 0
175 194 0
175 196 0
173 193 0
174 194 0
170 190 0
171 191 0
169 190 0
173 193 0
173 193 0
173 192 0
170 191 0
175 194 0
173 193 0
173 192 0
171 191 0
171 191 0
173 192 0
168 187 0
169 188 0
167 186 0
166 186 0
163 183 0
165 185 0
164 183 0
164 184 0
161 181 0
163 183 0
161 179 0
163 182 0
164 184 0
163 183 0
160 181 0
162 182 0
163 183 0
160 180 0
162 182 0
157 176 0
162 182 0
159 178 0
163 182 0
157 176 0
157 176 0
158 177 0
159 177 0
146 166 0
146 165 0
145 165 0
149 169 0
151 171 0
142 163 0
155 177 0
153 173 0
143 164 0
145 165 0
142 162 0
136 157 0
140 160 0
133 153 0
143 164 0
147 167 0
137 158 0
145 165 0
142 162 0
137 158 0
144 166 0
152 174 0
155 176 0
155 176 0
152 175 0
159 182 0
167 190 0
166 189 0
163 187 0
167 190 0
166 189 0
161 185 0
162 185 0
162 186 0
162 186 0
160 183 0
159 183 0
164 187 0
162 184 0
163 186 0
162 185 0
164 188 0
156 179 0
163 186 0
166 189 0
159 182 0
159 181 0
162 185 0
159 182 0
159 182 0
155 177 0
160 183 0
82 107 57
53 84 78
52 83 84
53 84 90
52 83 76
54 86 86
51 82 84
55 87 97
55 87 80
56 88 99
51 82 82
56 88 108
55 87 76
55 87 108
56 89 107
53 85 80
56 89 94
54 86 102
56 88 103
57 89 110
53 84 84
55 87 100
56 88 100
55 87 102
56 88 102
56 89 100
55 87 95
54 85 95
56 88 110
56 88 111
52 83 88
56 88 97
56 88 97
54 86 97
55 87 100
54 86 99
54 86 99
54 85 88
56 89 105
55 87 105
56 89 108
55 87 95
55 87 108
54 85 102
53 84 99
55 87 94
55 88 97
53 85 94
55 87 100
56 88 105
54 85 108
52 84 84
54 86 96
56 89 108
55 86 103
55 86 97
55 86 101
56 87 108
55 87 103
53 83 98
54 84 96
54 85 92
54 84 86
52 83 90
51 80 92
51 79 98
53 84 92
53 84 85
52 82 104
54 84 88
51 80 95
50 78 93
51 80 89
51 79 72
51 79 90
50 77 73
49 75 66
82 101 60
152 171 0
153 173 0
150 167 0
153 174 0
157 177 0
153 170 0
151 169 0
145 161 0
156 175 0
153 172 0
155 172 0
161 180 0
153 173 0
161 180 0
155 173 0
159 178 0
159 178 0
159 177 0
162 182 0
158 177 0
159 176 0
158 176 0
160 180 0
158 178 0
159 176 0
156 174 0
128 135 11
101 95 16
111 105 11
98 94 0
107 102 0
104 100 0
92 88 0
98 94 0
112 106 0
111 105 0
106 100 0
112 106 0
108 102 0
105 98 0
105 100 0
104 98 0
122 116 0
106 101 0
116 110 0
122 116 0
110 105 0
115 110 0
122 118 0
117 110 0
115 111 0
122 117 0
119 113 0
122 117 0
128 121 0
124 118 0
132 126 0
120 116 0
130 125 0
133 127 0
125 121 0
126 120 0
128 123 0
127 123 0
133 129 0
129 125 0
134 129 0
139 134 0
132 128 0
130 125 0
133 128 0
136 132 0
140 136 0
143 138 0
136 132 0
136 131 0
133 128 0
139 134 0
138 134 0
141 136 0
137 132 0
141 135 0
139 133 0
136 132 0
138 134 0
140 135 0
142 137 0
143 138 0
140 137 0
146 139 0
143 139 0
149 142 0
149 144 0
141 137 0
143 139 0
145 139 0
144 140 0
147 141 0
144 140 0
144 138 0
148 144 0
149 145 0
141 136 0
142 136 0
147 142 0
152 148 0
149 145 0
148 144 0
149 145 0
146 141 0
144 139 0
148 142 0
147 143 0
148 144 0
150 145 0
147 143 0
145 140 0
149 143 0
148 144 0
146 141 0
146 142 0
150 147 0
150 144 0
151 146 0
147 143 0
145 141 0
150 145 0
151 145 0
148 143 0
150 144 0
151 147 0
150 146 0
153 147 0
151 146 0
152 148 0
149 144 0
152 148 0
149 145 0
149 145 0
152 148 0
154 149 0
153 149 11
153 149 0
154 149 19
150 145 16
153 148 16
153 148 16
151 147 25
153 149 22
156 151 25
153 149 19
158 152 30
157 151 36
157 151 34
161 155 42
155 150 25
159 153 37
156 150 30
156 152 32
158 152 41
154 150 28
171 194 0
173 197 0
172 196 0
172 196 0
174 197 0
175 198 0
173 196 0
171 195 0
174 198 0
169 193 0
169 193 0
171 195 0
171 195 0
171 194 0
173 196 0
172 195 0
172 196 0
172 195 0
171 194 0
168 192 0
171 194 0
172 196 0
172 195 0
171 195 0
170 194 0
171 194 0
169 193 0
173 196 0
171 195 0
171 194 0
174 197 0
173 195 0
175 197 0
173 195 0
172 195 0
173 196 0
173 195 0
173 196 0
171 193 0
175 197 0
176 198 0
173 195 0
175 197 0
173 195 0
173 195 0
173 195 0
175 197 0
174 196 0
176 198 0
172 194 0
174 196 0
173 194 0
173 194 0
173 193 0
176 196 0
175 195 0
175 196 0
175 195 0
175 196 0
171 193 0
174 195 0
175 195 0
173 194 0
174 194 0
175 196 0
177 197 0
172 192 0
172 191 0
173 193 0
170 189 0
171 190 0
173 193 0
169 188 0
171 190 0
175 194 0
169 189 0
166 186 0
167 186 0
170 190 0
168 188 0
170 188 0
167 186 0
160 180 0
164 183 0
165 185 0
166 186 0
165 185 0
163 183 0
166 185 0
156 176 0
160 179 0
160 181 0
159 178 0
159 179 0
159 179 0
160 180 0
160 180 0
155 174 0
164 184 0
152 172 0
158 177 0
160 179 0
155 174 0
158 177 0
153 172 0
148 167 0
156 175 0
155 174 0
151 171 0
153 172 0
152 173 0
142 162 0
155 176 0
145 166 0
150 170 0
140 161 0
148 169 0
137 157 0
144 165 0
145 166 0
153 174 0
140 160 0
146 167 0
144 165 0
139 159 0
141 161 0
145 165 0
157 178 0
146 167 0
142 164 0
145 165 0
155 176 0
157 177 0
157 180 0
160 183 0
167 189 0
165 188 0
168 191 0
166 188 0
162 185 0
163 186 0
167 190 0
157 179 0
168 192 0
158 181 0
164 186 0
161 183 0
153 177 0
165 188 0
161 184 0
163 186 0
166 188 0
160 183 0
160 183 0
161 183 0
159 181 0
154 178 0
152 175 0
152 174 0
154 177 0
159 182 0
142 165 18
84 109 82
50 80 78
52 84 88
51 81 88
53 84 90
53 85 94
50 81 65
54 85 95
55 87 97
55 86 97
53 85 80
55 87 100
54 86 88
55 87 100
53 85 88
54 85 100
57 90 105
55 87 95
56 89 99
56 88 103
55 88 103
55 88 105
54 86 95
53 84 88
56 90 103
54 86 95
54 86 105
55 88 108
54 86 90
54 85 88
55 87 97
56 88 107
52 84 95
54 85 90
56 88 102
55 87 105
55 87 99
58 91 110
56 88 88
57 90 113
55 86 97
53 84 102
56 88 102
55 86 107
56 88 103
53 84 92
55 87 103
55 86 95
56 88 111
56 87 102
56 88 103
55 86 103
54 84 92
53 83 98
54 85 99
53 84 79
50 79 82
53 83 85
54 85 96
55 86 99
53 83 96
54 86 95
53 84 89
54 84 97
53 82 84
50 78 81
51 80 87
52 81 94
51 79 77
51 78 91
52 82 88
52 82 84
49 77 77
50 77 73
45 70 57
72 94 51
152 171 18
142 162 0
151 169 0
150 170 0
147 166 0
156 177 0
152 171 0
156 173 0
153 173 0
156 175 0
153 173 0
154 174 0
152 171 0
156 176 0
157 176 0
158 177 0
149 166 0
158 177 0
156 175 0
159 177 0
159 177 0
162 179 0
165 184 0
152 170 0
163 180 0
154 171 0
157 175 0
160 179 0
133 143 0
101 94 11
90 85 0
93 89 0
100 92 0
108 102 0
112 105 0
102 97 0
109 103 0
101 97 0
108 102 0
102 97 0
103 99 0
113 105 0
97 93 0
110 104 0
111 105 0
116 110 0
112 109 0
106 102 0
113 109 0
121 115 0
107 102 0
118 111 0
121 117 0
123 115 0
125 119 0
117 113 0
123 118 0
126 121 0
122 117 0
130 123 0
123 118 0
126 121 0
127 121 0
129 123 0
130 125 0
132 125 0
133 127 0
135 128 0
123 121 0
136 130 0
128 123 0
133 128 0
139 133 0
133 128 0
140 135 0
138 132 0
138 134 0
136 131 0
138 133 0
136 132 0
142 137 0
140 137 0
141 135 0
142 137 0
142 137 0
143 138 0
143 138 0
140 134 0
143 137 0
143 137 0
144 140 0
139 134 0
142 135 0
142 138 0
141 137 0
141 136 0
147 143 0
145 140 0
143 137 0
146 140 0
146 140 0
145 141 0
148 141 0
144 140 0
145 140 0
147 142 0
144 139 0
152 147 0
145 140 0
142 137 0
148 142 0
147 144 0
143 137 0
143 137 0
149 145 0
147 143 0
145 140 0
149 143 0
151 147 0
151 146 0
150 146 0
150 145 0
150 146 0
149 144 0
147 141 0
146 141 0
146 142 0
148 143 0
150 145 0
149 144 0
150 145 0
153 147 0
151 144 0
149 144 0
148 144 0
151 145 0
147 143 0
152 147 0
150 146 0
151 147 0
151 146 0
152 147 0
153 148 0
151 147 0
152 148 0
151 145 11
155 151 16
153 148 16
151 147 19
150 146 11
155 149 25
153 149 11
152 149 22
157 150 28
155 149 28
155 150 28
157 152 34
156 151 34
156 149 32
158 152 34
159 153 41
157 150 34
174 197 0
174 197 0
172 196 0
172 195 0
173 197 0
171 194 0
170 193 0
173 196 0
173 196 0
172 196 0
173 196 0
171 195 0
171 194 0
172 196 0
171 195 0
170 193 0
172 194 0
169 192 0
172 195 0
169 194 0
172 195 0
171 194 0
171 194 0
172 194 0
174 197 0
171 195 0
170 193 0
171 194 0
170 194 0
173 196 0
173 196 0
174 197 0
173 195 0
173 195 0
173 195 0
172 195 0
169 193 0
175 197 0
171 193 0
176 197 0
175 195 0
177 199 0
175 197 0
171 192 0
175 197 0
175 197 0
174 196 0
175 197 0
172 194 0
175 196 0
172 194 0
173 192 0
175 196 0
173 195 0
172 194 0
177 197 0
179 199 0
172 193 0
176 197 0
173 193 0
175 196 0
177 197 0
172 193 0
179 198 0
176 195 0
174 194 0
175 195 0
174 194 0
174 193 0
169 188 0
169 189 0
169 188 0
160 180 0
174 193 0
170 189 0
172 191 0
171 191 0
171 189 0
170 189 0
163 183 0
162 182 0
171 189 0
160 179 0
160 180 0
162 183 0
161 181 0
159 178 0
158 178 0
158 178 0
163 181 0
155 174 0
160 180 0
156 177 0
156 176 0
153 172 0
156 175 0
162 181 0
160 179 0
157 177 0
151 170 0
160 179 0
156 176 0
158 177 0
152 172 0
156 175 0
147 167 0
152 172 0
150 170 0
156 176 0
153 173 0
148 169 0
162 183 0
148 170 0
155 177 0
155 177 0
146 167 0
149 170 0
141 162 0
144 165 0
148 168 0
148 168 0
152 172 0
146 166 0
144 165 0
144 164 0
140 159 0
143 163 0
142 162 0
144 164 0
155 175 0
150 171 0
158 180 0
157 179 0
167 190 0
169 192 0
156 179 0
168 191 0
162 185 0
160 183 0
160 182 0
161 183 0
157 180 0
166 188 0
163 186 0
161 184 0
158 179 0
162 185 0
157 178 0
160 183 0
165 188 0
160 183 0
159 181 0
157 180 0
157 179 0
158 181 0
153 177 0
156 180 0
157 179 0
163 186 0
164 187 0
155 178 0
155 177 0
153 175 0
75 101 70
52 83 72
52 82 86
52 83 88
53 84 84
52 83 86
52 83 86
55 87 82
54 85 84
55 88 92
56 89 97
54 85 97
52 83 82
52 83 88
53 85 82
53 85 88
53 84 86
53 84 80
56 89 111
54 85 94
54 86 99
53 84 88
55 87 97
53 84 97
54 86 108
53 85 108
53 85 95
53 85 82
53 85 88
54 85 100
56 89 113
53 84 99
53 85 84
55 87 99
54 85 97
55 87 94
53 84 100
54 85 103
56 88 99
54 86 97
56 88 102
53 84 97
56 88 102
55 87 92
55 88 99
52 83 97
53 84 95
54 85 99
55 87 96
55 86 113
55 86 102
54 86 92
55 87 90
52 82 94
52 82 91
53 84 90
52 82 82
53 83 90
52 83 100
52 82 80
54 84 96
55 86 95
55 86 103
53 84 101
50 78 81
50 78 83
51 80 90
52 82 83
48 75 77
51 81 89
52 80 70
48 76 68
49 75 68
68 90 56
147 167 0
150 169 0
144 162 0
144 161 0
145 164 0
148 166 0
152 170 0
150 168 0
152 171 0
145 161 0
151 168 0
148 165 0
153 173 0
150 167 0
154 174 0
150 167 0
146 165 0
152 169 0
157 173 0
149 167 0
154 172 0
152 169 0
153 170 0
155 170 0
159 177 0
156 171 0
157 174 0
154 171 0
162 181 0
159 175 0
119 123 25
95 86 16
98 93 0
102 98 0
96 93 0
111 105 0
108 102 0
104 99 0
108 103 0
105 99 0
108 101 0
110 104 0
106 100 0
108 103 0
114 106 0
107 101 0
116 110 0
115 107 0
108 103 0
123 117 0
108 102 0
120 113 0
114 109 0
125 120 0
125 119 0
122 119 0
124 119 0
125 119 0
116 111 0
122 117 0
123 116 0
120 115 0
131 126 0
127 122 0
122 116 0
124 120 0
126 121 0
132 124 0
126 124 0
129 124 0
139 135 0
130 126 0
136 130 0
132 126 0
135 129 0
139 135 0
137 130 0
138 133 0
136 131 0
137 131 0
138 133 0
139 133 0
142 135 0
132 127 0
143 138 0
145 139 0
139 133 0
145 137 0
145 139 0
142 136 0
136 132 0
143 138 0
143 138 0
145 139 0
140 134 0
140 134 0
142 138 0
145 140 0
145 139 0
143 136 0
145 140 0
145 140 0
143 139 0
145 139 0
145 140 0
146 142 0
142 136 0
142 137 0
144 139 0
149 145 0
146 142 0
147 138 0
143 139 0
141 137 0
148 141 0
151 146 0
147 142 0
147 143 0
148 142 0
147 142 0
148 143 0
147 142 0
148 143 0
150 146 0
151 145 0
147 143 0
147 143 0
149 144 0
146 141 0
150 145 0
149 143 0
149 143 0
152 147 0
149 144 0
147 141 0
151 146 0
150 146 0
152 148 0
152 147 0
152 148 0
152 147 0
150 145 0
148 143 0
153 149 0
148 143 0
152 147 0
154 149 0
150 146 0
152 146 0
153 147 0
153 148 16
153 149 19
153 148 19
155 149 28
153 147 28
154 148 28
154 149 22
159 152 34
157 150 28
156 151 39
155 149 32
158 151 34
157 151 34
172 195 0
173 196 0
172 195 0
171 195 0
172 194 0
173 197 0
170 193 0
174 197 0
173 197 0
174 197 0
173 197 0
172 195 0
171 194 0
172 195 0
172 195 0
173 197 0
173 195 0
169 194 0
172 195 0
172 196 0
173 197 0
171 194 0
171 195 0
170 192 0
175 197 0
171 195 0
168 191 0
167 190 0
168 191 0
172 195 0
171 194 0
171 194 0
174 196 0
175 198 0
172 195 0
174 196 0
173 195 0
171 193 0
174 196 0
173 195 0
175 198 0
172 194 0
166 188 0
172 193 0
174 195 0
176 197 0
174 195 0
176 197 0
176 198 0
175 196 0
174 195 0
174 194 0
172 192 0
176 196 0
177 197 0
174 195 0
173 193 0
176 195 0
174 195 0
176 196 0
172 192 0
172 193 0
173 193 0
172 193 0
174 194 0
171 191 0
172 193 0
168 187 0
171 191 0
169 188 0
174 194 0
173 192 0
172 191 0
171 191 0
171 191 0
168 187 0
166 185 0
161 181 0
166 185 0
165 184 0
161 179 0
160 179 0
164 184 0
162 181 0
155 175 0
158 177 0
161 181 0
161 181 0
154 173 0
163 183 0
153 172 0
160 180 0
155 174 0
155 174 0
158 177 0
159 179 0
159 178 0
158 177 0
159 178 0
154 173 0
154 174 0
156 174 0
154 174 0
153 173 0
148 168 0
157 176 0
157 178 0
155 175 0
153 174 0
146 168 0
148 170 0
145 166 0
149 171 0
146 166 0
149 170 0
147 167 0
147 168 0
147 167 0
146 166 0
136 155 0
146 167 0
148 168 0
139 158 0
154 174 0
144 164 0
149 170 0
148 168 0
150 171 0
150 171 0
154 175 0
159 180 0
163 185 0
166 188 0
165 189 0
171 193 0
166 189 0
156 178 0
164 187 0
158 181 0
163 185 0
162 184 0
160 183 0
148 170 0
162 185 0
153 176 0
158 180 0
160 183 0
159 182 0
156 178 0
160 183 0
157 180 0
154 176 0
155 177 0
147 169 0
149 171 0
159 181 0
150 172 0
155 178 0
150 172 0
150 172 0
149 172 0
154 177 0
151 174 0
142 165 18
67 93 57
52 82 92
53 84 86
52 82 90
51 81 84
53 84 80
52 82 82
50 79 82
53 84 90
53 85 95
52 83 82
54 86 90
54 84 102
53 85 95
56 88 99
52 83 80
51 81 84
55 86 100
53 84 88
56 89 102
55 86 99
53 85 90
53 84 86
55 86 84
54 85 95
54 86 88
52 82 90
52 83 94
55 87 105
56 88 97
56 88 105
54 86 92
52 83 90
56 88 100
55 87 90
55 87 86
52 83 88
55 86 110
56 87 110
54 85 92
53 84 94
54 85 95
56 87 103
54 85 90
52 83 86
54 85 103
54 85 88
54 86 95
53 83 108
53 83 92
56 88 102
52 82 97
51 80 94
53 82 94
53 83 85
53 84 92
54 85 92
52 82 92
52 82 83
52 82 91
50 80 87
50 78 90
51 79 79
50 78 78
50 78 79
49 77 77
50 79 75
49 76 77
49 77 86
47 73 71
45 70 51
69 91 68
128 144 19
142 160 0
132 149 0
148 167 0
147 165 0
141 160 0
149 168 0
146 163 0
147 165 0
145 161 0
147 163 0
141 161 0
149 166 0
136 151 0
148 162 0
148 167 0
148 166 0
152 168 0
147 163 0
147 162 0
141 156 0
149 167 0
153 171 0
151 169 0
150 165 0
158 173 0
156 172 0
150 165 0
150 167 0
150 165 0
149 164 0
154 169 0
125 129 16
85 80 11
101 94 0
100 95 0
110 104 0
97 88 0
107 101 0
119 110 0
101 95 0
117 108 0
104 95 0
115 109 0
115 111 0
114 107 0
110 103 0
107 99 0
113 106 0
112 106 0
117 112 0
121 114 0
111 103 0
115 109 0
121 114 0
120 114 0
124 118 0
119 112 0
123 116 0
125 118 0
119 114 0
125 120 0
127 120 0
122 115 0
129 123 0
118 113 0
127 121 0
133 125 0
134 127 0
131 126 0
134 126 0
125 120 0
134 128 0
134 128 0
136 131 0
142 135 0
143 138 0
136 131 0
135 130 0
138 133 0
136 129 0
139 134 0
140 134 0
137 133 0
145 139 0
135 131 0
144 139 0
142 136 0
136 131 0
139 134 0
140 136 0
137 132 0
145 139 0
140 135 0
142 136 0
143 138 0
144 138 0
137 132 0
140 135 0
148 142 0
144 138 0
146 140 0
145 139 0
145 139 0
138 132 0
145 141 0
145 138 0
146 142 0
149 144 0
144 139 0
142 139 0
143 139 0
145 140 0
147 141 0
146 141 0
146 142 0
146 141 0
150 143 0
147 142 0
148 142 0
149 143 0
150 145 0
148 144 0
151 145 0
150 144 0
149 145 0
145 141 0
152 147 0
150 144 0
143 137 0
147 143 0
150 145 0
148 144 0
148 143 0
149 144 0
151 147 0
151 147 0
150 145 0
149 145 0
153 148 0
152 147 0
151 147 0
151 145 0
149 143 0
154 149 0
149 143 0
148 145 0
151 145 0
149 146 0
149 145 0
151 145 0
150 145 0
150 145 11
149 144 11
151 147 25
154 148 22
153 147 19
153 146 25
157 151 25
150 146 19
155 149 22
159 153 34
157 152 36
154 147 39
173 197 0
172 196 0
174 197 0
170 193 0
171 195 0
170 194 0
173 197 0
171 196 0
170 194 0
173 197 0
173 197 0
171 194 0
176 198 0
172 195 0
172 196 0
172 195 0
168 192 0
169 194 0
171 194 0
169 193 0
173 196 0
170 193 0
170 192 0
170 194 0
170 194 0
167 190 0
170 193 0
170 193 0
165 189 0
165 188 0
173 197 0
172 194 0
173 196 0
173 196 0
171 193 0
170 193 0
171 194 0
168 191 0
176 198 0
174 196 0
172 195 0
175 196 0
173 194 0
174 196 0
173 195 0
176 197 0
174 195 0
174 195 0
175 197 0
170 191 0
172 193 0
174 195 0
174 194 0
173 195 0
176 197 0
176 196 0
178 197 0
177 196 0
174 193 0
179 198 0
177 197 0
177 197 0
168 188 0
169 189 0
172 192 0
169 190 0
176 195 0
169 187 0
173 193 0
169 188 0
171 191 0
171 191 0
167 187 0
166 185 0
169 188 0
165 185 0
166 186 0
159 179 0
163 182 0
159 179 0
165 185 0
162 181 0
159 178 0
158 178 0
164 184 0
163 183 0
159 178 0
164 184 0
157 176 0
156 176 0
157 177 0
158 177 0
153 173 0
162 181 0
160 179 0
155 175 0
156 176 0
155 175 0
151 171 0
159 179 0
157 177 0
153 173 0
155 175 0
160 180 0
150 170 0
152 173 0
152 173 0
157 179 0
144 166 0
149 171 0
154 174 0
152 174 0
143 164 0
147 168 0
153 175 0
150 171 0
146 167 0
156 177 0
144 164 0
146 166 0
144 166 0
139 161 0
145 165 0
153 172 0
145 165 0
138 158 0
153 173 0
151 172 0
157 177 0
162 184 0
165 188 0
165 188 0
160 183 0
164 186 0
167 189 0
166 188 0
167 189 0
159 182 0
162 185 0
157 179 0
164 187 0
159 182 0
154 177 0
163 186 0
162 184 0
161 184 0
158 181 0
152 174 0
161 183 0
152 176 0
152 174 0
159 182 0
156 178 0
150 172 0
154 176 0
150 173 0
150 172 0
154 177 0
154 177 0
159 180 0
150 172 0
155 178 0
140 162 0
145 167 0
147 169 0
91 114 44
49 79 54
52 83 70
55 87 99
51 81 82
52 83 80
53 83 80
54 84 86
54 85 92
53 84 82
56 88 107
53 85 74
54 86 94
53 85 82
54 85 97
55 87 95
53 84 92
50 81 84
54 85 99
53 85 84
55 87 97
51 82 78
54 85 90
55 86 88
55 86 108
53 84 86
53 84 72
54 86 82
53 84 100
53 83 80
54 86 90
55 87 103
55 87 97
55 88 103
54 86 107
54 86 88
55 87 100
55 86 97
53 83 90
53 85 92
55 86 102
57 89 118
54 86 100
54 85 105
53 85 86
51 82 80
56 88 103
52 83 86
52 83 86
53 83 86
52 82 86
53 83 88
51 81 82
54 85 100
53 82 100
50 79 68
51 80 92
52 80 87
52 82 85
51 81 66
52 81 94
47 75 74
49 78 88
48 75 74
51 79 87
50 77 89
48 75 74
49 77 80
44 68 60
82 101 51
140 159 0
127 143 0
138 156 0
136 152 0
143 161 0
137 154 0
137 155 0
144 158 0
141 157 0
148 163 0
150 168 0
143 159 0
145 164 0
140 155 0
148 166 0
146 163 0
152 167 0
143 160 0
143 161 0
141 155 0
156 171 0
145 160 0
149 167 0
153 170 0
149 165 0
148 162 0
153 166 0
151 166 0
154 169 0
148 159 0
154 169 0
149 166 0
155 169 0
152 167 0
125 131 11
89 84 11
91 85 0
102 94 0
111 105 0
97 91 0
104 95 0
99 93 0
102 94 0
102 96 0
106 100 0
117 111 0
114 108 0
111 103 0
106 99 0
107 101 0
107 101 0
116 108 0
112 106 0
111 105 0
119 113 0
123 116 0
122 116 0
124 119 0
121 114 0
122 116 0
129 124 0
120 114 0
123 116 0
121 117 0
130 124 0
137 130 0
131 124 0
126 119 0
130 124 0
131 125 0
126 121 0
128 122 0
128 123 0
133 127 0
131 125 0
138 132 0
134 126 0
132 126 0
138 134 0
138 133 0
136 132 0
138 134 0
140 134 0
139 134 0
142 136 0
138 132 0
136 128 0
133 128 0
133 127 0
139 133 0
139 135 0
137 132 0
139 131 0
140 133 0
139 133 0
141 134 0
139 133 0
144 138 0
144 137 0
140 135 0
142 135 0
139 134 0
146 140 0
147 142 0
140 136 0
146 139 0
141 134 0
143 137 0
148 142 0
141 134 0
148 142 0
142 137 0
143 136 0
150 145 0
138 133 0
146 141 0
143 137 0
148 143 0
145 140 0
144 139 0
148 143 0
147 141 0
147 143 0
147 141 0
148 142 0
150 144 0
151 145 0
147 139 0
147 142 0
150 145 0
150 145 0
151 146 0
148 144 0
150 144 0
153 147 0
148 143 0
147 141 0
149 143 0
150 144 0
152 145 0
150 144 0
153 149 0
152 147 0
149 145 0
151 148 0
147 142 0
152 146 0
147 142 0
146 142 0
152 148 0
149 145 0
151 145 0
150 146 0
150 145 0
151 145 16
149 145 16
151 146 11
153 148 16
152 146 16
156 151 28
155 150 25
157 151 36
154 148 34
152 148 16
155 151 25
174 197 0
170 193 0
173 196 0
174 197 0
173 196 0
169 193 0
173 196 0
172 195 0
172 196 0
171 194 0
174 197 0
171 194 0
171 195 0
171 194 0
170 194 0
175 197 0
172 195 0
171 194 0
171 194 0
171 194 0
171 194 0
169 193 0
169 192 0
171 195 0
173 196 0
172 195 0
171 195 0
169 192 0
173 196 0
171 194 0
168 191 0
168 191 0
171 195 0
170 193 0
167 191 0
172 195 0
172 196 0
171 194 0
174 197 0
172 195 0
172 194 0
175 196 0
170 191 0
175 196 0
174 196 0
173 195 0
173 195 0
173 193 0
175 196 0
173 194 0
173 194 0
174 195 0
175 195 0
174 194 0
176 196 0
174 194 0
172 192 0
173 193 0
178 198 0
172 192 0
176 196 0
173 192 0
174 194 0
173 193 0
174 193 0
171 191 0
173 193 0
166 186 0
168 188 0
164 183 0
164 184 0
168 186 0
169 188 0
166 186 0
167 187 0
167 186 0
163 183 0
167 186 0
162 182 0
162 181 0
162 182 0
161 182 0
162 181 0
163 183 0
161 180 0
164 183 0
155 175 0
160 179 0
161 180 0
163 184 0
163 182 0
154 173 0
163 182 0
156 176 0
162 180 0
166 186 0
157 177 0
159 177 0
153 172 0
159 179 0
156 176 0
157 178 0
159 179 0
154 173 0
155 175 0
146 167 0
151 173 0
147 169 0
150 172 0
148 169 0
151 173 0
146 166 0
152 172 0
151 172 0
143 163 0
151 172 0
149 169 0
152 173 0
144 164 0
152 172 0
149 170 0
146 167 0
151 171 0
152 172 0
150 171 0
143 162 0
149 169 0
152 172 0
153 174 0
162 184 0
168 190 0
165 187 0
163 185 0
165 186 0
165 188 0
152 174 0
163 185 0
152 174 0
153 176 0
161 183 0
159 182 0
158 179 0
155 177 0
159 182 0
160 182 0
161 184 0
152 173 0
159 181 0
160 182 0
152 174 0
153 175 0
156 178 0
142 164 0
152 173 0
141 164 0
148 171 0
148 171 0
152 175 0
149 171 0
144 165 0
147 169 0
152 174 0
153 175 0
148 170 0
144 165 0
144 164 0
86 108 54
51 82 78
52 83 74
51 82 72
52 82 84
51 82 82
51 81 80
53 84 72
50 81 78
54 85 88
54 85 99
50 80 76
52 82 84
53 84 92
53 84 82
53 84 94
54 86 92
52 82 82
52 83 82
53 85 84
53 85 92
52 82 86
54 85 100
52 83 82
51 82 76
53 84 92
54 85 94
53 84 90
55 86 100
54 86 100
53 84 88
55 86 95
54 85 90
52 83 84
54 85 84
56 88 107
54 86 100
52 82 95
54 86 90
52 83 101
54 86 102
54 85 94
53 83 96
53 84 80
54 85 92
54 85 102
51 81 84
56 87 102
54 86 99
52 83 80
53 83 92
51 80 88
52 82 87
52 82 88
55 85 100
51 80 74
51 80 94
53 83 89
50 79 78
51 79 79
48 77 62
51 79 75
48 75 77
49 77 66
51 80 83
44 69 72
48 73 59
77 97 45
133 149 0
141 156 0
135 153 0
131 147 0
139 158 0
135 152 0
138 153 0
141 157 0
134 150 0
144 161 0
133 149 0
147 163 0
139 155 0
145 161 0
149 168 0
140 156 0
142 158 0
144 158 0
140 156 0
137 152 0
145 160 0
148 163 0
140 157 0
148 162 0
146 159 0
149 163 0
145 160 0
152 167 0
148 161 0
143 156 0
156 166 0
144 154 0
156 171 0
147 157 0
154 167 0
148 160 0
131 139 0
92 89 0
98 91 0
110 104 0
104 97 0
104 96 0
100 93 0
106 98 0
108 102 0
99 93 0
107 99 0
110 104 0
116 108 0
114 104 0
103 95 0
106 101 0
114 108 0
111 105 0
111 103 0
106 100 0
120 112 0
125 115 0
114 109 0
120 114 0
129 122 0
125 118 0
124 117 0
126 119 0
124 119 0
128 120 0
124 118 0
124 118 0
124 115 0
129 121 0
130 123 0
134 126 0
129 121 0
126 120 0
137 130 0
131 124 0
136 128 0
139 133 0
134 127 0
137 131 0
132 127 0
134 129 0
134 127 0
133 128 0
142 135 0
136 131 0
134 128 0
133 125 0
136 131 0
136 129 0
131 126 0
139 133 0
135 130 0
140 133 0
144 139 0
140 133 0
141 133 0
138 133 0
136 130 0
143 137 0
144 138 0
142 137 0
140 134 0
142 135 0
143 137 0
138 132 0
139 131 0
146 138 0
139 134 0
145 138 0
143 138 0
142 136 0
144 139 0
149 142 0
147 142 0
149 142 0
144 139 0
146 141 0
143 138 0
150 144 0
146 141 0
145 140 0
146 141 0
148 143 0
142 139 0
142 136 0
151 145 0
147 143 0
145 140 0
153 148 0
150 145 0
148 142 0
148 144 0
147 142 0
151 144 0
145 142 0
150 145 0
150 145 0
152 147 0
151 145 0
150 145 0
148 142 0
145 141 0
153 146 0
152 147 0
146 141 0
152 147 0
149 143 0
153 148 0
150 146 0
150 145 0
152 147 0
148 143 0
151 146 0
152 147 0
152 145 0
151 146 11
153 147 16
153 148 11
156 150 19
154 150 19
149 144 0
154 145 32
153 147 25
155 149 32
153 148 30
172 196 0
172 195 0
174 197 0
174 197 0
170 194 0
172 195 0
171 194 0
171 194 0
171 195 0
171 193 0
170 194 0
172 196 0
173 196 0
171 194 0
172 195 0
172 195 0
172 195 0
171 194 0
169 192 0
171 195 0
172 195 0
167 189 0
172 195 0
171 194 0
171 194 0
171 195 0
172 194 0
172 195 0
168 191 0
170 194 0
171 194 0
170 194 0
169 192 0
166 189 0
168 192 0
167 189 0
173 196 0
164 187 0
175 198 0
170 193 0
176 198 0
171 193 0
170 193 0
175 196 0
175 197 0
172 193 0
173 195 0
175 196 0
174 195 0
171 192 0
174 195 0
176 197 0
176 197 0
173 195 0
173 194 0
176 195 0
172 193 0
173 193 0
177 197 0
172 193 0
173 193 0
175 195 0
174 194 0
172 191 0
172 191 0
170 189 0
174 194 0
165 186 0
167 187 0
172 191 0
172 192 0
168 187 0
172 191 0
168 187 0
165 184 0
163 182 0
162 181 0
164 183 0
164 183 0
163 182 0
159 179 0
161 180 0
165 185 0
158 178 0
165 184 0
163 182 0
155 174 0
162 181 0
156 175 0
162 182 0
158 178 0
165 185 0
160 179 0
165 184 0
152 173 0
159 180 0
158 177 0
155 174 0
157 177 0
154 174 0
162 183 0
157 179 0
161 182 0
154 175 0
149 169 0
155 177 0
148 169 0
159 179 0
160 180 0
149 170 0
156 176 0
151 171 0
158 179 0
152 172 0
147 167 0
151 172 0
148 167 0
154 175 0
155 175 0
144 164 0
139 159 0
157 176 0
152 173 0
148 167 0
153 173 0
151 170 0
142 163 0
160 181 0
162 184 0
168 190 0
162 183 0
160 182 0
157 180 0
170 191 0
164 185 0
155 176 0
153 175 0
156 179 0
153 174 0
160 183 0
155 177 0
162 185 0
162 183 0
157 179 0
162 184 0
152 174 0
154 177 0
151 173 0
159 182 0
154 175 0
153 174 0
153 175 0
150 173 0
143 164 0
155 176 0
149 172 0
133 154 0
141 162 0
150 172 0
149 170 0
140 162 0
139 160 0
141 164 0
143 165 0
143 165 0
131 153 0
145 167 0
99 122 62
51 80 74
54 85 84
50 80 78
49 78 76
52 83 80
52 82 84
51 81 90
52 83 90
52 83 74
52 84 88
53 83 84
52 83 84
53 84 94
52 82 84
51 82 84
52 82 80
53 84 88
53 84 94
53 85 94
53 85 95
52 83 86
53 84 88
53 84 92
55 86 90
55 88 88
51 82 74
52 82 74
56 88 100
54 86 99
55 87 100
53 84 100
56 88 86
54 85 97
54 86 90
53 83 100
51 81 94
53 84 95
55 87 97
52 83 78
52 83 86
53 83 95
53 83 88
54 86 100
54 85 92
48 76 68
50 79 89
52 81 85
53 84 90
51 80 79
51 80 84
54 84 100
52 82 88
50 79 84
52 81 93
51 80 75
52 82 97
50 80 80
46 71 73
48 76 80
52 82 90
49 76 64
49 75 73
47 73 65
46 72 68
90 107 40
122 139 0
128 146 0
133 150 0
136 149 0
131 146 0
126 144 0
135 150 0
135 151 0
140 157 0
137 153 0
132 148 0
138 156 0
138 151 0
150 166 0
138 153 0
137 153 0
138 154 0
137 152 0
145 160 0
144 159 0
135 151 0
144 159 0
150 164 0
142 158 0
140 154 0
148 163 0
142 155 0
145 159 0
144 156 0
148 160 0
152 164 0
155 168 0
146 157 0
147 159 0
149 160 0
153 166 0
146 158 0
145 156 0
129 135 0
90 88 0
87 80 0
96 90 0
98 92 0
104 97 0
100 93 0
97 90 0
109 102 0
114 105 0
107 101 0
109 101 0
110 102 0
119 112 0
120 111 0
116 109 0
122 114 0
111 104 0
106 99 0
118 109 0
122 115 0
115 110 0
121 114 0
121 115 0
112 107 0
116 112 0
128 120 0
122 115 0
123 116 0
130 123 0
122 115 0
121 115 0
126 120 0
123 114 0
128 121 0
126 120 0
130 124 0
135 128 0
131 126 0
129 122 0
140 133 0
134 127 0
138 130 0
128 121 0
134 128 0
137 130 0
138 130 0
136 129 0
139 131 0
143 134 0
144 137 0
142 133 0
139 134 0
141 134 0
139 132 0
140 134 0
140 133 0
140 135 0
145 140 0
142 136 0
145 139 0
143 135 0
142 134 0
144 137 0
146 140 0
150 144 0
141 135 0
144 138 0
144 140 0
141 136 0
141 137 0
143 138 0
144 141 0
145 140 0
141 136 0
144 138 0
141 134 0
147 140 0
148 141 0
147 141 0
146 141 0
145 139 0
148 143 0
144 138 0
143 138 0
147 141 0
146 141 0
147 141 0
148 141 0
142 138 0
147 141 0
147 141 0
149 145 0
147 141 0
146 138 0
149 143 0
147 141 0
148 142 0
148 142 0
151 147 0
151 144 0
150 145 0
150 144 0
150 143 0
152 146 0
153 147 0
151 146 0
151 147 0
147 141 0
147 140 0
151 145 0
148 143 0
151 145 0
147 141 0
149 142 0
150 144 0
152 148 0
151 145 0
149 143 0
153 148 0
151 146 0
152 147 11
152 147 19
150 144 0
150 145 0
153 147 32
154 148 30
157 151 37
150 144 34
172 195 0
174 197 0
174 196 0
174 196 0
172 195 0
171 195 0
172 196 0
172 195 0
171 195 0
169 193 0
172 195 0
171 194 0
173 196 0
171 195 0
171 194 0
172 196 0
170 193 0
171 195 0
171 194 0
166 190 0
172 195 0
172 195 0
170 193 0
171 194 0
172 195 0
173 196 0
170 193 0
167 190 0
172 195 0
169 192 0
171 194 0
166 189 0
170 195 0
170 194 0
166 189 0
169 192 0
172 195 0
171 194 0
168 191 0
172 195 0
170 193 0
170 192 0
173 195 0
170 193 0
173 195 0
171 193 0
172 193 0
175 196 0
173 195 0
174 196 0
175 196 0
173 195 0
174 195 0
173 193 0
173 194 0
174 195 0
176 197 0
173 194 0
174 193 0
173 193 0
171 192 0
175 195 0
167 186 0
175 195 0
166 187 0
175 195 0
169 190 0
173 193 0
170 189 0
172 191 0
169 189 0
174 192 0
168 188 0
170 189 0
163 184 0
167 186 0
162 182 0
167 186 0
166 185 0
166 185 0
167 186 0
165 185 0
167 186 0
167 185 0
157 177 0
162 180 0
163 183 0
160 180 0
155 174 0
161 181 0
157 176 0
155 174 0
161 180 0
150 169 0
155 174 0
158 178 0
161 180 0
160 180 0
158 178 0
157 178 0
151 172 0
162 184 0
147 168 0
148 169 0
152 173 0
149 170 0
147 169 0
152 173 0
152 175 0
146 167 0
146 166 0
153 174 0
156 177 0
148 168 0
144 166 0
140 161 0
156 178 0
150 171 0
153 173 0
149 169 0
151 170 0
150 171 0
151 170 0
152 172 0
159 178 0
154 175 0
161 182 0
166 187 0
158 180 0
163 184 0
163 184 0
163 185 0
159 180 0
161 183 0
152 174 0
155 177 0
161 183 0
157 179 0
158 180 0
160 181 0
158 179 0
153 174 0
153 174 0
157 179 0
153 174 0
151 173 0
151 173 0
146 168 0
151 173 0
157 179 0
148 170 0
146 168 0
151 174 0
150 172 0
147 170 0
146 168 0
142 162 0
151 172 0
130 151 0
141 162 0
141 163 0
132 153 0
140 162 0
134 156 0
141 163 0
135 156 0
140 160 0
132 152 0
102 123 31
51 80 74
48 77 67
48 77 78
50 79 78
53 84 90
50 80 72
53 84 84
50 81 78
51 82 78
50 80 65
54 86 92
51 81 84
52 82 80
53 84 100
52 83 86
53 85 82
53 85 90
51 82 84
51 82 76
53 84 97
54 86 94
51 80 82
51 81 92
50 80 80
53 83 82
55 87 92
54 85 99
52 82 92
52 83 90
53 85 90
53 84 90
50 79 78
53 83 85
53 85 86
52 83 90
53 85 94
52 82 80
52 83 80
54 85 97
53 83 90
50 80 87
51 80 83
51 81 78
52 82 90
52 82 82
51 82 75
52 82 76
52 82 80
51 81 94
50 78 91
52 81 82
48 76 80
51 80 79
52 82 95
46 72 70
50 79 75
50 78 86
52 81 87
48 75 65
48 76 78
46 72 66
44 69 62
113 128 18
125 143 0
122 136 0
132 148 0
132 149 0
126 143 0
126 141 0
120 135 0
127 141 0
139 155 0
135 149 0
132 149 0
140 153 0
138 154 0
130 145 0
135 149 0
131 146 0
127 139 0
141 157 0
139 153 0
145 160 0
136 148 0
139 154 0
136 150 0
141 154 0
140 157 0
151 163 0
136 148 0
137 150 0
142 153 0
146 160 0
135 144 0
147 158 0
146 155 0
149 162 0
143 153 0
148 159 0
150 161 0
139 147 0
142 150 0
146 156 0
142 153 0
107 105 0
87 81 0
87 79 0
94 87 0
92 87 0
103 97 0
102 93 0
99 91 0
106 99 0
104 94 0
107 99 0
105 97 0
105 95 0
119 111 0
118 109 0
122 112 0
119 110 0
123 114 0
118 112 0
114 106 0
118 109 0
119 110 0
121 115 0
116 107 0
125 116 0
121 115 0
127 118 0
126 118 0
127 119 0
119 113 0
123 116 0
133 126 0
131 123 0
123 118 0
132 125 0
132 125 0
131 126 0
131 124 0
131 124 0
130 123 0
126 119 0
130 124 0
134 128 0
139 132 0
135 127 0
130 124 0
129 122 0
143 135 0
135 127 0
142 134 0
135 129 0
142 133 0
129 123 0
140 134 0
138 130 0
140 133 0
142 136 0
141 134 0
141 135 0
141 134 0
142 136 0
138 131 0
139 133 0
142 135 0
142 136 0
139 132 0
142 135 0
144 135 0
145 139 0
144 138 0
141 134 0
145 139 0
148 142 0
148 142 0
145 138 0
147 139 0
144 138 0
144 139 0
148 141 0
149 143 0
144 138 0
150 144 0
143 138 0
147 141 0
146 139 0
148 141 0
146 140 0
147 141 0
145 139 0
146 141 0
148 143 0
147 142 0
150 143 0
147 140 0
148 141 0
149 142 0
149 141 0
148 142 0
150 143 0
152 147 0
149 144 0
150 144 0
148 141 0
150 146 0
147 142 0
150 144 0
153 147 0
149 146 0
150 144 0
151 145 0
150 146 0
150 145 0
152 148 0
149 144 0
154 148 0
148 145 0
152 146 0
150 144 0
152 146 0
154 150 0
150 144 16
150 143 11
151 145 22
149 144 25
152 146 19
151 145 0
151 146 19
172 195 0
171 195 0
172 196 0
173 197 0
171 195 0
172 196 0
174 197 0
172 196 0
173 195 0
170 194 0
171 195 0
173 195 0
174 197 0
170 193 0
172 195 0
171 194 0
172 195 0
168 191 0
169 193 0
167 191 0
171 193 0
174 197 0
170 193 0
174 197 0
169 192 0
166 189 0
169 192 0
171 194 0
172 195 0
167 190 0
171 194 0
167 191 0
171 194 0
174 196 0
170 192 0
171 194 0
171 193 0
168 191 0
172 194 0
172 193 0
167 189 0
171 192 0
172 194 0
170 193 0
170 192 0
170 191 0
173 194 0
171 193 0
173 195 0
174 196 0
172 193 0
175 196 0
172 193 0
173 194 0
174 194 0
173 193 0
174 195 0
170 191 0
172 193 0
176 196 0
171 190 0
168 189 0
173 193 0
173 193 0
172 192 0
171 191 0
173 193 0
171 191 0
170 191 0
171 190 0
170 190 0
166 186 0
169 188 0
167 186 0
169 189 0
163 182 0
165 186 0
169 189 0
166 186 0
166 186 0
163 182 0
162 182 0
167 185 0
165 185 0
168 187 0
164 183 0
169 188 0
161 181 0
161 181 0
161 181 0
164 184 0
167 186 0
158 178 0
152 171 0
159 179 0
153 176 0
158 179 0
154 175 0
149 170 0
154 176 0
152 173 0
154 176 0
150 171 0
153 173 0
149 170 0
157 178 0
154 175 0
153 174 0
151 171 0
144 165 0
153 174 0
160 181 0
152 173 0
151 171 0
148 170 0
151 171 0
152 172 0
147 166 0
145 165 0
152 171 0
148 169 0
146 167 0
159 179 0
150 170 0
153 174 0
152 173 0
162 182 0
161 182 0
161 182 0
160 180 0
159 181 0
161 182 0
165 186 0
161 181 0
155 177 0
150 172 0
161 183 0
155 176 0
159 181 0
160 182 0
155 177 0
151 172 0
159 180 0
145 166 0
151 172 0
139 161 0
150 171 0
147 169 0
153 175 0
146 168 0
146 167 0
153 175 0
149 170 0
145 167 0
147 169 0
143 164 0
145 166 0
139 161 0
146 167 0
137 158 0
142 164 0
140 161 0
142 163 0
134 154 0
137 158 0
135 155 0
132 153 0
129 149 0
119 138 0
104 125 18
79 103 51
47 75 60
50 80 76
50 79 70
51 81 76
49 79 74
50 79 78
51 81 86
52 82 80
52 82 65
54 85 88
51 81 67
53 84 94
53 84 82
51 81 74
51 81 82
52 83 86
52 83 88
52 83 95
52 83 88
49 78 76
51 81 88
52 82 92
51 81 86
53 83 82
52 83 80
52 82 92
53 84 84
52 83 90
53 84 95
53 84 94
52 82 99
53 84 97
51 81 84
53 84 86
51 82 82
50 79 78
51 82 84
51 82 72
54 85 99
49 78 74
53 83 90
50 80 80
51 81 84
52 81 90
52 82 97
51 79 83
50 80 81
50 79 76
49 77 74
51 81 83
51 81 90
45 71 65
51 79 73
47 74 68
50 77 77
48 75 76
44 70 57
45 70 63
63 83 47
112 127 0
116 131 0
111 124 0
114 128 0
130 147 0
123 135 0
118 133 0
126 143 0
128 143 0
124 140 0
129 146 0
121 137 0
125 139 0
129 142 0
125 139 0
138 152 0
132 147 0
125 139 0
134 150 0
133 144 0
132 144 0
134 146 0
140 154 0
137 150 0
135 149 0
135 147 0
131 140 0
130 142 0
129 141 0
143 157 0
134 145 0
138 149 0
148 161 0
141 149 0
140 148 0
134 147 0
129 139 0
145 156 0
139 148 0
152 163 0
145 155 0
145 154 0
145 155 0
131 139 0
115 115 0
89 82 0
92 85 0
102 95 0
104 95 0
97 88 0
102 92 0
110 102 0
113 104 0
108 99 0
107 100 0
109 101 0
104 97 0
110 103 0
117 110 0
110 101 0
115 108 0
102 95 0
111 102 0
121 112 0
117 110 0
130 120 0
124 116 0
121 113 0
121 114 0
127 120 0
115 109 0
129 121 0
128 121 0
126 118 0
119 112 0
129 124 0
121 112 0
128 121 0
136 127 0
135 127 0
131 123 0
136 129 0
140 131 0
126 117 0
135 129 0
129 121 0
126 117 0
139 131 0
135 128 0
137 129 0
133 128 0
129 123 0
139 130 0
135 128 0
140 131 0
134 125 0
140 132 0
144 136 0
140 133 0
142 134 0
139 131 0
134 128 0
143 135 0
137 131 0
136 130 0
144 136 0
137 131 0
147 140 0
144 136 0
144 140 0
144 136 0
146 138 0
142 135 0
143 137 0
148 140 0
138 133 0
143 136 0
144 138 0
144 136 0
143 137 0
147 140 0
146 141 0
148 144 0
146 141 0
144 136 0
146 139 0
148 138 0
146 140 0
146 141 0
146 141 0
144 139 0
147 142 0
145 139 0
148 141 0
149 143 0
149 143 0
147 142 0
151 146 0
143 137 0
149 143 0
152 146 0
149 143 0
151 145 0
146 140 0
147 142 0
152 146 0
149 143 0
149 144 0
152 147 0
150 144 0
148 143 0
152 146 0
147 141 0
145 139 0
152 147 0
150 144 0
152 148 0
152 146 0
150 146 0
149 145 0
150 144 0
149 145 0
149 144 0
146 141 0
149 144 16
147 141 19
146 141 11
153 147 22
150 145 22
143 137 22
174 197 0
172 195 0
170 193 0
169 192 0
171 194 0
172 195 0
173 195 0
173 196 0
171 194 0
171 195 0
173 196 0
172 195 0
173 197 0
172 194 0
170 194 0
172 195 0
174 197 0
172 196 0
172 195 0
171 194 0
170 193 0
168 190 0
170 194 0
172 195 0
170 193 0
169 193 0
171 193 0
171 194 0
169 191 0
167 190 0
172 195 0
170 194 0
172 195 0
171 194 0
170 193 0
169 192 0
169 192 0
171 194 0
171 194 0
167 190 0
172 195 0
171 194 0
171 194 0
167 190 0
164 186 0
165 186 0
172 195 0
173 196 0
169 191 0
174 195 0
173 195 0
172 193 0
168 190 0
174 194 0
173 193 0
176 196 0
173 193 0
169 189 0
176 195 0
165 186 0
176 196 0
168 189 0
174 195 0
174 193 0
172 192 0
171 190 0
169 189 0
171 192 0
171 191 0
174 193 0
173 193 0
167 187 0
163 183 0
167 186 0
165 185 0
167 186 0
168 188 0
167 186 0
168 187 0
167 186 0
164 183 0
166 186 0
169 189 0
165 184 0
166 186 0
162 182 0
157 177 0
163 183 0
161 181 0
164 185 0
163 184 0
157 178 0
158 180 0
156 178 0
158 179 0
160 181 0
155 177 0
159 181 0
151 171 0
156 177 0
150 170 0
152 173 0
152 173 0
156 177 0
159 180 0
155 176 0
146 167 0
156 177 0
155 176 0
154 175 0
152 173 0
149 170 0
145 165 0
149 169 0
153 174 0
151 171 0
149 169 0
145 164 0
156 176 0
150 170 0
146 166 0
153 172 0
145 165 0
154 174 0
163 183 0
165 185 0
160 181 0
156 176 0
162 183 0
162 182 0
162 183 0
163 184 0
163 184 0
161 183 0
156 177 0
159 180 0
161 181 0
159 180 0
151 172 0
150 172 0
148 169 0
149 170 0
156 177 0
151 173 0
147 168 0
151 172 0
143 164 0
151 173 0
154 175 0
151 172 0
142 164 0
143 163 0
145 166 0
154 175 0
147 169 0
146 167 0
145 165 0
144 164 0
142 162 0
143 163 0
142 162 0
138 158 0
131 152 0
145 165 0
140 161 0
128 147 0
133 153 0
136 156 0
116 134 0
118 137 0
128 147 0
92 112 47
55 83 76
48 77 76
49 78 67
51 81 65
53 83 90
50 80 78
51 82 78
50 80 70
49 78 74
50 80 80
50 80 70
48 77 76
51 82 86
51 82 76
49 79 72
52 83 86
51 81 74
48 77 67
52 83 80
53 84 94
47 76 70
51 81 88
50 80 84
51 81 88
51 82 84
52 82 86
51 81 80
52 83 97
52 82 83
53 84 88
53 83 84
50 80 82
51 82 86
51 81 80
50 78 78
53 84 95
52 82 82
51 81 90
54 85 97
54 85 97
49 78 65
54 85 90
48 77 76
50 79 78
51 81 76
47 75 72
51 80 86
50 80 80
49 78 77
49 77 76
47 74 76
48 75 72
48 76 72
49 76 70
46 72 74
50 71 58
91 108 54
114 129 0
107 120 0
114 127 0
114 126 0
110 123 0
127 141 0
128 142 0
126 143 0
121 135 0
120 137 0
128 143 0
127 142 0
120 133 0
131 146 0
135 148 0
129 145 0
129 144 0
130 145 0
136 147 0
120 134 0
131 143 0
128 142 0
134 147 0
136 151 0
141 154 0
141 155 0
133 144 0
130 143 0
140 150 0
129 141 0
149 162 0
141 155 0
140 151 0
142 151 0
133 143 0
144 153 0
131 141 0
137 148 0
140 150 0
128 132 0
140 148 0
136 144 0
138 145 0
134 142 0
140 149 0
136 140 0
113 115 0
93 86 0
87 82 0
94 86 0
101 92 0
99 88 0
98 91 0
98 91 0
106 99 0
105 97 0
106 99 0
108 100 0
100 92 0
115 105 0
118 111 0
110 101 0
109 102 0
119 112 0
117 107 0
111 102 0
114 105 0
118 109 0
118 112 0
119 109 0
123 117 0
116 109 0
125 117 0
121 112 0
129 122 0
128 121 0
121 115 0
130 121 0
134 126 0
137 128 0
131 124 0
136 127 0
130 122 0
127 118 0
131 126 0
127 121 0
130 123 0
136 127 0
126 120 0
133 127 0
136 127 0
140 131 0
135 128 0
137 130 0
137 131 0
130 124 0
142 134 0
137 130 0
138 128 0
136 129 0
138 130 0
139 131 0
139 132 0
140 132 0
143 135 0
143 136 0
130 123 0
140 134 0
139 131 0
138 131 0
140 133 0
143 135 0
142 136 0
145 138 0
138 130 0
141 134 0
143 137 0
142 134 0
141 133 0
143 136 0
144 135 0
143 136 0
147 139 0
146 138 0
142 136 0
143 137 0
147 140 0
147 140 0
146 139 0
145 140 0
144 138 0
147 140 0
146 140 0
148 141 0
146 140 0
142 135 0
147 141 0
148 141 0
148 141 0
147 142 0
146 139 0
147 142 0
147 140 0
148 143 0
152 146 0
150 142 0
148 142 0
148 142 0
146 139 0
150 145 0
147 141 0
150 145 0
147 140 0
149 142 0
148 142 0
148 143 0
146 139 0
150 142 0
150 146 0
148 143 0
150 142 0
148 143 0
151 145 0
148 141 0
145 139 0
146 141 11
148 143 11
151 144 22
146 142 11
144 138 22
144 137 25
173 196 0
172 195 0
173 196 0
174 197 0
172 196 0
172 196 0
173 196 0
170 193 0
174 196 0
172 195 0
172 195 0
171 195 0
171 194 0
171 194 0
171 195 0
172 195 0
172 196 0
173 196 0
169 192 0
169 192 0
172 195 0
173 196 0
168 191 0
173 196 0
170 193 0
172 195 0
171 193 0
172 195 0
173 196 0
171 195 0
171 193 0
166 189 0
173 196 0
170 192 0
169 192 0
168 190 0
168 191 0
169 192 0
174 195 0
170 193 0
168 191 0
170 192 0
173 195 0
168 191 0
170 192 0
168 191 0
164 186 0
166 188 0
168 191 0
171 192 0
169 191 0
167 189 0
169 191 0
169 191 0
173 195 0
170 191 0
170 191 0
171 192 0
172 193 0
170 191 0
167 188 0
171 192 0
169 190 0
175 194 0
171 192 0
168 187 0
171 190 0
166 186 0
169 188 0
171 191 0
169 189 0
171 191 0
168 188 0
169 189 0
163 184 0
170 190 0
165 184 0
168 188 0
160 180 0
171 191 0
166 186 0
166 186 0
168 189 0
162 181 0
165 186 0
164 185 0
160 181 0
160 182 0
163 184 0
159 181 0
162 183 0
155 177 0
163 184 0
156 178 0
164 185 0
153 175 0
158 179 0
161 181 0
160 180 0
155 177 0
155 176 0
160 181 0
156 177 0
155 176 0
152 173 0
150 171 0
157 178 0
148 169 0
153 173 0
149 170 0
155 176 0
147 167 0
153 173 0
141 161 0
148 168 0
148 167 0
157 178 0
149 169 0
155 175 0
154 174 0
153 173 0
155 176 0
159 179 0
161 182 0
164 185 0
161 182 0
162 182 0
160 180 0
158 179 0
163 184 0
157 177 0
157 176 0
150 170 0
153 175 0
146 166 0
156 176 0
157 177 0
156 177 0
150 170 0
157 177 0
142 163 0
145 165 0
151 171 0
155 176 0
154 174 0
152 174 0
151 172 0
151 171 0
140 161 0
147 168 0
146 168 0
141 161 0
152 171 0
143 165 0
145 166 0
147 168 0
139 160 0
142 163 0
142 163 0
128 148 0
129 149 0
135 155 0
138 158 0
130 149 0
134 154 0
134 153 0
129 148 0
127 146 0
132 151 0
120 140 0
115 133 0
108 126 0
103 123 18
66 88 54
49 78 78
46 73 70
49 79 72
48 77 62
48 77 67
48 77 70
51 81 92
47 76 70
50 79 72
50 81 80
51 81 82
51 81 82
54 85 92
49 79 78
52 82 92
49 79 78
48 77 78
53 84 76
54 85 88
51 81 84
50 80 88
51 82 82
47 75 76
52 83 86
53 85 88
52 82 87
50 80 78
53 83 95
52 83 82
52 82 86
47 76 70
51 81 84
48 78 78
50 81 82
49 78 92
48 77 76
49 77 72
49 78 78
52 82 90
47 75 63
50 80 60
48 76 75
49 77 86
50 79 76
50 79 65
48 76 62
48 75 60
48 76 74
51 80 90
44 69 70
44 71 72
45 70 57
65 83 47
107 120 25
110 124 0
106 120 0
99 111 0
119 135 0
108 120 0
107 118 0
115 129 0
112 126 0
120 136 0
116 132 0
122 136 0
130 145 0
118 131 0
130 142 0
117 131 0
112 126 0
126 142 0
123 136 0
122 135 0
126 138 0
131 143 0
124 137 0
126 138 0
118 131 0
126 138 0
135 148 0
137 147 0
137 147 0
135 148 0
137 149 0
131 141 0
132 143 0
130 143 0
130 140 0
136 144 0
144 153 0
127 135 0
139 147 0
138 147 0
129 138 0
135 144 0
133 141 0
132 137 0
132 138 0
131 135 0
138 143 0
140 146 0
141 149 0
136 142 0
98 92 0
94 82 0
82 78 0
91 83 0
92 84 0
86 75 0
92 83 0
92 83 0
100 91 0
106 99 0
104 94 0
111 102 0
113 104 0
115 105 0
120 110 0
122 111 0
121 111 0
118 109 0
111 102 0
121 113 0
113 105 0
126 116 0
116 108 0
126 117 0
120 112 0
129 119 0
125 115 0
124 115 0
131 124 0
127 120 0
124 115 0
134 125 0
126 117 0
128 120 0
129 122 0
130 122 0
129 122 0
130 119 0
131 124 0
119 111 0
136 128 0
135 129 0
134 128 0
141 135 0
131 124 0
132 126 0
133 126 0
130 121 0
136 130 0
138 132 0
137 129 0
136 129 0
141 133 0
133 123 0
141 133 0
142 132 0
139 132 0
141 134 0
146 138 0
144 136 0
141 132 0
141 134 0
137 130 0
145 136 0
144 139 0
143 134 0
143 136 0
143 134 0
142 137 0
144 136 0
143 136 0
145 137 0
146 138 0
143 136 0
149 144 0
144 137 0
143 135 0
147 140 0
145 138 0
142 133 0
143 137 0
145 139 0
147 142 0
145 138 0
147 140 0
145 140 0
145 137 0
147 140 0
143 135 0
147 141 0
148 142 0
146 141 0
147 140 0
149 141 0
148 141 0
144 138 0
150 143 0
150 143 0
149 144 0
151 146 0
148 142 0
150 144 0
151 144 0
148 141 0
149 142 0
151 146 0
150 144 0
150 143 0
151 146 0
145 140 0
150 144 0
151 146 0
151 144 0
148 142 0
146 141 0
149 144 0
144 139 0
153 146 0
146 141 16
148 142 0
143 136 11
145 138 25
147 140 25
173 197 0
173 195 0
173 196 0
174 197 0
174 197 0
173 197 0
172 194 0
171 194 0
176 197 0
171 195 0
170 194 0
172 196 0
172 196 0
173 195 0
175 198 0
173 196 0
172 195 0
173 196 0
173 196 0
170 194 0
170 194 0
172 194 0
170 193 0
172 195 0
171 194 0
171 195 0
171 194 0
171 193 0
173 196 0
170 193 0
172 194 0
169 193 0
168 190 0
169 192 0
169 192 0
170 192 0
173 195 0
173 195 0
171 194 0
172 195 0
168 191 0
174 197 0
171 193 0
165 188 0
169 192 0
172 194 0
169 191 0
171 193 0
170 191 0
169 192 0
164 186 0
166 189 0
166 189 0
168 191 0
171 194 0
169 192 0
167 190 0
164 186 0
170 192 0
168 190 0
168 190 0
170 192 0
165 186 0
170 192 0
170 190 0
172 192 0
170 191 0
171 191 0
168 189 0
167 188 0
163 183 0
166 187 0
168 188 0
166 186 0
163 184 0
167 188 0
169 190 0
161 182 0
164 185 0
165 187 0
160 180 0
167 188 0
161 182 0
164 187 0
162 184 0
162 184 0
159 180 0
162 184 0
160 181 0
152 173 0
151 173 0
157 178 0
160 181 0
156 177 0
161 182 0
149 170 0
150 170 0
156 176 0
160 180 0
159 179 0
153 174 0
154 175 0
162 182 0
154 175 0
149 170 0
156 176 0
152 172 0
149 169 0
150 171 0
158 179 0
153 174 0
155 175 0
147 168 0
151 170 0
156 176 0
152 172 0
151 171 0
147 166 0
149 169 0
159 178 0
154 174 0
159 180 0
160 181 0
165 185 0
158 178 0
152 173 0
160 180 0
155 175 0
161 181 0
157 178 0
160 180 0
157 177 0
154 174 0
160 181 0
151 172 0
156 177 0
155 177 0
150 171 0
149 171 0
148 169 0
148 169 0
154 175 0
150 172 0
148 169 0
144 165 0
138 158 0
149 170 0
152 174 0
148 169 0
141 161 0
148 167 0
149 170 0
144 164 0
141 162 0
137 158 0
142 162 0
147 169 0
137 156 0
125 145 0
132 152 0
128 148 0
134 154 0
137 157 0
127 147 0
123 143 0
117 137 0
135 157 0
130 149 0
122 141 0
121 139 0
115 133 0
127 145 0
114 132 0
124 141 0
103 122 40
61 84 47
44 71 44
48 77 76
49 78 65
47 76 67
49 79 78
47 75 67
50 80 76
51 81 70
51 80 84
50 80 76
51 80 84
50 80 70
53 83 78
49 78 86
52 83 78
53 83 76
51 81 76
52 83 84
51 81 70
50 80 74
50 79 90
50 80 86
53 84 95
50 79 72
51 81 90
52 83 88
52 82 84
51 81 86
52 82 78
50 79 72
49 78 76
48 77 76
49 77 84
50 79 84
48 76 75
49 78 78
48 76 76
48 76 63
49 78 90
46 73 70
46 72 67
48 76 77
48 76 67
47 75 74
45 72 74
43 69 44
46 73 83
46 72 72
45 68 45
89 103 18
99 112 0
110 122 0
101 112 0
108 122 0
112 124 0
104 118 0
111 122 0
118 132 0
108 121 0
115 130 0
115 127 0
112 127 0
118 132 0
116 131 0
116 128 0
128 142 0
128 143 0
120 133 0
116 127 0
121 134 0
125 140 0
124 139 0
129 142 0
129 142 0
128 139 0
127 139 0
140 154 0
131 144 0
122 132 0
126 137 0
125 133 0
120 129 0
137 148 0
119 129 0
132 142 0
132 143 0
129 139 0
138 149 0
130 139 0
130 138 0
130 140 0
143 150 0
138 146 0
139 146 0
133 140 0
124 129 0
132 138 0
133 141 0
129 135 0
130 132 0
133 136 0
135 139 0
105 103 0
88 79 0
90 80 0
80 69 0
99 89 0
99 92 0
94 86 0
102 94 0
102 92 0
102 96 0
109 98 0
113 101 0
117 109 0
116 105 0
118 107 0
116 109 0
114 106 0
112 102 0
114 105 0
112 102 0
128 120 0
116 108 0
124 113 0
117 107 0
122 114 0
115 106 0
127 119 0
123 114 0
122 112 0
125 117 0
123 114 0
130 122 0
130 123 0
121 115 0
138 129 0
126 118 0
136 128 0
133 123 0
137 128 0
137 129 0
134 126 0
129 120 0
140 131 0
138 131 0
138 129 0
140 130 0
134 126 0
138 131 0
136 130 0
139 131 0
139 131 0
139 130 0
135 126 0
138 129 0
139 131 0
135 128 0
139 131 0
144 138 0
136 127 0
136 128 0
139 129 0
143 135 0
140 134 0
141 132 0
141 133 0
142 134 0
139 131 0
137 129 0
145 138 0
145 139 0
140 133 0
145 138 0
143 136 0
143 135 0
142 138 0
144 137 0
140 134 0
145 137 0
141 133 0
141 134 0
147 140 0
145 138 0
148 142 0
147 140 0
151 143 0
148 141 0
150 143 0
148 142 0
147 140 0
148 143 0
145 138 0
148 142 0
149 142 0
145 139 0
152 146 0
147 141 0
147 141 0
152 146 0
150 143 0
150 145 0
148 141 0
149 142 0
148 141 0
150 144 0
148 142 0
151 145 0
149 143 0
149 142 0
148 142 0
144 136 0
149 142 0
149 141 0
147 142 0
147 141 0
147 142 0
145 139 0
141 134 0
144 138 0
143 137 22
141 135 22
144 138 16
141 135 22
173 196 0
173 197 0
174 197 0
173 196 0
174 197 0
172 195 0
170 192 0
173 197 0
174 197 0
172 195 0
173 196 0
171 195 0
171 195 0
175 198 0
174 197 0
170 194 0
173 195 0
169 193 0
171 193 0
173 196 0
168 192 0
171 194 0
172 194 0
167 190 0
172 194 0
172 195 0
171 194 0
170 192 0
171 193 0
173 196 0
172 195 0
170 193 0
166 188 0
171 193 0
169 191 0
166 188 0
168 191 0
171 193 0
170 192 0
173 195 0
172 195 0
169 191 0
169 192 0
169 192 0
170 193 0
166 189 0
164 187 0
169 191 0
169 192 0
171 193 0
168 190 0
169 192 0
173 195 0
169 191 0
167 189 0
167 188 0
165 187 0
165 187 0
164 186 0
168 190 0
164 186 0
164 187 0
165 187 0
169 191 0
166 188 0
164 186 0
165 188 0
165 186 0
164 186 0
169 191 0
161 183 0
162 184 0
164 186 0
164 186 0
165 187 0
166 187 0
166 187 0
163 186 0
166 187 0
162 184 0
158 177 0
161 182 0
162 183 0
162 184 0
161 183 0
166 187 0
152 174 0
158 179 0
162 183 0
158 179 0
161 182 0
151 173 0
163 183 0
149 170 0
157 177 0
158 179 0
153 174 0
159 181 0
154 175 0
158 178 0
164 185 0
156 177 0
157 177 0
156 177 0
155 175 0
147 166 0
158 178 0
150 171 0
156 177 0
156 177 0
146 166 0
153 173 0
152 172 0
151 171 0
150 170 0
144 164 0
151 171 0
143 162 0
151 170 0
146 165 0
160 181 0
168 187 0
166 185 0
154 174 0
168 189 0
153 172 0
155 175 0
157 176 0
154 174 0
161 180 0
155 176 0
153 173 0
154 175 0
147 167 0
154 174 0
143 164 0
153 173 0
152 172 0
150 171 0
152 172 0
147 167 0
150 170 0
147 168 0
151 172 0
144 165 0
141 162 0
151 172 0
142 163 0
150 171 0
141 163 0
142 163 0
138 158 0
140 160 0
134 154 0
130 150 0
139 160 0
136 156 0
130 150 0
137 156 0
130 149 0
125 145 0
140 161 0
138 157 0
126 146 0
121 139 0
115 135 0
128 147 0
127 146 0
108 127 0
114 132 0
116 133 0
102 119 0
108 125 0
107 125 0
113 131 0
100 116 0
92 111 36
56 82 67
49 79 76
48 77 60
46 74 76
48 77 67
51 81 80
51 80 70
51 81 74
49 78 62
50 80 80
48 77 70
47 76 60
49 79 70
46 74 57
48 77 84
49 79 82
50 80 78
53 84 88
49 77 62
49 78 70
48 77 70
51 81 86
49 79 82
49 78 72
47 74 78
49 77 88
47 75 76
49 77 84
46 74 76
49 78 78
51 81 76
50 80 65
50 79 76
48 76 70
47 75 70
52 82 92
48 75 68
45 72 62
43 69 60
50 78 79
46 72 72
45 72 62
46 72 62
45 71 44
45 72 62
42 66 62
77 90 44
89 104 0
101 111 0
84 94 0
113 124 0
100 112 0
106 120 0
102 114 0
111 123 0
111 125 0
111 125 0
111 122 0
111 124 0
115 127 0
119 130 0
108 120 0
113 127 0
116 131 0
116 128 0
112 125 0
117 129 0
118 130 0
109 121 0
127 140 0
122 135 0
120 130 0
117 129 0
130 143 0
131 140 0
114 127 0
134 145 0
122 135 0
122 133 0
127 138 0
124 132 0
128 140 0
126 137 0
116 124 0
129 140 0
125 135 0
123 134 0
131 142 0
121 130 0
124 132 0
131 138 0
135 140 0
130 135 0
127 135 0
125 130 0
124 128 0
136 140 0
128 134 0
124 127 0
138 143 0
132 133 0
136 138 0
123 124 0
104 101 0
87 78 0
92 81 0
95 84 0
98 90 0
91 80 0
97 87 0
102 92 0
101 93 0
108 97 0
110 100 0
116 107 0
109 99 0
110 102 0
122 111 0
119 110 0
114 103 0
120 110 0
123 113 0
123 110 0
124 116 0
116 108 0
125 116 0
119 113 0
121 110 0
123 113 0
124 115 0
123 114 0
126 117 0
125 115 0
125 117 0
131 121 0
133 124 0
127 119 0
130 121 0
130 119 0
129 120 0
134 123 0
127 118 0
131 123 0
132 123 0
127 118 0
133 123 0
135 128 0
134 125 0
134 126 0
136 127 0
140 132 0
139 131 0
134 128 0
137 130 0
136 128 0
143 135 0
143 136 0
135 128 0
136 128 0
139 131 0
139 131 0
141 132 0
133 125 0
144 137 0
139 132 0
140 134 0
140 134 0
146 138 0
139 132 0
141 133 0
145 138 0
146 140 0
139 131 0
145 138 0
141 134 0
144 136 0
145 137 0
145 135 0
142 136 0
140 133 0
144 135 0
142 134 0
143 136 0
144 137 0
148 141 0
148 143 0
146 138 0
147 139 0
148 140 0
152 146 0
150 143 0
146 140 0
148 142 0
144 137 0
145 139 0
150 145 0
146 139 0
148 141 0
147 142 0
149 143 0
147 140 0
151 145 0
145 137 0
150 143 0
150 144 0
151 145 0
149 143 0
147 141 0
148 143 0
142 136 0
148 143 0
147 140 0
146 141 0
148 142 0
144 139 0
149 144 0
146 138 0
147 141 16
145 140 11
141 134 22
147 141 25
144 139 0
145 139 28
172 195 0
173 196 0
175 197 0
172 196 0
172 195 0
172 195 0
173 196 0
175 197 0
168 192 0
172 195 0
171 194 0
172 196 0
173 195 0
173 195 0
171 194 0
170 193 0
171 193 0
171 194 0
172 195 0
173 195 0
170 192 0
170 193 0
174 197 0
170 193 0
173 196 0
171 193 0
170 192 0
172 195 0
172 195 0
170 194 0
173 196 0
167 190 0
171 193 0
170 193 0
172 195 0
169 192 0
168 190 0
169 191 0
169 190 0
168 190 0
170 193 0
169 192 0
166 188 0
166 189 0
172 193 0
170 193 0
165 187 0
172 194 0
172 193 0
170 192 0
170 193 0
168 190 0
172 193 0
169 192 0
166 189 0
165 188 0
170 193 0
167 189 0
171 192 0
165 187 0
167 190 0
168 190 0
166 188 0
167 189 0
168 189 0
164 186 0
168 189 0
159 182 0
162 185 0
167 189 0
169 192 0
163 186 0
160 183 0
157 178 0
168 190 0
169 191 0
160 182 0
162 184 0
160 182 0
164 186 0
167 187 0
162 183 0
160 181 0
159 181 0
158 180 0
161 182 0
159 181 0
159 180 0
166 186 0
160 182 0
156 177 0
156 178 0
160 182 0
161 182 0
158 179 0
161 182 0
161 180 0
155 175 0
158 179 0
162 183 0
151 172 0
160 179 0
154 175 0
157 177 0
157 177 0
158 179 0
148 168 0
155 175 0
155 174 0
154 174 0
151 170 0
151 172 0
155 174 0
152 172 0
154 173 0
161 182 0
161 180 0
152 171 0
166 186 0
164 184 0
160 179 0
160 179 0
163 183 0
153 173 0
163 183 0
156 175 0
156 177 0
155 174 0
153 173 0
152 172 0
153 173 0
146 168 0
160 179 0
147 168 0
160 179 0
152 173 0
149 169 0
143 164 0
152 172 0
143 164 0
148 168 0
148 168 0
148 169 0
146 167 0
144 164 0
140 161 0
143 163 0
140 161 0
148 169 0
133 154 0
143 164 0
132 153 0
145 164 0
138 158 0
128 149 0
137 156 0
141 161 0
134 153 0
137 157 0
125 145 0
139 161 0
124 142 0
132 152 0
130 150 0
130 149 0
123 142 0
124 142 0
114 131 0
119 137 0
122 139 0
116 135 0
104 122 0
115 133 0
114 131 0
114 131 0
107 123 0
99 116 0
99 115 0
78 96 44
60 84 62
41 67 54
45 72 65
49 77 82
46 75 60
48 77 65
47 76 60
47 75 60
48 77 70
47 76 65
48 77 74
49 79 70
48 77 78
50 79 88
50 80 76
49 77 82
47 75 65
48 77 67
48 77 74
47 76 60
51 81 84
51 81 78
48 77 67
46 73 67
48 75 76
49 78 62
49 77 70
47 75 78
49 76 90
48 77 74
45 72 65
46 74 60
45 72 68
47 76 63
46 74 65
48 76 54
46 73 67
46 73 75
44 70 62
43 68 60
41 65 57
48 70 54
81 94 25
90 103 18
63 74 0
95 106 0
97 110 0
83 94 0
102 113 0
107 120 0
97 109 0
105 115 0
93 103 0
111 124 0
109 121 0
97 108 0
109 121 0
116 129 0
113 125 0
120 131 0
119 133 0
121 135 0
115 127 0
117 128 0
123 136 0
125 138 0
118 130 0
112 126 0
119 133 0
107 118 0
121 133 0
119 131 0
119 130 0
117 129 0
127 138 0
128 140 0
111 121 0
128 138 0
123 131 0
126 136 0
126 137 0
133 140 0
122 131 0
128 136 0
121 128 0
126 132 0
123 133 0
127 135 0
113 121 0
133 137 0
130 138 0
125 127 0
134 141 0
122 128 0
124 127 0
123 126 0
122 124 0
119 121 0
129 131 0
122 124 0
127 130 0
128 129 0
109 109 0
84 75 0
88 79 0
91 82 0
98 89 0
91 80 0
94 83 0
99 89 0
99 90 0
103 93 0
98 88 0
104 94 0
108 100 0
117 107 0
106 96 0
113 105 0
110 101 0
119 108 0
120 110 0
114 103 0
123 112 0
122 111 0
121 110 0
128 115 0
129 119 0
122 113 0
131 121 0
123 113 0
126 118 0
122 114 0
121 111 0
123 114 0
135 127 0
128 118 0
132 121 0
130 121 0
127 118 0
132 123 0
140 128 0
133 124 0
130 122 0
137 128 0
131 122 0
134 125 0
131 123 0
124 116 0
137 129 0
135 127 0
134 126 0
140 131 0
135 125 0
137 129 0
140 132 0
143 133 0
139 129 0
142 134 0
144 135 0
143 136 0
138 129 0
139 132 0
144 137 0
139 131 0
147 140 0
145 137 0
142 133 0
136 127 0
141 133 0
140 131 0
144 137 0
146 140 0
146 138 0
145 137 0
144 137 0
146 138 0
137 127 0
146 138 0
144 138 0
145 135 0
143 134 0
147 139 0
139 132 0
148 140 0
142 137 0
145 136 0
146 139 0
146 140 0
148 140 0
148 141 0
149 143 0
147 141 0
148 141 0
144 139 0
147 139 0
142 135 0
146 139 0
145 139 0
148 142 0
149 144 0
143 135 0
147 138 0
147 140 0
146 140 0
149 143 0
145 138 0
145 137 0
146 141 0
146 140 0
145 138 0
148 141 0
145 139 0
146 140 0
143 137 0
143 136 0
139 133 0
146 141 11
142 136 11
139 133 16
146 140 28
145 139 25
173 196 0
174 196 0
174 196 0
173 196 0
171 194 0
174 197 0
174 196 0
172 195 0
172 195 0
171 194 0
174 196 0
171 195 0
171 194 0
172 194 0
170 193 0
170 193 0
173 195 0
175 197 0
171 194 0
172 195 0
172 195 0
173 194 0
171 193 0
169 192 0
174 196 0
176 198 0
171 195 0
167 190 0
170 192 0
172 194 0
170 192 0
168 190 0
170 193 0
172 195 0
168 190 0
171 194 0
170 193 0
167 190 0
171 194 0
168 190 0
170 192 0
167 189 0
172 195 0
170 192 0
169 192 0
171 192 0
169 192 0
170 192 0
167 189 0
170 193 0
169 191 0
169 191 0
165 188 0
168 190 0
161 183 0
165 187 0
165 188 0
172 195 0
166 188 0
163 185 0
169 191 0
168 189 0
166 188 0
170 191 0
170 192 0
162 183 0
162 184 0
162 184 0
166 188 0
165 187 0
162 184 0
159 181 0
164 186 0
166 188 0
166 188 0
158 180 0
158 179 0
163 184 0
165 185 0
168 189 0
166 187 0
165 186 0
168 190 0
161 182 0
161 182 0
162 183 0
162 184 0
156 177 0
156 177 0
157 178 0
161 181 0
155 175 0
149 170 0
149 170 0
161 182 0
156 176 0
164 184 0
160 181 0
158 179 0
157 178 0
154 175 0
151 171 0
156 175 0
153 173 0
153 173 0
154 173 0
157 177 0
147 167 0
150 170 0
153 173 0
144 164 0
157 177 0
159 178 0
154 174 0
151 171 0
156 176 0
154 174 0
160 179 0
157 177 0
163 182 0
155 174 0
162 181 0
154 174 0
153 172 0
158 178 0
158 178 0
147 166 0
157 177 0
156 176 0
154 174 0
149 170 0
157 177 0
155 176 0
147 167 0
157 177 0
152 172 0
141 161 0
150 170 0
150 170 0
148 168 0
141 162 0
146 167 0
140 160 0
146 165 0
152 172 0
140 161 0
137 157 0
142 161 0
141 160 0
150 170 0
143 164 0
141 162 0
140 160 0
134 153 0
140 161 0
130 150 0
131 150 0
128 148 0
130 150 0
126 146 0
134 152 0
127 146 0
128 147 0
121 139 0
135 155 0
129 148 0
126 144 0
120 139 0
112 130 0
116 134 0
112 129 0
117 135 0
110 128 0
111 129 0
96 113 0
101 118 0
106 122 0
102 118 0
96 111 0
90 102 0
72 88 31
51 71 44
51 76 65
46 73 72
45 72 60
46 74 70
48 77 67
43 70 57
47 75 67
46 73 62
45 73 54
48 76 72
44 70 51
49 78 76
47 75 65
48 77 78
48 77 74
49 78 65
42 68 54
47 75 72
46 74 72
47 74 70
46 74 72
45 72 57
47 75 80
49 77 78
46 73 57
47 75 76
45 72 45
46 73 54
45 71 60
48 76 67
45 73 65
41 66 65
46 73 62
47 74 75
44 69 51
41 66 47
41 62 36
72 84 25
85 94 0
78 89 0
83 91 0
101 110 0
72 82 0
90 101 0
84 94 0
93 106 0
84 94 0
97 109 0
107 119 0
101 112 0
103 113 0
100 112 0
109 122 0
95 108 0
115 127 0
112 123 0
99 111 0
109 119 0
108 121 0
121 135 0
114 127 0
121 133 0
107 120 0
130 142 0
126 138 0
123 135 0
111 121 0
126 139 0
124 138 0
139 152 0
129 143 0
119 128 0
120 132 0
120 131 0
127 140 0
124 135 0
119 131 0
121 131 0
125 134 0
120 130 0
122 129 0
113 117 0
122 130 0
111 118 0
132 141 0
110 114 0
120 126 0
124 132 0
118 124 0
127 130 0
118 122 0
128 134 0
123 128 0
126 130 0
119 121 0
125 128 0
124 127 0
119 120 0
122 118 0
122 122 0
123 124 0
86 82 0
80 69 0
94 84 0
88 78 0
96 86 0
105 92 0
97 86 0
95 85 0
110 99 0
114 104 0
110 98 0
114 101 0
106 96 0
114 102 0
112 103 0
113 104 0
115 105 0
121 111 0
114 105 0
117 107 0
117 106 0
132 123 0
121 109 0
123 111 0
131 122 0
125 114 0
128 118 0
127 116 0
129 119 0
121 113 0
121 115 0
130 121 0
133 123 0
128 120 0
136 125 0
129 119 0
132 121 0
129 120 0
121 113 0
134 123 0
141 134 0
131 123 0
130 121 0
132 122 0
136 125 0
137 128 0
137 129 0
136 127 0
135 126 0
136 126 0
142 133 0
138 130 0
139 129 0
141 131 0
140 129 0
138 131 0
141 133 0
140 131 0
136 128 0
138 129 0
142 132 0
142 131 0
141 134 0
144 135 0
137 131 0
141 132 0
137 131 0
143 135 0
144 137 0
143 134 0
139 133 0
143 135 0
146 138 0
147 139 0
142 135 0
146 139 0
140 131 0
143 134 0
142 134 0
145 137 0
146 137 0
143 136 0
144 138 0
145 138 0
148 138 0
143 135 0
145 136 0
145 136 0
144 136 0
145 138 0
147 139 0
150 144 0
146 140 0
147 141 0
146 137 0
148 142 0
145 138 0
144 135 0
143 137 0
141 135 0
145 139 0
145 140 0
141 134 0
143 137 0
144 136 0
144 138 0
146 138 0
144 137 0
142 137 0
140 134 0
141 135 0
140 135 0
143 138 11
145 139 19
141 135 19
139 134 25
140 134 16
172 195 0
175 197 0
173 195 0
172 195 0
175 197 0
172 195 0
173 197 0
174 196 0
172 196 0
174 196 0
172 195 0
172 195 0
174 196 0
171 195 0
173 196 0
169 193 0
171 194 0
171 193 0
172 195 0
170 193 0
173 195 0
173 196 0
174 197 0
170 193 0
170 191 0
172 194 0
172 195 0
168 191 0
176 197 0
171 193 0
173 196 0
167 189 0
171 194 0
170 193 0
171 194 0
168 190 0
172 193 0
171 194 0
172 195 0
171 193 0
170 193 0
166 188 0
174 196 0
170 193 0
172 194 0
166 189 0
170 192 0
165 187 0
166 187 0
166 188 0
170 192 0
163 185 0
167 190 0
171 193 0
169 191 0
165 188 0
169 191 0
170 193 0
169 191 0
165 187 0
165 186 0
166 188 0
168 190 0
168 189 0
168 189 0
166 188 0
168 190 0
163 184 0
165 187 0
166 188 0
163 184 0
164 186 0
171 192 0
162 183 0
165 186 0
159 181 0
159 179 0
167 188 0
166 187 0
165 187 0
162 183 0
160 181 0
159 180 0
159 179 0
166 187 0
161 181 0
157 178 0
166 187 0
163 184 0
165 185 0
158 178 0
163 183 0
159 180 0
161 182 0
156 176 0
161 182 0
163 184 0
150 170 0
152 173 0
159 179 0
161 181 0
159 177 0
161 181 0
150 170 0
150 170 0
154 172 0
152 172 0
154 174 0
161 181 0
159 179 0
156 175 0
145 165 0
159 179 0
156 175 0
159 179 0
148 169 0
157 176 0
157 178 0
160 181 0
162 183 0
147 165 0
151 171 0
155 175 0
147 168 0
151 170 0
150 170 0
150 171 0
157 176 0
159 180 0
157 176 0
145 164 0
149 169 0
147 167 0
154 175 0
153 173 0
152 172 0
154 175 0
154 174 0
138 159 0
147 167 0
141 161 0
155 175 0
148 168 0
146 166 0
151 172 0
143 165 0
133 154 0
149 169 0
137 157 0
140 160 0
143 163 0
143 163 0
142 162 0
145 165 0
138 157 0
129 150 0
129 149 0
136 156 0
132 152 0
124 143 0
112 131 0
129 148 0
119 137 0
130 149 0
131 150 0
119 137 0
117 135 0
108 126 0
116 134 0
122 140 0
101 120 0
126 143 0
113 130 0
94 111 0
108 124 0
100 116 0
102 118 0
91 105 0
102 116 0
78 94 0
87 100 0
90 102 0
80 93 0
80 94 36
54 73 31
47 73 60
43 69 67
39 63 51
49 77 74
47 75 47
46 73 78
47 75 78
45 72 62
48 76 65
44 70 51
46 73 54
46 73 51
46 74 70
44 71 40
44 71 57
48 76 76
46 73 67
46 75 78
43 69 57
46 74 70
47 75 65
45 72 65
46 73 65
42 68 62
45 72 62
43 69 57
42 67 47
40 65 60
46 73 62
39 62 51
59 74 57
62 76 40
83 91 0
69 78 0
78 87 0
78 88 0
78 88 0
83 92 0
89 99 0
101 110 0
88 100 0
95 106 0
96 106 0
104 116 0
111 124 0
113 125 0
101 111 0
95 106 0
106 118 0
115 125 0
100 112 0
110 120 0
103 115 0
110 123 0
107 119 0
114 125 0
102 113 0
119 129 0
110 122 0
123 135 0
123 132 0
119 133 0
108 119 0
112 124 0
121 134 0
122 136 0
124 135 0
129 140 0
121 132 0
124 136 0
124 137 0
112 123 0
106 115 0
114 123 0
123 135 0
125 137 0
125 134 0
117 125 0
120 129 0
126 134 0
115 122 0
122 131 0
123 129 0
136 141 0
122 125 0
123 129 0
124 126 0
124 131 0
108 110 0
122 125 0
119 121 0
118 119 0
124 125 0
123 126 0
119 119 0
117 119 0
122 122 0
122 124 0
120 116 0
115 116 0
85 82 0
82 72 0
84 76 0
86 78 0
92 81 0
90 80 0
108 95 0
100 89 0
108 95 0
102 93 0
104 93 0
107 97 0
114 104 0
113 102 0
108 97 0
115 103 0
119 108 0
122 111 0
126 116 0
120 107 0
106 96 0
123 112 0
121 109 0
114 105 0
126 116 0
120 112 0
125 113 0
128 116 0
121 111 0
132 120 0
128 117 0
128 117 0
125 114 0
128 119 0
133 122 0
135 124 0
126 116 0
129 118 0
132 121 0
130 122 0
132 122 0
128 117 0
136 125 0
135 127 0
135 125 0
137 129 0
138 128 0
137 127 0
137 129 0
137 126 0
132 121 0
139 129 0
137 129 0
140 131 0
139 130 0
137 131 0
139 130 0
141 133 0
141 131 0
140 131 0
142 134 0
138 131 0
135 128 0
142 132 0
141 132 0
139 130 0
148 139 0
142 134 0
142 133 0
142 134 0
148 140 0
143 134 0
144 136 0
144 136 0
144 135 0
144 134 0
146 138 0
146 138 0
142 135 0
145 136 0
145 138 0
146 138 0
140 133 0
147 139 0
144 137 0
146 138 0
148 141 0
146 137 0
149 143 0
146 138 0
147 139 0
145 137 0
145 139 0
144 135 0
145 138 0
145 138 0
147 139 0
146 140 0
146 137 0
147 139 0
144 137 0
143 136 0
145 139 0
138 130 0
139 134 0
142 136 0
141 134 0
134 128 0
140 134 0
142 137 0
141 135 0
136 128 19
135 130 11
143 138 30
143 136 28
176 198 0
169 193 0
173 196 0
171 194 0
172 196 0
175 198 0
171 194 0
173 196 0
176 198 0
172 195 0
170 193 0
175 197 0
174 197 0
174 197 0
174 196 0
170 192 0
173 196 0
174 196 0
171 194 0
177 199 0
174 196 0
174 196 0
172 194 0
171 194 0
170 192 0
174 197 0
172 194 0
174 196 0
174 196 0
173 195 0
172 194 0
173 195 0
170 192 0
172 195 0
169 192 0
172 194 0
172 194 0
171 193 0
167 189 0
169 191 0
170 193 0
172 194 0
169 191 0
170 192 0
171 194 0
169 191 0
170 191 0
168 190 0
171 193 0
168 190 0
170 192 0
166 188 0
170 193 0
168 190 0
163 186 0
164 185 0
165 187 0
167 188 0
165 186 0
167 189 0
166 188 0
169 191 0
171 194 0
169 190 0
164 185 0
171 193 0
168 189 0
168 189 0
158 179 0
166 187 0
164 185 0
164 185 0
170 191 0
166 186 0
159 181 0
162 183 0
164 186 0
164 185 0
161 182 0
161 182 0
167 187 0
162 183 0
167 187 0
153 174 0
161 182 0
161 182 0
163 184 0
166 187 0
159 180 0
159 178 0
165 184 0
161 182 0
163 183 0
158 179 0
167 187 0
158 178 0
152 171 0
154 174 0
156 177 0
154 174 0
155 175 0
153 173 0
162 181 0
160 180 0
156 175 0
154 173 0
150 170 0
149 169 0
158 177 0
148 168 0
149 168 0
156 176 0
148 168 0
160 179 0
158 176 0
157 177 0
160 179 0
162 182 0
159 178 0
156 173 0
157 176 0
155 176 0
150 170 0
151 170 0
153 173 0
156 177 0
143 163 0
147 167 0
154 174 0
151 171 0
153 173 0
148 167 0
145 166 0
152 173 0
148 168 0
155 176 0
144 165 0
147 167 0
144 162 0
145 166 0
143 163 0
149 169 0
148 169 0
142 163 0
143 163 0
146 167 0
133 153 0
141 161 0
146 167 0
140 161 0
142 163 0
143 163 0
137 158 0
130 151 0
137 157 0
126 147 0
132 152 0
132 152 0
134 154 0
138 158 0
131 149 0
129 148 0
128 147 0
134 153 0
132 151 0
111 130 0
126 145 0
120 138 0
101 118 0
124 142 0
124 142 0
99 116 0
98 114 0
110 126 0
100 118 0
110 126 0
97 113 0
104 119 0
100 115 0
92 106 0
99 113 0
83 97 0
90 104 0
74 86 0
87 99 0
76 87 0
54 65 18
46 62 25
40 65 44
40 64 51
43 69 70
44 71 47
39 63 54
42 68 65
45 72 54
43 70 62
44 71 60
43 69 57
42 68 62
43 69 57
45 71 60
42 68 51
44 71 47
46 72 70
44 71 47
42 68 67
42 67 54
42 67 57
43 69 57
44 70 65
44 69 65
39 61 57
54 68 18
52 64 25
67 76 0
64 72 0
61 69 0
76 82 0
53 62 0
69 78 0
87 97 0
80 90 0
80 92 0
97 109 0
84 95 0
101 112 0
100 111 0
75 85 0
93 105 0
96 107 0
111 124 0
94 106 0
115 125 0
109 121 0
100 111 0
109 120 0
106 120 0
106 121 0
104 117 0
105 117 0
120 132 0
124 136 0
124 135 0
119 130 0
118 131 0
121 133 0
122 133 0
123 136 0
109 120 0
127 137 0
112 124 0
130 143 0
116 127 0
122 134 0
122 132 0
116 125 0
116 128 0
122 131 0
124 134 0
118 127 0
116 125 0
128 135 0
116 126 0
121 128 0
114 121 0
124 133 0
125 133 0
119 126 0
118 124 0
123 132 0
113 117 0
116 122 0
115 117 0
116 120 0
122 126 0
118 124 0
117 122 0
131 133 0
117 115 0
122 123 0
122 123 0
113 110 0
123 122 0
118 116 0
117 117 0
121 121 0
106 100 0
78 69 0
73 64 0
91 80 0
98 87 0
100 86 0
99 90 0
101 90 0
99 87 0
91 83 0
106 94 0
112 100 0
113 101 0
114 102 0
102 90 0
113 103 0
114 103 0
114 103 0
115 101 0
111 101 0
117 105 0
119 108 0
122 110 0
129 116 0
128 118 0
121 107 0
126 115 0
123 110 0
128 117 0
127 117 0
129 118 0
131 121 0
126 115 0
129 117 0
131 121 0
129 118 0
138 127 0
127 116 0
132 123 0
139 128 0
135 125 0
126 117 0
134 124 0
131 122 0
136 126 0
138 130 0
134 126 0
140 130 0
136 126 0
137 128 0
133 122 0
137 126 0
139 130 0
137 128 0
143 134 0
143 135 0
141 134 0
143 133 0
139 129 0
141 133 0
136 126 0
147 138 0
142 134 0
143 133 0
139 130 0
140 130 0
139 132 0
144 136 0
143 136 0
144 136 0
142 131 0
142 133 0
146 137 0
143 136 0
142 135 0
144 136 0
139 132 0
144 136 0
144 135 0
146 139 0
144 135 0
142 134 0
145 136 0
146 137 0
150 142 0
146 138 0
146 136 0
143 135 0
145 138 0
149 142 0
144 135 0
145 138 0
143 135 0
143 134 0
144 137 0
143 136 0
145 138 0
143 135 0
139 131 0
143 138 0
142 136 0
139 133 0
146 140 0
141 135 0
146 141 0
137 132 0
135 128 0
140 135 0
138 132 0
137 131 19
133 127 11
147 142 16
133 127 22
134 128 16
175 198 0
171 194 0
175 198 0
171 194 0
173 196 0
173 196 0
172 195 0
172 196 0
175 198 0
174 197 0
174 196 0
170 192 0
173 194 0
175 196 0
170 192 0
174 197 0
172 194 0
172 194 0
169 192 0
172 195 0
173 196 0
174 196 0
171 194 0
175 197 0
171 194 0
174 197 0
170 192 0
175 197 0
170 192 0
172 194 0
165 188 0
172 194 0
172 195 0
168 191 0
172 194 0
170 193 0
171 194 0
167 189 0
169 191 0
172 194 0
167 188 0
174 196 0
169 191 0
169 191 0
169 192 0
165 186 0
168 189 0
169 191 0
170 192 0
165 187 0
175 196 0
170 191 0
165 186 0
166 188 0
169 192 0
165 187 0
169 191 0
170 192 0
169 191 0
165 187 0
164 185 0
167 188 0
163 184 0
167 188 0
170 192 0
164 185 0
167 189 0
168 189 0
165 187 0
164 185 0
163 184 0
166 185 0
167 189 0
163 184 0
160 181 0
159 180 0
164 186 0
167 188 0
165 185 0
162 183 0
164 184 0
164 185 0
161 183 0
164 185 0
164 185 0
160 180 0
166 186 0
157 178 0
162 182 0
171 191 0
160 181 0
160 180 0
163 184 0
162 182 0
158 179 0
160 180 0
157 177 0
157 178 0
158 178 0
157 177 0
159 179 0
159 178 0
161 180 0
161 180 0
159 179 0
158 178 0
156 175 0
163 183 0
152 171 0
154 173 0
158 176 0
157 176 0
154 174 0
159 177 0
154 173 0
148 167 0
156 177 0
153 172 0
148 167 0
161 181 0
152 172 0
156 175 0
160 179 0
144 164 0
148 167 0
147 167 0
144 164 0
152 170 0
145 165 0
148 169 0
155 174 0
147 168 0
143 163 0
146 166 0
149 170 0
146 166 0
149 169 0
152 172 0
150 170 0
143 164 0
150 170 0
152 172 0
151 172 0
149 169 0
150 171 0
146 167 0
139 160 0
142 162 0
144 165 0
144 165 0
138 159 0
145 167 0
138 158 0
134 154 0
137 156 0
142 162 0
139 159 0
125 145 0
133 153 0
126 144 0
124 144 0
135 154 0
124 143 0
132 152 0
126 145 0
118 137 0
120 138 0
120 138 0
112 130 0
127 144 0
115 132 0
110 127 0
109 127 0
113 130 0
113 130 0
96 113 0
111 127 0
103 119 0
107 122 0
93 108 0
93 108 0
87 102 0
90 104 0
72 85 0
73 86 0
77 88 0
75 87 0
77 88 0
65 76 0
55 65 0
47 59 25
42 58 31
55 70 36
47 61 31
41 59 25
35 56 40
48 73 70
38 61 54
41 66 54
39 63 47
42 67 62
42 66 62
37 59 51
43 69 70
42 65 54
33 53 44
43 61 51
60 71 31
52 65 44
52 61 25
49 59 0
63 71 0
56 65 0
78 88 0
56 67 0
66 75 0
82 91 0
81 90 0
79 89 0
90 100 0
82 93 0
72 82 0
87 99 0
78 88 0
92 101 0
95 104 0
93 102 0
102 114 0
107 118 0
91 101 0
91 103 0
99 112 0
108 120 0
113 124 0
108 121 0
108 121 0
106 119 0
113 124 0
106 118 0
118 128 0
119 131 0
122 137 0
113 124 0
106 115 0
113 124 0
118 129 0
117 130 0
127 141 0
130 144 0
125 138 0
118 130 0
120 131 0
122 132 0
121 133 0
118 130 0
120 132 0
122 132 0
116 127 0
125 136 0
118 129 0
113 122 0
114 124 0
117 123 0
109 116 0
119 130 0
122 133 0
124 129 0
129 135 0
119 125 0
126 133 0
105 108 0
112 118 0
120 125 0
114 119 0
110 112 0
121 124 0
121 124 0
118 120 0
115 115 0
106 104 0
116 115 0
116 117 0
119 117 0
99 98 0
108 102 0
110 107 0
117 111 0
99 97 0
90 83 0
79 68 0
85 74 0
80 68 0
86 76 0
96 84 0
100 89 0
90 78 0
102 92 0
102 91 0
108 95 0
99 91 0
114 100 0
103 94 0
121 109 0
114 101 0
112 100 0
122 110 0
117 103 0
118 105 0
117 107 0
117 108 0
121 110 0
123 111 0
132 119 0
119 109 0
122 110 0
122 108 0
128 117 0
124 113 0
128 118 0
123 111 0
132 120 0
133 122 0
133 119 0
135 124 0
129 118 0
131 122 0
131 120 0
130 120 0
137 129 0
134 123 0
132 123 0
140 129 0
131 122 0
136 126 0
135 127 0
140 132 0
142 132 0
139 132 0
144 134 0
138 128 0
135 127 0
141 131 0
141 131 0
144 134 0
131 121 0
137 127 0
140 132 0
144 135 0
137 126 0
136 126 0
141 130 0
140 131 0
146 136 0
135 125 0
141 132 0
147 138 0
143 135 0
146 137 0
140 132 0
142 133 0
142 135 0
139 128 0
143 135 0
143 136 0
144 135 0
148 139 0
146 136 0
146 139 0
146 139 0
141 132 0
145 136 0
145 137 0
145 137 0
141 132 0
145 137 0
142 135 0
139 133 0
146 139 0
146 139 0
142 136 0
143 134 0
140 133 0
142 136 0
141 133 0
141 135 0
140 131 0
135 130 0
143 136 0
131 124 0
135 128 0
142 135 0
137 130 0
136 129 0
136 130 0
141 134 19
129 124 16
132 126 22
134 127 11
132 125 22
124 118 16
173 195 0
174 197 0
176 198 0
173 196 0
172 194 0
175 197 0
171 193 0
173 196 0
172 195 0
174 197 0
172 195 0
173 196 0
175 197 0
175 197 0
175 198 0
174 196 0
177 198 0
171 194 0
172 194 0
174 196 0
172 195 0
175 197 0
171 194 0
172 194 0
172 194 0
175 196 0
175 196 0
172 194 0
174 196 0
168 190 0
171 193 0
169 191 0
171 193 0
169 191 0
173 196 0
174 196 0
172 194 0
176 197 0
169 191 0
170 192 0
167 188 0
170 192 0
170 191 0
169 191 0
171 193 0
167 189 0
164 184 0
168 190 0
169 191 0
169 192 0
168 189 0
172 192 0
167 189 0
171 192 0
168 191 0
168 190 0
172 193 0
170 191 0
167 189 0
167 187 0
173 195 0
166 188 0
170 191 0
169 191 0
168 189 0
165 186 0
165 186 0
171 192 0
167 187 0
166 187 0
167 187 0
169 190 0
163 184 0
160 181 0
167 189 0
167 188 0
157 178 0
165 185 0
169 190 0
166 187 0
165 185 0
168 187 0
164 185 0
158 179 0
169 190 0
161 182 0
163 183 0
161 182 0
156 176 0
166 187 0
160 181 0
154 175 0
161 180 0
164 185 0
161 181 0
158 178 0
156 176 0
158 177 0
158 177 0
158 178 0
155 174 0
153 173 0
157 176 0
157 176 0
152 171 0
143 163 0
161 180 0
156 176 0
156 175 0
160 179 0
158 178 0
160 179 0
164 183 0
158 178 0
157 176 0
150 170 0
150 168 0
153 171 0
152 171 0
150 170 0
152 172 0
157 176 0
152 172 0
146 165 0
147 168 0
154 173 0
133 153 0
151 171 0
147 167 0
147 167 0
150 171 0
148 168 0
146 166 0
153 173 0
148 168 0
150 171 0
143 163 0
149 170 0
148 169 0
148 168 0
145 166 0
147 167 0
142 163 0
126 147 0
142 163 0
131 151 0
140 160 0
145 166 0
136 156 0
129 149 0
131 152 0
132 152 0
138 158 0
130 150 0
138 159 0
135 155 0
126 146 0
140 160 0
121 141 0
124 143 0
130 149 0
132 152 0
127 147 0
129 148 0
118 137 0
117 135 0
112 129 0
115 134 0
112 130 0
128 147 0
131 149 0
113 130 0
110 128 0
111 129 0
101 117 0
105 122 0
113 129 0
88 102 0
99 114 0
92 107 0
82 97 0
86 100 0
94 107 0
94 107 0
70 83 0
93 107 0
79 91 0
73 85 0
72 86 0
66 78 0
74 85 0
67 77 0
59 69 0
69 80 0
64 75 0
55 63 0
67 76 0
52 60 0
36 45 0
62 73 18
52 59 0
63 70 0
55 63 0
48 56 0
68 75 0
58 68 0
57 66 0
64 73 0
77 85 0
46 54 0
65 73 0
68 78 0
80 89 0
60 69 0
77 88 0
73 83 0
81 91 0
87 97 0
79 90 0
69 78 0
84 97 0
82 94 0
90 100 0
86 98 0
88 98 0
97 109 0
92 104 0
98 111 0
103 114 0
104 114 0
103 113 0
86 99 0
97 109 0
101 114 0
109 120 0
114 125 0
110 120 0
101 113 0
101 112 0
125 137 0
117 129 0
109 121 0
114 127 0
110 123 0
102 115 0
113 122 0
121 132 0
117 130 0
114 127 0
126 140 0
112 122 0
117 130 0
122 133 0
122 131 0
107 120 0
113 124 0
124 134 0
131 141 0
126 135 0
115 127 0
123 129 0
131 140 0
133 143 0
119 128 0
113 123 0
125 132 0
111 117 0
115 122 0
116 123 0
133 142 0
122 128 0
104 110 0
115 118 0
125 129 0
123 128 0
118 122 0
123 124 0
119 123 0
115 116 0
117 118 0
112 111 0
107 108 0
103 104 0
109 110 0
107 104 0
105 103 0
111 107 0
96 92 0
95 94 0
99 93 0
78 71 0
80 68 0
84 70 0
80 69 0
90 77 0
96 86 0
102 89 0
93 83 0
101 89 0
101 88 0
118 107 0
106 92 0
98 86 0
107 94 0
111 100 0
108 96 0
114 103 0
115 103 0
126 114 0
122 110 0
119 106 0
118 106 0
121 110 0
125 113 0
128 115 0
128 118 0
127 117 0
124 111 0
127 115 0
122 111 0
129 118 0
134 122 0
126 116 0
135 124 0
132 120 0
133 123 0
133 121 0
131 121 0
136 124 0
137 125 0
133 121 0
138 128 0
139 126 0
140 131 0
136 126 0
141 130 0
136 125 0
138 129 0
136 126 0
140 130 0
139 126 0
140 128 0
141 129 0
143 133 0
142 134 0
140 131 0
136 126 0
143 133 0
145 135 0
139 128 0
140 130 0
141 131 0
145 136 0
142 132 0
142 133 0
142 132 0
146 137 0
144 134 0
139 130 0
142 132 0
144 136 0
142 131 0
141 132 0
143 135 0
145 136 0
141 132 0
147 139 0
140 131 0
140 130 0
146 138 0
141 135 0
142 133 0
137 127 0
139 131 0
145 138 0
140 132 0
145 138 0
135 126 0
144 136 0
144 139 0
141 133 0
138 132 0
135 130 0
140 134 0
140 134 0
138 132 0
140 133 0
133 126 0
132 124 0
130 125 0
135 127 0
134 129 0
139 131 11
142 134 11
127 122 0
137 130 11
122 115 0
132 126 16
124 116 19
129 122 22
173 196 0
177 199 0
174 197 0
172 195 0
173 196 0
174 197 0
173 197 0
176 198 0
174 197 0
171 193 0
172 194 0
176 197 0
171 194 0
172 194 0
174 197 0
172 194 0
173 195 0
172 194 0
172 194 0
175 198 0
175 196 0
173 195 0
172 194 0
170 192 0
175 196 0
171 194 0
171 193 0
173 195 0
173 195 0
170 193 0
165 187 0
171 193 0
171 194 0
169 191 0
171 192 0
175 197 0
172 194 0
173 195 0
171 193 0
173 195 0
166 188 0
172 193 0
172 194 0
169 192 0
170 192 0
171 193 0
168 189 0
173 194 0
173 195 0
172 193 0
172 194 0
165 187 0
173 195 0
171 193 0
168 189 0
167 188 0
165 187 0
169 191 0
168 189 0
167 188 0
168 190 0
166 187 0
167 188 0
172 194 0
169 190 0
172 193 0
170 191 0
169 190 0
164 184 0
168 189 0
170 191 0
166 186 0
161 181 0
168 189 0
163 184 0
164 184 0
163 183 0
168 189 0
168 189 0
167 188 0
166 186 0
164 185 0
163 184 0
160 180 0
171 191 0
168 187 0
160 181 0
160 180 0
166 186 0
161 181 0
163 183 0
167 187 0
158 177 0
159 179 0
156 176 0
168 187 0
165 185 0
154 174 0
157 177 0
162 181 0
158 178 0
156 175 0
155 175 0
158 178 0
156 176 0
160 179 0
153 172 0
163 182 0
161 180 0
148 167 0
158 177 0
156 177 0
162 183 0
154 174 0
151 170 0
157 176 0
154 174 0
154 174 0
152 173 0
147 166 0
156 175 0
141 161 0
148 167 0
149 169 0
149 169 0
149 168 0
154 174 0
146 165 0
163 183 0
151 170 0
152 172 0
143 163 0
148 168 0
153 173 0
133 153 0
151 171 0
146 166 0
147 166 0
144 163 0
142 163 0
141 161 0
144 164 0
145 165 0
142 162 0
139 160 0
141 162 0
140 161 0
142 163 0
143 164 0
137 157 0
131 151 0
146 166 0
130 150 0
136 156 0
138 159 0
126 146 0
129 149 0
131 151 0
137 158 0
128 148 0
130 150 0
124 143 0
127 146 0
125 145 0
127 146 0
122 142 0
126 145 0
125 143 0
107 125 0
118 134 0
118 136 0
106 124 0
104 121 0
100 116 0
110 127 0
95 112 0
97 113 0
97 112 0
105 122 0
96 112 0
96 112 0
82 97 0
86 102 0
84 99 0
83 96 0
91 104 0
75 87 0
70 82 0
72 84 0
63 76 0
66 77 0
53 65 0
72 83 0
74 86 0
68 78 0
75 86 0
46 57 0
61 70 0
68 79 0
55 63 0
65 74 0
53 64 0
57 66 0
54 63 0
60 71 0
69 79 0
45 56 0
71 80 0
58 67 0
75 85 0
68 79 0
69 78 0
85 97 0
79 89 0
74 85 0
70 80 0
67 81 0
66 78 0
86 96 0
80 92 0
84 96 0
77 88 0
88 100 0
102 115 0
87 98 0
103 117 0
94 106 0
92 104 0
102 114 0
103 115 0
102 115 0
92 102 0
109 120 0
111 122 0
111 122 0
112 123 0
107 118 0
120 131 0
115 130 0
111 125 0
124 135 0
116 129 0
107 119 0
109 121 0
111 123 0
112 123 0
112 124 0
115 127 0
133 146 0
122 134 0
125 137 0
123 135 0
128 143 0
112 125 0
124 136 0
119 130 0
129 140 0
124 133 0
128 139 0
120 129 0
115 123 0
116 124 0
115 125 0
117 127 0
117 127 0
122 128 0
120 129 0
116 123 0
109 116 0
122 129 0
123 128 0
110 115 0
119 123 0
112 115 0
113 115 0
126 125 0
117 120 0
119 121 0
119 122 0
106 106 0
114 118 0
115 112 0
114 115 0
104 102 0
103 101 0
105 102 0
97 94 0
110 110 0
105 101 0
106 104 0
105 104 0
101 99 0
87 81 0
75 66 0
80 68 0
88 77 0
86 75 0
92 79 0
96 85 0
105 95 0
102 90 0
98 87 0
103 91 0
114 99 0
107 95 0
114 101 0
102 90 0
116 105 0
116 104 0
111 100 0
117 104 0
119 107 0
113 102 0
114 103 0
119 106 0
127 113 0
121 109 0
130 118 0
114 103 0
123 113 0
121 109 0
123 113 0
129 117 0
128 118 0
129 118 0
133 121 0
134 122 0
128 117 0
135 121 0
129 117 0
130 119 0
136 123 0
134 124 0
133 121 0
131 120 0
136 123 0
133 122 0
139 125 0
135 123 0
136 125 0
136 128 0
136 125 0
133 125 0
140 131 0
139 130 0
138 127 0
139 128 0
142 132 0
140 129 0
144 134 0
139 130 0
141 130 0
141 131 0
138 126 0
143 133 0
143 133 0
144 134 0
140 130 0
140 131 0
138 126 0
141 134 0
133 124 0
139 129 0
141 133 0
139 128 0
140 132 0
139 129 0
139 130 0
138 130 0
143 133 0
136 129 0
140 132 0
133 126 0
144 138 0
134 124 0
144 136 0
139 130 0
141 134 0
138 131 0
138 132 0
136 130 0
137 130 0
140 134 0
136 130 0
137 129 0
136 130 0
135 127 0
134 128 0
139 130 0
137 130 0
134 127 0
134 126 11
134 127 11
132 126 11
135 129 19
132 127 19
135 130 19
127 122 19
126 118 22
127 122 22
175 198 0
174 197 0
175 198 0
174 197 0
175 198 0
174 197 0
174 197 0
174 196 0
176 198 0
174 196 0
171 194 0
174 197 0
174 197 0
175 197 0
173 195 0
176 198 0
171 194 0
170 192 0
173 195 0
174 196 0
170 194 0
174 197 0
170 193 0
171 194 0
173 195 0
172 194 0
172 194 0
173 195 0
171 193 0
173 195 0
175 196 0
172 195 0
169 191 0
172 194 0
172 195 0
172 193 0
167 189 0
167 189 0
173 194 0
173 195 0
171 194 0
174 196 0
172 193 0
173 194 0
173 194 0
174 195 0
168 189 0
169 191 0
167 189 0
170 192 0
169 191 0
169 190 0
168 190 0
170 192 0
168 189 0
168 190 0
171 191 0
165 186 0
164 184 0
168 190 0
171 192 0
169 191 0
167 188 0
170 189 0
166 187 0
165 185 0
172 193 0
162 183 0
165 185 0
164 185 0
167 188 0
164 184 0
168 188 0
168 189 0
165 186 0
166 186 0
164 185 0
167 187 0
164 184 0
170 189 0
166 186 0
165 186 0
166 187 0
163 182 0
167 187 0
165 185 0
163 184 0
163 182 0
159 177 0
160 180 0
163 183 0
152 173 0
165 184 0
164 183 0
158 178 0
155 175 0
152 171 0
154 174 0
157 177 0
163 183 0
160 180 0
160 179 0
157 177 0
153 173 0
163 182 0
159 179 0
153 173 0
158 178 0
165 183 0
159 179 0
162 181 0
157 176 0
153 173 0
148 168 0
154 173 0
161 181 0
152 171 0
154 174 0
158 177 0
153 173 0
154 174 0
143 163 0
151 171 0
157 177 0
149 168 0
143 163 0
151 170 0
159 180 0
152 171 0
152 172 0
152 172 0
149 169 0
141 161 0
148 169 0
150 171 0
136 157 0
143 164 0
140 160 0
139 159 0
153 173 0
144 164 0
146 166 0
143 163 0
139 158 0
142 161 0
138 158 0
131 152 0
140 160 0
144 164 0
133 153 0
146 166 0
143 163 0
134 155 0
144 164 0
130 149 0
130 150 0
133 152 0
134 153 0
133 154 0
125 144 0
124 142 0
128 148 0
131 151 0
124 143 0
124 144 0
136 156 0
112 131 0
126 145 0
116 135 0
116 135 0
120 138 0
104 122 0
119 137 0
105 121 0
100 117 0
109 125 0
110 127 0
103 119 0
114 131 0
97 113 0
97 112 0
86 101 0
90 106 0
90 104 0
98 111 0
87 100 0
91 105 0
86 100 0
83 97 0
81 94 0
72 85 0
67 78 0
82 94 0
86 99 0
86 98 0
71 82 0
79 90 0
60 71 0
70 82 0
82 93 0
64 75 0
80 89 0
68 78 0
81 94 0
83 95 0
65 76 0
66 76 0
65 77 0
81 93 0
70 80 0
74 85 0
77 89 0
70 81 0
66 76 0
80 93 0
94 106 0
73 86 0
94 105 0
84 95 0
92 100 0
81 93 0
87 96 0
92 103 0
92 104 0
91 104 0
111 120 0
102 115 0
94 104 0
102 114 0
93 107 0
104 117 0
114 126 0
106 119 0
89 101 0
107 120 0
101 115 0
101 114 0
111 124 0
99 113 0
113 126 0
105 118 0
104 116 0
125 139 0
120 134 0
114 128 0
108 117 0
122 136 0
124 138 0
118 129 0
118 130 0
126 139 0
130 142 0
114 126 0
125 138 0
120 132 0
120 129 0
121 131 0
118 128 0
118 127 0
125 135 0
116 122 0
127 138 0
121 130 0
122 130 0
126 136 0
121 129 0
113 121 0
124 132 0
116 121 0
117 122 0
118 121 0
117 125 0
119 128 0
115 121 0
108 114 0
117 120 0
120 127 0
111 113 0
121 125 0
123 126 0
105 108 0
117 120 0
114 116 0
111 111 0
108 108 0
115 114 0
109 109 0
100 100 0
100 96 0
105 104 0
104 101 0
102 98 0
105 101 0
95 86 0
89 79 0
85 73 0
69 59 0
95 79 0
97 85 0
100 87 0
97 84 0
83 71 0
105 93 0
110 94 0
108 94 0
98 86 0
100 90 0
110 98 0
100 85 0
111 99 0
110 99 0
106 94 0
112 100 0
118 106 0
120 108 0
124 109 0
115 103 0
124 111 0
114 103 0
131 120 0
128 114 0
126 115 0
128 116 0
120 109 0
130 120 0
134 126 0
137 126 0
129 117 0
126 117 0
130 116 0
133 122 0
132 122 0
132 121 0
134 123 0
133 121 0
135 122 0
138 127 0
137 124 0
132 122 0
135 125 0
137 125 0
141 130 0
134 122 0
132 120 0
134 121 0
141 129 0
140 128 0
136 127 0
132 123 0
131 120 0
139 129 0
142 131 0
141 128 0
136 127 0
142 132 0
139 129 0
145 136 0
143 134 0
139 131 0
137 127 0
143 133 0
140 129 0
144 135 0
141 131 0
139 131 0
141 131 0
142 133 0
134 123 0
139 130 0
139 129 0
138 129 0
142 132 0
141 131 0
136 130 0
140 130 0
134 126 0
135 125 0
135 125 0
135 125 0
145 138 0
140 132 0
133 126 0
134 126 0
134 126 0
132 125 0
135 127 0
137 130 0
133 126 0
129 124 0
135 129 0
127 120 0
130 125 11
137 130 16
129 123 11
130 124 16
124 117 22
126 120 22
128 120 19
134 127 34
133 125 32
174 196 0
172 195 0
172 196 0
172 195 0
174 197 0
174 196 0
169 192 0
172 195 0
173 196 0
174 196 0
174 196 0
175 198 0
172 195 0
173 196 0
173 195 0
171 193 0
175 197 0
172 194 0
174 196 0
170 193 0
172 193 0
173 196 0
171 194 0
172 194 0
171 193 0
169 191 0
173 195 0
170 191 0
171 193 0
173 196 0
170 191 0
172 194 0
174 196 0
171 192 0
172 194 0
171 192 0
170 191 0
171 193 0
167 189 0
172 194 0
174 195 0
175 195 0
171 192 0
171 193 0
169 190 0
171 192 0
167 188 0
172 193 0
164 185 0
171 193 0
168 190 0
167 188 0
172 193 0
170 191 0
172 193 0
173 193 0
170 191 0
169 189 0
166 187 0
167 188 0
169 190 0
166 186 0
170 191 0
172 193 0
169 189 0
173 194 0
166 188 0
165 186 0
170 190 0
172 192 0
170 191 0
168 189 0
168 189 0
163 183 0
173 193 0
166 185 0
169 189 0
158 179 0
161 181 0
161 182 0
172 192 0
165 185 0
163 185 0
169 190 0
161 180 0
162 183 0
163 182 0
166 186 0
164 184 0
159 179 0
164 184 0
163 183 0
161 181 0
160 181 0
157 175 0
164 184 0
159 179 0
159 180 0
161 180 0
146 166 0
170 189 0
159 178 0
158 177 0
150 170 0
156 176 0
157 176 0
150 169 0
150 169 0
147 166 0
147 167 0
158 176 0
152 171 0
153 173 0
147 167 0
153 173 0
158 177 0
153 172 0
148 167 0
148 168 0
151 171 0
148 168 0
153 172 0
150 169 0
148 168 0
146 166 0
151 170 0
151 172 0
144 163 0
146 166 0
150 170 0
141 161 0
145 165 0
152 173 0
142 162 0
154 174 0
144 164 0
146 166 0
146 166 0
139 159 0
144 165 0
142 162 0
143 163 0
143 163 0
142 161 0
140 160 0
146 167 0
142 162 0
144 165 0
140 160 0
143 162 0
142 162 0
135 155 0
139 160 0
133 152 0
136 156 0
134 153 0
131 151 0
137 156 0
134 154 0
132 151 0
128 148 0
124 144 0
127 147 0
131 151 0
119 137 0
117 136 0
122 140 0
111 130 0
124 143 0
110 129 0
121 140 0
115 133 0
106 123 0
109 128 0
113 130 0
118 137 0
92 108 0
108 125 0
100 116 0
100 116 0
102 117 0
95 110 0
95 112 0
102 117 0
100 115 0
96 110 0
91 106 0
83 97 0
88 101 0
81 95 0
83 97 0
85 99 0
78 89 0
84 95 0
79 92 0
89 102 0
73 86 0
76 88 0
70 81 0
84 97 0
86 98 0
91 104 0
57 69 0
85 97 0
71 83 0
74 86 0
69 83 0
57 69 0
82 93 0
75 86 0
83 94 0
87 98 0
71 81 0
90 102 0
69 84 0
93 105 0
97 110 0
88 98 0
93 104 0
86 96 0
95 107 0
85 97 0
95 107 0
100 114 0
96 108 0
104 117 0
103 114 0
101 113 0
98 110 0
99 114 0
123 135 0
100 111 0
118 133 0
107 120 0
100 113 0
110 125 0
123 137 0
115 128 0
118 129 0
118 132 0
118 132 0
107 121 0
115 126 0
122 134 0
125 138 0
112 127 0
118 130 0
108 121 0
115 127 0
122 134 0
115 127 0
108 120 0
117 128 0
112 124 0
111 120 0
111 119 0
119 131 0
126 138 0
127 138 0
127 138 0
124 134 0
122 132 0
115 126 0
137 148 0
124 137 0
127 136 0
125 135 0
127 134 0
113 120 0
119 128 0
114 119 0
115 119 0
122 127 0
114 121 0
117 125 0
124 129 0
113 118 0
124 128 0
116 116 0
119 122 0
110 110 0
118 120 0
114 118 0
116 117 0
113 112 0
116 115 0
111 108 0
99 99 0
110 110 0
99 97 0
101 101 0
104 98 0
103 100 0
104 99 0
101 94 0
94 85 0
79 72 0
84 72 0
80 68 0
79 69 0
86 74 0
89 76 0
94 83 0
96 83 0
98 88 0
96 85 0
105 92 0
106 93 0
98 85 0
99 86 0
104 89 0
111 94 0
107 94 0
122 108 0
110 98 0
117 105 0
118 106 0
124 112 0
121 110 0
118 105 0
126 116 0
121 110 0
130 118 0
124 109 0
115 100 0
133 121 0
120 106 0
129 116 0
123 112 0
129 116 0
121 109 0
130 118 0
128 117 0
129 117 0
129 117 0
132 121 0
131 119 0
127 114 0
134 121 0
131 120 0
135 124 0
138 125 0
140 128 0
133 122 0
132 120 0
136 123 0
136 126 0
133 122 0
136 123 0
131 120 0
136 126 0
136 125 0
133 124 0
135 124 0
138 126 0
141 131 0
138 129 0
134 123 0
139 130 0
139 131 0
140 131 0
131 120 0
138 128 0
137 127 0
136 126 0
140 131 0
133 122 0
133 125 0
133 124 0
135 125 0
142 134 0
138 127 0
136 128 0
135 126 0
134 126 0
136 129 0
137 129 0
134 127 0
134 125 0
132 126 0
133 123 0
135 127 0
130 122 0
130 123 0
127 120 0
129 122 0
141 134 0
129 122 0
129 123 0
124 117 0
129 122 19
126 120 11
131 123 16
126 119 0
136 128 30
131 124 16
131 126 25
124 117 16
129 121 22
124 117 16
173 196 0
173 197 0
172 195 0
173 196 0
172 195 0
175 198 0
173 196 0
173 194 0
174 195 0
174 196 0
172 194 0
172 196 0
172 194 0
175 197 0
171 193 0
173 196 0
173 195 0
173 195 0
173 195 0
170 192 0
174 196 0
173 194 0
174 196 0
173 195 0
171 192 0
173 195 0
172 194 0
174 196 0
173 195 0
168 190 0
174 196 0
172 194 0
171 193 0
174 196 0
172 194 0
175 196 0
173 195 0
175 196 0
173 194 0
173 194 0
170 191 0
171 192 0
168 189 0
169 190 0
176 197 0
167 188 0
171 192 0
173 195 0
171 192 0
169 190 0
170 191 0
168 189 0
167 189 0
169 191 0
171 192 0
170 190 0
171 192 0
162 183 0
166 186 0
170 190 0
170 191 0
168 189 0
169 190 0
166 187 0
171 191 0
170 190 0
166 186 0
170 190 0
169 189 0
164 184 0
175 196 0
165 186 0
167 188 0
164 184 0
165 186 0
162 182 0
163 182 0
169 190 0
165 185 0
167 187 0
162 183 0
171 191 0
163 182 0
161 181 0
168 187 0
160 180 0
166 187 0
163 183 0
165 185 0
160 179 0
159 178 0
162 182 0
158 177 0
158 178 0
161 180 0
163 182 0
159 178 0
150 170 0
155 173 0
158 178 0
156 176 0
159 177 0
163 182 0
156 175 0
159 180 0
152 171 0
163 183 0
157 176 0
158 178 0
148 168 0
158 178 0
152 171 0
152 172 0
152 172 0
151 171 0
151 170 0
150 170 0
151 171 0
151 171 0
148 168 0
153 172 0
154 174 0
142 163 0
158 178 0
152 172 0
146 166 0
146 167 0
153 173 0
142 162 0
151 171 0
147 168 0
147 167 0
151 171 0
144 165 0
151 171 0
149 169 0
152 173 0
139 161 0
140 160 0
141 162 0
147 167 0
146 167 0
152 172 0
146 166 0
149 169 0
145 164 0
142 162 0
139 159 0
132 153 0
138 157 0
130 150 0
134 154 0
129 149 0
131 151 0
132 152 0
141 161 0
125 145 0
128 148 0
135 155 0
131 151 0
126 146 0
136 155 0
117 135 0
136 155 0
133 152 0
127 147 0
117 136 0
112 131 0
124 144 0
109 128 0
98 116 0
118 136 0
119 136 0
107 126 0
112 130 0
114 131 0
110 128 0
103 120 0
100 116 0
106 122 0
95 111 0
105 120 0
109 125 0
97 113 0
100 115 0
90 107 0
102 117 0
95 109 0
81 94 0
86 100 0
93 107 0
79 93 0
93 107 0
70 85 0
71 84 0
82 97 0
94 107 0
78 90 0
88 101 0
80 93 0
81 94 0
73 84 0
79 93 0
77 89 0
71 85 0
83 94 0
89 102 0
89 102 0
82 96 0
83 97 0
85 98 0
88 101 0
85 99 0
79 91 0
93 106 0
88 100 0
97 109 0
104 116 0
89 102 0
88 101 0
111 125 0
95 108 0
86 96 0
103 116 0
100 113 0
116 128 0
106 118 0
98 111 0
98 109 0
98 113 0
108 120 0
108 118 0
107 119 0
104 116 0
119 131 0
118 132 0
102 115 0
114 127 0
115 129 0
124 137 0
113 124 0
117 132 0
104 117 0
117 130 0
115 127 0
122 136 0
116 129 0
116 130 0
121 134 0
123 136 0
121 133 0
117 131 0
131 144 0
114 126 0
111 124 0
113 123 0
115 126 0
113 126 0
129 142 0
120 130 0
116 128 0
127 139 0
125 134 0
118 128 0
134 145 0
123 133 0
124 134 0
124 131 0
112 118 0
117 125 0
102 106 0
124 130 0
113 122 0
127 133 0
127 134 0
131 138 0
124 130 0
112 116 0
128 132 0
122 125 0
99 103 0
113 114 0
116 118 0
110 112 0
112 113 0
109 109 0
114 113 0
108 105 0
110 108 0
117 117 0
112 112 0
104 101 0
105 97 0
93 88 0
104 101 0
101 92 0
88 80 0
90 86 0
84 76 0
90 82 0
75 64 0
85 70 0
91 79 0
89 75 0
89 77 0
98 84 0
97 87 0
96 83 0
103 90 0
104 91 0
93 82 0
105 91 0
107 95 0
104 94 0
105 93 0
109 96 0
116 105 0
112 100 0
111 99 0
112 98 0
124 111 0
121 109 0
113 99 0
121 110 0
121 111 0
132 117 0
127 114 0
120 109 0
125 111 0
124 110 0
123 110 0
129 118 0
130 117 0
127 116 0
132 121 0
129 118 0
129 117 0
133 119 0
123 112 0
136 124 0
128 117 0
131 118 0
129 117 0
131 121 0
132 119 0
135 123 0
135 123 0
138 126 0
134 123 0
134 122 0
137 127 0
134 124 0
135 122 0
129 118 0
132 122 0
132 121 0
128 116 0
134 123 0
137 127 0
134 125 0
134 124 0
136 125 0
140 130 0
135 125 0
136 127 0
135 126 0
136 125 0
141 131 0
132 122 0
141 131 0
136 129 0
137 127 0
136 126 0
132 124 0
134 125 0
133 125 0
135 127 0
135 126 0
134 128 0
133 125 0
136 129 0
134 125 0
129 121 0
127 119 0
133 126 0
122 117 0
134 125 0
135 130 0
124 120 0
120 114 0
118 111 0
129 122 22
120 113 11
126 117 19
124 116 19
122 117 16
118 111 11
118 112 16
116 109 28
131 134 25
174 197 0
174 197 0
173 196 0
171 194 0
174 196 0
175 198 0
174 197 0
174 196 0
172 194 0
171 193 0
172 194 0
175 196 0
173 196 0
174 197 0
175 198 0
174 196 0
172 194 0
174 196 0
172 194 0
176 198 0
173 195 0
175 196 0
175 197 0
173 196 0
175 196 0
177 198 0
177 199 0
174 196 0
175 197 0
174 195 0
171 193 0
171 192 0
174 196 0
169 190 0
173 194 0
172 192 0
168 189 0
171 193 0
171 192 0
170 191 0
169 190 0
167 189 0
169 190 0
174 195 0
169 190 0
173 194 0
172 193 0
169 190 0
171 192 0
174 195 0
171 192 0
174 194 0
164 184 0
170 191 0
173 194 0
171 191 0
171 193 0
172 193 0
168 189 0
172 193 0
165 186 0
172 192 0
167 187 0
169 190 0
164 185 0
170 191 0
174 194 0
172 191 0
167 187 0
171 192 0
169 190 0
166 186 0
169 189 0
171 191 0
167 186 0
164 184 0
168 188 0
171 191 0
164 184 0
164 184 0
168 188 0
162 181 0
157 177 0
168 188 0
159 178 0
167 186 0
169 188 0
156 177 0
160 181 0
157 176 0
161 181 0
161 180 0
160 180 0
164 183 0
163 181 0
159 178 0
158 177 0
151 170 0
152 171 0
161 182 0
154 173 0
157 176 0
159 179 0
156 174 0
158 177 0
158 178 0
152 171 0
152 172 0
152 172 0
151 170 0
159 179 0
158 177 0
150 169 0
149 168 0
150 171 0
156 176 0
159 179 0
152 172 0
156 176 0
149 169 0
155 175 0
162 182 0
152 173 0
151 171 0
151 171 0
150 169 0
156 176 0
142 162 0
148 167 0
151 170 0
145 166 0
143 162 0
154 175 0
148 169 0
149 170 0
143 164 0
142 162 0
152 172 0
152 172 0
150 171 0
143 163 0
143 164 0
142 162 0
128 148 0
147 168 0
146 167 0
143 162 0
134 155 0
139 158 0
130 150 0
140 160 0
127 147 0
145 165 0
138 158 0
140 160 0
135 155 0
137 156 0
137 156 0
136 157 0
130 150 0
127 146 0
128 149 0
130 149 0
121 141 0
123 142 0
122 140 0
113 131 0
116 136 0
125 144 0
119 137 0
117 136 0
108 126 0
111 129 0
120 137 0
110 129 0
114 133 0
104 122 0
112 129 0
112 128 0
101 117 0
97 114 0
98 115 0
112 128 0
100 117 0
92 108 0
99 115 0
107 123 0
95 111 0
96 111 0
91 106 0
86 102 0
87 101 0
80 94 0
80 93 0
84 98 0
91 104 0
89 103 0
97 111 0
90 103 0
84 98 0
82 96 0
79 92 0
75 88 0
90 103 0
84 97 0
101 115 0
91 103 0
89 104 0
85 100 0
93 105 0
80 94 0
79 92 0
92 105 0
84 95 0
99 112 0
82 96 0
93 106 0
93 105 0
96 110 0
114 129 0
104 117 0
83 95 0
104 117 0
98 109 0
99 116 0
101 115 0
85 98 0
111 125 0
90 103 0
105 120 0
100 113 0
113 127 0
118 131 0
118 132 0
113 127 0
111 127 0
113 126 0
113 126 0
104 116 0
118 131 0
113 125 0
108 119 0
104 117 0
116 130 0
116 131 0
119 133 0
119 133 0
127 142 0
118 131 0
120 132 0
125 135 0
116 128 0
131 143 0
118 133 0
127 138 0
126 139 0
116 127 0
119 130 0
114 126 0
123 133 0
111 121 0
130 141 0
130 141 0
114 123 0
128 137 0
118 127 0
121 132 0
120 131 0
124 134 0
128 137 0
125 133 0
115 123 0
120 126 0
124 130 0
128 133 0
115 122 0
124 129 0
126 131 0
108 112 0
122 125 0
106 111 0
122 124 0
110 113 0
117 121 0
111 114 0
113 112 0
110 112 0
125 124 0
111 113 0
111 112 0
105 104 0
106 108 0
112 109 0
100 93 0
93 89 0
97 92 0
107 102 0
103 98 0
89 84 0
89 85 0
80 73 0
86 79 0
75 63 0
77 66 0
84 70 0
90 77 0
83 71 0
89 75 0
99 85 0
103 90 0
96 84 0
100 90 0
103 88 0
98 84 0
105 93 0
105 93 0
108 93 0
106 91 0
103 90 0
112 99 0
115 101 0
120 106 0
116 102 0
112 99 0
123 111 0
111 101 0
122 111 0
126 115 0
116 103 0
129 116 0
122 107 0
130 118 0
122 110 0
127 116 0
125 111 0
129 115 0
129 116 0
122 109 0
125 112 0
128 116 0
122 110 0
134 122 0
128 119 0
130 119 0
132 119 0
123 111 0
132 119 0
128 115 0
133 120 0
126 115 0
133 123 0
129 116 0
129 118 0
128 115 0
139 127 0
132 122 0
134 122 0
139 130 0
131 122 0
138 127 0
128 120 0
135 125 0
128 120 0
136 126 0
131 123 0
134 124 0
134 122 0
132 124 0
126 116 0
136 127 0
130 120 0
137 129 0
135 126 0
135 125 0
129 120 0
124 116 0
126 117 0
127 116 0
123 114 0
129 120 0
126 118 0
131 122 0
123 114 0
122 113 0
125 119 0
124 119 0
129 122 0
126 119 16
126 120 0
126 119 11
119 111 0
120 113 16
119 112 11
128 122 19
129 121 32
111 105 11
119 116 11
146 153 16
165 183 16
172 194 0
173 196 0
173 197 0
175 198 0
173 196 0
173 196 0
171 194 0
175 198 0
171 194 0
174 196 0
173 196 0
171 192 0
174 196 0
170 193 0
176 197 0
172 194 0
174 196 0
174 196 0
171 193 0
172 195 0
173 195 0
172 195 0
176 197 0
175 197 0
171 193 0
170 191 0
173 195 0
174 196 0
170 193 0
176 197 0
174 196 0
174 195 0
174 196 0
170 192 0
171 193 0
171 191 0
175 196 0
172 193 0
174 195 0
170 192 0
169 191 0
174 195 0
173 194 0
170 191 0
172 193 0
175 196 0
173 194 0
171 192 0
171 192 0
174 193 0
170 191 0
172 193 0
172 191 0
175 195 0
169 190 0
171 191 0
170 190 0
164 185 0
171 192 0
169 189 0
171 192 0
168 188 0
165 185 0
169 190 0
165 185 0
164 184 0
174 194 0
169 189 0
169 190 0
168 189 0
162 182 0
168 187 0
167 188 0
171 191 0
173 193 0
167 187 0
170 189 0
164 183 0
164 184 0
163 181 0
170 190 0
165 185 0
163 182 0
162 183 0
161 182 0
158 178 0
164 184 0
166 186 0
156 176 0
154 173 0
160 180 0
155 175 0
159 178 0
160 180 0
151 170 0
166 186 0
159 180 0
161 181 0
152 171 0
159 177 0
156 175 0
161 181 0
159 179 0
149 169 0
162 183 0
153 172 0
160 179 0
155 174 0
152 171 0
156 175 0
160 180 0
150 169 0
156 176 0
152 172 0
149 170 0
156 175 0
145 165 0
144 164 0
157 177 0
151 172 0
145 165 0
157 176 0
146 166 0
147 166 0
152 172 0
157 177 0
145 167 0
147 167 0
147 168 0
139 159 0
146 167 0
149 169 0
154 174 0
154 175 0
139 159 0
153 173 0
139 160 0
146 166 0
144 165 0
140 162 0
145 166 0
143 165 0
150 171 0
150 170 0
138 159 0
144 164 0
138 158 0
142 163 0
147 168 0
141 161 0
131 151 0
142 162 0
136 156 0
143 164 0
136 157 0
136 156 0
135 156 0
144 164 0
134 154 0
141 161 0
140 160 0
129 149 0
125 145 0
127 145 0
124 145 0
131 151 0
115 133 0
120 140 0
118 137 0
119 138 0
113 131 0
119 137 0
118 135 0
117 136 0
118 137 0
113 131 0
115 131 0
113 131 0
113 130 0
103 119 0
102 119 0
112 130 0
96 113 0
98 115 0
100 117 0
104 121 0
99 116 0
97 112 0
94 110 0
88 104 0
104 121 0
86 102 0
89 104 0
87 102 0
101 115 0
98 114 0
105 120 0
92 107 0
89 105 0
97 112 0
87 101 0
95 109 0
94 108 0
82 94 0
94 108 0
67 81 0
110 124 0
104 117 0
92 106 0
99 112 0
80 93 0
106 119 0
97 112 0
98 112 0
109 124 0
95 109 0
101 115 0
86 99 0
102 114 0
97 109 0
93 107 0
106 120 0
100 112 0
107 119 0
121 136 0
120 133 0
105 118 0
108 122 0
105 118 0
111 125 0
108 122 0
107 121 0
112 126 0
116 128 0
123 136 0
116 131 0
111 122 0
117 132 0
105 119 0
109 123 0
113 127 0
104 117 0
121 134 0
114 126 0
117 130 0
120 131 0
120 132 0
130 144 0
120 131 0
123 136 0
116 128 0
123 135 0
131 146 0
123 136 0
120 133 0
128 139 0
129 142 0
125 140 0
124 134 0
131 141 0
129 140 0
123 136 0
127 139 0
118 130 0
122 134 0
123 131 0
122 132 0
133 145 0
126 136 0
121 131 0
127 135 0
125 135 0
123 133 0
120 126 0
121 130 0
127 134 0
115 121 0
103 107 0
120 125 0
120 126 0
118 122 0
119 124 0
118 122 0
120 126 0
117 122 0
131 133 0
117 120 0
118 120 0
120 119 0
117 118 0
104 104 0
118 115 0
107 105 0
109 106 0
113 111 0
115 112 0
109 104 0
108 103 0
109 105 0
96 89 0
100 94 0
94 83 0
95 87 0
87 79 0
87 81 0
76 67 0
74 62 0
72 59 0
83 71 0
87 73 0
81 70 0
93 78 0
89 74 0
107 94 0
105 92 0
99 83 0
103 90 0
99 87 0
97 85 0
104 93 0
109 96 0
108 91 0
109 97 0
109 97 0
113 101 0
114 101 0
110 96 0
120 107 0
118 105 0
123 111 0
121 106 0
119 107 0
123 108 0
118 106 0
120 106 0
120 109 0
122 110 0
122 109 0
125 114 0
128 117 0
121 107 0
121 107 0
130 116 0
125 113 0
133 124 0
126 113 0
128 116 0
125 114 0
133 120 0
130 120 0
126 115 0
127 114 0
134 124 0
131 120 0
124 112 0
134 122 0
129 119 0
130 120 0
132 121 0
133 121 0
129 119 0
131 120 0
127 117 0
127 117 0
127 117 0
129 120 0
136 126 0
132 123 0
123 115 0
130 120 0
130 120 0
124 115 0
132 122 0
126 117 0
135 126 0
127 119 0
130 119 0
130 123 0
134 126 0
130 122 0
119 110 0
127 121 0
123 113 0
128 121 0
113 105 0
120 112 0
125 117 11
120 112 11
115 106 0
124 116 16
124 116 22
119 113 16
131 124 19
116 108 16
115 111 16
137 144 16
158 172 19
171 188 0
167 184 0
173 192 0
171 191 0
174 197 0
175 197 0
172 196 0
174 197 0
174 197 0
171 194 0
174 197 0
170 193 0
172 195 0
173 195 0
176 197 0
177 198 0
172 194 0
175 197 0
175 197 0
172 195 0
175 197 0
175 197 0
176 197 0
173 195 0
172 193 0
173 195 0
177 198 0
172 194 0
168 189 0
173 194 0
173 195 0
176 197 0
177 197 0
172 194 0
173 195 0
172 193 0
169 190 0
173 194 0
175 196 0
174 195 0
174 195 0
171 193 0
171 192 0
173 194 0
170 191 0
172 193 0
175 196 0
168 190 0
172 193 0
168 189 0
170 191 0
172 192 0
170 191 0
172 193 0
172 192 0
167 188 0
165 186 0
171 191 0
171 191 0
174 194 0
170 190 0
169 189 0
173 194 0
174 194 0
172 192 0
168 189 0
167 187 0
165 186 0
170 191 0
173 193 0
172 192 0
169 189 0
170 190 0
168 188 0
162 182 0
168 187 0
169 188 0
164 186 0
161 181 0
164 183 0
162 181 0
166 185 0
167 187 0
164 183 0
159 179 0
163 184 0
166 187 0
163 181 0
163 182 0
163 182 0
167 185 0
164 184 0
156 175 0
158 177 0
154 173 0
164 182 0
158 177 0
159 178 0
160 180 0
155 174 0
156 174 0
159 178 0
160 180 0
159 178 0
158 176 0
158 178 0
152 171 0
154 174 0
154 173 0
158 177 0
153 172 0
161 181 0
151 171 0
158 176 0
151 171 0
156 176 0
157 176 0
154 175 0
154 174 0
158 178 0
151 170 0
149 170 0
151 171 0
157 176 0
152 172 0
145 165 0
149 170 0
151 171 0
153 173 0
157 178 0
145 165 0
147 168 0
146 165 0
148 170 0
141 162 0
156 177 0
141 161 0
141 161 0
150 170 0
148 169 0
149 169 0
140 161 0
148 169 0
144 164 0
146 168 0
149 170 0
139 160 0
141 162 0
143 164 0
151 172 0
130 150 0
139 159 0
143 164 0
146 166 0
137 158 0
137 157 0
130 149 0
138 158 0
138 158 0
126 146 0
135 155 0
133 154 0
131 150 0
142 162 0
134 154 0
129 149 0
135 155 0
129 148 0
119 139 0
132 152 0
132 151 0
127 146 0
117 137 0
122 141 0
124 143 0
118 136 0
119 138 0
124 142 0
112 130 0
124 142 0
116 135 0
110 127 0
113 131 0
112 129 0
111 128 0
117 135 0
109 128 0
111 127 0
115 130 0
113 129 0
89 106 0
96 113 0
107 122 0
104 121 0
108 125 0
103 118 0
88 102 0
100 116 0
103 118 0
97 113 0
102 118 0
107 121 0
100 115 0
103 116 0
88 103 0
98 113 0
102 118 0
94 110 0
88 100 0
102 115 0
92 106 0
99 114 0
93 107 0
82 97 0
97 111 0
89 102 0
107 122 0
98 112 0
114 130 0
92 106 0
112 127 0
94 108 0
104 117 0
100 113 0
104 118 0
97 111 0
111 127 0
110 123 0
109 121 0
100 115 0
100 116 0
100 115 0
111 127 0
121 135 0
105 117 0
107 119 0
122 138 0
118 132 0
119 134 0
120 130 0
107 122 0
109 123 0
116 130 0
123 137 0
112 124 0
115 130 0
126 139 0
123 136 0
122 135 0
117 127 0
123 137 0
115 128 0
120 133 0
122 136 0
121 138 0
111 125 0
117 132 0
124 138 0
124 138 0
135 147 0
122 134 0
124 135 0
120 130 0
131 146 0
126 137 0
127 139 0
133 150 0
116 126 0
130 143 0
120 131 0
121 131 0
115 125 0
124 132 0
131 139 0
135 147 0
116 125 0
134 144 0
123 132 0
124 132 0
125 132 0
127 133 0
118 124 0
124 129 0
121 127 0
118 123 0
118 123 0
114 117 0
123 128 0
113 117 0
117 119 0
115 117 0
109 108 0
121 125 0
117 115 0
117 115 0
107 102 0
113 112 0
106 102 0
111 109 0
109 104 0
102 99 0
94 89 0
112 105 0
99 91 0
92 85 0
98 91 0
92 83 0
102 94 0
90 85 0
90 82 0
79 70 0
70 60 0
75 61 0
87 73 0
74 61 0
81 67 0
83 69 0
82 68 0
99 87 0
93 80 0
99 83 0
103 88 0
102 89 0
102 87 0
107 94 0
100 87 0
102 88 0
107 91 0
105 94 0
112 98 0
114 101 0
115 102 0
113 99 0
114 104 0
110 97 0
118 104 0
119 107 0
119 107 0
123 109 0
118 105 0
114 101 0
118 107 0
128 115 0
125 112 0
118 102 0
118 106 0
118 105 0
122 108 0
118 106 0
128 117 0
125 112 0
133 121 0
125 113 0
126 115 0
130 117 0
124 113 0
119 108 0
126 112 0
129 118 0
123 113 0
127 116 0
129 119 0
135 124 0
126 117 0
129 119 0
123 114 0
125 113 0
125 117 0
130 121 0
132 123 0
127 117 0
134 124 0
127 116 0
130 121 0
128 118 0
124 115 0
129 120 0
127 117 0
121 111 0
128 119 0
121 115 0
118 109 0
122 112 0
125 117 0
125 115 0
133 124 0
118 109 11
134 126 11
121 113 19
116 109 11
122 113 0
122 115 11
130 120 28
116 108 19
129 132 22
139 147 16
151 164 11
168 186 0
170 191 0
170 190 0
170 188 0
169 189 0
172 193 0
170 189 0
174 197 0
172 194 0
173 195 0
175 198 0
173 196 0
174 197 0
173 197 0
174 197 0
174 197 0
174 197 0
175 198 0
174 196 0
175 197 0
174 197 0
174 196 0
177 198 0
174 195 0
177 199 0
175 197 0
175 197 0
175 195 0
172 194 0
172 194 0
176 197 0
173 195 0
174 196 0
174 195 0
170 192 0
174 195 0
173 195 0
172 194 0
172 193 0
174 195 0
172 193 0
172 194 0
179 199 0
174 194 0
175 196 0
178 198 0
173 194 0
174 195 0
171 193 0
172 193 0
170 192 0
174 194 0
169 190 0
176 196 0
176 196 0
172 194 0
168 189 0
170 190 0
170 190 0
171 191 0
171 191 0
171 191 0
170 190 0
173 194 0
168 189 0
172 193 0
170 191 0
172 191 0
168 188 0
171 191 0
174 194 0
168 188 0
168 188 0
170 191 0
172 192 0
168 187 0
174 193 0
165 186 0
165 185 0
160 180 0
167 186 0
164 184 0
166 186 0
165 185 0
165 185 0
163 182 0
164 185 0
165 184 0
166 185 0
162 180 0
166 186 0
164 185 0
164 182 0
156 175 0
159 179 0
154 173 0
153 173 0
161 181 0
158 178 0
167 186 0
163 182 0
159 178 0
158 178 0
151 171 0
164 183 0
154 173 0
155 176 0
157 175 0
154 173 0
167 186 0
157 177 0
159 178 0
164 183 0
153 172 0
150 169 0
159 177 0
153 174 0
154 174 0
158 177 0
157 178 0
157 177 0
153 173 0
151 170 0
155 175 0
157 176 0
150 170 0
149 169 0
149 169 0
152 173 0
150 171 0
150 170 0
149 170 0
138 159 0
145 166 0
151 172 0
155 176 0
149 169 0
150 171 0
145 166 0
157 179 0
141 163 0
146 166 0
144 164 0
150 171 0
136 156 0
143 164 0
147 169 0
156 177 0
143 163 0
148 169 0
145 165 0
139 160 0
146 166 0
134 154 0
146 167 0
140 160 0
148 169 0
146 167 0
145 165 0
131 151 0
133 154 0
140 160 0
142 163 0
132 152 0
129 149 0
137 158 0
123 143 0
127 146 0
130 149 0
131 151 0
120 141 0
125 146 0
122 142 0
123 142 0
130 150 0
127 147 0
122 142 0
126 143 0
115 133 0
123 142 0
115 133 0
122 141 0
113 133 0
109 127 0
112 132 0
125 143 0
117 135 0
118 137 0
114 132 0
119 136 0
112 130 0
112 128 0
98 114 0
113 129 0
111 128 0
101 118 0
109 127 0
88 104 0
114 131 0
96 112 0
102 118 0
87 103 0
101 115 0
103 119 0
107 123 0
96 111 0
102 118 0
97 113 0
104 118 0
80 96 0
105 119 0
95 109 0
94 111 0
106 121 0
97 112 0
118 133 0
103 118 0
100 114 0
98 114 0
112 128 0
115 131 0
102 116 0
107 121 0
104 118 0
106 118 0
110 125 0
104 119 0
104 119 0
107 121 0
107 118 0
109 122 0
110 124 0
113 130 0
107 121 0
103 118 0
105 121 0
117 132 0
114 130 0
119 133 0
98 112 0
126 140 0
118 132 0
113 128 0
112 125 0
121 136 0
123 137 0
126 141 0
123 138 0
124 137 0
124 139 0
124 138 0
117 131 0
125 140 0
123 136 0
120 134 0
118 130 0
119 131 0
128 145 0
129 140 0
132 144 0
124 137 0
127 139 0
115 130 0
134 149 0
130 144 0
123 135 0
135 145 0
123 135 0
118 130 0
128 139 0
131 142 0
123 135 0
127 137 0
121 135 0
127 135 0
114 125 0
131 142 0
121 128 0
131 139 0
130 136 0
124 134 0
120 127 0
131 141 0
126 132 0
133 141 0
129 135 0
133 142 0
129 135 0
125 132 0
119 124 0
129 131 0
111 116 0
123 127 0
118 123 0
120 123 0
121 125 0
118 121 0
114 116 0
125 127 0
117 116 0
115 114 0
126 125 0
123 125 0
121 119 0
114 108 0
114 114 0
111 110 0
105 102 0
109 108 0
96 91 0
107 97 0
108 102 0
95 90 0
97 86 0
84 75 0
91 83 0
86 77 0
76 64 0
91 77 0
78 66 0
69 53 0
79 65 0
92 79 0
94 79 0
99 84 0
102 86 0
99 82 0
84 74 0
98 83 0
108 96 0
104 88 0
113 99 0
106 94 0
103 89 0
113 99 0
112 99 0
120 107 0
116 102 0
110 96 0
113 98 0
112 99 0
113 102 0
124 113 0
113 98 0
114 103 0
115 101 0
115 102 0
129 117 0
122 107 0
127 111 0
127 114 0
126 114 0
115 100 0
120 109 0
131 120 0
121 110 0
122 108 0
121 110 0
123 112 0
124 111 0
126 114 0
128 116 0
131 120 0
126 114 0
130 121 0
126 114 0
119 108 0
126 115 0
121 110 0
125 113 0
126 115 0
128 117 0
120 110 0
123 115 0
129 119 0
127 118 0
124 113 0
123 115 0
121 112 0
127 118 0
128 117 0
122 114 0
123 115 0
119 112 0
120 111 0
120 111 0
119 109 0
115 106 0
119 110 11
119 110 0
119 111 11
107 99 0
113 105 16
109 107 11
131 135 16
151 163 19
162 176 0
170 186 0
168 185 0
172 191 0
168 186 0
169 185 0
168 186 0
170 186 0
171 190 0
170 188 0
173 193 0
174 197 0
173 196 0
174 198 0
172 195 0
175 197 0
173 196 0
173 196 0
172 195 0
173 197 0
173 196 0
175 198 0
174 197 0
170 193 0
171 195 0
174 197 0
173 195 0
175 197 0
172 193 0
174 196 0
173 194 0
173 194 0
175 196 0
175 197 0
174 195 0
175 196 0
175 196 0
176 197 0
176 197 0
174 196 0
173 195 0
176 197 0
173 194 0
174 195 0
173 194 0
171 191 0
172 192 0
174 194 0
173 193 0
176 196 0
172 193 0
173 194 0
172 192 0
176 196 0
173 192 0
174 195 0
173 194 0
174 195 0
174 194 0
172 191 0
174 194 0
174 194 0
171 191 0
169 189 0
174 194 0
171 191 0
168 189 0
169 190 0
169 189 0
169 189 0
174 194 0
173 192 0
168 188 0
168 189 0
171 191 0
169 189 0
169 189 0
166 186 0
168 188 0
164 184 0
164 183 0
167 187 0
165 185 0
170 190 0
160 180 0
165 184 0
167 187 0
165 185 0
163 183 0
159 179 0
162 181 0
164 183 0
162 183 0
164 183 0
160 179 0
158 177 0
158 178 0
159 179 0
161 180 0
163 183 0
163 182 0
155 175 0
163 184 0
166 186 0
160 180 0
164 183 0
158 178 0
162 182 0
156 176 0
159 177 0
154 172 0
154 172 0
156 176 0
159 178 0
166 186 0
157 176 0
153 172 0
158 178 0
157 177 0
153 172 0
142 161 0
158 177 0
150 170 0
155 174 0
154 173 0
152 171 0
151 170 0
150 170 0
155 175 0
159 179 0
141 161 0
156 176 0
149 169 0
152 173 0
159 179 0
163 184 0
142 163 0
147 168 0
151 172 0
154 174 0
151 171 0
152 172 0
151 172 0
139 159 0
156 176 0
150 171 0
152 173 0
143 164 0
149 171 0
147 166 0
146 168 0
145 166 0
143 164 0
144 165 0
144 164 0
151 172 0
145 165 0
139 159 0
144 165 0
141 161 0
144 165 0
136 156 0
142 163 0
132 152 0
153 173 0
129 149 0
137 157 0
145 166 0
127 147 0
135 156 0
137 157 0
118 138 0
127 148 0
126 146 0
142 162 0
120 139 0
134 154 0
129 148 0
119 138 0
125 144 0
139 158 0
116 134 0
119 138 0
126 145 0
109 128 0
113 133 0
123 141 0
126 144 0
118 138 0
113 130 0
107 124 0
112 130 0
111 129 0
117 134 0
118 135 0
123 142 0
103 120 0
125 143 0
103 120 0
113 131 0
121 139 0
115 133 0
110 127 0
108 124 0
109 124 0
93 110 0
98 115 0
109 126 0
100 115 0
96 111 0
105 122 0
99 114 0
96 112 0
105 121 0
87 102 0
97 114 0
102 118 0
104 119 0
102 116 0
109 125 0
109 125 0
92 105 0
113 127 0
118 133 0
97 113 0
111 127 0
101 115 0
101 116 0
109 125 0
114 129 0
107 122 0
114 130 0
119 134 0
102 115 0
107 123 0
118 134 0
115 131 0
106 120 0
113 129 0
109 123 0
109 124 0
119 135 0
124 138 0
116 130 0
118 133 0
124 137 0
116 132 0
120 134 0
111 124 0
123 138 0
118 133 0
114 128 0
125 139 0
128 144 0
117 133 0
125 138 0
117 131 0
132 146 0
129 143 0
131 146 0
130 143 0
127 140 0
125 137 0
119 131 0
133 149 0
133 147 0
120 133 0
122 135 0
128 141 0
125 137 0
119 132 0
136 148 0
127 140 0
117 131 0
127 140 0
112 122 0
124 136 0
130 142 0
128 137 0
131 139 0
126 139 0
131 143 0
129 135 0
128 139 0
124 133 0
116 121 0
126 134 0
126 136 0
132 139 0
122 130 0
124 135 0
125 131 0
123 128 0
123 130 0
131 135 0
119 125 0
123 127 0
112 117 0
119 121 0
122 126 0
131 133 0
121 124 0
125 130 0
116 117 0
118 117 0
114 113 0
116 117 0
117 118 0
120 121 0
107 104 0
108 104 0
108 105 0
103 95 0
108 103 0
99 91 0
106 99 0
101 94 0
98 91 0
108 102 0
105 100 0
104 96 0
101 93 0
100 92 0
80 67 0
83 71 0
86 75 0
78 67 0
77 63 0
84 70 0
85 72 0
81 71 0
94 82 0
90 74 0
98 82 0
98 83 0
102 88 0
100 84 0
109 94 0
102 88 0
110 97 0
104 90 0
109 98 0
103 90 0
110 96 0
99 85 0
106 91 0
102 89 0
112 99 0
114 98 0
119 105 0
113 98 0
121 107 0
120 107 0
118 105 0
128 113 0
115 102 0
124 110 0
117 104 0
105 97 0
119 107 0
127 119 0
120 107 0
124 109 0
122 111 0
126 114 0
121 109 0
117 106 0
118 107 0
126 114 0
112 104 0
118 106 0
123 113 0
115 105 0
121 110 0
121 110 0
121 112 0
122 110 0
121 110 0
119 110 0
122 113 0
119 110 0
121 111 0
116 105 0
129 120 0
111 102 0
113 105 0
109 100 0
111 102 0
110 102 0
126 117 0
116 107 11
113 105 0
107 100 11
117 116 16
133 136 0
147 154 11
161 174 0
168 185 0
167 182 0
166 182 0
165 181 0
168 185 0
162 178 0
165 181 0
167 185 0
170 188 0
168 186 0
169 188 0
168 186 0
166 186 0
170 189 0
172 196 0
173 197 0
171 194 0
176 198 0
173 196 0
172 194 0
175 197 0
173 196 0
170 193 0
175 198 0
174 197 0
175 197 0
176 198 0
173 197 0
174 196 0
175 197 0
176 198 0
174 196 0
177 198 0
173 195 0
171 193 0
174 196 0
177 198 0
176 197 0
172 193 0
174 194 0
174 195 0
175 196 0
174 195 0
174 195 0
169 191 0
170 191 0
172 193 0
177 197 0
171 191 0
173 193 0
173 194 0
169 190 0
176 196 0
174 194 0
171 191 0
173 193 0
174 195 0
171 191 0
171 192 0
173 194 0
174 195 0
170 190 0
171 192 0
176 195 0
174 194 0
170 189 0
169 189 0
173 192 0
171 192 0
166 187 0
177 197 0
173 192 0
173 193 0
172 192 0
174 194 0
174 194 0
168 188 0
173 192 0
170 190 0
171 191 0
165 184 0
165 186 0
167 187 0
170 189 0
167 187 0
167 187 0
170 189 0
171 190 0
167 186 0
163 182 0
168 187 0
164 183 0
166 185 0
161 182 0
160 179 0
163 183 0
159 179 0
160 180 0
161 182 0
163 184 0
165 185 0
163 182 0
163 182 0
157 176 0
165 184 0
163 182 0
153 172 0
164 184 0
160 179 0
160 180 0
163 183 0
160 180 0
159 178 0
160 179 0
161 181 0
160 180 0
159 178 0
159 179 0
154 174 0
163 182 0
156 175 0
153 171 0
155 174 0
154 174 0
153 173 0
153 172 0
153 173 0
162 181 0
159 180 0
147 168 0
155 175 0
149 169 0
156 176 0
145 164 0
152 172 0
149 170 0
149 170 0
156 177 0
153 173 0
151 171 0
146 168 0
147 169 0
149 171 0
151 172 0
147 167 0
133 154 0
152 173 0
160 181 0
139 159 0
147 167 0
146 167 0
144 166 0
154 176 0
155 176 0
147 168 0
140 160 0
145 166 0
150 171 0
152 172 0
141 161 0
146 167 0
136 157 0
143 164 0
136 157 0
133 155 0
140 162 0
131 152 0
130 151 0
127 148 0
136 156 0
134 154 0
138 158 0
140 160 0
142 163 0
134 154 0
133 153 0
125 144 0
122 143 0
126 146 0
136 156 0
126 146 0
129 148 0
124 144 0
133 153 0
124 144 0
135 154 0
121 140 0
128 146 0
120 140 0
115 133 0
120 140 0
120 139 0
114 133 0
123 141 0
121 139 0
129 148 0
119 137 0
115 134 0
124 143 0
99 118 0
107 125 0
110 127 0
120 137 0
113 131 0
105 121 0
113 131 0
105 121 0
101 117 0
123 140 0
117 134 0
98 114 0
115 132 0
110 126 0
104 120 0
106 123 0
105 121 0
109 124 0
109 125 0
100 116 0
109 125 0
106 122 0
101 115 0
106 123 0
103 119 0
117 133 0
113 129 0
120 134 0
119 135 0
111 127 0
107 123 0
114 130 0
100 114 0
115 129 0
99 115 0
114 126 0
107 122 0
106 123 0
100 116 0
112 128 0
109 125 0
117 130 0
108 125 0
110 125 0
125 139 0
119 133 0
108 125 0
113 128 0
121 138 0
123 139 0
118 135 0
120 136 0
131 147 0
121 135 0
107 124 0
116 132 0
120 136 0
131 145 0
121 136 0
112 128 0
123 138 0
127 142 0
120 133 0
126 141 0
125 141 0
132 146 0
128 143 0
119 130 0
129 143 0
126 140 0
122 137 0
137 152 0
128 142 0
129 139 0
124 137 0
124 137 0
138 151 0
133 144 0
129 139 0
129 143 0
124 136 0
128 140 0
131 142 0
125 136 0
131 141 0
127 139 0
134 144 0
126 134 0
128 140 0
130 139 0
133 145 0
139 147 0
123 133 0
137 147 0
133 140 0
120 126 0
122 128 0
121 128 0
133 141 0
130 137 0
120 126 0
128 135 0
125 128 0
119 119 0
122 128 0
108 109 0
111 115 0
124 128 0
128 127 0
117 118 0
115 116 0
118 119 0
118 120 0
120 120 0
119 121 0
112 109 0
120 117 0
114 112 0
109 104 0
110 106 0
108 105 0
105 98 0
104 100 0
108 104 0
101 95 0
103 98 0
102 95 0
90 83 0
97 89 0
89 77 0
100 90 0
92 83 0
89 81 0
91 81 0
95 85 0
101 90 0
81 67 0
83 71 0
81 65 0
93 76 0
95 80 0
95 82 0
100 85 0
93 79 0
94 78 0
97 83 0
102 87 0
113 100 0
109 96 0
108 93 0
105 92 0
109 95 0
101 88 0
118 100 0
106 93 0
109 95 0
118 105 0
107 94 0
117 104 0
111 98 0
113 103 0
122 109 0
120 106 0
116 104 0
116 103 0
118 106 0
120 107 0
111 98 0
120 109 0
123 109 0
112 100 0
115 102 0
125 115 0
109 99 0
118 106 0
114 106 0
124 114 0
119 108 0
114 103 0
116 104 0
113 104 0
115 105 0
117 108 0
126 117 0
117 106 0
112 102 0
111 102 0
124 114 0
114 105 0
114 103 0
117 109 0
115 105 11
105 100 0
131 132 0
135 138 11
150 159 0
158 168 0
165 180 0
168 182 0
165 181 0
161 174 0
164 177 0
166 182 0
169 184 0
167 183 0
166 183 0
169 186 0
167 185 0
168 186 0
167 185 0
170 186 0
169 186 0
169 185 0
169 187 0
171 190 0
172 196 0
174 197 0
174 197 0
174 197 0
172 194 0
175 198 0
176 198 0
171 194 0
171 194 0
174 196 0
171 194 0
175 198 0
172 195 0
174 196 0
174 197 0
174 197 0
175 197 0
176 198 0
170 193 0
174 196 0
174 196 0
173 196 0
175 197 0
176 198 0
174 195 0
174 196 0
173 195 0
174 195 0
175 197 0
174 194 0
173 193 0
174 195 0
175 195 0
174 195 0
170 191 0
172 193 0
174 195 0
169 189 0
174 194 0
173 194 0
171 192 0
170 190 0
171 192 0
172 191 0
173 192 0
172 193 0
174 195 0
173 193 0
172 191 0
171 191 0
171 192 0
173 193 0
175 195 0
176 195 0
174 194 0
169 189 0
173 192 0
172 191 0
175 195 0
168 188 0
167 186 0
166 187 0
165 184 0
169 188 0
168 188 0
170 189 0
168 187 0
162 180 0
167 187 0
164 183 0
165 184 0
165 184 0
168 187 0
157 177 0
165 184 0
166 186 0
163 182 0
166 187 0
164 182 0
160 180 0
166 185 0
164 182 0
163 183 0
164 183 0
165 185 0
158 178 0
155 175 0
164 183 0
166 185 0
163 181 0
162 181 0
166 186 0
163 182 0
162 181 0
159 179 0
166 186 0
160 179 0
161 181 0
162 181 0
155 174 0
157 176 0
159 178 0
151 170 0
154 173 0
161 180 0
160 179 0
156 176 0
158 177 0
153 172 0
149 169 0
153 172 0
158 178 0
158 177 0
156 176 0
155 175 0
158 178 0
152 173 0
153 173 0
146 166 0
154 175 0
141 160 0
149 169 0
150 171 0
152 173 0
143 165 0
155 175 0
154 175 0
147 168 0
146 166 0
148 169 0
148 169 0
148 169 0
138 159 0
151 172 0
151 171 0
150 171 0
148 169 0
146 166 0
134 154 0
142 163 0
139 160 0
156 177 0
133 154 0
137 159 0
149 172 0
134 154 0
151 172 0
144 164 0
141 162 0
150 171 0
132 153 0
144 165 0
136 158 0
137 157 0
139 161 0
137 158 0
137 156 0
129 149 0
130 150 0
137 157 0
136 156 0
135 155 0
127 147 0
143 163 0
126 146 0
135 155 0
141 160 0
125 145 0
126 146 0
128 148 0
129 148 0
120 140 0
120 141 0
124 143 0
122 141 0
134 154 0
126 144 0
121 139 0
131 149 0
123 142 0
120 138 0
111 129 0
118 137 0
104 122 0
112 130 0
124 142 0
123 141 0
113 130 0
110 129 0
111 129 0
108 127 0
106 124 0
113 130 0
111 128 0
100 117 0
112 130 0
117 136 0
98 114 0
117 133 0
112 128 0
117 134 0
108 125 0
108 126 0
114 132 0
114 130 0
101 116 0
99 115 0
122 139 0
119 136 0
114 131 0
114 129 0
103 118 0
111 127 0
108 125 0
117 131 0
116 130 0
114 129 0
115 133 0
110 126 0
110 125 0
106 123 0
111 128 0
120 139 0
111 126 0
100 114 0
110 124 0
100 116 0
115 130 0
122 138 0
114 130 0
116 132 0
136 154 0
121 138 0
112 127 0
120 135 0
122 136 0
126 141 0
122 136 0
127 141 0
130 148 0
119 134 0
118 134 0
133 149 0
124 138 0
121 134 0
125 141 0
133 148 0
126 141 0
133 152 0
127 139 0
116 130 0
126 138 0
131 142 0
137 152 0
124 138 0
124 138 0
129 142 0
124 139 0
137 152 0
128 143 0
130 143 0
132 146 0
132 145 0
132 145 0
129 141 0
130 145 0
124 137 0
129 142 0
137 148 0
129 137 0
129 139 0
135 145 0
132 141 0
131 142 0
129 138 0
128 138 0
127 138 0
128 136 0
134 144 0
132 140 0
133 140 0
130 139 0
123 130 0
127 134 0
128 135 0
129 137 0
129 133 0
119 124 0
132 138 0
119 122 0
129 136 0
122 124 0
131 135 0
117 117 0
113 113 0
129 133 0
115 113 0
121 122 0
122 123 0
123 122 0
112 112 0
111 111 0
123 123 0
123 121 0
116 113 0
113 112 0
112 106 0
113 108 0
117 113 0
105 100 0
101 94 0
110 105 0
111 106 0
94 88 0
105 96 0
108 100 0
103 97 0
95 83 0
92 80 0
92 81 0
93 86 0
100 87 0
91 79 0
107 99 0
84 75 0
98 86 0
91 79 0
89 77 0
82 70 0
76 64 0
95 83 0
102 88 0
98 84 0
93 81 0
97 83 0
99 87 0
109 94 0
104 89 0
108 94 0
104 91 0
112 98 0
103 89 0
106 96 0
95 81 0
108 93 0
109 97 0
112 99 0
115 102 0
111 98 0
108 97 0
110 97 0
109 96 0
102 91 0
113 102 0
105 95 0
116 103 0
115 105 0
107 98 0
112 99 0
118 107 0
116 104 0
117 108 0
108 98 0
110 99 0
113 103 0
105 95 0
106 95 0
112 102 0
108 98 0
110 101 0
116 107 0
113 108 0
125 123 0
132 133 11
133 136 11
144 150 0
157 167 0
164 178 0
164 177 0
163 173 0
163 175 0
167 181 0
167 180 0
163 174 0
166 179 0
164 177 0
166 181 0
165 179 0
167 182 0
164 180 0
167 181 0
168 182 0
167 184 0
171 187 0
167 180 0
168 187 0
164 179 0
170 189 0
169 187 0
166 181 0
172 195 0
174 197 0
174 197 0
175 198 0
175 198 0
172 195 0
172 195 0
175 197 0
174 196 0
172 195 0
175 197 0
172 195 0
174 196 0
177 198 0
172 195 0
172 195 0
177 198 0
175 196 0
174 196 0
173 195 0
173 195 0
173 195 0
174 196 0
175 197 0
173 195 0
174 196 0
173 195 0
173 194 0
172 194 0
174 195 0
174 196 0
176 197 0
174 195 0
173 194 0
175 195 0
178 199 0
173 194 0
175 194 0
174 195 0
177 196 0
176 196 0
173 193 0
175 195 0
175 194 0
173 192 0
174 195 0
173 193 0
170 190 0
168 188 0
171 191 0
168 188 0
167 186 0
170 189 0
166 186 0
171 190 0
170 191 0
172 191 0
168 187 0
165 184 0
163 182 0
167 187 0
171 191 0
172 191 0
165 185 0
166 186 0
169 188 0
169 188 0
166 186 0
165 184 0
165 185 0
165 185 0
164 182 0
162 182 0
162 182 0
164 185 0
169 188 0
163 183 0
163 183 0
164 183 0
167 186 0
159 179 0
165 185 0
167 186 0
165 183 0
161 180 0
160 180 0
164 184 0
164 183 0
165 185 0
156 176 0
161 181 0
157 177 0
160 179 0
159 179 0
159 179 0
163 183 0
161 182 0
153 172 0
157 176 0
155 175 0
165 184 0
162 182 0
158 177 0
155 175 0
156 176 0
160 180 0
162 181 0
156 175 0
155 175 0
150 171 0
149 169 0
151 171 0
154 175 0
161 181 0
152 172 0
160 180 0
154 175 0
158 179 0
153 173 0
147 168 0
154 174 0
151 171 0
157 180 0
143 164 0
141 162 0
136 156 0
149 169 0
139 159 0
145 165 0
141 163 0
150 171 0
150 172 0
146 167 0
154 175 0
148 170 0
144 165 0
152 173 0
130 150 0
149 169 0
140 160 0
147 167 0
152 172 0
140 161 0
142 163 0
145 166 0
144 164 0
153 174 0
152 173 0
145 166 0
134 154 0
129 149 0
145 166 0
138 158 0
143 164 0
149 170 0
127 148 0
131 152 0
133 154 0
130 150 0
136 155 0
133 154 0
137 155 0
140 161 0
132 153 0
137 157 0
138 159 0
123 142 0
125 144 0
128 148 0
124 144 0
124 143 0
135 155 0
123 142 0
129 148 0
119 139 0
132 151 0
130 149 0
120 140 0
124 144 0
123 142 0
120 139 0
120 140 0
122 142 0
114 133 0
116 135 0
118 137 0
119 136 0
117 135 0
114 131 0
116 135 0
120 137 0
116 134 0
115 132 0
106 124 0
118 137 0
112 130 0
117 134 0
110 126 0
116 134 0
117 135 0
113 131 0
112 128 0
107 123 0
112 129 0
113 131 0
100 116 0
110 128 0
112 128 0
123 140 0
113 130 0
116 131 0
122 139 0
109 125 0
108 123 0
118 136 0
117 134 0
100 117 0
117 132 0
108 126 0
117 133 0
104 119 0
116 131 0
118 135 0
115 132 0
121 136 0
119 135 0
111 126 0
126 141 0
116 133 0
118 134 0
117 129 0
116 131 0
115 131 0
115 132 0
122 137 0
121 135 0
125 141 0
110 124 0
135 151 0
127 140 0
119 133 0
124 140 0
138 155 0
132 149 0
132 147 0
127 143 0
136 152 0
124 139 0
117 130 0
122 136 0
123 139 0
126 138 0
126 140 0
131 145 0
136 153 0
124 137 0
123 137 0
133 147 0
128 142 0
127 139 0
132 147 0
138 153 0
129 143 0
132 144 0
135 147 0
126 142 0
137 150 0
133 145 0
123 135 0
131 145 0
125 137 0
133 145 0
133 143 0
139 152 0
131 143 0
131 140 0
134 142 0
129 138 0
120 126 0
130 143 0
119 127 0
128 139 0
125 132 0
132 139 0
128 136 0
123 131 0
126 130 0
124 130 0
124 132 0
125 130 0
135 143 0
126 129 0
132 137 0
127 131 0
116 118 0
121 126 0
128 131 0
124 125 0
110 111 0
120 121 0
114 114 0
128 129 0
128 129 0
122 122 0
117 116 0
117 117 0
122 119 0
122 119 0
118 114 0
121 115 0
109 103 0
112 108 0
110 103 0
110 101 0
104 93 0
117 113 0
111 106 0
102 96 0
102 95 0
96 87 0
104 96 0
111 104 0
103 96 0
106 97 0
110 105 0
106 99 0
107 98 0
104 96 0
107 98 0
100 89 0
106 96 0
96 82 0
101 91 0
100 88 0
101 91 0
96 84 0
109 96 0
95 83 0
99 84 0
98 84 0
95 85 0
100 85 0
103 91 0
106 93 0
102 90 0
100 87 0
107 94 0
104 90 0
111 100 0
98 84 0
118 105 0
108 96 0
111 99 0
105 92 0
114 101 0
92 79 0
104 93 0
113 101 0
107 97 0
102 92 0
111 99 0
102 93 0
109 100 0
123 113 0
126 123 0
132 128 0
136 135 0
142 146 0
140 140 0
148 154 0
157 162 0
159 168 0
166 177 0
160 169 0
159 168 0
166 176 0
163 173 0
159 167 0
163 173 0
163 174 0
164 175 0
160 172 0
165 180 0
164 177 0
166 180 0
167 179 0
167 182 0
166 179 0
166 180 0
162 176 0
167 185 0
165 180 0
167 182 0
167 183 0
166 183 0
170 186 0
165 182 0
167 183 0
169 188 0
170 186 0
174 196 0
175 197 0
171 194 0
176 198 0
174 197 0
174 197 0
176 198 0
172 194 0
174 196 0
173 194 0
177 199 0
175 197 0
171 195 0
174 197 0
173 196 0
175 197 0
173 195 0
175 198 0
173 196 0
176 198 0
175 196 0
174 196 0
174 197 0
174 196 0
176 197 0
177 198 0
172 195 0
174 195 0
175 196 0
175 197 0
174 195 0
174 195 0
178 198 0
175 195 0
174 195 0
173 193 0
173 193 0
177 197 0
178 198 0
175 194 0
178 197 0
174 194 0
177 197 0
173 194 0
173 193 0
174 194 0
174 194 0
173 193 0
173 193 0
171 190 0
170 190 0
174 194 0
172 192 0
168 187 0
173 192 0
170 190 0
168 188 0
172 191 0
170 189 0
169 189 0
168 187 0
166 186 0
169 189 0
167 187 0
166 185 0
168 187 0
166 186 0
166 187 0
165 184 0
164 183 0
162 181 0
159 179 0
170 189 0
169 188 0
163 184 0
159 178 0
167 187 0
161 180 0
166 185 0
164 182 0
165 184 0
165 184 0
166 187 0
168 188 0
156 175 0
161 180 0
156 175 0
166 185 0
158 178 0
164 185 0
160 180 0
157 176 0
162 181 0
156 176 0
159 179 0
162 181 0
152 172 0
164 183 0
164 183 0
160 180 0
153 174 0
160 180 0
159 179 0
152 172 0
150 169 0
155 174 0
151 170 0
148 169 0
157 176 0
160 179 0
153 174 0
163 184 0
157 177 0
156 177 0
154 174 0
148 169 0
145 165 0
157 178 0
149 169 0
158 178 0
152 172 0
139 159 0
154 174 0
155 177 0
146 167 0
148 170 0
153 173 0
153 173 0
152 173 0
148 168 0
153 175 0
150 169 0
154 175 0
139 160 0
150 170 0
147 168 0
148 170 0
153 173 0
144 165 0
142 164 0
148 168 0
141 162 0
155 176 0
143 164 0
154 176 0
143 165 0
140 161 0
140 161 0
142 162 0
138 160 0
145 166 0
139 160 0
142 164 0
132 152 0
137 158 0
142 163 0
135 156 0
140 160 0
135 156 0
143 164 0
133 153 0
149 170 0
137 157 0
131 151 0
119 140 0
123 143 0
132 153 0
138 158 0
130 150 0
132 151 0
132 151 0
119 139 0
121 141 0
123 142 0
124 144 0
131 150 0
132 151 0
136 156 0
112 132 0
115 135 0
124 143 0
125 144 0
126 144 0
129 147 0
122 142 0
118 136 0
122 141 0
111 129 0
125 144 0
108 126 0
127 145 0
124 142 0
124 142 0
108 126 0
119 137 0
107 125 0
108 126 0
116 134 0
114 132 0
109 126 0
122 140 0
123 140 0
122 139 0
104 121 0
114 131 0
106 124 0
126 145 0
114 132 0
107 125 0
114 130 0
122 138 0
116 134 0
110 128 0
112 130 0
113 127 0
112 129 0
118 132 0
120 135 0
123 141 0
111 128 0
117 134 0
124 143 0
113 131 0
109 126 0
109 125 0
111 127 0
112 130 0
115 130 0
106 122 0
118 136 0
115 133 0
125 141 0
116 134 0
121 139 0
131 149 0
126 142 0
123 139 0
123 140 0
125 141 0
126 141 0
118 135 0
126 143 0
118 136 0
132 148 0
130 145 0
129 146 0
126 143 0
124 137 0
129 146 0
123 137 0
138 154 0
128 142 0
129 144 0
126 141 0
131 144 0
120 135 0
129 144 0
135 149 0
122 137 0
132 147 0
131 147 0
125 139 0
133 147 0
135 150 0
126 138 0
136 152 0
130 143 0
139 152 0
132 145 0
124 138 0
137 150 0
137 149 0
134 146 0
141 152 0
130 140 0
130 143 0
125 134 0
125 134 0
140 151 0
131 141 0
135 147 0
125 133 0
131 141 0
126 134 0
133 144 0
137 145 0
133 141 0
130 138 0
136 145 0
137 147 0
121 126 0
134 141 0
129 137 0
124 124 0
124 127 0
139 143 0
116 121 0
130 132 0
129 133 0
122 125 0
129 130 0
120 119 0
117 119 0
122 124 0
124 125 0
122 120 0
120 122 0
124 123 0
118 116 0
117 116 0
123 122 0
126 122 0
131 128 0
120 115 0
115 112 0
113 109 0
118 113 0
109 102 0
109 99 0
113 105 0
110 101 0
116 110 0
106 95 0
110 102 0
110 102 0
115 107 0
110 102 0
112 102 0
102 92 0
120 114 0
113 103 0
115 104 0
106 98 0
112 101 0
118 107 0
123 119 0
109 102 0
120 111 0
122 113 0
118 110 0
130 124 0
117 110 0
118 110 0
114 106 0
115 106 0
118 113 0
124 116 0
123 120 0
117 112 0
123 116 0
130 128 0
136 135 0
115 112 0
130 126 0
128 125 0
131 128 0
130 127 0
136 134 0
137 138 0
140 143 0
150 152 0
156 162 0
153 158 0
160 167 0
156 161 0
159 166 0
154 160 0
159 167 0
161 168 0
158 166 0
160 171 0
159 168 0
155 163 0
162 170 0
160 167 0
162 174 0
162 171 0
164 175 0
166 177 0
165 175 0
161 172 0
167 180 0
165 178 0
164 178 0
166 177 0
163 177 0
165 179 0
163 174 0
167 178 0
163 177 0
164 180 0
163 179 0
168 183 0
167 182 0
170 185 0
164 179 0
169 185 0
168 185 0
169 185 0
170 184 0
175 198 0
174 197 0
172 195 0
169 192 0
174 197 0
176 199 0
173 196 0
172 194 0
172 195 0
172 195 0
173 195 0
177 198 0
174 196 0
174 196 0
177 199 0
174 195 0
177 198 0
173 195 0
177 199 0
176 197 0
175 197 0
175 197 0
176 197 0
176 197 0
173 195 0
176 197 0
175 196 0
176 197 0
175 196 0
177 197 0
174 194 0
173 194 0
172 192 0
173 194 0
171 191 0
172 193 0
174 194 0
175 196 0
174 193 0
172 192 0
171 192 0
175 195 0
175 195 0
173 193 0
175 195 0
174 194 0
168 187 0
172 192 0
171 190 0
172 192 0
170 190 0
172 192 0
173 192 0
171 191 0
168 188 0
168 189 0
168 188 0
163 182 0
170 189 0
166 185 0
171 191 0
164 183 0
167 187 0
164 184 0
171 190 0
166 185 0
167 187 0
171 191 0
161 181 0
165 185 0
169 188 0
164 185 0
164 184 0
162 181 0
166 185 0
171 189 0
167 185 0
160 180 0
167 186 0
161 179 0
160 178 0
161 181 0
157 176 0
165 184 0
159 179 0
165 184 0
164 183 0
156 175 0
162 182 0
158 178 0
164 183 0
165 186 0
163 183 0
162 182 0
155 174 0
163 182 0
166 185 0
161 181 0
156 175 0
163 184 0
163 183 0
158 179 0
161 180 0
157 177 0
163 183 0
158 178 0
154 174 0
148 168 0
156 177 0
162 183 0
155 175 0
160 180 0
145 165 0
150 171 0
159 179 0
154 175 0
152 173 0
145 165 0
158 179 0
147 168 0
155 176 0
156 176 0
152 174 0
151 172 0
148 169 0
158 180 0
147 168 0
152 173 0
144 165 0
146 167 0
155 176 0
142 164 0
155 176 0
144 165 0
143 162 0
144 165 0
144 166 0
143 164 0
148 168 0
147 169 0
147 167 0
148 169 0
144 165 0
144 164 0
143 164 0
144 166 0
151 172 0
147 168 0
146 167 0
146 167 0
137 158 0
138 159 0
143 164 0
144 163 0
133 153 0
136 157 0
128 148 0
139 159 0
137 157 0
135 155 0
129 149 0
141 162 0
135 156 0
132 152 0
134 155 0
141 162 0
131 151 0
140 160 0
132 152 0
134 155 0
136 156 0
126 145 0
126 145 0
130 149 0
120 140 0
127 147 0
135 155 0
125 143 0
134 155 0
120 140 0
130 149 0
133 152 0
129 148 0
122 142 0
130 148 0
130 148 0
121 139 0
121 140 0
121 140 0
126 145 0
124 141 0
117 136 0
121 139 0
123 142 0
111 130 0
127 147 0
112 131 0
118 135 0
132 151 0
117 135 0
128 146 0
110 129 0
125 144 0
122 139 0
118 135 0
110 128 0
115 133 0
121 140 0
109 127 0
112 129 0
117 136 0
114 131 0
129 146 0
129 146 0
113 129 0
120 136 0
117 135 0
123 140 0
116 135 0
103 121 0
110 126 0
116 133 0
131 148 0
120 137 0
116 132 0
105 119 0
117 134 0
124 141 0
115 131 0
125 143 0
111 128 0
122 140 0
118 135 0
127 144 0
129 144 0
128 145 0
117 133 0
119 135 0
120 138 0
128 143 0
127 140 0
124 139 0
136 152 0
137 154 0
139 155 0
136 152 0
128 141 0
118 134 0
136 153 0
125 139 0
135 150 0
132 148 0
120 134 0
132 149 0
123 137 0
134 149 0
132 146 0
135 147 0
138 152 0
130 143 0
127 142 0
125 138 0
134 149 0
124 138 0
127 138 0
126 139 0
130 142 0
132 144 0
129 140 0
135 151 0
139 155 0
126 138 0
124 137 0
140 151 0
136 148 0
127 141 0
124 135 0
122 130 0
136 145 0
129 139 0
133 145 0
139 149 0
133 140 0
134 144 0
126 137 0
133 140 0
129 139 0
129 136 0
133 142 0
124 131 0
121 126 0
135 144 0
120 123 0
126 129 0
126 131 0
139 144 0
122 125 0
131 137 0
129 129 0
125 126 0
123 124 0
119 118 0
128 133 0
127 128 0
125 126 0
128 129 0
119 120 0
126 127 0
119 121 0
114 114 0
123 121 0
122 119 0
114 110 0
119 116 0
118 113 0
120 117 0
130 126 0
110 104 0
120 116 0
108 97 0
110 102 0
116 110 0
129 126 0
112 109 0
119 111 0
118 110 0
110 102 0
118 113 0
119 111 0
117 109 0
118 109 0
113 105 0
118 109 0
113 105 0
118 108 0
120 114 0
111 104 0
123 116 0
130 123 0
123 117 0
129 125 0
127 122 0
131 127 0
126 120 0
133 129 0
129 126 0
135 130 0
136 132 0
132 128 0
139 134 0
146 147 0
137 136 0
140 140 0
141 142 0
141 139 0
137 136 0
143 145 0
149 151 0
140 140 0
147 149 0
157 162 0
144 145 0
149 153 0
158 165 0
153 157 0
151 154 0
156 166 0
153 157 0
158 165 0
158 164 0
156 160 0
154 163 0
155 164 0
157 165 0
158 164 0
160 169 0
165 177 0
158 167 0
160 173 0
160 170 0
165 177 0
165 177 0
162 175 0
162 174 0
163 175 0
161 171 0
163 173 0
167 180 0
164 176 0
167 179 0
168 183 0
168 184 0
168 184 0
167 184 0
167 183 0
169 187 0
170 186 0
168 183 0
162 176 0
164 179 0
173 196 0
177 198 0
176 198 0
172 195 0
175 197 0
171 193 0
174 197 0
173 196 0
175 197 0
175 197 0
175 197 0
174 197 0
173 195 0
174 196 0
176 197 0
170 193 0
178 200 0
174 196 0
176 197 0
176 197 0
175 196 0
175 196 0
175 196 0
173 195 0
173 195 0
172 194 0
174 195 0
175 196 0
173 194 0
173 194 0
172 192 0
174 196 0
174 194 0
179 200 0
174 194 0
175 196 0
174 195 0
176 195 0
174 194 0
173 193 0
171 191 0
173 194 0
173 193 0
170 189 0
171 191 0
174 194 0
172 192 0
171 191 0
173 193 0
175 194 0
169 188 0
173 193 0
170 191 0
174 193 0
163 182 0
168 188 0
169 188 0
170 190 0
170 190 0
163 182 0
165 185 0
164 184 0
161 180 0
166 186 0
170 190 0
166 186 0
168 187 0
165 185 0
166 185 0
165 184 0
168 188 0
168 187 0
174 193 0
163 183 0
166 186 0
167 187 0
167 186 0
168 188 0
159 178 0
162 182 0
164 184 0
160 181 0
171 190 0
162 182 0
163 182 0
162 181 0
167 186 0
162 182 0
159 178 0
161 180 0
164 183 0
163 183 0
161 181 0
156 175 0
156 176 0
167 187 0
166 185 0
155 175 0
157 178 0
163 184 0
166 185 0
163 182 0
154 174 0
150 170 0
159 178 0
155 175 0
152 173 0
150 171 0
154 174 0
154 175 0
154 175 0
156 176 0
153 174 0
156 177 0
154 174 0
156 178 0
158 178 0
157 178 0
151 172 0
151 172 0
143 164 0
159 180 0
151 173 0
150 171 0
151 172 0
157 177 0
146 166 0
141 161 0
154 176 0
156 177 0
141 162 0
150 172 0
142 163 0
144 166 0
152 174 0
152 174 0
152 173 0
143 164 0
150 172 0
145 167 0
145 167 0
140 161 0
145 167 0
144 166 0
150 172 0
144 166 0
148 168 0
141 163 0
136 155 0
139 160 0
140 161 0
141 162 0
152 173 0
143 163 0
147 168 0
143 164 0
131 152 0
143 165 0
134 155 0
136 157 0
134 154 0
137 157 0
134 156 0
149 169 0
139 160 0
139 160 0
139 160 0
128 148 0
130 149 0
131 151 0
127 147 0
130 149 0
136 157 0
129 149 0
142 163 0
128 146 0
117 138 0
119 137 0
123 142 0
120 141 0
126 146 0
141 162 0
134 153 0
126 145 0
130 151 0
117 135 0
120 140 0
123 142 0
122 140 0
119 137 0
122 142 0
114 132 0
122 139 0
123 141 0
129 148 0
119 137 0
121 138 0
125 145 0
125 142 0
129 146 0
119 137 0
110 127 0
126 144 0
120 139 0
112 130 0
133 151 0
122 140 0
126 143 0
123 141 0
110 127 0
121 140 0
127 142 0
122 140 0
111 129 0
124 142 0
106 124 0
125 142 0
119 135 0
121 138 0
125 145 0
115 133 0
120 139 0
129 146 0
120 137 0
121 139 0
124 140 0
122 138 0
120 135 0
135 151 0
122 138 0
121 135 0
117 134 0
127 144 0
125 141 0
126 143 0
127 144 0
122 139 0
127 142 0
131 146 0
127 143 0
128 143 0
118 133 0
137 153 0
129 145 0
115 132 0
133 148 0
126 143 0
132 148 0
139 157 0
135 152 0
128 146 0
136 152 0
137 153 0
130 146 0
126 140 0
130 146 0
136 152 0
126 139 0
130 144 0
132 148 0
139 155 0
127 142 0
126 143 0
127 139 0
142 155 0
138 153 0
131 145 0
132 147 0
140 153 0
123 137 0
137 153 0
131 142 0
139 152 0
135 148 0
124 133 0
131 142 0
130 143 0
131 143 0
123 132 0
120 129 0
125 136 0
129 138 0
138 149 0
139 150 0
126 138 0
134 145 0
138 145 0
139 149 0
130 139 0
132 141 0
131 137 0
132 138 0
136 144 0
119 128 0
125 132 0
128 136 0
132 136 0
122 129 0
141 147 0
133 136 0
130 132 0
139 146 0
131 133 0
129 133 0
129 133 0
127 129 0
132 131 0
129 130 0
121 123 0
130 131 0
128 128 0
133 132 0
122 119 0
120 120 0
122 117 0
127 127 0
126 124 0
127 124 0
119 115 0
126 121 0
116 111 0
121 117 0
124 119 0
120 115 0
114 107 0
115 113 0
116 111 0
116 109 0
121 116 0
120 115 0
118 109 0
121 113 0
127 120 0
124 118 0
114 107 0
116 109 0
126 121 0
130 126 0
131 128 0
125 120 0
131 125 0
121 116 0
128 119 0
136 133 0
122 114 0
134 132 0
141 139 0
136 134 0
140 139 0
130 125 0
130 123 0
140 139 0
137 134 0
138 137 0
145 144 0
146 148 0
146 148 0
141 141 0
154 158 0
144 143 0
146 147 0
150 153 0
153 156 0
144 146 0
155 158 0
153 155 0
149 152 0
152 157 0
157 164 0
157 163 0
160 168 0
160 169 0
155 163 0
157 167 0
160 168 0
160 168 0
162 169 0
158 165 0
163 171 0
161 170 0
158 164 0
158 168 0
160 172 0
164 176 0
163 175 0
162 175 0
162 171 0
164 178 0
164 177 0
165 180 0
166 180 0
166 180 0
165 179 0
168 182 0
167 181 0
166 178 0
163 177 0
166 180 0
166 181 0
166 180 0
175 197 0
171 194 0
174 196 0
173 195 0
176 199 0
173 195 0
172 195 0
175 198 0
175 197 0
174 196 0
174 195 0
175 197 0
176 198 0
176 198 0
173 195 0
179 200 0
175 196 0
176 197 0
172 193 0
176 198 0
177 198 0
176 198 0
176 197 0
174 196 0
178 198 0
175 195 0
176 197 0
173 193 0
177 198 0
176 196 0
175 195 0
175 196 0
173 194 0
176 196 0
176 196 0
173 193 0
177 197 0
169 189 0
178 198 0
172 192 0
175 195 0
172 193 0
171 191 0
176 196 0
170 190 0
175 195 0
169 189 0
170 190 0
171 191 0
174 194 0
170 190 0
174 193 0
169 188 0
170 189 0
169 189 0
169 189 0
168 189 0
169 189 0
166 185 0
166 187 0
169 189 0
169 188 0
167 187 0
162 181 0
166 186 0
165 185 0
169 189 0
167 187 0
167 186 0
162 183 0
169 189 0
167 186 0
164 185 0
166 185 0
163 183 0
164 182 0
163 182 0
165 185 0
168 188 0
168 188 0
169 189 0
164 184 0
166 185 0
161 182 0
166 186 0
163 182 0
164 183 0
159 179 0
160 178 0
158 177 0
163 182 0
162 183 0
164 183 0
164 183 0
158 178 0
164 184 0
160 179 0
155 175 0
163 184 0
157 178 0
162 183 0
161 181 0
154 174 0
156 177 0
160 180 0
156 175 0
146 167 0
150 170 0
153 173 0
154 175 0
150 172 0
155 176 0
154 174 0
148 169 0
160 180 0
151 173 0
154 175 0
146 166 0
153 175 0
157 178 0
158 181 0
159 180 0
152 173 0
146 166 0
154 175 0
148 169 0
150 170 0
150 173 0
154 175 0
155 176 0
150 171 0
143 164 0
146 167 0
150 171 0
147 168 0
141 163 0
146 167 0
150 171 0
142 162 0
149 170 0
146 167 0
150 171 0
151 172 0
143 164 0
150 171 0
142 163 0
147 169 0
133 154 0
154 176 0
144 165 0
146 167 0
134 156 0
143 164 0
137 157 0
139 160 0
141 161 0
140 160 0
143 165 0
147 168 0
133 154 0
144 165 0
129 149 0
131 151 0
141 163 0
141 161 0
132 153 0
133 153 0
138 157 0
131 152 0
129 149 0
126 147 0
134 155 0
134 155 0
138 157 0
141 163 0
127 146 0
118 136 0
133 152 0
128 147 0
127 147 0
127 148 0
126 147 0
129 149 0
132 150 0
133 152 0
129 149 0
127 147 0
124 144 0
137 156 0
126 146 0
128 147 0
121 140 0
121 142 0
120 140 0
115 134 0
116 136 0
127 147 0
109 128 0
124 142 0
125 143 0
113 131 0
117 135 0
126 144 0
131 150 0
118 137 0
120 138 0
112 129 0
120 139 0
114 129 0
122 140 0
133 151 0
129 146 0
122 139 0
111 128 0
120 137 0
126 143 0
123 141 0
113 131 0
127 145 0
131 150 0
124 142 0
120 137 0
126 143 0
118 134 0
117 133 0
128 145 0
123 140 0
132 150 0
127 145 0
114 131 0
120 137 0
124 141 0
124 141 0
123 140 0
133 150 0
132 149 0
134 150 0
127 143 0
138 157 0
131 147 0
130 148 0
131 149 0
130 146 0
123 141 0
127 145 0
129 146 0
122 138 0
135 151 0
134 151 0
139 155 0
135 150 0
130 144 0
132 149 0
128 145 0
141 156 0
131 146 0
130 144 0
134 148 0
140 155 0
135 151 0
134 150 0
131 146 0
123 138 0
133 148 0
142 156 0
129 144 0
139 153 0
134 145 0
127 141 0
134 150 0
143 156 0
135 147 0
129 142 0
137 149 0
133 147 0
146 160 0
135 147 0
131 143 0
129 140 0
132 141 0
135 145 0
134 145 0
133 145 0
130 140 0
134 143 0
140 153 0
138 149 0
138 149 0
140 149 0
132 141 0
130 138 0
128 137 0
135 146 0
133 142 0
133 139 0
131 138 0
134 140 0
138 142 0
131 138 0
132 137 0
135 140 0
138 143 0
135 139 0
130 136 0
127 128 0
133 136 0
129 131 0
125 127 0
123 127 0
133 133 0
135 135 0
124 126 0
124 124 0
120 120 0
117 115 0
130 129 0
129 132 0
125 124 0
132 130 0
130 128 0
121 115 0
113 108 0
114 111 0
127 125 0
126 123 0
117 109 0
126 122 0
117 110 0
121 119 0
121 115 0
124 117 0
120 113 0
123 115 0
126 119 0
127 121 0
135 130 0
124 116 0
130 126 0
128 125 0
129 122 0
133 130 0
129 125 0
127 120 0
123 117 0
130 127 0
125 120 0
129 123 0
126 123 0
134 129 0
137 133 0
134 131 0
139 137 0
139 135 0
142 142 0
140 139 0
140 141 0
143 142 0
136 133 0
149 151 0
151 154 0
145 148 0
152 154 0
149 154 0
155 159 0
152 154 0
152 160 0
156 163 0
155 159 0
154 157 0
152 157 0
158 163 0
157 163 0
151 157 0
160 169 0
157 162 0
156 164 0
159 167 0
161 171 0
162 173 0
160 171 0
156 165 0
164 176 0
153 162 0
161 171 0
163 176 0
165 177 0
166 178 0
160 169 0
165 177 0
165 178 0
164 179 0
167 180 0
163 175 0
168 184 0
163 176 0
167 182 0
163 176 0
166 180 0
164 179 0
162 176 0
172 195 0
175 197 0
175 197 0
174 197 0
172 195 0
177 199 0
171 194 0
176 198 0
175 196 0
174 196 0
175 196 0
176 197 0
171 193 0
174 195 0
174 196 0
175 196 0
174 195 0
175 197 0
175 197 0
174 196 0
175 197 0
177 198 0
177 198 0
169 190 0
179 200 0
178 199 0
174 195 0
174 195 0
171 192 0
175 194 0
173 194 0
176 197 0
175 195 0
178 198 0
173 193 0
173 194 0
177 198 0
176 196 0
172 192 0
172 192 0
174 194 0
169 189 0
172 192 0
175 195 0
171 192 0
169 189 0
172 191 0
169 188 0
172 192 0
175 194 0
168 188 0
172 191 0
170 189 0
169 190 0
172 191 0
173 192 0
167 187 0
167 187 0
171 190 0
173 192 0
166 186 0
166 186 0
168 188 0
170 189 0
169 189 0
168 187 0
165 185 0
168 188 0
168 187 0
169 188 0
170 189 0
171 190 0
168 187 0
170 189 0
168 186 0
168 189 0
165 184 0
165 183 0
162 182 0
166 184 0
160 179 0
163 183 0
167 187 0
163 183 0
163 182 0
164 183 0
168 186 0
164 183 0
161 181 0
164 184 0
156 174 0
161 181 0
164 183 0
159 178 0
160 179 0
164 184 0
157 177 0
160 180 0
156 176 0
158 179 0
163 184 0
155 176 0
160 179 0
164 185 0
156 177 0
165 186 0
153 173 0
158 179 0
158 179 0
155 176 0
145 165 0
148 169 0
153 174 0
161 181 0
159 179 0
143 163 0
154 174 0
147 169 0
148 170 0
146 167 0
152 173 0
144 166 0
149 171 0
145 166 0
153 174 0
153 173 0
148 170 0
146 167 0
155 176 0
151 173 0
149 171 0
152 174 0
142 161 0
142 162 0
145 166 0
150 172 0
147 169 0
149 169 0
149 170 0
145 166 0
149 170 0
141 162 0
142 164 0
151 172 0
139 160 0
146 168 0
149 170 0
153 174 0
151 170 0
145 166 0
146 167 0
150 171 0
137 159 0
141 163 0
139 161 0
146 167 0
135 156 0
131 152 0
141 162 0
134 155 0
139 160 0
133 154 0
144 165 0
138 159 0
131 153 0
141 162 0
132 152 0
126 145 0
137 158 0
128 149 0
146 167 0
132 152 0
138 159 0
122 143 0
130 151 0
117 136 0
144 163 0
139 159 0
130 149 0
124 142 0
134 154 0
126 147 0
121 141 0
129 149 0
128 147 0
137 156 0
129 148 0
132 151 0
124 143 0
120 138 0
126 144 0
115 133 0
137 156 0
128 147 0
121 141 0
128 148 0
124 142 0
123 142 0
114 134 0
122 141 0
121 139 0
133 152 0
125 144 0
125 144 0
127 145 0
130 149 0
121 140 0
117 135 0
116 134 0
128 147 0
117 134 0
130 147 0
121 139 0
119 137 0
123 140 0
122 139 0
119 136 0
123 141 0
119 135 0
127 144 0
122 140 0
127 145 0
135 153 0
127 146 0
132 150 0
133 150 0
125 143 0
130 147 0
118 135 0
126 143 0
121 139 0
127 142 0
125 141 0
120 136 0
127 146 0
128 146 0
133 151 0
134 151 0
137 153 0
121 139 0
126 144 0
132 149 0
136 152 0
129 146 0
135 153 0
140 156 0
133 149 0
136 153 0
131 147 0
133 149 0
133 149 0
132 148 0
139 155 0
133 147 0
139 157 0
134 148 0
134 150 0
123 139 0
134 149 0
140 153 0
139 154 0
133 150 0
140 155 0
132 148 0
133 148 0
130 144 0
135 147 0
142 158 0
138 152 0
133 146 0
138 152 0
136 151 0
138 152 0
144 155 0
137 148 0
149 162 0
133 144 0
140 153 0
130 143 0
138 152 0
141 150 0
136 146 0
143 153 0
130 141 0
133 143 0
140 152 0
133 142 0
141 151 0
132 141 0
143 154 0
133 144 0
135 146 0
141 149 0
134 144 0
137 144 0
132 141 0
134 141 0
137 146 0
136 143 0
137 149 0
136 140 0
124 132 0
139 146 0
132 138 0
134 136 0
126 131 0
119 122 0
135 138 0
136 139 0
134 136 0
131 137 0
131 133 0
129 129 0
127 125 0
124 126 0
131 131 0
135 135 0
119 119 0
123 121 0
137 133 0
133 133 0
126 125 0
128 127 0
126 126 0
116 110 0
120 116 0
126 122 0
127 123 0
130 128 0
128 124 0
123 117 0
131 128 0
128 125 0
132 129 0
127 123 0
127 123 0
128 122 0
133 130 0
131 129 0
126 122 0
130 124 0
141 139 0
131 127 0
132 131 0
134 131 0
136 133 0
134 133 0
128 123 0
133 127 0
125 120 0
148 149 0
129 127 0
140 139 0
146 146 0
144 143 0
145 145 0
142 140 0
144 143 0
143 144 0
151 152 0
151 157 0
147 146 0
144 145 0
149 151 0
152 155 0
147 147 0
152 156 0
152 155 0
154 158 0
155 160 0
155 160 0
159 168 0
155 161 0
155 160 0
158 164 0
149 153 0
158 163 0
159 166 0
159 168 0
161 171 0
158 166 0
158 167 0
160 171 0
159 166 0
162 171 0
157 165 0
167 182 0
165 176 0
163 175 0
164 174 0
163 176 0
166 179 0
163 174 0
166 179 0
162 174 0
163 177 0
167 184 0
162 174 0
166 181 0
168 183 0
174 196 0
173 196 0
174 196 0
176 198 0
175 196 0
175 197 0
175 196 0
175 197 0
178 199 0
172 194 0
172 195 0
173 194 0
175 196 0
172 195 0
176 196 0
177 198 0
173 194 0
176 197 0
175 197 0
178 199 0
177 198 0
173 194 0
173 194 0
173 193 0
173 194 0
176 196 0
173 193 0
176 196 0
174 194 0
175 195 0
175 195 0
177 197 0
175 196 0
175 196 0
176 195 0
177 197 0
176 196 0
172 192 0
174 194 0
174 194 0
170 189 0
173 193 0
170 189 0
172 193 0
173 194 0
169 190 0
173 193 0
167 188 0
172 191 0
171 192 0
168 188 0
169 189 0
171 190 0
172 192 0
173 193 0
169 188 0
172 191 0
171 190 0
170 190 0
172 192 0
168 188 0
167 186 0
172 191 0
164 184 0
169 189 0
167 187 0
170 190 0
166 184 0
168 187 0
163 183 0
165 185 0
163 183 0
168 188 0
171 190 0
168 188 0
171 191 0
163 183 0
162 182 0
168 188 0
161 180 0
169 189 0
163 184 0
165 185 0
161 182 0
158 178 0
156 176 0
162 182 0
169 190 0
163 183 0
160 179 0
165 184 0
164 184 0
166 186 0
161 180 0
147 167 0
150 170 0
156 176 0
159 180 0
158 178 0
161 180 0
162 182 0
161 181 0
160 181 0
156 177 0
151 172 0
153 174 0
150 171 0
155 175 0
156 177 0
153 173 0
153 173 0
160 180 0
151 172 0
157 178 0
150 171 0
161 183 0
156 178 0
153 175 0
151 172 0
152 174 0
151 173 0
152 173 0
152 173 0
144 166 0
151 173 0
146 168 0
148 170 0
149 170 0
145 166 0
151 172 0
144 165 0
142 164 0
144 166 0
146 167 0
155 178 0
144 164 0
151 172 0
152 173 0
153 173 0
147 168 0
147 168 0
148 169 0
141 163 0
140 161 0
142 164 0
142 163 0
142 164 0
147 169 0
148 169 0
141 162 0
147 168 0
141 161 0
138 159 0
142 163 0
140 162 0
131 153 0
136 157 0
129 149 0
141 162 0
137 159 0
144 164 0
144 165 0
133 154 0
145 165 0
128 149 0
135 157 0
136 156 0
131 152 0
140 159 0
135 156 0
135 157 0
135 153 0
131 152 0
125 145 0
130 150 0
131 152 0
141 162 0
127 147 0
120 139 0
132 152 0
138 158 0
140 159 0
130 149 0
128 146 0
122 142 0
126 145 0
138 158 0
133 152 0
135 154 0
128 147 0
128 147 0
125 144 0
130 149 0
138 157 0
124 144 0
130 149 0
132 151 0
136 155 0
124 144 0
125 144 0
128 146 0
134 151 0
131 150 0
127 145 0
124 141 0
134 152 0
125 143 0
121 139 0
119 138 0
119 138 0
123 141 0
122 140 0
129 147 0
130 147 0
135 152 0
127 145 0
123 141 0
129 146 0
125 142 0
123 141 0
127 145 0
128 147 0
135 152 0
124 141 0
131 149 0
126 145 0
125 144 0
122 140 0
132 148 0
127 146 0
122 139 0
132 149 0
129 147 0
130 146 0
137 154 0
119 137 0
135 151 0
119 137 0
125 142 0
130 149 0
135 151 0
131 145 0
133 149 0
130 145 0
134 150 0
140 158 0
127 144 0
131 148 0
129 145 0
132 148 0
126 141 0
130 145 0
146 164 0
133 148 0
136 151 0
137 154 0
133 148 0
134 150 0
130 144 0
130 146 0
136 153 0
139 154 0
141 155 0
142 156 0
136 152 0
140 156 0
135 149 0
137 151 0
141 156 0
138 152 0
142 155 0
136 149 0
132 145 0
144 157 0
136 148 0
139 154 0
138 151 0
134 146 0
139 153 0
138 150 0
128 139 0
134 147 0
137 151 0
135 145 0
139 149 0
137 148 0
144 156 0
129 140 0
132 142 0
132 145 0
131 142 0
138 150 0
131 143 0
134 143 0
139 148 0
128 136 0
129 139 0
130 137 0
134 138 0
137 143 0
130 138 0
133 136 0
135 141 0
134 142 0
129 134 0
130 133 0
136 141 0
140 144 0
131 134 0
134 139 0
129 132 0
136 138 0
134 138 0
135 138 0
127 127 0
132 131 0
127 130 0
131 130 0
129 130 0
130 128 0
132 130 0
130 130 0
126 126 0
131 131 0
129 132 0
130 131 0
131 133 0
135 133 0
135 135 0
127 123 0
128 124 0
131 129 0
126 120 0
128 127 0
128 127 0
124 120 0
127 123 0
131 126 0
134 131 0
131 128 0
141 138 0
135 133 0
139 137 0
138 134 0
140 138 0
137 135 0
135 131 0
132 128 0
132 128 0
134 131 0
134 132 0
144 144 0
142 143 0
140 139 0
140 138 0
145 146 0
143 144 0
154 154 0
150 151 0
141 140 0
152 154 0
147 147 0
144 142 0
142 141 0
152 156 0
146 147 0
150 153 0
151 154 0
152 154 0
151 156 0
156 162 0
156 163 0
158 165 0
159 162 0
158 165 0
153 159 0
157 165 0
161 169 0
158 167 0
157 166 0
161 169 0
163 173 0
156 163 0
159 167 0
158 168 0
160 169 0
166 178 0
157 167 0
163 175 0
160 172 0
160 170 0
165 177 0
165 178 0
164 175 0
166 179 0
166 181 0
163 179 0
164 178 0
168 184 0
166 181 0
175 197 0
173 195 0
177 199 0
175 198 0
175 197 0
175 197 0
174 197 0
176 197 0
175 197 0
176 198 0
172 194 0
172 194 0
172 193 0
175 197 0
174 195 0
175 196 0
174 195 0
175 196 0
172 192 0
171 192 0
172 193 0
175 196 0
174 194 0
174 194 0
175 195 0
175 195 0
177 197 0
174 194 0
174 195 0
175 194 0
175 195 0
173 194 0
173 194 0
174 194 0
175 195 0
173 194 0
171 191 0
171 192 0
173 193 0
170 190 0
175 195 0
175 194 0
173 194 0
169 189 0
172 193 0
171 191 0
174 193 0
175 195 0
169 189 0
169 188 0
175 194 0
172 192 0
169 189 0
171 189 0
172 191 0
170 190 0
167 187 0
170 190 0
169 189 0
165 184 0
169 189 0
167 187 0
170 190 0
165 183 0
167 186 0
169 188 0
165 185 0
171 192 0
166 186 0
172 192 0
167 186 0
168 188 0
168 188 0
169 188 0
168 188 0
167 187 0
170 190 0
162 181 0
170 189 0
165 184 0
165 185 0
158 179 0
164 184 0
158 179 0
160 180 0
168 188 0
161 182 0
164 184 0
162 183 0
160 180 0
161 181 0
152 172 0
154 175 0
156 176 0
158 180 0
164 184 0
157 177 0
158 179 0
161 181 0
161 182 0
151 171 0
155 175 0
159 181 0
159 179 0
156 176 0
158 179 0
155 176 0
162 183 0
155 176 0
160 181 0
153 173 0
158 179 0
152 172 0
148 169 0
155 176 0
161 181 0
158 179 0
152 172 0
161 183 0
157 179 0
154 175 0
157 179 0
158 179 0
159 180 0
151 173 0
154 175 0
145 167 0
147 168 0
146 168 0
148 170 0
156 177 0
156 178 0
140 162 0
148 170 0
151 172 0
149 170 0
150 173 0
153 176 0
147 170 0
148 170 0
147 168 0
140 161 0
151 173 0
150 171 0
144 165 0
146 168 0
144 167 0
145 166 0
146 168 0
142 164 0
141 163 0
141 162 0
139 160 0
153 175 0
144 165 0
147 168 0
130 150 0
145 166 0
127 148 0
137 157 0
136 155 0
146 167 0
140 161 0
146 168 0
138 160 0
144 165 0
146 168 0
137 158 0
147 167 0
134 155 0
143 164 0
134 155 0
142 162 0
136 156 0
143 164 0
135 157 0
138 158 0
136 156 0
139 160 0
133 153 0
135 154 0
128 148 0
142 163 0
139 159 0
122 141 0
132 152 0
136 155 0
129 149 0
120 137 0
125 143 0
130 151 0
128 148 0
133 153 0
133 153 0
134 154 0
128 147 0
136 156 0
140 159 0
121 140 0
130 148 0
134 151 0
123 143 0
130 149 0
135 154 0
134 151 0
137 156 0
131 150 0
134 152 0
128 146 0
132 149 0
135 153 0
135 154 0
128 146 0
123 140 0
130 149 0
123 141 0
126 144 0
125 141 0
121 138 0
125 142 0
114 132 0
127 145 0
125 143 0
122 139 0
136 154 0
130 147 0
130 148 0
127 147 0
122 140 0
118 136 0
130 148 0
144 159 0
140 157 0
133 151 0
129 145 0
130 146 0
131 147 0
142 160 0
143 161 0
136 154 0
134 150 0
138 156 0
126 144 0
136 152 0
128 145 0
132 149 0
135 152 0
138 155 0
135 153 0
143 159 0
132 147 0
132 149 0
133 151 0
139 156 0
124 138 0
144 160 0
140 156 0
131 148 0
144 160 0
135 148 0
135 151 0
127 142 0
142 161 0
128 143 0
135 149 0
137 152 0
139 155 0
129 143 0
139 153 0
132 147 0
137 152 0
144 159 0
143 159 0
133 147 0
136 151 0
137 149 0
135 149 0
129 144 0
129 142 0
142 157 0
137 149 0
143 158 0
141 152 0
140 150 0
139 151 0
132 145 0
137 146 0
144 154 0
138 150 0
127 138 0
139 152 0
136 145 0
135 145 0
135 143 0
142 151 0
136 142 0
147 154 0
145 155 0
137 146 0
141 150 0
142 151 0
138 146 0
137 144 0
139 145 0
133 140 0
128 135 0
136 145 0
128 134 0
138 145 0
134 137 0
136 144 0
139 143 0
136 141 0
143 149 0
133 138 0
136 138 0
130 131 0
138 143 0
136 138 0
134 136 0
125 124 0
126 127 0
127 128 0
127 125 0
133 134 0
131 131 0
134 134 0
135 134 0
130 127 0
132 133 0
125 119 0
135 132 0
137 133 0
136 136 0
128 123 0
138 136 0
127 124 0
135 129 0
138 136 0
132 127 0
129 123 0
133 129 0
140 140 0
139 135 0
139 140 0
142 140 0
132 129 0
144 143 0
137 134 0
133 129 0
147 147 0
138 137 0
139 137 0
136 135 0
143 139 0
139 137 0
146 146 0
148 152 0
143 144 0
147 149 0
151 153 0
145 147 0
148 151 0
142 139 0
149 151 0
140 140 0
150 152 0
147 150 0
148 154 0
154 159 0
156 160 0
162 169 0
154 159 0
155 159 0
155 161 0
154 157 0
160 167 0
155 159 0
161 171 0
161 170 0
155 162 0
154 161 0
161 172 0
160 169 0
164 171 0
158 166 0
161 170 0
162 173 0
163 175 0
161 171 0
157 164 0
161 174 0
162 172 0
165 177 0
161 172 0
164 176 0
168 183 0
166 180 0
162 174 0
164 177 0
174 196 0
172 194 0
175 197 0
174 196 0
174 196 0
174 195 0
177 199 0
175 196 0
174 195 0
175 196 0
175 196 0
174 195 0
175 196 0
174 196 0
176 198 0
175 196 0
174 195 0
177 198 0
175 196 0
174 194 0
176 197 0
174 195 0
175 195 0
174 195 0
174 194 0
173 194 0
176 196 0
175 195 0
173 194 0
177 197 0
174 194 0
170 191 0
175 195 0
171 191 0
174 194 0
169 190 0
172 193 0
173 193 0
170 191 0
176 196 0
173 193 0
169 189 0
173 192 0
170 190 0
173 193 0
171 191 0
169 189 0
169 188 0
169 189 0
166 186 0
170 191 0
169 190 0
168 188 0
168 187 0
172 193 0
170 190 0
171 191 0
170 189 0
172 192 0
169 188 0
168 188 0
167 187 0
172 193 0
163 183 0
169 189 0
171 191 0
165 185 0
166 186 0
168 188 0
167 188 0
165 186 0
170 191 0
167 187 0
168 188 0
169 188 0
164 185 0
166 187 0
162 182 0
166 186 0
164 183 0
168 189 0
158 179 0
167 187 0
169 188 0
164 183 0
157 178 0
159 179 0
166 185 0
159 179 0
159 180 0
159 179 0
162 182 0
162 182 0
160 180 0
156 177 0
159 179 0
156 176 0
157 177 0
157 178 0
155 176 0
152 173 0
154 175 0
154 175 0
154 176 0
155 176 0
161 182 0
156 176 0
148 169 0
158 178 0
163 183 0
153 174 0
153 174 0
151 174 0
151 172 0
157 179 0
156 177 0
156 179 0
146 168 0
153 175 0
151 173 0
151 173 0
151 172 0
156 178 0
152 173 0
154 176 0
151 172 0
148 169 0
152 173 0
147 168 0
152 173 0
157 177 0
148 170 0
147 170 0
157 179 0
154 175 0
149 170 0
151 173 0
157 179 0
143 165 0
145 167 0
144 166 0
143 164 0
153 174 0
140 161 0
148 170 0
147 169 0
143 165 0
137 158 0
133 154 0
143 165 0
135 156 0
136 158 0
148 169 0
151 172 0
135 157 0
151 173 0
145 166 0
149 170 0
135 155 0
146 166 0
131 151 0
136 157 0
148 170 0
138 160 0
145 166 0
138 158 0
139 160 0
134 155 0
143 165 0
148 170 0
133 153 0
134 154 0
138 159 0
143 163 0
133 154 0
129 148 0
132 151 0
135 155 0
125 145 0
127 146 0
133 154 0
130 149 0
137 157 0
134 153 0
128 148 0
128 147 0
125 144 0
129 149 0
133 153 0
137 157 0
126 146 0
126 144 0
141 161 0
127 146 0
126 145 0
143 161 0
137 156 0
123 144 0
124 142 0
132 151 0
123 143 0
132 149 0
135 154 0
125 145 0
126 145 0
127 146 0
130 149 0
136 154 0
125 144 0
120 141 0
125 144 0
136 156 0
127 144 0
122 140 0
122 137 0
128 146 0
124 142 0
138 158 0
131 148 0
125 144 0
126 144 0
129 147 0
126 143 0
124 141 0
130 148 0
137 153 0
126 142 0
139 157 0
133 152 0
132 149 0
131 149 0
142 161 0
141 159 0
134 151 0
136 154 0
130 147 0
125 142 0
139 158 0
135 152 0
136 155 0
126 143 0
130 149 0
135 150 0
129 145 0
137 154 0
139 156 0
127 145 0
134 151 0
132 147 0
134 151 0
130 146 0
128 143 0
129 146 0
144 161 0
142 160 0
132 149 0
132 150 0
136 154 0
138 154 0
140 156 0
146 163 0
137 153 0
141 158 0
139 156 0
136 153 0
143 159 0
130 146 0
124 137 0
140 156 0
137 153 0
138 154 0
137 152 0
142 158 0
137 154 0
132 144 0
135 148 0
128 140 0
134 148 0
138 152 0
137 151 0
133 145 0
131 145 0
137 149 0
144 160 0
142 153 0
132 143 0
128 137 0
142 152 0
141 155 0
140 152 0
142 154 0
139 149 0
132 142 0
133 142 0
134 143 0
142 151 0
127 137 0
137 147 0
143 155 0
142 152 0
136 144 0
138 146 0
140 147 0
128 134 0
132 138 0
138 145 0
135 143 0
134 141 0
141 146 0
144 150 0
133 138 0
137 144 0
128 135 0
134 139 0
140 143 0
139 144 0
136 139 0
137 141 0
145 146 0
140 143 0
132 135 0
131 132 0
132 134 0
139 142 0
136 135 0
133 133 0
132 132 0
135 133 0
140 140 0
130 126 0
138 138 0
136 134 0
135 133 0
141 142 0
130 125 0
136 133 0
136 136 0
138 139 0
131 129 0
130 127 0
128 123 0
141 140 0
138 137 0
132 132 0
142 140 0
131 129 0
140 138 0
142 143 0
130 128 0
137 133 0
144 145 0
140 138 0
133 129 0
144 146 0
141 140 0
142 141 0
147 152 0
138 134 0
141 140 0
150 154 0
146 149 0
143 143 0
143 144 0
144 144 0
152 155 0
148 150 0
150 152 0
150 154 0
152 156 0
151 152 0
152 155 0
149 151 0
155 162 0
153 158 0
153 159 0
155 161 0
158 166 0
158 166 0
154 159 0
156 162 0
159 166 0
163 172 0
162 169 0
158 166 0
162 172 0
159 169 0
157 162 0
160 168 0
160 168 0
165 176 0
156 164 0
163 176 0
162 175 0
164 174 0
159 169 0
164 178 0
163 171 0
165 178 0
163 174 0
168 182 0
175 197 0
174 196 0
172 194 0
174 196 0
173 196 0
177 198 0
173 196 0
177 199 0
173 194 0
173 195 0
176 197 0
177 198 0
170 192 0
174 196 0
175 195 0
177 198 0
174 196 0
173 194 0
179 199 0
174 195 0
173 194 0
174 194 0
172 193 0
172 193 0
174 195 0
178 198 0
176 196 0
174 195 0
173 194 0
175 195 0
171 191 0
172 193 0
171 191 0
175 194 0
177 197 0
171 191 0
174 194 0
172 192 0
172 192 0
174 194 0
174 194 0
169 188 0
172 192 0
170 189 0
173 194 0
174 194 0
174 193 0
169 189 0
174 194 0
172 192 0
164 184 0
170 191 0
167 187 0
176 195 0
168 188 0
172 193 0
169 189 0
170 189 0
170 189 0
171 190 0
168 188 0
170 189 0
165 185 0
169 189 0
169 188 0
167 186 0
169 189 0
169 189 0
167 187 0
168 187 0
165 185 0
166 186 0
166 187 0
170 189 0
164 184 0
171 191 0
167 187 0
161 181 0
164 184 0
168 189 0
169 190 0
162 182 0
156 176 0
157 177 0
168 188 0
168 189 0
157 176 0
165 186 0
154 174 0
158 179 0
158 178 0
157 178 0
163 183 0
162 182 0
161 182 0
160 181 0
156 177 0
163 184 0
163 184 0
150 171 0
162 182 0
155 176 0
155 177 0
157 178 0
154 175 0
156 178 0
158 179 0
155 176 0
157 177 0
153 173 0
149 170 0
156 178 0
152 173 0
148 168 0
157 178 0
151 173 0
153 174 0
148 169 0
155 177 0
147 169 0
148 169 0
145 167 0
153 175 0
152 174 0
156 178 0
154 176 0
151 173 0
147 169 0
156 179 0
153 173 0
150 173 0
139 160 0
145 166 0
148 169 0
144 166 0
151 173 0
147 169 0
152 174 0
148 170 0
146 167 0
143 165 0
148 170 0
146 167 0
149 170 0
146 166 0
145 167 0
142 164 0
153 174 0
154 175 0
149 172 0
141 162 0
147 169 0
149 171 0
142 164 0
145 166 0
147 167 0
145 166 0
140 161 0
147 169 0
144 164 0
138 156 0
136 157 0
137 158 0
141 161 0
146 167 0
133 153 0
152 173 0
137 158 0
141 161 0
137 159 0
143 163 0
137 158 0
138 158 0
125 145 0
135 156 0
124 143 0
137 157 0
142 163 0
139 159 0
138 159 0
131 152 0
131 151 0
122 142 0
132 152 0
127 147 0
142 163 0
131 150 0
128 148 0
136 156 0
138 158 0
129 148 0
130 149 0
138 157 0
133 151 0
134 153 0
128 147 0
129 148 0
130 151 0
143 162 0
123 143 0
134 153 0
132 151 0
129 147 0
125 143 0
132 152 0
132 150 0
128 147 0
140 160 0
135 154 0
129 149 0
132 152 0
126 145 0
128 146 0
134 153 0
144 163 0
132 151 0
136 155 0
141 159 0
127 145 0
132 151 0
140 159 0
127 146 0
136 155 0
125 145 0
123 141 0
141 160 0
130 148 0
122 142 0
130 148 0
140 157 0
134 153 0
134 154 0
126 144 0
128 145 0
139 157 0
138 156 0
128 146 0
135 152 0
145 163 0
127 145 0
137 153 0
135 152 0
136 154 0
127 145 0
136 155 0
140 156 0
136 152 0
128 145 0
136 154 0
135 151 0
139 156 0
135 151 0
129 144 0
148 166 0
141 159 0
132 146 0
138 155 0
136 152 0
141 159 0
137 153 0
142 158 0
134 148 0
141 158 0
138 152 0
144 161 0
133 149 0
146 163 0
135 149 0
140 155 0
130 143 0
132 145 0
136 150 0
130 146 0
137 150 0
137 153 0
137 152 0
150 167 0
150 164 0
140 154 0
143 156 0
140 155 0
138 152 0
136 149 0
138 150 0
140 152 0
142 156 0
136 148 0
139 151 0
140 152 0
140 150 0
140 150 0
134 144 0
139 151 0
145 157 0
137 143 0
141 153 0
136 145 0
142 151 0
135 145 0
133 142 0
137 145 0
138 147 0
147 157 0
138 147 0
133 140 0
140 147 0
129 136 0
131 140 0
133 141 0
142 151 0
140 149 0
135 141 0
133 138 0
134 137 0
136 141 0
134 138 0
137 143 0
139 142 0
144 149 0
142 145 0
141 145 0
138 140 0
145 150 0
132 133 0
141 146 0
138 139 0
140 143 0
140 143 0
140 143 0
140 141 0
131 131 0
138 138 0
133 132 0
133 130 0
135 137 0
139 138 0
143 145 0
135 131 0
135 136 0
134 132 0
137 134 0
129 127 0
135 132 0
143 142 0
140 138 0
134 133 0
143 142 0
141 142 0
146 147 0
138 138 0
144 143 0
145 147 0
143 142 0
135 132 0
141 140 0
136 135 0
147 148 0
146 146 0
138 137 0
146 148 0
146 147 0
151 154 0
145 147 0
145 147 0
149 152 0
150 153 0
148 150 0
152 153 0
151 153 0
154 159 0
147 149 0
153 156 0
150 152 0
145 148 0
159 165 0
151 155 0
159 164 0
159 164 0
158 165 0
153 158 0
158 164 0
163 169 0
157 166 0
158 168 0
159 169 0
155 162 0
155 163 0
158 165 0
160 170 0
162 172 0
164 176 0
159 166 0
159 169 0
160 171 0
157 167 0
161 171 0
166 178 0
165 179 0
165 176 0
162 176 0
176 198 0
174 196 0
175 197 0
175 196 0
174 196 0
177 198 0
173 195 0
173 195 0
174 196 0
176 197 0
175 196 0
171 192 0
176 198 0
173 194 0
172 193 0
175 196 0
176 196 0
173 194 0
177 198 0
174 195 0
175 195 0
175 196 0
172 192 0
172 193 0
172 192 0
174 195 0
173 194 0
175 195 0
173 193 0
174 194 0
173 193 0
177 196 0
175 195 0
175 195 0
171 191 0
175 194 0
173 193 0
174 194 0
173 194 0
169 189 0
169 189 0
170 191 0
171 191 0
171 191 0
173 193 0
171 192 0
171 191 0
167 188 0
172 191 0
172 191 0
177 197 0
173 193 0
172 192 0
166 186 0
170 190 0
174 194 0
177 196 0
169 189 0
170 189 0
168 188 0
170 190 0
171 190 0
169 190 0
171 191 0
165 186 0
164 184 0
167 187 0
165 185 0
170 190 0
172 192 0
168 189 0
167 186 0
172 192 0
161 181 0
169 190 0
168 188 0
165 186 0
169 189 0
162 181 0
167 187 0
164 184 0
165 185 0
166 187 0
158 178 0
159 179 0
160 180 0
162 181 0
162 182 0
163 184 0
157 178 0
163 184 0
161 181 0
152 174 0
154 174 0
163 183 0
151 172 0
154 176 0
158 179 0
150 172 0
158 179 0
155 176 0
159 180 0
155 176 0
152 173 0
154 176 0
151 172 0
156 178 0
159 180 0
158 180 0
158 179 0
152 175 0
158 180 0
155 176 0
149 171 0
157 178 0
152 173 0
160 181 0
153 175 0
147 169 0
154 176 0
149 170 0
155 177 0
159 181 0
155 176 0
159 180 0
156 178 0
160 182 0
155 177 0
150 172 0
151 173 0
148 170 0
154 175 0
145 166 0
146 169 0
156 178 0
143 165 0
152 174 0
148 170 0
154 175 0
154 175 0
151 173 0
155 177 0
149 171 0
154 176 0
141 163 0
152 173 0
152 173 0
155 176 0
138 160 0
140 162 0
144 167 0
139 161 0
140 161 0
145 166 0
141 163 0
142 163 0
147 169 0
149 170 0
132 153 0
145 166 0
139 161 0
134 156 0
141 162 0
142 163 0
135 156 0
133 155 0
147 168 0
139 161 0
138 160 0
143 163 0
145 167 0
149 170 0
139 160 0
136 157 0
134 155 0
138 158 0
132 153 0
133 152 0
136 156 0
131 152 0
129 149 0
138 160 0
125 145 0
138 159 0
132 151 0
124 144 0
132 153 0
129 148 0
138 158 0
137 157 0
129 150 0
128 148 0
132 152 0
142 162 0
137 156 0
124 144 0
121 140 0
124 144 0
134 154 0
142 161 0
125 144 0
132 153 0
137 157 0
139 158 0
125 144 0
136 156 0
133 152 0
127 146 0
133 153 0
124 144 0
127 145 0
137 157 0
133 152 0
124 143 0
137 157 0
135 155 0
130 148 0
131 150 0
141 160 0
127 143 0
135 155 0
143 163 0
147 165 0
137 156 0
141 160 0
129 149 0
131 150 0
131 150 0
132 151 0
135 153 0
136 154 0
126 143 0
142 161 0
138 154 0
135 154 0
134 151 0
133 150 0
130 148 0
126 144 0
142 159 0
127 146 0
142 161 0
128 144 0
128 145 0
141 160 0
139 157 0
140 157 0
129 144 0
136 152 0
145 163 0
135 152 0
141 158 0
140 157 0
138 156 0
139 157 0
145 163 0
137 152 0
128 144 0
144 163 0
137 153 0
135 152 0
141 156 0
148 165 0
139 155 0
142 159 0
141 157 0
136 150 0
141 156 0
142 159 0
146 163 0
146 162 0
136 148 0
136 150 0
139 155 0
142 160 0
145 161 0
144 158 0
144 158 0
145 160 0
141 157 0
135 151 0
137 152 0
134 149 0
135 147 0
151 168 0
140 153 0
127 137 0
138 152 0
140 151 0
145 158 0
143 158 0
136 147 0
138 150 0
138 148 0
141 152 0
137 147 0
130 138 0
138 148 0
146 156 0
133 140 0
143 154 0
146 152 0
145 155 0
135 142 0
144 154 0
142 153 0
139 147 0
143 151 0
140 149 0
134 143 0
132 139 0
140 147 0
136 142 0
142 148 0
141 145 0
135 142 0
141 145 0
128 133 0
136 139 0
144 149 0
138 142 0
148 154 0
136 141 0
142 146 0
142 148 0
140 143 0
136 138 0
134 137 0
142 143 0
144 146 0
133 136 0
142 147 0
133 135 0
137 138 0
142 143 0
134 135 0
133 131 0
137 136 0
144 147 0
139 138 0
143 143 0
143 147 0
137 138 0
149 150 0
142 142 0
138 135 0
135 134 0
136 134 0
143 143 0
138 136 0
144 146 0
142 144 0
142 143 0
145 146 0
143 145 0
146 147 0
149 151 0
142 138 0
146 146 0
146 148 0
148 150 0
151 152 0
145 147 0
149 152 0
148 150 0
149 151 0
145 146 0
156 162 0
148 150 0
152 156 0
148 154 0
153 156 0
154 159 0
147 150 0
153 158 0
155 160 0
155 159 0
157 163 0
155 159 0
158 166 0
157 165 0
161 167 0
156 161 0
155 159 0
154 160 0
160 168 0
160 168 0
154 162 0
164 174 0
158 167 0
157 166 0
165 177 0
163 173 0
156 167 0
160 170 0
159 170 0
162 175 0
159 170 0
157 166 0
162 174 0
174 196 0
174 196 0
176 197 0
174 196 0
176 197 0
175 196 0
171 193 0
174 196 0
172 193 0
176 197 0
175 197 0
175 195 0
173 195 0
176 197 0
175 196 0
173 194 0
175 196 0
175 196 0
172 192 0
174 195 0
176 196 0
176 196 0
177 198 0
174 194 0
173 195 0
174 195 0
173 194 0
173 193 0
175 195 0
177 198 0
175 195 0
176 195 0
174 194 0
177 197 0
168 187 0
172 193 0
176 196 0
172 191 0
176 194 0
175 196 0
173 193 0
170 190 0
175 195 0
172 192 0
168 188 0
171 191 0
171 192 0
171 191 0
166 186 0
173 192 0
171 190 0
168 188 0
172 192 0
169 189 0
168 188 0
165 184 0
170 190 0
169 190 0
168 188 0
165 185 0
166 186 0
171 191 0
173 191 0
168 188 0
164 185 0
169 189 0
171 191 0
171 191 0
169 189 0
173 192 0
163 183 0
164 185 0
170 190 0
167 187 0
161 181 0
164 184 0
170 191 0
164 185 0
166 186 0
159 179 0
164 183 0
160 181 0
165 186 0
159 179 0
160 180 0
164 184 0
161 182 0
160 180 0
153 174 0
170 190 0
158 179 0
162 183 0
158 179 0
163 184 0
154 175 0
167 188 0
165 186 0
162 183 0
153 175 0
157 178 0
158 180 0
155 176 0
161 183 0
159 181 0
150 171 0
154 174 0
158 181 0
150 170 0
157 178 0
148 169 0
153 174 0
154 175 0
157 178 0
151 172 0
155 177 0
151 171 0
153 175 0
152 174 0
152 174 0
156 177 0
161 183 0
148 170 0
152 173 0
148 169 0
153 175 0
155 176 0
156 178 0
152 173 0
159 181 0
153 175 0
151 173 0
157 178 0
154 176 0
139 161 0
149 170 0
154 175 0
150 171 0
154 176 0
151 172 0
147 169 0
155 176 0
148 170 0
148 170 0
146 166 0
144 166 0
151 173 0
143 164 0
138 159 0
146 168 0
139 159 0
139 161 0
147 167 0
147 168 0
135 155 0
150 171 0
148 170 0
145 166 0
140 160 0
146 169 0
150 171 0
139 160 0
142 164 0
133 153 0
142 164 0
145 166 0
130 152 0
140 161 0
142 163 0
141 162 0
137 158 0
135 157 0
143 165 0
141 162 0
132 152 0
133 154 0
132 154 0
133 154 0
133 153 0
142 162 0
135 157 0
124 145 0
139 159 0
146 167 0
132 153 0
136 157 0
139 159 0
134 154 0
128 148 0
138 158 0
130 152 0
138 159 0
139 160 0
137 158 0
134 153 0
129 150 0
131 150 0
129 149 0
133 153 0
127 146 0
137 157 0
136 157 0
135 155 0
133 153 0
126 145 0
134 156 0
137 156 0
129 147 0
134 152 0
131 151 0
140 159 0
135 155 0
140 160 0
138 157 0
136 154 0
134 153 0
134 152 0
134 151 0
144 163 0
125 145 0
136 156 0
130 147 0
134 153 0
138 158 0
144 163 0
132 153 0
139 159 0
139 158 0
131 149 0
137 157 0
119 137 0
134 154 0
132 151 0
129 147 0
130 148 0
146 165 0
138 156 0
143 161 0
126 142 0
130 146 0
144 163 0
144 161 0
127 144 0
134 150 0
135 154 0
134 150 0
139 158 0
133 150 0
132 149 0
125 141 0
135 152 0
137 155 0
144 162 0
142 158 0
145 163 0
134 151 0
135 151 0
137 154 0
133 149 0
142 161 0
147 163 0
146 164 0
139 158 0
146 164 0
150 169 0
145 161 0
134 151 0
143 157 0
138 153 0
136 152 0
143 159 0
135 152 0
142 158 0
138 151 0
134 150 0
133 146 0
142 157 0
134 148 0
139 154 0
139 156 0
146 162 0
144 160 0
142 158 0
138 150 0
137 149 0
140 152 0
128 141 0
142 158 0
141 156 0
144 157 0
145 157 0
135 149 0
136 148 0
136 147 0
141 152 0
141 152 0
143 158 0
142 154 0
131 139 0
139 147 0
141 153 0
150 160 0
140 149 0
138 150 0
144 156 0
140 153 0
143 152 0
146 152 0
140 151 0
140 148 0
135 143 0
149 157 0
136 141 0
142 147 0
146 154 0
143 151 0
141 146 0
144 149 0
144 150 0
138 143 0
141 146 0
146 153 0
136 142 0
131 134 0
135 136 0
138 141 0
141 145 0
135 138 0
137 141 0
146 150 0
136 141 0
143 145 0
141 145 0
146 151 0
148 150 0
138 143 0
143 143 0
140 141 0
141 144 0
137 138 0
143 143 0
141 142 0
139 141 0
132 130 0
142 140 0
138 140 0
144 145 0
138 142 0
140 140 0
143 144 0
141 144 0
136 136 0
136 137 0
144 145 0
146 149 0
143 144 0
141 140 0
148 150 0
149 151 0
145 145 0
149 151 0
143 141 0
142 143 0
146 148 0
148 150 0
151 153 0
147 150 0
149 151 0
149 151 0
154 158 0
153 160 0
153 158 0
154 161 0
150 151 0
153 157 0
155 160 0
152 156 0
155 161 0
156 161 0
156 161 0
160 165 0
156 162 0
163 174 0
156 162 0
153 159 0
159 168 0
159 168 0
158 165 0
159 167 0
152 159 0
159 170 0
161 169 0
163 173 0
160 169 0
162 174 0
163 173 0
157 165 0
162 172 0
162 173 0
163 172 0
161 171 0
175 197 0
173 194 0
174 195 0
174 195 0
173 195 0
170 191 0
174 196 0
171 193 0
173 194 0
174 196 0
174 195 0
170 191 0
171 192 0
173 193 0
173 194 0
175 196 0
175 196 0
176 197 0
173 193 0
173 193 0
173 194 0
175 195 0
176 196 0
176 196 0
175 195 0
177 197 0
174 195 0
173 193 0
173 194 0
173 194 0
174 194 0
176 196 0
172 193 0
170 191 0
170 190 0
169 190 0
170 191 0
175 194 0
173 193 0
173 193 0
176 196 0
175 195 0
172 191 0
173 192 0
173 193 0
168 188 0
173 192 0
170 191 0
171 192 0
170 190 0
164 184 0
171 189 0
167 186 0
169 188 0
170 191 0
171 190 0
169 189 0
167 187 0
166 187 0
165 185 0
167 187 0
170 189 0
165 186 0
172 192 0
173 194 0
171 190 0
166 187 0
170 190 0
166 186 0
162 182 0
164 184 0
161 181 0
165 186 0
162 182 0
169 190 0
164 185 0
166 187 0
160 181 0
172 192 0
163 183 0
167 187 0
157 177 0
166 187 0
162 183 0
160 181 0
156 178 0
157 177 0
166 187 0
159 180 0
164 185 0
159 181 0
160 182 0
161 183 0
157 179 0
157 178 0
155 175 0
159 179 0
163 184 0
156 178 0
159 181 0
159 179 0
160 181 0
150 171 0
161 182 0
154 175 0
154 175 0
160 182 0
153 175 0
158 180 0
151 173 0
157 178 0
156 177 0
156 178 0
154 176 0
157 178 0
152 174 0
152 175 0
155 176 0
150 172 0
155 176 0
145 167 0
156 177 0
150 173 0
150 173 0
153 175 0
156 178 0
154 176 0
156 178 0
154 177 0
152 173 0
140 161 0
152 174 0
152 174 0
155 178 0
145 167 0
148 170 0
148 171 0
149 171 0
150 172 0
151 173 0
149 170 0
145 166 0
144 167 0
141 163 0
147 169 0
147 169 0
143 164 0
148 170 0
144 167 0
141 163 0
148 169 0
146 169 0
137 159 0
152 173 0
137 159 0
152 174 0
143 165 0
146 168 0
133 155 0
139 161 0
143 165 0
149 170 0
142 164 0
141 162 0
145 166 0
137 159 0
143 164 0
137 158 0
144 165 0
134 154 0
135 156 0
137 157 0
143 165 0
148 169 0
133 153 0
141 161 0
136 157 0
139 161 0
138 158 0
142 162 0
141 162 0
131 151 0
142 162 0
129 149 0
137 158 0
140 160 0
141 160 0
133 152 0
131 151 0
141 161 0
134 155 0
141 161 0
137 157 0
134 153 0
137 157 0
123 144 0
140 161 0
132 153 0
133 153 0
135 154 0
138 158 0
128 148 0
137 157 0
130 150 0
142 160 0
123 140 0
136 155 0
130 149 0
125 144 0
129 147 0
132 153 0
134 155 0
135 153 0
135 154 0
137 158 0
128 147 0
131 151 0
137 157 0
129 150 0
139 157 0
143 162 0
130 150 0
136 156 0
132 150 0
137 155 0
131 149 0
143 162 0
127 146 0
139 158 0
143 163 0
144 162 0
130 149 0
127 145 0
129 148 0
131 149 0
126 145 0
136 155 0
145 164 0
137 154 0
136 154 0
144 162 0
133 152 0
136 154 0
132 150 0
147 166 0
133 151 0
140 157 0
147 165 0
139 157 0
149 163 0
122 140 0
142 159 0
136 153 0
146 165 0
136 154 0
148 166 0
143 161 0
129 146 0
134 151 0
140 158 0
133 150 0
134 151 0
138 156 0
134 150 0
138 154 0
146 162 0
136 149 0
141 158 0
130 143 0
139 156 0
145 160 0
141 157 0
145 162 0
133 149 0
141 157 0
141 155 0
141 157 0
139 154 0
136 151 0
140 154 0
146 162 0
140 154 0
141 154 0
141 156 0
144 158 0
142 156 0
151 166 0
142 153 0
147 158 0
144 157 0
142 155 0
149 160 0
141 151 0
142 156 0
149 162 0
141 152 0
143 155 0
142 151 0
139 150 0
144 155 0
141 153 0
146 157 0
141 155 0
135 145 0
147 156 0
144 154 0
143 152 0
141 150 0
141 151 0
142 151 0
140 149 0
144 152 0
136 144 0
141 151 0
145 155 0
141 149 0
145 153 0
151 160 0
137 143 0
139 144 0
141 149 0
139 145 0
138 144 0
145 150 0
140 148 0
149 155 0
146 154 0
142 147 0
146 151 0
141 147 0
141 141 0
141 143 0
144 147 0
147 149 0
143 144 0
145 151 0
146 150 0
144 147 0
146 148 0
142 146 0
139 141 0
144 150 0
147 150 0
141 145 0
141 143 0
147 150 0
148 150 0
145 145 0
138 138 0
140 141 0
140 142 0
135 134 0
141 141 0
145 147 0
142 145 0
137 137 0
142 144 0
147 147 0
147 147 0
148 147 0
147 151 0
153 157 0
148 150 0
146 145 0
146 147 0
157 165 0
149 151 0
149 154 0
149 152 0
160 165 0
151 155 0
159 162 0
153 158 0
152 157 0
158 163 0
152 157 0
153 160 0
149 152 0
158 165 0
160 167 0
151 154 0
151 156 0
159 169 0
160 166 0
154 160 0
159 163 0
159 165 0
156 162 0
161 169 0
159 168 0
158 166 0
157 166 0
163 173 0
160 171 0
161 172 0
155 161 0
157 163 0
161 171 0
158 166 0
161 171 0
177 198 0
172 194 0
175 195 0
177 198 0
173 195 0
176 197 0
177 198 0
171 192 0
174 195 0
174 195 0
175 196 0
174 194 0
173 194 0
176 196 0
174 195 0
175 196 0
174 194 0
172 193 0
171 192 0
176 197 0
175 195 0
174 195 0
175 196 0
176 197 0
171 192 0
174 194 0
175 196 0
174 194 0
176 195 0
173 194 0
177 197 0
172 192 0
172 192 0
175 195 0
174 194 0
172 192 0
172 193 0
176 196 0
171 191 0
173 192 0
173 193 0
175 195 0
168 188 0
170 191 0
173 192 0
170 190 0
168 188 0
171 192 0
171 192 0
165 186 0
173 193 0
169 190 0
172 192 0
169 189 0
170 189 0
172 193 0
164 184 0
171 191 0
170 189 0
171 191 0
162 181 0
166 185 0
169 190 0
165 186 0
168 189 0
167 188 0
169 189 0
169 189 0
164 184 0
168 187 0
168 189 0
165 186 0
168 189 0
166 186 0
165 186 0
164 184 0
167 188 0
167 187 0
166 186 0
167 188 0
163 184 0
163 184 0
159 180 0
153 174 0
167 188 0
165 186 0
157 178 0
160 180 0
160 182 0
166 187 0
163 184 0
159 181 0
162 183 0
154 175 0
162 183 0
161 183 0
155 176 0
162 183 0
155 176 0
155 176 0
154 176 0
157 179 0
161 184 0
159 181 0
159 181 0
157 179 0
149 170 0
158 179 0
158 180 0
154 176 0
159 182 0
154 176 0
156 178 0
156 178 0
155 177 0
154 176 0
151 172 0
150 172 0
153 174 0
150 172 0
153 174 0
154 176 0
154 176 0
161 183 0
150 172 0
153 175 0
152 174 0
155 178 0
150 172 0
151 173 0
143 166 0
160 182 0
154 176 0
153 174 0
152 174 0
145 167 0
147 169 0
147 168 0
144 166 0
143 165 0
149 170 0
145 167 0
150 171 0
148 170 0
151 173 0
152 175 0
154 176 0
142 164 0
148 170 0
148 170 0
151 173 0
136 157 0
146 167 0
151 173 0
143 164 0
147 168 0
141 162 0
142 163 0
142 164 0
133 153 0
153 174 0
139 160 0
136 157 0
144 165 0
134 155 0
134 154 0
143 164 0
136 158 0
137 158 0
143 164 0
138 159 0
135 155 0
139 160 0
142 163 0
146 167 0
144 165 0
140 160 0
146 169 0
136 158 0
134 156 0
143 164 0
137 158 0
143 165 0
131 150 0
144 165 0
141 161 0
135 154 0
136 156 0
128 149 0
125 145 0
134 155 0
141 160 0
138 157 0
134 153 0
144 165 0
136 156 0
141 163 0
131 152 0
138 159 0
134 154 0
129 149 0
142 162 0
135 155 0
137 159 0
131 150 0
127 145 0
131 151 0
138 158 0
135 155 0
132 152 0
139 159 0
140 158 0
134 154 0
134 153 0
139 159 0
140 159 0
138 156 0
132 152 0
136 155 0
123 142 0
128 147 0
135 154 0
130 148 0
146 166 0
134 152 0
130 150 0
139 157 0
135 155 0
135 154 0
129 146 0
128 147 0
132 151 0
129 148 0
136 155 0
139 157 0
138 155 0
146 166 0
138 157 0
137 156 0
128 146 0
136 154 0
134 153 0
141 158 0
138 154 0
144 162 0
139 157 0
139 157 0
136 155 0
141 158 0
134 152 0
144 163 0
139 157 0
139 156 0
128 145 0
138 156 0
142 160 0
144 162 0
144 162 0
139 157 0
131 146 0
138 155 0
137 152 0
144 161 0
139 157 0
134 152 0
142 159 0
147 164 0
128 143 0
147 165 0
139 154 0
140 157 0
148 165 0
142 158 0
139 155 0
140 154 0
142 157 0
150 166 0
152 168 0
146 162 0
147 162 0
148 164 0
135 148 0
140 153 0
136 151 0
140 155 0
136 149 0
144 156 0
142 156 0
139 152 0
143 159 0
138 153 0
147 161 0
153 166 0
147 161 0
134 145 0
144 158 0
143 157 0
137 151 0
139 149 0
144 157 0
142 154 0
144 156 0
145 157 0
143 152 0
146 158 0
140 149 0
152 164 0
133 141 0
144 154 0
142 154 0
139 150 0
136 145 0
136 144 0
146 154 0
138 147 0
140 152 0
144 153 0
137 144 0
143 151 0
142 152 0
141 148 0
150 158 0
146 153 0
144 152 0
138 143 0
135 143 0
140 147 0
136 143 0
140 148 0
139 142 0
143 149 0
137 142 0
141 144 0
141 145 0
143 148 0
144 146 0
141 145 0
145 147 0
134 137 0
143 147 0
143 146 0
138 140 0
139 143 0
145 148 0
138 141 0
144 146 0
145 147 0
146 149 0
143 147 0
141 145 0
146 149 0
141 141 0
146 148 0
141 142 0
153 157 0
142 141 0
139 140 0
145 146 0
149 149 0
142 143 0
151 156 0
145 145 0
146 148 0
147 149 0
146 148 0
151 154 0
145 145 0
142 142 0
156 163 0
151 154 0
145 149 0
156 162 0
156 159 0
152 159 0
154 159 0
151 154 0
147 146 0
155 160 0
154 159 0
159 165 0
156 162 0
155 159 0
155 162 0
154 160 0
156 161 0
163 172 0
160 169 0
160 169 0
155 161 0
160 170 0
162 171 0
162 172 0
159 169 0
162 174 0
163 174 0
159 169 0
159 167 0
164 175 0
159 167 0
164 177 0
171 192 0
177 198 0
173 195 0
175 196 0
171 192 0
172 195 0
172 193 0
174 195 0
173 194 0
172 193 0
176 197 0
175 196 0
173 194 0
174 195 0
175 196 0
174 194 0
172 193 0
173 194 0
171 192 0
175 195 0
177 197 0
176 197 0
172 192 0
175 194 0
171 192 0
174 195 0
173 193 0
169 189 0
175 195 0
175 195 0
168 188 0
175 195 0
174 194 0
169 189 0
174 194 0
172 192 0
171 191 0
170 190 0
170 190 0
172 193 0
171 192 0
171 191 0
173 194 0
174 194 0
172 192 0
172 193 0
167 187 0
174 194 0
172 193 0
176 195 0
170 190 0
167 188 0
171 191 0
176 195 0
169 188 0
175 194 0
170 190 0
167 188 0
169 188 0
170 190 0
168 188 0
164 184 0
162 182 0
172 192 0
166 186 0
165 184 0
165 185 0
163 183 0
167 188 0
170 190 0
167 188 0
157 177 0
160 181 0
165 186 0
172 192 0
161 182 0
167 187 0
166 187 0
166 186 0
163 184 0
164 185 0
158 178 0
164 184 0
169 188 0
166 187 0
165 186 0
162 184 0
156 177 0
152 173 0
165 186 0
158 178 0
162 184 0
157 178 0
159 180 0
156 177 0
161 183 0
162 183 0
159 181 0
153 175 0
165 187 0
161 184 0
153 174 0
146 168 0
156 177 0
161 182 0
157 179 0
161 182 0
149 171 0
159 180 0
161 182 0
159 181 0
161 183 0
155 176 0
156 176 0
155 176 0
153 175 0
156 178 0
156 178 0
150 171 0
152 174 0
151 173 0
162 184 0
149 171 0
151 172 0
141 164 0
150 173 0
145 166 0
153 175 0
148 170 0
148 170 0
153 176 0
150 173 0
151 174 0
151 173 0
149 171 0
147 169 0
150 172 0
145 167 0
151 173 0
149 171 0
142 164 0
156 177 0
147 169 0
145 167 0
147 168 0
145 168 0
157 180 0
137 159 0
156 178 0
146 169 0
147 169 0
141 162 0
154 176 0
150 171 0
150 170 0
142 164 0
146 167 0
149 172 0
146 166 0
141 162 0
142 164 0
144 166 0
143 164 0
139 161 0
139 160 0
143 164 0
146 167 0
148 170 0
149 169 0
148 169 0
138 158 0
148 170 0
148 169 0
146 167 0
140 162 0
138 159 0
139 160 0
132 153 0
143 163 0
136 157 0
146 166 0
136 156 0
131 153 0
146 167 0
145 166 0
140 161 0
140 162 0
130 151 0
138 158 0
141 162 0
142 163 0
136 156 0
137 158 0
131 151 0
135 155 0
142 161 0
138 159 0
139 158 0
133 154 0
134 153 0
137 158 0
141 160 0
150 168 0
141 162 0
136 155 0
132 152 0
139 158 0
135 157 0
127 146 0
136 155 0
131 152 0
124 144 0
138 158 0
141 162 0
134 154 0
136 155 0
140 160 0
132 153 0
135 153 0
135 153 0
132 152 0
143 163 0
139 157 0
141 162 0
123 142 0
137 156 0
136 155 0
128 147 0
134 153 0
139 157 0
139 159 0
130 148 0
136 153 0
150 170 0
128 146 0
140 157 0
135 153 0
134 153 0
135 155 0
136 155 0
140 160 0
131 148 0
140 159 0
135 153 0
138 154 0
145 164 0
140 158 0
137 155 0
141 158 0
140 157 0
133 149 0
139 157 0
142 160 0
141 159 0
146 165 0
142 161 0
141 158 0
144 161 0
145 165 0
136 152 0
144 163 0
131 147 0
152 170 0
138 153 0
135 151 0
139 154 0
129 146 0
136 151 0
142 158 0
146 161 0
148 166 0
141 159 0
142 159 0
144 161 0
144 158 0
147 164 0
143 161 0
146 160 0
149 166 0
139 150 0
155 171 0
144 158 0
133 146 0
145 158 0
145 159 0
134 150 0
145 160 0
144 158 0
138 153 0
133 145 0
142 155 0
140 155 0
148 163 0
142 154 0
145 157 0
142 154 0
138 151 0
141 152 0
141 154 0
139 147 0
145 154 0
137 147 0
147 160 0
141 152 0
139 148 0
140 151 0
146 158 0
146 158 0
136 143 0
142 152 0
138 143 0
140 147 0
141 150 0
142 149 0
143 151 0
153 162 0
149 160 0
144 153 0
139 146 0
146 157 0
146 154 0
138 142 0
147 155 0
149 156 0
146 155 0
145 149 0
142 148 0
142 149 0
143 150 0
139 145 0
148 153 0
139 143 0
145 150 0
144 148 0
141 144 0
149 155 0
142 145 0
139 141 0
143 145 0
145 146 0
147 151 0
141 142 0
148 153 0
146 150 0
151 157 0
140 142 0
139 142 0
150 153 0
142 144 0
149 156 0
144 145 0
140 141 0
145 147 0
141 144 0
148 151 0
150 154 0
146 151 0
152 158 0
151 154 0
151 158 0
143 146 0
150 155 0
151 154 0
145 150 0
150 152 0
149 153 0
145 149 0
150 156 0
151 153 0
144 147 0
146 148 0
149 150 0
150 157 0
154 157 0
149 151 0
151 154 0
156 162 0
149 152 0
152 159 0
157 162 0
156 164 0
153 159 0
152 156 0
155 160 0
158 165 0
154 160 0
152 159 0
157 164 0
154 161 0
154 164 0
161 169 0
156 166 0
159 169 0
162 173 0
164 177 0
159 166 0
158 167 0
157 167 0
162 173 0
161 172 0
171 192 0
175 197 0
171 192 0
175 195 0
173 195 0
172 193 0
170 193 0
177 198 0
174 196 0
172 193 0
178 199 0
174 196 0
175 196 0
173 194 0
174 193 0
171 193 0
173 194 0
174 194 0
176 196 0
171 193 0
174 195 0
178 198 0
175 195 0
176 196 0
178 198 0
172 192 0
172 193 0
171 191 0
173 193 0
175 195 0
171 192 0
172 191 0
175 195 0
176 196 0
176 195 0
172 193 0
172 192 0
171 191 0
169 189 0
173 193 0
171 191 0
169 189 0
165 185 0
176 196 0
171 192 0
170 191 0
175 196 0
172 192 0
170 190 0
165 186 0
169 190 0
170 190 0
175 195 0
164 184 0
170 191 0
169 189 0
173 193 0
169 189 0
171 191 0
165 186 0
168 189 0
169 189 0
168 189 0
165 186 0
170 190 0
164 185 0
168 189 0
168 188 0
170 190 0
164 185 0
161 183 0
161 181 0
162 183 0
165 186 0
164 184 0
166 187 0
160 180 0
161 182 0
160 179 0
159 180 0
159 179 0
164 185 0
165 185 0
160 181 0
167 188 0
158 179 0
154 176 0
162 183 0
152 173 0
155 176 0
161 182 0
159 180 0
153 176 0
157 179 0
161 182 0
162 183 0
161 183 0
165 186 0
157 178 0
159 180 0
158 180 0
158 179 0
149 171 0
154 177 0
147 170 0
156 178 0
157 180 0
153 175 0
149 172 0
161 183 0
157 179 0
159 181 0
152 173 0
155 177 0
156 178 0
150 172 0
156 179 0
164 186 0
146 168 0
143 164 0
160 182 0
150 172 0
159 181 0
161 183 0
153 173 0
162 184 0
151 173 0
155 176 0
150 172 0
156 178 0
150 172 0
152 174 0
147 170 0
152 174 0
151 172 0
150 171 0
155 177 0
140 163 0
150 171 0
150 171 0
149 171 0
151 172 0
141 163 0
147 168 0
145 166 0
147 168 0
136 158 0
142 165 0
150 172 0
149 171 0
142 164 0
150 171 0
151 172 0
159 181 0
149 171 0
148 170 0
152 173 0
154 175 0
150 170 0
142 163 0
147 170 0
147 168 0
145 168 0
146 167 0
138 158 0
148 168 0
147 169 0
140 161 0
142 164 0
141 162 0
139 160 0
139 162 0
140 160 0
141 163 0
145 168 0
140 161 0
138 159 0
133 156 0
141 162 0
138 159 0
138 160 0
143 165 0
146 167 0
130 151 0
141 160 0
139 160 0
137 157 0
131 151 0
139 160 0
135 156 0
141 161 0
146 166 0
142 163 0
143 165 0
140 160 0
147 169 0
147 168 0
127 146 0
150 172 0
127 149 0
140 161 0
133 152 0
137 155 0
137 157 0
128 147 0
137 157 0
143 161 0
132 152 0
126 146 0
139 159 0
142 163 0
139 159 0
134 155 0
146 165 0
140 158 0
144 164 0
137 157 0
145 165 0
127 148 0
138 155 0
142 160 0
138 156 0
133 153 0
136 155 0
137 158 0
137 158 0
134 154 0
145 164 0
133 151 0
139 158 0
134 152 0
130 148 0
135 153 0
141 160 0
150 168 0
147 167 0
129 148 0
134 152 0
145 165 0
146 164 0
134 152 0
138 156 0
142 160 0
141 160 0
145 163 0
140 158 0
136 155 0
141 160 0
133 152 0
136 153 0
152 170 0
142 161 0
140 159 0
143 161 0
142 160 0
141 159 0
140 158 0
140 157 0
142 160 0
139 156 0
134 151 0
137 155 0
140 157 0
138 156 0
144 160 0
144 159 0
146 161 0
140 156 0
145 163 0
139 157 0
144 161 0
146 162 0
144 161 0
147 163 0
142 158 0
136 153 0
143 158 0
154 170 0
155 172 0
155 172 0
144 160 0
147 163 0
133 148 0
147 162 0
142 155 0
133 149 0
147 161 0
140 153 0
146 160 0
141 154 0
140 157 0
147 161 0
134 147 0
137 152 0
148 160 0
142 155 0
141 154 0
141 152 0
135 148 0
143 153 0
146 156 0
145 157 0
149 159 0
145 158 0
139 151 0
136 147 0
140 153 0
141 155 0
149 161 0
149 161 0
142 152 0
149 162 0
141 151 0
151 159 0
151 157 0
134 144 0
143 151 0
139 147 0
147 155 0
141 150 0
149 158 0
147 157 0
135 142 0
144 151 0
145 154 0
140 148 0
145 152 0
143 151 0
137 142 0
142 149 0
149 155 0
140 144 0
145 151 0
145 151 0
140 144 0
144 151 0
149 153 0
146 150 0
143 148 0
150 157 0
148 152 0
147 150 0
143 147 0
146 151 0
145 148 0
145 147 0
150 156 0
143 148 0
152 155 0
146 147 0
137 139 0
147 149 0
146 151 0
147 152 0
147 150 0
154 160 0
144 145 0
142 143 0
147 149 0
144 148 0
141 145 0
147 149 0
151 152 0
152 159 0
148 150 0
148 152 0
148 153 0
151 154 0
142 145 0
158 162 0
155 162 0
152 156 0
151 157 0
150 151 0
151 153 0
161 169 0
154 159 0
154 158 0
157 163 0
154 160 0
152 157 0
151 159 0
157 168 0
152 158 0
153 158 0
158 165 0
154 161 0
161 170 0
157 164 0
157 167 0
152 159 0
160 169 0
156 163 0
158 166 0
159 168 0
161 170 0
161 170 0
166 178 0
165 174 0
157 164 0
173 194 0
175 196 0
174 195 0
173 195 0
176 196 0
176 197 0
176 198 0
177 197 0
175 196 0
175 195 0
173 194 0
174 196 0
172 193 0
174 195 0
173 194 0
174 195 0
179 199 0
175 196 0
173 193 0
171 191 0
172 193 0
174 195 0
173 193 0
172 193 0
173 193 0
178 198 0
175 196 0
171 191 0
173 192 0
175 194 0
173 193 0
172 192 0
174 194 0
173 193 0
172 193 0
173 194 0
167 188 0
168 188 0
174 194 0
175 195 0
174 195 0
171 191 0
169 189 0
172 192 0
173 193 0
176 197 0
179 199 0
172 192 0
169 189 0
171 190 0
172 193 0
175 195 0
172 193 0
171 191 0
172 192 0
174 195 0
167 188 0
168 189 0
169 189 0
169 189 0
170 191 0
165 185 0
171 191 0
167 187 0
166 185 0
170 190 0
170 191 0
165 185 0
171 191 0
163 182 0
162 183 0
165 186 0
164 185 0
163 184 0
165 186 0
160 182 0
163 185 0
163 183 0
158 180 0
155 176 0
165 186 0
157 177 0
162 183 0
161 182 0
158 178 0
163 184 0
161 182 0
157 179 0
161 183 0
159 179 0
153 174 0
162 184 0
163 184 0
167 188 0
159 181 0
156 177 0
164 185 0
159 181 0
161 183 0
153 175 0
149 171 0
154 177 0
154 176 0
154 176 0
160 182 0
156 179 0
158 180 0
152 175 0
159 180 0
154 176 0
156 178 0
159 182 0
157 178 0
154 176 0
158 180 0
155 177 0
152 174 0
156 178 0
158 179 0
153 176 0
150 172 0
163 185 0
155 178 0
160 182 0
155 177 0
152 174 0
154 176 0
152 174 0
154 175 0
152 174 0
148 170 0
151 173 0
155 177 0
143 164 0
158 180 0
139 160 0
151 173 0
151 172 0
145 168 0
149 170 0
151 173 0
148 170 0
146 169 0
159 182 0
151 173 0
143 164 0
156 177 0
146 169 0
148 170 0
150 171 0
148 171 0
149 171 0
140 163 0
152 173 0
146 167 0
147 168 0
148 170 0
143 164 0
148 168 0
143 164 0
145 166 0
142 164 0
144 166 0
151 173 0
143 166 0
142 162 0
140 162 0
148 170 0
147 169 0
137 158 0
148 170 0
143 164 0
148 169 0
137 157 0
140 162 0
140 162 0
146 168 0
139 161 0
142 164 0
144 164 0
133 154 0
146 167 0
144 165 0
140 162 0
138 158 0
141 161 0
142 164 0
132 152 0
145 165 0
140 161 0
136 157 0
146 168 0
141 162 0
146 167 0
136 157 0
135 156 0
146 166 0
133 154 0
141 162 0
143 164 0
143 164 0
143 163 0
147 169 0
150 171 0
140 160 0
133 153 0
136 156 0
142 162 0
148 167 0
138 158 0
136 154 0
140 158 0
139 159 0
130 149 0
137 157 0
139 160 0
139 159 0
142 162 0
146 165 0
125 144 0
135 154 0
145 166 0
130 151 0
142 162 0
143 161 0
129 148 0
141 160 0
140 161 0
139 159 0
140 159 0
149 168 0
139 159 0
141 160 0
139 158 0
142 161 0
133 152 0
144 163 0
141 159 0
133 154 0
145 163 0
143 161 0
140 158 0
144 163 0
142 160 0
130 148 0
136 153 0
139 157 0
139 155 0
147 166 0
139 158 0
138 157 0
147 166 0
137 154 0
141 159 0
135 153 0
137 155 0
144 162 0
135 152 0
144 162 0
141 158 0
141 160 0
148 164 0
133 150 0
134 150 0
148 166 0
142 160 0
140 157 0
147 165 0
137 154 0
144 160 0
144 159 0
145 162 0
147 166 0
144 157 0
140 153 0
149 166 0
139 155 0
146 162 0
144 159 0
138 154 0
144 158 0
136 149 0
144 160 0
147 159 0
142 156 0
135 150 0
147 159 0
143 159 0
137 152 0
150 164 0
141 152 0
134 148 0
148 164 0
148 162 0
143 158 0
144 158 0
144 159 0
149 162 0
142 155 0
146 158 0
150 161 0
139 153 0
147 159 0
142 156 0
146 157 0
146 158 0
147 162 0
144 154 0
140 151 0
138 147 0
149 157 0
148 157 0
142 152 0
147 157 0
142 152 0
146 156 0
146 159 0
141 150 0
137 147 0
152 161 0
147 158 0
145 154 0
140 148 0
150 159 0
148 156 0
140 148 0
147 155 0
147 154 0
145 152 0
151 158 0
140 146 0
144 150 0
144 150 0
144 152 0
149 157 0
142 147 0
144 149 0
144 150 0
145 153 0
150 157 0
142 146 0
153 157 0
146 150 0
146 149 0
142 143 0
146 151 0
143 147 0
140 146 0
140 142 0
144 149 0
146 149 0
151 156 0
151 155 0
147 151 0
150 153 0
144 145 0
151 155 0
147 152 0
147 151 0
148 153 0
153 159 0
149 153 0
143 145 0
145 147 0
153 159 0
153 158 0
158 161 0
151 153 0
150 155 0
149 154 0
152 157 0
154 159 0
150 155 0
152 158 0
154 161 0
157 162 0
156 163 0
154 160 0
152 157 0
156 161 0
149 155 0
154 160 0
156 166 0
153 159 0
153 158 0
156 163 0
158 165 0
162 171 0
157 164 0
157 163 0
165 177 0
159 166 0
160 171 0
157 161 0
156 163 0
158 167 0
158 167 0
159 168 0
160 169 0
160 169 0
174 195 0
172 193 0
176 198 0
176 197 0
170 192 0
173 194 0
174 195 0
172 193 0
175 197 0
177 198 0
175 196 0
178 198 0
173 193 0
176 197 0
177 197 0
174 195 0
172 193 0
174 194 0
172 193 0
174 194 0
174 195 0
173 194 0
175 196 0
172 193 0
172 192 0
175 195 0
172 193 0
171 191 0
174 194 0
172 192 0
175 195 0
176 196 0
172 193 0
167 188 0
172 193 0
170 190 0
172 193 0
168 188 0
174 194 0
174 194 0
174 194 0
172 191 0
174 193 0
169 190 0
171 191 0
169 190 0
172 192 0
172 192 0
168 189 0
172 192 0
171 190 0
172 192 0
166 187 0
168 189 0
168 188 0
172 193 0
165 186 0
167 187 0
168 189 0
166 186 0
167 188 0
166 187 0
164 184 0
165 186 0
165 184 0
163 184 0
166 187 0
166 187 0
166 186 0
164 185 0
163 184 0
168 190 0
161 181 0
160 181 0
166 187 0
165 186 0
168 189 0
163 183 0
164 185 0
169 190 0
164 186 0
163 183 0
157 179 0
167 188 0
164 184 0
167 188 0
154 175 0
161 183 0
161 183 0
162 183 0
162 184 0
163 185 0
154 177 0
156 178 0
162 182 0
157 179 0
160 182 0
152 174 0
161 184 0
159 182 0
158 180 0
158 180 0
154 176 0
156 178 0
157 179 0
154 176 0
156 178 0
162 183 0
158 180 0
155 177 0
159 180 0
149 172 0
155 178 0
152 174 0
149 172 0
148 170 0
151 174 0
153 175 0
156 178 0
157 178 0
151 174 0
154 177 0
148 169 0
146 167 0
156 178 0
153 174 0
158 180 0
149 171 0
155 178 0
146 170 0
154 176 0
151 172 0
153 175 0
151 173 0
149 171 0
148 171 0
145 167 0
153 173 0
143 165 0
150 172 0
148 169 0
155 176 0
148 169 0
151 173 0
144 166 0
155 176 0
148 171 0
143 164 0
151 173 0
149 171 0
145 167 0
140 161 0
148 169 0
149 171 0
153 174 0
142 162 0
154 176 0
154 176 0
143 165 0
148 170 0
144 165 0
147 170 0
142 162 0
146 168 0
145 166 0
144 165 0
144 165 0
146 168 0
147 168 0
148 169 0
141 162 0
140 159 0
150 170 0
145 166 0
143 164 0
147 168 0
138 159 0
138 160 0
144 165 0
145 165 0
156 178 0
144 166 0
147 169 0
137 159 0
147 169 0
137 158 0
148 170 0
145 167 0
137 158 0
145 165 0
143 163 0
139 161 0
145 165 0
142 163 0
137 158 0
134 155 0
136 157 0
139 160 0
143 164 0
146 166 0
138 159 0
146 166 0
140 161 0
142 163 0
143 163 0
134 155 0
140 160 0
135 155 0
132 151 0
131 151 0
132 153 0
141 161 0
136 155 0
137 157 0
132 152 0
135 154 0
145 166 0
138 157 0
142 162 0
148 166 0
143 162 0
144 164 0
143 163 0
147 167 0
141 161 0
138 157 0
134 153 0
140 162 0
149 170 0
135 155 0
133 151 0
134 153 0
143 162 0
137 156 0
142 162 0
140 159 0
140 158 0
136 154 0
144 165 0
131 151 0
143 160 0
145 164 0
139 159 0
142 162 0
139 157 0
144 162 0
143 159 0
139 158 0
129 149 0
134 151 0
142 160 0
145 163 0
143 160 0
143 161 0
144 161 0
146 164 0
139 156 0
142 161 0
142 161 0
133 149 0
139 158 0
131 148 0
138 155 0
144 161 0
138 157 0
151 170 0
144 160 0
142 157 0
144 161 0
143 159 0
144 160 0
138 153 0
145 160 0
137 153 0
141 157 0
145 162 0
147 164 0
140 156 0
141 157 0
137 154 0
135 150 0
143 160 0
144 160 0
141 156 0
138 150 0
147 164 0
133 148 0
140 154 0
142 152 0
149 163 0
141 155 0
147 162 0
149 162 0
146 162 0
147 160 0
152 167 0
143 157 0
144 160 0
147 159 0
135 149 0
145 157 0
139 152 0
141 153 0
149 164 0
141 152 0
148 161 0
144 158 0
153 166 0
150 163 0
153 164 0
150 165 0
145 157 0
151 165 0
150 162 0
143 156 0
140 151 0
133 145 0
143 155 0
153 165 0
144 154 0
145 154 0
147 158 0
145 157 0
147 156 0
141 150 0
146 154 0
148 158 0
144 154 0
147 153 0
148 158 0
147 157 0
142 152 0
148 157 0
150 158 0
145 152 0
141 148 0
143 151 0
155 161 0
136 143 0
142 146 0
146 152 0
146 153 0
148 152 0
153 159 0
143 150 0
141 147 0
148 150 0
146 153 0
150 157 0
149 157 0
148 154 0
153 160 0
144 151 0
143 149 0
143 147 0
148 151 0
147 148 0
153 158 0
158 166 0
154 157 0
146 149 0
155 161 0
156 163 0
149 155 0
151 157 0
150 155 0
154 160 0
147 151 0
146 150 0
156 161 0
156 163 0
149 152 0
152 155 0
153 158 0
152 159 0
157 162 0
156 164 0
160 167 0
149 154 0
153 158 0
154 157 0
155 163 0
155 161 0
162 170 0
158 166 0
162 170 0
152 161 0
150 152 0
152 159 0
162 171 0
162 170 0
162 173 0
151 157 0
160 169 0
156 166 0
160 172 0
157 165 0
165 177 0
153 161 0
162 172 0
174 195 0
176 197 0
172 193 0
171 192 0
172 193 0
172 193 0
171 192 0
171 193 0
174 195 0
172 193 0
173 195 0
173 194 0
173 193 0
175 196 0
173 194 0
171 192 0
173 194 0
174 196 0
172 193 0
170 191 0
174 195 0
175 196 0
174 196 0
166 187 0
172 193 0
170 191 0
175 196 0
173 193 0
173 194 0
176 196 0
172 192 0
176 196 0
171 192 0
172 193 0
174 193 0
172 192 0
171 191 0
169 189 0
173 193 0
170 190 0
168 189 0
177 197 0
171 190 0
171 191 0
171 192 0
166 187 0
174 194 0
170 190 0
168 188 0
171 191 0
169 190 0
167 189 0
166 187 0
169 188 0
165 185 0
166 187 0
171 191 0
169 190 0
170 191 0
163 183 0
168 188 0
166 187 0
169 190 0
170 191 0
165 187 0
170 190 0
163 184 0
164 185 0
161 183 0
169 190 0
159 179 0
160 181 0
164 186 0
159 181 0
168 190 0
156 177 0
155 176 0
168 190 0
163 185 0
163 185 0
160 182 0
152 174 0
164 185 0
159 181 0
156 178 0
159 181 0
161 182 0
164 185 0
162 184 0
156 177 0
158 178 0
157 178 0
155 176 0
160 180 0
161 183 0
161 183 0
160 183 0
161 183 0
160 182 0
159 182 0
152 175 0
163 184 0
154 177 0
156 177 0
157 179 0
149 171 0
153 174 0
158 180 0
152 173 0
155 177 0
157 179 0
158 181 0
156 177 0
153 175 0
153 175 0
155 178 0
151 174 0
161 183 0
160 182 0
158 179 0
154 176 0
150 171 0
152 174 0
153 174 0
149 171 0
154 176 0
154 177 0
151 172 0
154 176 0
147 169 0
155 177 0
146 169 0
156 178 0
150 172 0
150 172 0
152 176 0
149 171 0
157 180 0
152 175 0
147 170 0
160 181 0
147 170 0
143 166 0
157 179 0
146 169 0
148 170 0
150 173 0
152 176 0
147 170 0
146 167 0
148 171 0
157 177 0
144 166 0
146 168 0
151 173 0
148 170 0
149 172 0
144 166 0
154 178 0
153 175 0
147 169 0
153 175 0
150 172 0
145 167 0
150 171 0
149 171 0
135 157 0
149 170 0
148 170 0
149 171 0
150 172 0
151 173 0
149 170 0
148 170 0
141 162 0
145 165 0
141 162 0
144 165 0
142 163 0
147 168 0
143 165 0
137 160 0
137 159 0
143 165 0
145 165 0
141 161 0
142 163 0
137 157 0
139 159 0
135 157 0
129 151 0
140 161 0
136 157 0
143 163 0
147 169 0
137 158 0
142 163 0
144 166 0
147 167 0
138 158 0
139 159 0
144 164 0
146 166 0
138 160 0
144 167 0
136 157 0
142 162 0
141 161 0
138 159 0
133 153 0
138 159 0
136 154 0
140 161 0
138 159 0
141 161 0
138 158 0
134 155 0
137 158 0
142 162 0
141 161 0
145 164 0
132 151 0
144 165 0
132 151 0
138 158 0
134 153 0
144 163 0
142 163 0
141 161 0
141 160 0
140 160 0
141 160 0
139 160 0
134 154 0
143 163 0
144 162 0
146 165 0
134 154 0
139 156 0
146 165 0
142 160 0
142 161 0
140 160 0
146 164 0
139 158 0
130 149 0
145 163 0
145 164 0
137 156 0
141 159 0
143 161 0
135 156 0
138 156 0
142 159 0
141 158 0
142 160 0
150 167 0
138 155 0
142 160 0
147 165 0
146 166 0
146 164 0
137 153 0
148 166 0
147 164 0
149 168 0
140 156 0
148 165 0
139 156 0
148 167 0
136 155 0
146 163 0
146 162 0
147 164 0
142 161 0
148 164 0
150 168 0
147 166 0
136 150 0
148 164 0
145 161 0
155 172 0
138 153 0
150 165 0
146 163 0
142 159 0
146 161 0
150 166 0
145 160 0
151 166 0
149 165 0
151 167 0
146 163 0
148 163 0
140 154 0
150 164 0
141 155 0
143 159 0
151 164 0
138 151 0
140 154 0
144 160 0
135 147 0
141 154 0
139 150 0
145 159 0
143 154 0
134 146 0
146 157 0
151 160 0
147 160 0
137 149 0
150 161 0
150 160 0
148 159 0
143 152 0
146 156 0
145 155 0
144 156 0
144 153 0
141 151 0
148 158 0
145 152 0
145 153 0
144 152 0
139 146 0
145 153 0
141 151 0
145 155 0
142 153 0
150 158 0
149 159 0
147 157 0
149 156 0
149 158 0
149 155 0
149 156 0
154 162 0
147 153 0
153 164 0
147 153 0
147 153 0
148 161 0
146 153 0
148 155 0
144 151 0
148 154 0
148 156 0
149 156 0
149 153 0
148 154 0
147 153 0
146 151 0
152 159 0
151 155 0
148 155 0
155 162 0
141 145 0
152 158 0
150 156 0
146 150 0
153 159 0
148 152 0
151 157 0
144 153 0
153 161 0
153 159 0
151 158 0
155 163 0
153 157 0
152 158 0
151 153 0
155 159 0
151 157 0
151 156 0
151 156 0
149 152 0
154 159 0
154 162 0
154 161 0
156 163 0
160 170 0
154 162 0
155 161 0
155 163 0
158 165 0
154 160 0
154 161 0
161 169 0
154 161 0
157 164 0
161 169 0
155 163 0
159 168 0
165 175 0
156 163 0
163 171 0
155 161 0
164 174 0
158 166 0
176 197 0
172 192 0
177 198 0
174 196 0
174 195 0
174 195 0
177 196 0
173 194 0
176 196 0
174 196 0
172 194 0
173 194 0
177 197 0
172 192 0
173 195 0
173 194 0
172 193 0
172 193 0
170 192 0
174 194 0
177 198 0
174 195 0
174 195 0
173 193 0
173 194 0
174 195 0
176 196 0
174 194 0
174 196 0
172 193 0
177 197 0
169 190 0
172 193 0
175 195 0
175 195 0
173 194 0
168 189 0
166 186 0
173 193 0
172 193 0
170 191 0
172 192 0
168 188 0
176 196 0
175 195 0
170 190 0
170 191 0
174 194 0
170 190 0
171 191 0
173 193 0
167 188 0
168 189 0
169 190 0
169 190 0
166 186 0
163 184 0
165 185 0
163 183 0
167 188 0
164 184 0
159 180 0
163 184 0
167 188 0
169 189 0
168 189 0
170 190 0
164 185 0
164 185 0
166 187 0
168 189 0
163 184 0
164 184 0
162 183 0
158 179 0
158 179 0
162 183 0
164 185 0
167 189 0
159 181 0
157 178 0
163 185 0
168 189 0
157 179 0
162 184 0
157 178 0
159 181 0
156 178 0
164 187 0
160 183 0
162 185 0
164 186 0
154 176 0
163 185 0
159 180 0
159 181 0
156 178 0
162 184 0
165 186 0
158 179 0
158 180 0
152 174 0
157 179 0
153 176 0
158 179 0
159 182 0
160 183 0
157 179 0
157 179 0
143 165 0
160 182 0
151 173 0
160 183 0
151 174 0
156 178 0
157 179 0
158 179 0
149 169 0
152 175 0
154 176 0
155 177 0
151 172 0
150 172 0
149 170 0
156 178 0
146 167 0
148 171 0
155 178 0
151 172 0
149 171 0
148 170 0
149 172 0
153 176 0
161 183 0
151 173 0
155 177 0
154 176 0
155 177 0
146 167 0
147 168 0
154 176 0
153 175 0
154 176 0
154 176 0
150 171 0
153 174 0
153 175 0
139 162 0
148 170 0
149 171 0
151 173 0
148 170 0
147 169 0
153 174 0
140 162 0
150 172 0
150 171 0
145 167 0
140 162 0
148 169 0
149 170 0
140 162 0
151 172 0
141 164 0
148 170 0
149 171 0
141 164 0
142 163 0
150 172 0
146 168 0
146 168 0
141 163 0
145 166 0
153 175 0
139 159 0
146 166 0
145 167 0
143 165 0
146 166 0
142 163 0
147 167 0
143 164 0
141 161 0
142 164 0
145 167 0
149 171 0
149 170 0
143 163 0
138 159 0
142 162 0
138 160 0
140 162 0
141 163 0
142 162 0
131 151 0
139 159 0
148 169 0
137 157 0
146 168 0
136 155 0
147 169 0
153 174 0
144 165 0
139 161 0
144 164 0
150 169 0
135 154 0
144 164 0
139 160 0
140 159 0
146 165 0
142 163 0
140 160 0
141 160 0
136 156 0
146 166 0
141 160 0
149 170 0
144 162 0
144 164 0
143 163 0
142 161 0
148 168 0
139 157 0
140 161 0
141 162 0
137 158 0
140 161 0
136 156 0
150 170 0
147 166 0
139 158 0
136 154 0
148 167 0
143 163 0
147 168 0
134 152 0
136 154 0
139 157 0
137 156 0
138 158 0
141 161 0
150 168 0
142 160 0
144 163 0
143 162 0
139 158 0
149 167 0
140 157 0
143 162 0
149 168 0
142 160 0
140 157 0
148 168 0
142 162 0
145 164 0
142 161 0
134 152 0
137 152 0
140 158 0
148 166 0
146 164 0
146 163 0
142 159 0
143 162 0
146 166 0
150 167 0
146 162 0
142 158 0
139 157 0
144 161 0
137 155 0
144 159 0
141 159 0
139 156 0
150 168 0
142 158 0
152 171 0
135 150 0
140 158 0
141 158 0
138 153 0
151 167 0
138 152 0
151 167 0
141 157 0
141 158 0
143 158 0
141 156 0
143 160 0
148 161 0
143 155 0
152 168 0
149 162 0
152 165 0
139 151 0
141 154 0
150 163 0
147 160 0
146 162 0
147 161 0
148 161 0
142 154 0
153 169 0
148 164 0
141 154 0
142 156 0
153 166 0
142 156 0
141 153 0
145 156 0
146 155 0
151 163 0
147 157 0
151 165 0
143 154 0
147 157 0
150 161 0
142 152 0
149 162 0
139 149 0
140 147 0
143 152 0
148 156 0
151 163 0
152 160 0
155 165 0
151 163 0
149 158 0
149 158 0
148 157 0
139 147 0
145 154 0
151 159 0
143 150 0
151 162 0
143 150 0
150 162 0
136 144 0
144 154 0
145 152 0
145 150 0
154 164 0
148 154 0
147 154 0
152 159 0
142 149 0
150 155 0
148 156 0
146 152 0
142 149 0
144 149 0
148 156 0
144 149 0
153 161 0
148 151 0
152 156 0
149 155 0
152 155 0
145 149 0
152 161 0
147 153 0
150 154 0
158 167 0
148 151 0
154 164 0
153 159 0
146 150 0
145 151 0
151 160 0
152 157 0
161 171 0
151 155 0
150 155 0
153 158 0
155 164 0
157 166 0
157 166 0
152 157 0
157 166 0
153 159 0
154 161 0
155 161 0
149 156 0
156 164 0
159 168 0
154 161 0
154 161 0
155 163 0
156 164 0
152 159 0
155 162 0
159 166 0
156 163 0
161 168 0
156 164 0
159 168 0
163 175 0
163 176 0
162 172 0
175 196 0
173 195 0
172 193 0
172 193 0
176 197 0
171 193 0
176 196 0
177 198 0
170 191 0
174 194 0
174 195 0
169 191 0
177 198 0
176 196 0
175 196 0
175 196 0
178 198 0
174 194 0
171 193 0
175 196 0
170 191 0
171 192 0
174 194 0
174 194 0
175 195 0
173 194 0
172 193 0
173 193 0
173 194 0
172 193 0
173 194 0
173 194 0
173 193 0
174 194 0
171 191 0
172 192 0
174 193 0
165 185 0
168 187 0
171 192 0
171 191 0
173 194 0
175 195 0
168 189 0
170 191 0
170 190 0
168 189 0
171 192 0
168 189 0
170 190 0
169 190 0
170 190 0
168 188 0
170 190 0
168 189 0
171 192 0
165 186 0
167 188 0
167 189 0
165 186 0
165 186 0
169 191 0
165 186 0
166 187 0
163 184 0
166 187 0
165 187 0
168 190 0
165 186 0
159 180 0
165 186 0
161 182 0
162 184 0
162 184 0
160 181 0
164 186 0
159 181 0
160 181 0
159 180 0
159 179 0
166 187 0
161 183 0
160 182 0
159 179 0
160 182 0
160 182 0
162 184 0
165 186 0
158 179 0
158 181 0
163 185 0
158 180 0
156 178 0
155 177 0
153 175 0
162 185 0
151 172 0
159 181 0
153 175 0
155 176 0
154 176 0
161 183 0
153 175 0
158 180 0
159 181 0
154 176 0
160 181 0
155 177 0
162 184 0
157 179 0
152 174 0
160 183 0
156 177 0
157 178 0
159 181 0
154 175 0
155 178 0
152 175 0
157 179 0
154 176 0
150 172 0
150 173 0
160 182 0
154 177 0
150 171 0
147 169 0
153 175 0
148 170 0
152 175 0
152 173 0
153 175 0
152 174 0
152 174 0
151 173 0
150 171 0
156 178 0
150 172 0
156 179 0
150 173 0
158 181 0
154 175 0
157 179 0
151 174 0
149 170 0
147 168 0
154 176 0
148 169 0
152 174 0
151 173 0
147 170 0
152 173 0
153 176 0
149 170 0
147 169 0
156 177 0
144 165 0
153 176 0
146 167 0
146 167 0
144 166 0
144 166 0
150 172 0
141 163 0
153 176 0
144 166 0
153 176 0
140 161 0
149 171 0
155 176 0
154 176 0
143 165 0
141 161 0
146 167 0
154 175 0
147 168 0
152 173 0
148 170 0
143 165 0
147 167 0
149 171 0
135 156 0
148 169 0
147 167 0
153 174 0
141 160 0
151 171 0
143 164 0
147 167 0
145 166 0
133 155 0
141 162 0
144 163 0
139 160 0
154 175 0
144 164 0
131 152 0
140 160 0
140 161 0
136 156 0
139 160 0
146 168 0
150 170 0
141 163 0
144 164 0
144 165 0
137 156 0
143 164 0
148 170 0
145 165 0
142 162 0
143 164 0
137 157 0
143 165 0
146 166 0
144 165 0
146 166 0
136 157 0
139 158 0
143 163 0
139 160 0
143 163 0
141 162 0
138 158 0
143 162 0
148 170 0
142 162 0
144 166 0
138 157 0
135 153 0
146 164 0
143 162 0
139 158 0
148 168 0
146 166 0
143 162 0
135 154 0
143 164 0
139 159 0
134 152 0
148 169 0
138 158 0
137 159 0
147 167 0
145 163 0
149 169 0
136 156 0
150 171 0
146 165 0
141 159 0
142 162 0
143 161 0
146 166 0
137 156 0
144 162 0
142 160 0
145 164 0
146 165 0
138 157 0
149 168 0
140 160 0
138 156 0
147 162 0
141 160 0
142 159 0
142 160 0
148 167 0
142 159 0
143 162 0
146 165 0
144 160 0
144 163 0
141 158 0
145 162 0
148 163 0
147 165 0
145 163 0
139 155 0
135 151 0
140 157 0
149 164 0
150 167 0
143 160 0
143 161 0
142 159 0
145 160 0
138 154 0
146 165 0
148 164 0
154 172 0
143 161 0
154 171 0
145 159 0
136 152 0
154 169 0
150 167 0
145 159 0
148 163 0
145 160 0
144 158 0
143 156 0
149 162 0
147 164 0
141 152 0
148 160 0
151 164 0
147 161 0
149 161 0
147 161 0
146 159 0
134 144 0
141 153 0
147 159 0
145 155 0
141 152 0
148 163 0
139 148 0
148 162 0
148 160 0
147 157 0
145 157 0
143 155 0
148 159 0
146 156 0
146 156 0
147 157 0
150 161 0
147 157 0
144 158 0
143 152 0
141 148 0
151 160 0
152 164 0
149 157 0
148 156 0
141 150 0
151 161 0
149 158 0
149 154 0
150 159 0
146 153 0
139 148 0
144 154 0
149 157 0
148 151 0
149 156 0
154 164 0
148 156 0
144 151 0
149 157 0
143 147 0
149 157 0
149 157 0
146 151 0
150 156 0
153 159 0
154 160 0
154 158 0
150 156 0
151 156 0
148 155 0
151 157 0
151 156 0
146 154 0
156 162 0
154 160 0
153 162 0
152 157 0
152 159 0
150 155 0
156 162 0
149 156 0
151 158 0
151 159 0
147 152 0
154 161 0
154 160 0
150 156 0
153 161 0
151 156 0
154 161 0
159 167 0
155 164 0
155 164 0
154 160 0
151 158 0
156 164 0
159 166 0
155 161 0
159 168 0
156 163 0
156 165 0
154 165 0
155 166 0
159 169 0
158 167 0
158 164 0
162 173 0
153 161 0
160 168 0
158 167 0
173 194 0
172 193 0
173 194 0
173 194 0
172 193 0
173 194 0
173 194 0
173 194 0
174 194 0
177 197 0
175 196 0
174 195 0
176 196 0
175 196 0
176 196 0
174 195 0
171 192 0
172 193 0
171 192 0
172 193 0
172 192 0
173 194 0
174 194 0
175 196 0
169 190 0
172 193 0
169 190 0
169 189 0
170 191 0
171 191 0
176 196 0
173 194 0
170 191 0
172 193 0
175 195 0
165 185 0
170 191 0
170 190 0
172 192 0
174 195 0
174 194 0
169 189 0
167 189 0
172 192 0
171 192 0
171 191 0
170 191 0
169 189 0
166 186 0
168 189 0
169 190 0
166 187 0
168 189 0
163 184 0
172 192 0
172 193 0
166 186 0
167 189 0
167 188 0
169 189 0
159 180 0
167 188 0
168 188 0
163 184 0
163 183 0
165 186 0
164 186 0
166 188 0
159 181 0
162 183 0
162 184 0
160 182 0
163 184 0
157 178 0
168 190 0
166 187 0
161 182 0
150 171 0
162 183 0
161 183 0
159 180 0
160 182 0
165 186 0
160 182 0
156 178 0
160 182 0
160 182 0
156 177 0
158 180 0
160 183 0
156 178 0
155 178 0
159 181 0
157 179 0
153 176 0
145 167 0
158 181 0
161 184 0
159 182 0
156 178 0
158 179 0
156 178 0
157 178 0
163 185 0
150 173 0
155 178 0
160 184 0
157 180 0
158 179 0
160 183 0
157 179 0
155 178 0
159 181 0
155 177 0
160 183 0
150 173 0
154 177 0
157 180 0
154 175 0
149 171 0
154 177 0
154 177 0
157 179 0
148 171 0
155 177 0
161 184 0
154 178 0
152 175 0
154 175 0
155 178 0
155 178 0
155 177 0
156 179 0
149 171 0
157 179 0
149 172 0
154 176 0
150 172 0
153 176 0
150 172 0
148 171 0
152 174 0
156 178 0
152 173 0
142 163 0
146 166 0
150 172 0
153 176 0
152 175 0
148 170 0
147 170 0
145 167 0
149 172 0
155 176 0
146 167 0
153 175 0
146 168 0
147 168 0
146 168 0
152 174 0
145 167 0
146 167 0
137 158 0
142 164 0
142 164 0
141 163 0
152 172 0
152 175 0
146 167 0
141 162 0
150 171 0
148 169 0
147 168 0
145 165 0
146 168 0
149 170 0
142 164 0
138 160 0
142 164 0
147 168 0
150 170 0
145 167 0
151 172 0
146 168 0
145 166 0
145 166 0
145 166 0
143 163 0
154 175 0
135 155 0
147 167 0
138 159 0
149 170 0
151 172 0
145 164 0
150 171 0
140 161 0
147 167 0
137 156 0
143 165 0
141 161 0
139 160 0
135 155 0
142 163 0
140 162 0
137 159 0
141 163 0
146 166 0
140 161 0
142 162 0
140 161 0
139 160 0
136 157 0
139 160 0
142 163 0
141 160 0
141 159 0
139 159 0
147 168 0
144 165 0
138 160 0
141 161 0
137 156 0
144 164 0
141 162 0
142 162 0
141 159 0
143 163 0
148 166 0
141 162 0
146 165 0
146 166 0
143 160 0
135 156 0
145 166 0
141 160 0
136 154 0
144 164 0
133 153 0
141 158 0
136 154 0
142 161 0
144 163 0
147 166 0
149 167 0
147 165 0
145 164 0
145 164 0
148 167 0
147 164 0
146 165 0
142 160 0
153 171 0
143 162 0
140 158 0
144 163 0
145 164 0
146 163 0
141 157 0
145 163 0
131 150 0
142 160 0
145 163 0
147 167 0
142 160 0
152 170 0
144 161 0
141 159 0
141 161 0
141 159 0
147 165 0
140 157 0
148 167 0
140 157 0
150 167 0
148 167 0
147 163 0
149 167 0
144 163 0
144 162 0
143 162 0
148 163 0
143 158 0
140 156 0
151 167 0
145 161 0
145 160 0
148 165 0
142 158 0
149 164 0
150 166 0
143 156 0
146 162 0
138 150 0
148 163 0
143 155 0
148 163 0
146 160 0
148 164 0
151 168 0
148 163 0
155 170 0
145 160 0
144 157 0
146 160 0
141 154 0
144 158 0
143 157 0
146 161 0
138 152 0
142 156 0
144 155 0
150 165 0
147 159 0
143 153 0
147 159 0
146 158 0
144 159 0
151 163 0
139 148 0
146 156 0
148 158 0
148 158 0
147 156 0
149 164 0
143 153 0
154 170 0
145 153 0
149 159 0
155 166 0
149 160 0
142 152 0
152 163 0
146 154 0
154 167 0
151 160 0
145 153 0
150 161 0
146 156 0
146 154 0
144 151 0
150 159 0
150 161 0
148 156 0
149 159 0
148 156 0
152 162 0
152 160 0
152 159 0
149 157 0
151 156 0
143 151 0
153 162 0
151 160 0
158 167 0
146 150 0
156 165 0
150 156 0
148 155 0
150 154 0
152 160 0
153 159 0
152 160 0
155 161 0
149 154 0
155 164 0
156 163 0
157 163 0
147 154 0
154 159 0
152 157 0
151 155 0
158 165 0
153 159 0
154 158 0
153 159 0
155 161 0
155 165 0
152 157 0
151 156 0
154 159 0
155 164 0
153 162 0
160 166 0
158 167 0
157 164 0
152 159 0
158 166 0
158 163 0
154 158 0
158 168 0
160 171 0
162 172 0
151 159 0
156 166 0
156 166 0
156 163 0
164 174 0
161 172 0
163 174 0
172 194 0
171 192 0
174 195 0
174 195 0
175 196 0
172 194 0
175 196 0
176 197 0
169 191 0
176 197 0
172 193 0
172 192 0
176 196 0
174 194 0
172 193 0
170 190 0
171 193 0
171 192 0
175 195 0
178 198 0
174 194 0
176 197 0
173 194 0
171 191 0
170 190 0
168 188 0
172 193 0
169 189 0
176 196 0
172 192 0
173 194 0
168 189 0
171 192 0
173 194 0
169 191 0
166 187 0
168 188 0
175 196 0
169 190 0
170 190 0
169 191 0
172 193 0
174 195 0
166 187 0
168 188 0
168 189 0
169 190 0
167 188 0
170 191 0
168 189 0
168 188 0
166 188 0
168 189 0
169 190 0
171 192 0
170 191 0
165 186 0
168 189 0
165 186 0
167 187 0
165 186 0
162 183 0
164 186 0
164 186 0
165 186 0
164 184 0
168 188 0
166 187 0
166 187 0
159 181 0
160 181 0
160 181 0
163 185 0
160 181 0
161 183 0
160 183 0
153 175 0
166 188 0
169 190 0
163 184 0
166 187 0
158 180 0
164 185 0
157 179 0
164 185 0
160 181 0
165 186 0
159 181 0
159 181 0
158 180 0
160 181 0
150 172 0
156 178 0
160 182 0
161 183 0
160 182 0
156 179 0
153 175 0
154 176 0
157 179 0
158 180 0
159 182 0
159 182 0
159 181 0
153 175 0
155 178 0
154 176 0
151 173 0
158 180 0
166 187 0
157 179 0
158 181 0
155 177 0
158 180 0
155 178 0
159 182 0
155 177 0
157 178 0
158 180 0
153 175 0
149 171 0
152 174 0
148 170 0
158 180 0
157 179 0
151 172 0
161 183 0
149 171 0
156 178 0
153 175 0
157 179 0
156 179 0
151 172 0
153 175 0
151 173 0
152 174 0
154 177 0
153 176 0
151 173 0
147 168 0
158 180 0
156 178 0
149 172 0
146 167 0
146 169 0
146 167 0
147 169 0
138 161 0
145 168 0
156 178 0
145 166 0
145 168 0
158 179 0
150 172 0
149 169 0
145 164 0
148 170 0
151 172 0
156 178 0
150 171 0
150 173 0
145 166 0
157 180 0
151 172 0
140 163 0
146 168 0
150 171 0
145 166 0
144 167 0
144 166 0
148 169 0
153 174 0
147 170 0
158 180 0
139 161 0
143 164 0
142 163 0
140 161 0
146 168 0
143 166 0
142 164 0
147 168 0
153 173 0
143 165 0
139 160 0
150 171 0
147 168 0
142 162 0
143 164 0
148 169 0
141 162 0
146 166 0
137 157 0
151 170 0
145 167 0
153 174 0
145 167 0
145 165 0
142 161 0
143 163 0
146 167 0
142 162 0
148 168 0
139 160 0
146 167 0
150 170 0
147 169 0
144 165 0
145 165 0
143 162 0
146 166 0
140 161 0
139 162 0
141 159 0
144 165 0
142 163 0
145 165 0
143 163 0
146 165 0
141 162 0
137 157 0
138 157 0
137 158 0
140 159 0
144 163 0
134 152 0
143 164 0
149 170 0
147 167 0
136 156 0
144 163 0
140 159 0
148 168 0
147 167 0
146 165 0
143 162 0
139 159 0
148 169 0
144 164 0
145 162 0
143 162 0
142 161 0
141 160 0
146 165 0
146 165 0
146 165 0
143 163 0
149 169 0
149 167 0
147 167 0
140 158 0
147 167 0
152 171 0
141 160 0
147 165 0
151 170 0
148 167 0
151 171 0
154 173 0
152 173 0
148 165 0
145 164 0
147 165 0
147 165 0
142 159 0
146 165 0
143 161 0
147 167 0
143 161 0
147 166 0
147 164 0
150 168 0
137 157 0
146 164 0
154 171 0
156 173 0
147 165 0
148 165 0
149 168 0
152 168 0
141 156 0
146 161 0
143 159 0
144 160 0
141 156 0
149 166 0
149 164 0
148 163 0
148 164 0
144 159 0
150 166 0
145 158 0
144 161 0
151 168 0
149 162 0
144 162 0
145 163 0
149 164 0
147 161 0
145 159 0
154 168 0
157 173 0
144 158 0
145 159 0
149 161 0
153 167 0
143 156 0
144 158 0
144 156 0
145 157 0
149 165 0
142 155 0
150 161 0
142 154 0
146 160 0
144 156 0
152 167 0
144 158 0
155 170 0
146 158 0
144 158 0
150 162 0
149 160 0
149 161 0
149 161 0
145 154 0
148 161 0
146 158 0
147 159 0
150 160 0
145 156 0
151 160 0
155 166 0
149 158 0
149 161 0
142 153 0
150 159 0
145 157 0
153 162 0
149 159 0
151 160 0
148 158 0
155 167 0
145 155 0
149 158 0
148 156 0
150 156 0
154 164 0
143 147 0
155 163 0
151 160 0
153 162 0
149 157 0
158 167 0
151 159 0
154 164 0
155 166 0
152 160 0
149 154 0
152 157 0
155 161 0
144 148 0
157 166 0
150 157 0
152 159 0
151 159 0
150 155 0
150 158 0
154 163 0
154 160 0
159 168 0
157 160 0
150 155 0
149 154 0
156 161 0
153 162 0
152 160 0
155 164 0
151 156 0
158 165 0
155 165 0
158 168 0
149 157 0
158 164 0
151 155 0
150 157 0
153 159 0
153 158 0
156 163 0
151 160 0
158 167 0
160 169 0
159 166 0
160 168 0
153 162 0
157 166 0
155 164 0
150 156 0
161 173 0
159 167 0
170 191 0
176 198 0
169 190 0
173 194 0
176 197 0
176 197 0
173 194 0
175 196 0
174 194 0
173 195 0
175 195 0
176 197 0
173 194 0
172 193 0
174 196 0
171 192 0
175 196 0
173 194 0
175 195 0
171 192 0
174 194 0
172 193 0
173 194 0
168 188 0
172 193 0
173 193 0
172 192 0
170 191 0
172 193 0
169 190 0
169 189 0
171 192 0
175 196 0
176 196 0
164 184 0
168 188 0
171 191 0
175 196 0
170 190 0
168 189 0
171 191 0
166 187 0
169 189 0
170 191 0
165 185 0
172 193 0
170 190 0
165 187 0
169 191 0
166 186 0
163 185 0
169 189 0
167 188 0
171 191 0
168 189 0
167 188 0
165 187 0
166 188 0
164 186 0
168 189 0
164 186 0
161 183 0
167 188 0
165 186 0
164 185 0
166 188 0
168 190 0
161 182 0
162 184 0
166 188 0
165 187 0
156 177 0
165 187 0
163 185 0
160 181 0
165 186 0
161 183 0
160 182 0
164 187 0
162 183 0
163 185 0
162 184 0
155 178 0
159 180 0
158 180 0
158 180 0
157 180 0
159 181 0
160 182 0
156 177 0
167 189 0
158 180 0
160 182 0
156 177 0
153 175 0
165 186 0
158 180 0
160 183 0
161 184 0
155 177 0
161 183 0
160 182 0
151 172 0
163 186 0
157 178 0
161 183 0
159 181 0
152 174 0
155 177 0
158 180 0
158 180 0
159 181 0
156 178 0
154 176 0
155 177 0
156 179 0
162 184 0
156 178 0
152 174 0
154 176 0
151 173 0
157 180 0
152 174 0
156 179 0
158 181 0
149 171 0
148 171 0
160 183 0
144 166 0
148 170 0
141 163 0
153 176 0
155 177 0
152 174 0
159 182 0
154 177 0
162 184 0
150 172 0
152 174 0
155 178 0
156 178 0
154 176 0
156 178 0
154 178 0
147 171 0
150 172 0
154 177 0
152 175 0
155 177 0
143 165 0
143 166 0
153 175 0
150 170 0
146 168 0
158 180 0
148 170 0
145 167 0
156 177 0
150 173 0
155 178 0
155 176 0
144 167 0
147 169 0
144 166 0
147 169 0
152 174 0
146 167 0
151 174 0
150 171 0
148 169 0
155 177 0
152 174 0
148 171 0
147 168 0
140 162 0
146 167 0
144 166 0
147 168 0
151 173 0
151 172 0
135 157 0
149 171 0
151 172 0
149 170 0
147 169 0
153 175 0
142 162 0
145 167 0
139 159 0
143 164 0
147 166 0
149 170 0
147 169 0
136 155 0
145 167 0
140 160 0
147 166 0
137 158 0
147 169 0
145 166 0
147 168 0
145 165 0
139 160 0
137 157 0
146 167 0
152 174 0
146 168 0
141 162 0
141 161 0
139 161 0
145 165 0
143 163 0
147 166 0
138 158 0
140 160 0
139 161 0
146 167 0
152 173 0
146 165 0
148 171 0
138 158 0
139 159 0
135 155 0
149 170 0
145 164 0
136 157 0
138 159 0
150 170 0
140 157 0
138 158 0
138 158 0
143 162 0
151 173 0
145 163 0
148 168 0
152 173 0
150 168 0
143 161 0
145 164 0
145 164 0
142 162 0
147 168 0
142 162 0
143 163 0
149 168 0
142 162 0
143 160 0
147 167 0
146 165 0
145 164 0
147 166 0
152 169 0
143 160 0
140 158 0
148 168 0
146 166 0
145 164 0
141 160 0
153 171 0
145 164 0
145 163 0
151 170 0
137 154 0
142 160 0
143 161 0
143 161 0
148 166 0
140 157 0
149 166 0
144 159 0
153 172 0
149 166 0
139 157 0
144 164 0
143 162 0
148 167 0
140 158 0
148 167 0
148 165 0
149 167 0
144 162 0
141 158 0
149 166 0
153 171 0
144 158 0
153 171 0
145 162 0
148 165 0
154 174 0
155 171 0
140 156 0
152 169 0
148 162 0
143 160 0
145 161 0
149 166 0
144 159 0
140 158 0
149 166 0
143 158 0
147 159 0
145 159 0
149 162 0
143 158 0
151 164 0
154 171 0
149 166 0
152 165 0
141 156 0
144 157 0
142 156 0
145 158 0
149 162 0
155 168 0
152 164 0
151 166 0
152 166 0
144 156 0
151 164 0
149 162 0
152 166 0
150 162 0
143 156 0
152 165 0
148 161 0
153 164 0
149 161 0
157 171 0
137 147 0
146 159 0
152 165 0
153 163 0
145 157 0
150 160 0
153 165 0
153 165 0
153 166 0
151 160 0
146 157 0
148 157 0
157 169 0
148 158 0
153 162 0
152 161 0
153 161 0
150 156 0
143 150 0
145 152 0
147 156 0
155 164 0
150 158 0
154 163 0
143 150 0
149 157 0
155 164 0
148 156 0
154 162 0
151 159 0
153 162 0
148 155 0
153 161 0
151 156 0
148 155 0
151 159 0
152 161 0
153 160 0
157 167 0
146 155 0
160 170 0
154 163 0
158 167 0
155 161 0
151 157 0
152 159 0
153 160 0
158 166 0
157 166 0
155 165 0
155 161 0
155 160 0
157 165 0
150 155 0
154 164 0
154 162 0
159 169 0
162 170 0
154 160 0
152 157 0
161 170 0
159 167 0
155 161 0
154 159 0
158 168 0
156 162 0
161 171 0
160 167 0
161 171 0
158 166 0
153 159 0
160 169 0
171 193 0
173 195 0
175 196 0
172 193 0
169 190 0
173 194 0
168 188 0
172 193 0
175 195 0
173 194 0
175 196 0
172 194 0
172 193 0
174 195 0
170 192 0
175 197 0
174 195 0
172 192 0
174 195 0
171 193 0
172 194 0
169 190 0
174 195 0
166 186 0
175 195 0
172 193 0
167 188 0
166 188 0
172 193 0
173 194 0
173 194 0
170 191 0
171 193 0
169 190 0
166 187 0
172 193 0
166 187 0
171 192 0
167 188 0
172 193 0
168 189 0
174 194 0
167 188 0
171 191 0
169 191 0
172 192 0
168 190 0
165 187 0
163 184 0
171 192 0
162 183 0
172 192 0
168 190 0
169 191 0
167 187 0
160 181 0
162 184 0
166 186 0
170 192 0
163 184 0
169 191 0
165 187 0
164 184 0
162 182 0
166 187 0
164 186 0
167 190 0
162 184 0
161 183 0
162 183 0
166 188 0
167 189 0
164 185 0
167 189 0
164 187 0
157 179 0
164 186 0
159 182 0
166 189 0
162 183 0
164 187 0
167 188 0
162 185 0
152 173 0
160 181 0
161 183 0
159 181 0
160 182 0
159 181 0
164 186 0
157 179 0
163 184 0
160 182 0
162 184 0
161 184 0
157 180 0
159 181 0
154 176 0
154 176 0
161 183 0
164 186 0
160 182 0
166 188 0
152 174 0
152 175 0
157 179 0
154 177 0
158 179 0
157 179 0
152 172 0
157 179 0
156 178 0
155 177 0
155 178 0
154 175 0
149 171 0
151 173 0
157 180 0
154 176 0
158 180 0
157 178 0
155 177 0
150 172 0
153 175 0
152 174 0
156 179 0
154 175 0
155 178 0
153 174 0
158 179 0
159 181 0
147 168 0
160 182 0
151 174 0
157 180 0
159 183 0
149 172 0
153 174 0
150 174 0
150 172 0
154 176 0
151 173 0
157 179 0
149 171 0
151 173 0
151 174 0
153 176 0
153 174 0
153 175 0
150 173 0
154 176 0
147 168 0
155 176 0
155 178 0
147 168 0
149 171 0
152 174 0
147 169 0
151 172 0
141 163 0
150 172 0
156 177 0
147 169 0
144 166 0
150 173 0
146 168 0
146 169 0
141 164 0
144 165 0
143 166 0
155 177 0
138 160 0
146 168 0
155 177 0
145 167 0
145 167 0
149 171 0
146 168 0
146 168 0
148 169 0
146 167 0
144 164 0
148 170 0
152 172 0
147 169 0
153 175 0
145 166 0
150 171 0
148 170 0
146 167 0
143 165 0
145 165 0
137 158 0
141 163 0
131 151 0
140 160 0
150 172 0
140 162 0
142 162 0
144 164 0
147 169 0
145 166 0
143 165 0
138 157 0
137 158 0
141 161 0
140 162 0
138 158 0
144 165 0
144 165 0
139 160 0
135 155 0
148 170 0
151 171 0
149 168 0
133 153 0
149 169 0
141 160 0
149 171 0
143 163 0
139 158 0
150 171 0
152 172 0
147 167 0
141 161 0
145 166 0
141 162 0
143 163 0
130 150 0
144 164 0
135 156 0
146 165 0
145 165 0
144 163 0
146 166 0
143 164 0
137 156 0
142 161 0
145 163 0
142 160 0
136 156 0
143 163 0
148 168 0
145 166 0
133 154 0
151 172 0
139 156 0
150 169 0
142 161 0
140 158 0
142 161 0
141 161 0
148 165 0
158 177 0
145 164 0
146 165 0
151 170 0
144 162 0
144 163 0
136 155 0
148 167 0
136 155 0
147 166 0
146 165 0
144 162 0
144 164 0
148 164 0
148 168 0
148 165 0
143 162 0
144 163 0
155 173 0
142 159 0
143 162 0
148 163 0
147 164 0
147 166 0
146 164 0
146 164 0
152 169 0
143 160 0
154 171 0
147 165 0
150 167 0
151 169 0
153 171 0
150 166 0
147 163 0
147 165 0
142 158 0
155 170 0
148 165 0
134 151 0
148 164 0
152 169 0
151 167 0
147 164 0
145 161 0
151 168 0
144 159 0
147 162 0
144 159 0
143 160 0
148 163 0
150 166 0
144 158 0
154 169 0
159 175 0
146 162 0
149 163 0
139 152 0
153 169 0
144 158 0
149 162 0
155 171 0
149 163 0
154 169 0
146 157 0
148 163 0
152 165 0
149 161 0
139 155 0
157 169 0
151 163 0
145 156 0
149 162 0
150 162 0
152 165 0
152 163 0
147 158 0
141 151 0
154 164 0
143 154 0
151 166 0
145 154 0
154 165 0
153 163 0
146 158 0
150 161 0
152 164 0
153 164 0
152 163 0
154 164 0
147 154 0
150 161 0
147 155 0
149 162 0
152 164 0
145 155 0
149 156 0
148 157 0
156 167 0
150 160 0
151 161 0
155 166 0
155 161 0
152 163 0
160 169 0
149 155 0
155 163 0
148 156 0
152 161 0
153 164 0
149 156 0
152 159 0
154 165 0
156 164 0
146 152 0
152 157 0
153 158 0
157 166 0
158 168 0
156 162 0
156 164 0
157 163 0
155 162 0
154 163 0
152 159 0
156 164 0
160 169 0
161 169 0
155 164 0
154 161 0
156 165 0
150 158 0
153 160 0
159 167 0
153 160 0
153 160 0
160 170 0
158 166 0
153 162 0
159 167 0
154 162 0
158 165 0
157 164 0
161 170 0
154 164 0
157 167 0
162 172 0
175 196 0
174 195 0
168 190 0
172 194 0
177 198 0
170 192 0
173 194 0
173 194 0
175 195 0
173 194 0
174 195 0
168 189 0
169 190 0
172 194 0
172 193 0
174 195 0
171 192 0
170 191 0
172 193 0
173 194 0
170 191 0
170 191 0
171 192 0
173 195 0
168 189 0
170 191 0
175 196 0
171 192 0
174 194 0
168 189 0
175 197 0
169 190 0
170 192 0
169 191 0
170 192 0
167 188 0
170 191 0
169 190 0
167 188 0
172 193 0
168 189 0
171 191 0
173 194 0
166 187 0
171 192 0
170 191 0
171 192 0
168 188 0
170 191 0
166 187 0
170 191 0
171 192 0
170 191 0
166 187 0
163 184 0
166 188 0
165 188 0
167 190 0
164 186 0
158 179 0
163 184 0
170 191 0
164 186 0
169 191 0
164 185 0
167 188 0
164 186 0
164 186 0
160 182 0
164 186 0
161 183 0
167 189 0
159 180 0
158 179 0
167 188 0
162 185 0
162 185 0
159 181 0
162 184 0
163 185 0
156 177 0
156 179 0
155 177 0
166 188 0
160 182 0
159 182 0
165 187 0
159 182 0
158 180 0
154 177 0
159 181 0
160 182 0
158 180 0
159 181 0
157 179 0
162 183 0
159 182 0
154 176 0
160 183 0
157 180 0
151 173 0
157 179 0
152 175 0
161 183 0
158 179 0
155 177 0
150 172 0
150 173 0
155 177 0
148 170 0
149 172 0
147 169 0
161 182 0
149 170 0
151 172 0
154 176 0
154 176 0
157 179 0
155 177 0
163 186 0
156 177 0
160 182 0
154 175 0
156 179 0
154 177 0
153 176 0
150 171 0
157 180 0
159 182 0
147 170 0
155 178 0
156 179 0
146 169 0
150 172 0
153 175 0
165 186 0
150 171 0
146 168 0
148 171 0
158 181 0
147 170 0
147 170 0
154 176 0
148 171 0
151 172 0
150 173 0
159 181 0
157 180 0
154 176 0
149 170 0
143 165 0
155 177 0
155 177 0
152 175 0
156 178 0
147 169 0
149 170 0
149 171 0
154 176 0
145 167 0
152 173 0
147 168 0
152 174 0
146 169 0
157 179 0
145 166 0
150 171 0
145 167 0
145 167 0
143 165 0
150 173 0
146 168 0
149 171 0
150 173 0
155 176 0
153 175 0
134 154 0
146 167 0
151 172 0
148 170 0
143 165 0
145 166 0
138 159 0
147 169 0
151 173 0
144 165 0
148 169 0
147 168 0
146 168 0
145 166 0
147 167 0
142 164 0
142 163 0
146 168 0
142 162 0
142 163 0
146 166 0
150 172 0
139 161 0
148 169 0
141 163 0
147 168 0
149 170 0
145 166 0
151 170 0
141 162 0
144 164 0
146 166 0
144 166 0
143 164 0
149 170 0
140 160 0
139 160 0
146 165 0
145 167 0
138 158 0
148 169 0
140 162 0
141 160 0
137 157 0
146 166 0
144 165 0
143 164 0
146 167 0
146 165 0
145 168 0
145 165 0
146 167 0
147 168 0
145 166 0
143 163 0
145 163 0
146 166 0
135 154 0
151 170 0
145 164 0
143 162 0
145 165 0
134 154 0
147 165 0
141 160 0
138 157 0
148 168 0
147 167 0
147 167 0
137 154 0
148 166 0
144 163 0
148 169 0
150 170 0
153 170 0
147 167 0
140 158 0
149 169 0
148 167 0
147 164 0
146 165 0
151 169 0
153 172 0
144 162 0
146 164 0
150 168 0
140 157 0
143 162 0
154 174 0
142 158 0
147 165 0
147 164 0
142 160 0
148 166 0
152 169 0
149 168 0
150 168 0
148 166 0
151 169 0
146 163 0
139 157 0
150 167 0
148 165 0
144 161 0
146 164 0
139 156 0
143 161 0
152 171 0
154 173 0
147 164 0
154 173 0
139 155 0
153 170 0
147 165 0
149 166 0
149 163 0
143 158 0
153 169 0
154 172 0
161 178 0
147 163 0
146 163 0
152 168 0
153 169 0
147 164 0
149 165 0
149 166 0
155 169 0
149 167 0
148 163 0
150 165 0
146 162 0
145 158 0
139 148 0
152 166 0
147 162 0
147 160 0
146 158 0
150 163 0
150 162 0
151 168 0
153 171 0
143 156 0
139 150 0
151 165 0
151 167 0
155 168 0
149 164 0
153 168 0
155 168 0
154 166 0
160 175 0
147 159 0
155 168 0
149 163 0
154 166 0
153 165 0
151 163 0
154 168 0
156 167 0
145 157 0
148 158 0
152 161 0
157 171 0
154 165 0
149 160 0
148 159 0
155 166 0
148 157 0
155 168 0
150 157 0
150 159 0
148 158 0
149 159 0
153 165 0
148 155 0
152 161 0
154 165 0
153 161 0
150 156 0
148 155 0
148 157 0
158 169 0
158 166 0
153 162 0
157 169 0
156 165 0
149 158 0
150 155 0
151 159 0
152 158 0
155 163 0
151 160 0
149 154 0
152 160 0
148 155 0
158 165 0
156 164 0
156 166 0
158 166 0
159 166 0
153 159 0
156 163 0
149 157 0
159 168 0
155 162 0
155 163 0
159 169 0
155 164 0
153 163 0
160 169 0
158 166 0
161 170 0
158 168 0
160 167 0
157 167 0
155 165 0
156 168 0
162 172 0
155 161 0
159 169 0
156 165 0
157 165 0
152 157 0
176 197 0
172 194 0
171 192 0
173 194 0
173 194 0
172 193 0
175 196 0
169 192 0
171 193 0
175 195 0
174 195 0
175 195 0
169 190 0
174 195 0
171 192 0
171 192 0
173 195 0
172 193 0
165 187 0
170 191 0
170 191 0
169 190 0
172 193 0
175 195 0
174 195 0
167 188 0
170 191 0
171 192 0
173 193 0
168 189 0
171 193 0
170 191 0
170 190 0
171 193 0
168 189 0
168 190 0
166 187 0
166 187 0
168 189 0
170 191 0
164 185 0
167 188 0
166 187 0
167 189 0
165 186 0
172 194 0
169 191 0
166 188 0
166 188 0
166 188 0
171 193 0
164 186 0
162 184 0
168 190 0
163 184 0
167 189 0
164 185 0
164 185 0
166 188 0
163 184 0
157 178 0
165 186 0
167 188 0
167 188 0
163 185 0
161 184 0
165 187 0
161 184 0
164 186 0
162 184 0
162 184 0
160 183 0
156 177 0
161 182 0
160 182 0
160 181 0
160 183 0
158 180 0
163 185 0
162 184 0
163 185 0
165 187 0
154 177 0
164 186 0
160 182 0
163 186 0
158 181 0
160 181 0
157 179 0
162 183 0
163 184 0
162 185 0
156 179 0
162 185 0
157 179 0
161 183 0
156 178 0
156 178 0
159 181 0
161 183 0
154 177 0
162 185 0
159 181 0
154 177 0
158 180 0
160 183 0
149 172 0
158 181 0
154 177 0
153 175 0
151 173 0
164 187 0
152 174 0
157 180 0
150 172 0
162 184 0
155 177 0
156 178 0
160 183 0
156 178 0
146 167 0
152 174 0
155 176 0
154 176 0
152 175 0
151 173 0
152 175 0
156 178 0
160 181 0
158 181 0
158 179 0
152 175 0
156 178 0
146 168 0
151 172 0
146 168 0
157 179 0
149 172 0
152 173 0
150 173 0
152 174 0
158 180 0
143 164 0
156 179 0
160 183 0
154 177 0
150 172 0
155 178 0
150 172 0
152 174 0
151 173 0
144 166 0
149 171 0
150 172 0
144 165 0
142 164 0
151 173 0
146 166 0
157 179 0
142 163 0
148 170 0
145 166 0
146 166 0
148 171 0
152 173 0
143 165 0
157 179 0
149 170 0
151 172 0
147 168 0
146 167 0
135 155 0
146 167 0
148 168 0
141 161 0
144 166 0
139 160 0
150 171 0
148 171 0
145 167 0
143 164 0
152 175 0
146 168 0
147 168 0
149 172 0
140 161 0
151 172 0
148 170 0
141 163 0
150 171 0
148 169 0
145 167 0
149 171 0
136 157 0
143 163 0
140 161 0
143 165 0
148 169 0
148 169 0
148 169 0
145 166 0
149 171 0
142 163 0
147 168 0
144 165 0
147 169 0
134 155 0
144 164 0
151 170 0
141 162 0
145 166 0
147 169 0
153 173 0
145 165 0
146 168 0
145 165 0
150 171 0
141 161 0
140 159 0
140 160 0
146 165 0
149 171 0
146 165 0
143 164 0
139 160 0
144 164 0
147 169 0
123 142 0
148 170 0
142 164 0
146 164 0
151 171 0
140 157 0
150 168 0
134 155 0
146 167 0
154 175 0
146 167 0
149 171 0
145 166 0
139 159 0
139 158 0
150 168 0
154 173 0
145 165 0
147 168 0
143 160 0
146 164 0
144 164 0
148 168 0
150 168 0
141 160 0
152 173 0
155 174 0
145 164 0
151 171 0
151 169 0
145 164 0
150 170 0
143 162 0
153 172 0
142 159 0
153 172 0
144 162 0
146 168 0
150 169 0
153 172 0
147 165 0
144 162 0
147 167 0
150 169 0
142 161 0
147 166 0
141 160 0
150 167 0
150 167 0
147 166 0
154 171 0
147 166 0
147 166 0
147 167 0
151 169 0
156 174 0
144 160 0
144 160 0
152 170 0
151 169 0
146 164 0
145 161 0
148 165 0
147 167 0
147 165 0
145 165 0
154 172 0
151 166 0
153 170 0
147 162 0
141 159 0
147 163 0
148 164 0
158 174 0
140 155 0
154 171 0
146 162 0
149 164 0
147 162 0
152 170 0
147 161 0
144 161 0
145 158 0
152 166 0
147 162 0
146 161 0
149 163 0
157 173 0
147 161 0
144 157 0
148 160 0
149 162 0
147 159 0
152 166 0
156 173 0
150 164 0
148 163 0
153 166 0
143 155 0
149 163 0
148 161 0
152 165 0
151 166 0
148 163 0
154 169 0
153 166 0
151 165 0
143 154 0
146 157 0
151 163 0
152 163 0
150 161 0
149 162 0
153 164 0
153 163 0
154 167 0
149 157 0
148 158 0
149 158 0
158 166 0
153 162 0
152 162 0
157 168 0
147 157 0
152 162 0
158 170 0
152 163 0
156 168 0
149 158 0
149 159 0
156 166 0
149 157 0
154 163 0
150 161 0
153 162 0
151 159 0
144 154 0
155 163 0
150 156 0
155 165 0
149 157 0
148 154 0
157 169 0
159 167 0
153 160 0
152 161 0
150 157 0
150 156 0
157 168 0
153 161 0
154 163 0
147 153 0
156 166 0
151 157 0
154 161 0
155 165 0
153 161 0
156 165 0
162 172 0
157 165 0
161 168 0
158 165 0
155 162 0
154 160 0
158 166 0
158 168 0
163 172 0
165 175 0
162 172 0
158 167 0
152 161 0
156 165 0
155 162 0
178 198 0
173 195 0
170 191 0
172 194 0
173 195 0
173 194 0
173 195 0
172 193 0
173 194 0
173 194 0
169 190 0
174 195 0
172 194 0
167 188 0
172 193 0
169 190 0
171 191 0
173 194 0
170 192 0
175 196 0
171 192 0
171 191 0
171 193 0
171 192 0
168 191 0
170 191 0
171 192 0
171 192 0
168 189 0
175 196 0
172 193 0
168 190 0
167 189 0
171 191 0
167 188 0
170 191 0
167 189 0
173 193 0
169 191 0
169 190 0
163 184 0
170 190 0
172 193 0
168 187 0
170 191 0
171 193 0
167 189 0
165 187 0
167 188 0
165 186 0
165 186 0
169 190 0
169 190 0
170 192 0
166 188 0
164 185 0
164 186 0
165 187 0
164 186 0
164 187 0
162 185 0
167 188 0
163 185 0
168 190 0
161 183 0
160 182 0
165 187 0
165 187 0
166 188 0
163 185 0
160 182 0
164 186 0
161 183 0
166 188 0
165 186 0
158 181 0
164 186 0
160 181 0
160 182 0
164 187 0
159 181 0
161 183 0
156 178 0
164 186 0
158 180 0
161 183 0
152 174 0
159 181 0
158 180 0
157 180 0
162 183 0
162 185 0
159 181 0
156 178 0
162 185 0
160 183 0
157 179 0
153 176 0
158 180 0
155 177 0
156 178 0
159 181 0
157 179 0
155 178 0
153 175 0
164 187 0
154 177 0
153 174 0
158 180 0
156 179 0
157 181 0
157 180 0
159 181 0
159 181 0
159 182 0
153 175 0
161 184 0
145 168 0
156 179 0
159 182 0
155 176 0
156 179 0
158 181 0
157 179 0
159 182 0
154 176 0
159 182 0
155 176 0
151 173 0
155 178 0
152 173 0
151 172 0
151 173 0
151 173 0
153 176 0
157 178 0
144 166 0
151 174 0
152 174 0
158 180 0
153 176 0
158 181 0
154 177 0
158 181 0
150 172 0
151 173 0
150 172 0
158 180 0
147 169 0
150 173 0
153 175 0
158 181 0
147 169 0
150 172 0
152 175 0
149 171 0
152 175 0
141 162 0
145 167 0
153 175 0
159 181 0
148 170 0
147 169 0
149 170 0
150 172 0
154 176 0
149 172 0
149 172 0
146 169 0
154 177 0
145 167 0
151 173 0
156 177 0
146 168 0
144 164 0
150 171 0
149 171 0
149 171 0
153 174 0
143 164 0
144 166 0
156 176 0
149 171 0
147 169 0
155 177 0
143 164 0
154 174 0
146 167 0
146 168 0
144 166 0
143 165 0
136 157 0
139 161 0
144 167 0
143 163 0
150 171 0
149 171 0
137 158 0
143 163 0
147 169 0
143 164 0
144 165 0
142 164 0
149 170 0
148 170 0
140 162 0
142 164 0
141 161 0
145 164 0
142 164 0
144 167 0
141 160 0
154 174 0
140 159 0
138 159 0
145 165 0
151 171 0
141 162 0
152 172 0
149 170 0
148 168 0
145 166 0
146 167 0
144 164 0
146 165 0
149 170 0
134 153 0
137 160 0
135 156 0
146 166 0
152 172 0
152 172 0
146 167 0
141 161 0
151 170 0
156 176 0
139 157 0
155 177 0
152 173 0
151 170 0
144 164 0
147 166 0
142 162 0
146 166 0
137 157 0
145 166 0
148 169 0
151 171 0
143 162 0
147 168 0
144 165 0
150 168 0
152 172 0
136 154 0
150 170 0
142 162 0
151 169 0
151 171 0
152 172 0
146 165 0
151 170 0
147 166 0
147 167 0
144 163 0
149 166 0
148 165 0
152 172 0
151 171 0
151 171 0
145 166 0
149 167 0
152 169 0
145 164 0
154 173 0
143 164 0
141 161 0
148 165 0
148 167 0
149 166 0
145 163 0
135 151 0
154 172 0
140 158 0
140 158 0
146 164 0
150 165 0
146 165 0
151 169 0
146 164 0
151 170 0
151 169 0
146 162 0
147 164 0
152 169 0
153 170 0
154 172 0
139 154 0
150 168 0
146 164 0
149 165 0
151 169 0
151 163 0
157 175 0
137 152 0
146 163 0
142 157 0
149 165 0
148 164 0
147 163 0
151 166 0
151 167 0
149 164 0
145 161 0
148 162 0
152 168 0
143 157 0
145 161 0
147 159 0
152 167 0
150 164 0
152 166 0
151 164 0
149 162 0
138 152 0
142 155 0
155 171 0
151 161 0
147 160 0
147 162 0
155 170 0
154 169 0
154 170 0
154 169 0
147 159 0
152 166 0
152 167 0
146 158 0
151 163 0
150 161 0
154 164 0
148 160 0
151 164 0
153 165 0
151 165 0
145 156 0
154 167 0
151 162 0
152 163 0
156 170 0
146 155 0
154 165 0
159 169 0
143 153 0
154 166 0
154 167 0
152 162 0
159 169 0
148 159 0
144 151 0
151 159 0
151 161 0
147 158 0
161 174 0
156 168 0
149 157 0
162 173 0
157 169 0
153 165 0
151 159 0
153 159 0
159 169 0
154 165 0
157 168 0
153 162 0
155 165 0
151 159 0
154 165 0
159 171 0
152 160 0
153 160 0
155 163 0
158 166 0
152 160 0
156 163 0
158 166 0
157 166 0
154 164 0
154 164 0
159 169 0
157 168 0
155 163 0
155 162 0
155 164 0
159 167 0
153 161 0
158 169 0
155 165 0
156 165 0
158 166 0
157 165 0
171 193 0
172 194 0
173 194 0
176 197 0
174 195 0
172 193 0
174 195 0
171 192 0
172 193 0
171 192 0
170 192 0
169 190 0
174 195 0
171 193 0
170 192 0
170 191 0
169 191 0
173 194 0
172 193 0
175 196 0
173 194 0
169 191 0
167 189 0
169 190 0
169 191 0
173 193 0
169 191 0
172 193 0
171 193 0
169 190 0
169 190 0
164 186 0
173 194 0
171 192 0
171 192 0
169 191 0
170 192 0
170 191 0
168 189 0
168 190 0
165 187 0
167 189 0
167 189 0
167 189 0
168 189 0
162 184 0
166 188 0
166 188 0
164 185 0
168 190 0
166 187 0
166 187 0
167 188 0
164 187 0
168 190 0
159 180 0
163 186 0
166 188 0
166 187 0
162 184 0
161 182 0
167 189 0
172 193 0
165 186 0
165 185 0
164 186 0
164 186 0
166 188 0
162 184 0
158 180 0
165 187 0
165 188 0
163 185 0
162 184 0
167 189 0
164 186 0
164 186 0
156 179 0
160 181 0
156 178 0
162 183 0
160 181 0
162 184 0
159 180 0
157 179 0
158 180 0
157 180 0
156 179 0
159 181 0
157 180 0
156 179 0
162 184 0
157 179 0
154 177 0
160 183 0
162 184 0
156 178 0
156 178 0
163 184 0
157 179 0
160 182 0
162 184 0
164 187 0
157 180 0
164 186 0
157 179 0
157 179 0
157 179 0
158 181 0
159 180 0
156 179 0
162 184 0
151 174 0
155 177 0
156 179 0
155 179 0
160 182 0
155 177 0
156 179 0
151 174 0
154 176 0
157 179 0
157 179 0
155 177 0
157 179 0
158 181 0
155 177 0
146 168 0
153 176 0
158 179 0
158 180 0
149 172 0
156 178 0
158 180 0
153 176 0
149 171 0
149 171 0
159 181 0
155 177 0
150 172 0
156 179 0
153 175 0
145 167 0
147 170 0
149 172 0
156 178 0
148 170 0
150 173 0
149 170 0
147 168 0
153 174 0
153 175 0
153 176 0
151 174 0
155 177 0
146 169 0
154 176 0
153 174 0
141 163 0
145 166 0
147 170 0
146 167 0
143 164 0
149 173 0
134 155 0
152 175 0
144 165 0
154 176 0
159 181 0
148 169 0
149 172 0
148 169 0
157 179 0
147 170 0
155 177 0
143 164 0
149 171 0
146 168 0
143 165 0
150 172 0
154 177 0
148 171 0
148 170 0
150 171 0
154 176 0
149 170 0
148 170 0
144 166 0
134 156 0
144 165 0
143 164 0
146 166 0
144 165 0
139 159 0
146 168 0
137 158 0
148 169 0
152 174 0
155 175 0
146 167 0
145 167 0
147 168 0
149 169 0
145 166 0
147 168 0
150 171 0
144 165 0
146 168 0
139 160 0
148 169 0
152 171 0
145 166 0
147 168 0
150 172 0
147 168 0
143 162 0
149 170 0
140 161 0
148 170 0
147 168 0
150 171 0
153 174 0
137 158 0
147 167 0
148 168 0
143 165 0
151 171 0
144 164 0
149 169 0
144 164 0
137 158 0
144 164 0
144 165 0
149 170 0
144 164 0
153 174 0
145 164 0
147 167 0
143 163 0
151 170 0
152 172 0
140 159 0
141 161 0
156 176 0
149 170 0
145 164 0
141 160 0
144 162 0
148 167 0
147 166 0
146 166 0
149 168 0
140 158 0
142 161 0
141 160 0
150 171 0
144 165 0
142 162 0
145 164 0
150 171 0
141 159 0
152 172 0
148 166 0
145 165 0
152 171 0
146 165 0
155 177 0
151 172 0
150 168 0
150 169 0
147 165 0
155 174 0
143 162 0
154 175 0
151 169 0
151 171 0
154 173 0
154 171 0
153 170 0
146 163 0
154 172 0
150 167 0
143 158 0
150 169 0
149 168 0
154 173 0
148 165 0
145 161 0
148 165 0
157 176 0
155 171 0
146 162 0
151 167 0
144 161 0
145 163 0
145 161 0
149 166 0
148 165 0
149 166 0
138 154 0
144 161 0
155 171 0
148 161 0
145 160 0
151 169 0
153 167 0
144 162 0
147 162 0
150 165 0
149 164 0
151 167 0
148 164 0
145 162 0
155 171 0
156 172 0
138 151 0
159 172 0
146 161 0
151 168 0
151 169 0
152 168 0
150 164 0
145 160 0
152 166 0
152 166 0
143 153 0
155 167 0
151 166 0
155 166 0
153 165 0
151 161 0
153 168 0
159 174 0
154 165 0
140 151 0
151 165 0
153 165 0
151 165 0
147 159 0
152 165 0
150 163 0
160 173 0
152 166 0
151 163 0
152 167 0
150 162 0
163 175 0
147 159 0
153 167 0
151 162 0
149 157 0
150 159 0
154 164 0
158 170 0
149 158 0
153 163 0
151 162 0
153 165 0
153 161 0
154 165 0
154 165 0
152 164 0
154 163 0
154 164 0
148 154 0
151 161 0
152 161 0
153 163 0
149 157 0
151 162 0
153 163 0
152 161 0
153 162 0
153 162 0
155 164 0
156 162 0
156 166 0
153 163 0
151 157 0
156 166 0
154 164 0
156 166 0
157 168 0
161 173 0
162 171 0
157 166 0
160 169 0
157 166 0
161 171 0
158 167 0
159 169 0
161 172 0
157 165 0
161 171 0
161 172 0
160 169 0
158 169 0
154 164 0
163 172 0
165 176 0
173 195 0
172 194 0
169 192 0
174 195 0
173 194 0
170 191 0
173 194 0
173 194 0
173 193 0
171 193 0
170 192 0
171 192 0
169 190 0
169 189 0
173 195 0
172 193 0
173 194 0
173 193 0
173 194 0
172 193 0
169 191 0
171 193 0
167 188 0
172 194 0
167 190 0
171 193 0
171 192 0
168 189 0
172 193 0
167 189 0
169 190 0
169 191 0
161 184 0
170 191 0
169 189 0
170 192 0
164 185 0
168 190 0
168 189 0
167 188 0
168 190 0
165 186 0
171 192 0
169 191 0
163 185 0
173 194 0
167 188 0
166 187 0
168 190 0
168 190 0
168 191 0
170 190 0
170 192 0
166 187 0
168 190 0
164 186 0
160 181 0
164 185 0
164 186 0
163 185 0
167 189 0
165 186 0
163 184 0
163 185 0
167 189 0
163 185 0
166 188 0
160 183 0
167 189 0
164 185 0
167 191 0
160 183 0
160 182 0
162 184 0
162 184 0
161 184 0
165 187 0
164 187 0
163 184 0
157 178 0
167 190 0
159 180 0
162 185 0
163 186 0
160 182 0
164 186 0
158 180 0
159 181 0
160 182 0
158 179 0
157 179 0
161 183 0
155 176 0
161 184 0
160 183 0
165 187 0
158 181 0
159 181 0
160 182 0
158 181 0
167 189 0
163 186 0
157 180 0
158 181 0
165 187 0
152 174 0
157 180 0
152 175 0
159 183 0
155 178 0
160 182 0
157 179 0
153 175 0
157 179 0
151 174 0
157 179 0
150 172 0
161 182 0
163 186 0
154 175 0
155 177 0
160 182 0
157 179 0
149 171 0
150 172 0
154 177 0
152 175 0
152 175 0
157 179 0
156 178 0
157 178 0
152 174 0
148 171 0
156 178 0
152 174 0
151 173 0
149 172 0
159 183 0
152 174 0
155 178 0
156 178 0
147 170 0
158 181 0
158 179 0
151 173 0
158 180 0
148 170 0
153 175 0
152 174 0
156 178 0
155 178 0
157 180 0
153 175 0
152 173 0
146 168 0
149 170 0
157 180 0
157 179 0
152 174 0
147 168 0
155 177 0
154 176 0
151 173 0
147 169 0
149 170 0
148 170 0
155 178 0
151 173 0
146 168 0
152 173 0
153 176 0
147 169 0
148 170 0
152 174 0
147 167 0
150 171 0
151 173 0
155 177 0
148 170 0
148 169 0
144 165 0
138 160 0
151 174 0
151 174 0
151 174 0
150 171 0
151 173 0
145 168 0
157 179 0
152 175 0
146 166 0
146 168 0
153 175 0
144 166 0
148 170 0
151 171 0
149 170 0
150 172 0
148 169 0
151 174 0
149 171 0
142 164 0
149 169 0
145 166 0
145 166 0
149 171 0
151 172 0
152 173 0
145 166 0
143 164 0
145 166 0
147 168 0
144 163 0
151 172 0
142 163 0
147 168 0
144 166 0
150 169 0
149 169 0
137 158 0
149 168 0
140 160 0
153 175 0
151 173 0
148 169 0
151 173 0
145 165 0
155 174 0
146 167 0
139 159 0
139 160 0
152 173 0
148 169 0
151 172 0
140 161 0
146 167 0
150 170 0
152 173 0
152 171 0
148 170 0
149 169 0
151 170 0
145 166 0
154 174 0
157 176 0
142 162 0
148 166 0
151 169 0
147 168 0
152 173 0
151 172 0
146 167 0
143 164 0
149 169 0
140 158 0
151 171 0
145 164 0
143 162 0
153 172 0
151 172 0
150 169 0
148 167 0
153 171 0
150 170 0
147 166 0
150 170 0
151 170 0
149 168 0
146 164 0
145 165 0
144 164 0
144 162 0
148 166 0
150 171 0
151 168 0
147 165 0
151 169 0
154 173 0
147 165 0
151 169 0
145 164 0
148 166 0
144 163 0
153 173 0
143 160 0
148 164 0
144 162 0
146 164 0
148 166 0
141 157 0
153 173 0
151 169 0
146 164 0
147 161 0
153 171 0
153 170 0
152 169 0
156 174 0
152 170 0
149 167 0
150 168 0
151 166 0
155 172 0
150 166 0
152 168 0
148 164 0
151 168 0
158 174 0
153 169 0
148 163 0
156 174 0
156 172 0
153 169 0
152 168 0
146 161 0
149 163 0
160 176 0
153 167 0
153 169 0
146 159 0
147 158 0
151 165 0
155 168 0
158 174 0
155 169 0
155 169 0
150 165 0
151 163 0
158 171 0
153 165 0
145 158 0
158 173 0
158 171 0
154 167 0
155 166 0
153 168 0
151 164 0
150 161 0
149 161 0
148 160 0
152 166 0
152 164 0
149 161 0
155 168 0
146 158 0
153 163 0
153 162 0
151 163 0
153 164 0
146 155 0
155 166 0
155 165 0
155 166 0
150 159 0
152 162 0
151 160 0
155 166 0
147 156 0
156 167 0
149 159 0
149 157 0
152 162 0
151 162 0
154 163 0
152 164 0
155 166 0
155 164 0
151 157 0
151 161 0
150 162 0
159 169 0
153 164 0
158 169 0
154 166 0
160 172 0
160 171 0
160 170 0
158 168 0
151 160 0
153 162 0
157 167 0
154 163 0
153 162 0
155 165 0
160 170 0
157 166 0
161 171 0
161 172 0
152 160 0
160 169 0
153 161 0
162 175 0
157 167 0
160 168 0
156 167 0
159 169 0
160 171 0
159 172 0
163 173 0
156 165 0
174 195 0
173 194 0
172 194 0
174 196 0
173 194 0
174 195 0
172 194 0
176 196 0
175 196 0
173 194 0
167 189 0
168 189 0
169 190 0
171 192 0
173 193 0
173 194 0
169 190 0
172 193 0
169 191 0
170 191 0
170 192 0
166 188 0
168 190 0
170 193 0
171 192 0
171 193 0
164 185 0
167 189 0
169 190 0
166 188 0
172 193 0
170 191 0
169 190 0
166 187 0
170 192 0
165 187 0
162 184 0
164 186 0
166 188 0
166 187 0
164 185 0
169 191 0
168 190 0
163 185 0
163 184 0
168 191 0
167 190 0
166 188 0
165 186 0
169 191 0
165 187 0
168 190 0
165 188 0
171 192 0
166 189 0
166 188 0
170 192 0
164 186 0
164 185 0
163 185 0
163 185 0
167 189 0
167 189 0
158 181 0
162 185 0
166 188 0
166 189 0
160 182 0
161 182 0
158 179 0
160 183 0
165 187 0
159 181 0
165 186 0
159 181 0
160 183 0
165 187 0
166 188 0
161 183 0
162 183 0
165 185 0
161 183 0
158 181 0
159 181 0
155 178 0
154 177 0
162 185 0
160 183 0
156 178 0
157 179 0
158 181 0
155 178 0
161 183 0
157 180 0
163 186 0
160 182 0
162 186 0
157 179 0
157 179 0
155 178 0
161 183 0
161 184 0
158 181 0
158 180 0
157 180 0
160 182 0
163 185 0
154 177 0
156 178 0
153 176 0
154 176 0
151 173 0
156 178 0
158 179 0
161 183 0
153 176 0
158 181 0
150 171 0
157 180 0
159 182 0
153 175 0
158 179 0
153 177 0
157 181 0
150 172 0
154 176 0
155 177 0
156 179 0
152 176 0
152 174 0
154 177 0
163 186 0
152 174 0
151 173 0
160 182 0
158 181 0
156 178 0
151 173 0
151 173 0
153 175 0
157 180 0
151 173 0
152 173 0
146 168 0
144 166 0
150 172 0
145 168 0
153 175 0
151 172 0
153 175 0
151 173 0
155 176 0
150 172 0
148 170 0
139 161 0
151 173 0
154 176 0
155 178 0
150 172 0
156 176 0
146 167 0
146 168 0
150 173 0
150 171 0
145 167 0
152 175 0
154 175 0
153 175 0
149 170 0
150 173 0
143 165 0
152 174 0
148 170 0
152 174 0
150 170 0
151 173 0
150 173 0
149 171 0
139 160 0
144 166 0
148 170 0
154 177 0
146 169 0
147 169 0
148 170 0
148 170 0
155 175 0
148 169 0
150 173 0
143 164 0
145 167 0
147 168 0
153 175 0
142 163 0
145 167 0
155 176 0
147 168 0
152 174 0
151 172 0
151 172 0
155 176 0
146 168 0
150 172 0
143 163 0
149 170 0
147 169 0
154 176 0
144 165 0
154 175 0
144 165 0
143 163 0
147 169 0
147 169 0
153 174 0
147 167 0
147 167 0
141 163 0
153 174 0
153 173 0
149 171 0
152 174 0
144 163 0
152 174 0
143 163 0
147 167 0
148 168 0
154 175 0
146 165 0
152 172 0
149 170 0
149 169 0
152 172 0
148 168 0
152 172 0
142 162 0
151 172 0
148 171 0
138 159 0
153 172 0
144 162 0
149 169 0
148 167 0
150 171 0
150 171 0
141 161 0
152 172 0
149 169 0
156 177 0
140 159 0
149 169 0
151 171 0
154 173 0
152 172 0
150 168 0
146 166 0
144 164 0
154 173 0
151 172 0
138 156 0
148 168 0
146 165 0
149 169 0
147 166 0
153 172 0
150 169 0
148 166 0
142 159 0
151 170 0
150 171 0
151 169 0
150 170 0
148 166 0
150 169 0
156 174 0
148 166 0
153 173 0
151 169 0
146 167 0
150 168 0
150 170 0
149 168 0
153 172 0
148 167 0
150 168 0
149 165 0
150 171 0
157 175 0
145 164 0
150 170 0
152 167 0
155 174 0
152 169 0
142 161 0
156 174 0
156 172 0
146 164 0
158 176 0
146 164 0
153 170 0
150 167 0
149 164 0
142 157 0
148 165 0
149 165 0
139 155 0
153 171 0
151 168 0
152 167 0
152 166 0
148 162 0
154 173 0
156 174 0
155 169 0
149 164 0
155 170 0
149 166 0
148 164 0
150 162 0
143 158 0
160 177 0
152 169 0
148 163 0
152 168 0
150 162 0
149 160 0
154 170 0
148 162 0
155 170 0
152 164 0
146 160 0
153 164 0
144 158 0
146 157 0
148 166 0
159 173 0
153 165 0
156 169 0
151 165 0
155 170 0
158 173 0
158 176 0
154 166 0
158 172 0
155 169 0
157 170 0
151 162 0
153 164 0
155 166 0
155 169 0
152 165 0
155 168 0
156 167 0
153 165 0
154 163 0
155 166 0
156 170 0
152 160 0
150 163 0
153 166 0
153 164 0
156 165 0
149 161 0
150 163 0
158 167 0
152 163 0
159 171 0
159 171 0
148 155 0
149 158 0
156 167 0
151 161 0
159 172 0
153 163 0
153 165 0
164 176 0
154 164 0
159 168 0
157 167 0
156 166 0
152 162 0
162 175 0
160 171 0
161 170 0
162 170 0
152 162 0
163 173 0
157 166 0
159 171 0
151 159 0
156 165 0
156 167 0
150 159 0
160 169 0
160 170 0
159 171 0
153 164 0
158 168 0
163 173 0
159 171 0
159 168 0
171 193 0
172 194 0
175 197 0
170 192 0
174 195 0
171 193 0
169 191 0
170 191 0
173 194 0
172 193 0
171 194 0
171 192 0
170 191 0
174 195 0
169 191 0
168 190 0
170 192 0
171 193 0
175 196 0
163 185 0
168 190 0
171 192 0
169 191 0
174 196 0
172 193 0
169 191 0
168 189 0
169 190 0
168 190 0
165 186 0
166 188 0
166 187 0
165 187 0
168 190 0
164 186 0
164 186 0
168 190 0
169 190 0
167 189 0
170 191 0
168 190 0
164 186 0
170 191 0
166 188 0
166 187 0
164 187 0
171 192 0
162 183 0
168 190 0
169 191 0
170 192 0
163 186 0
162 184 0
165 186 0
168 190 0
168 190 0
161 182 0
165 186 0
164 186 0
161 183 0
167 189 0
168 191 0
162 184 0
164 186 0
167 189 0
159 182 0
161 184 0
163 186 0
162 185 0
161 183 0
165 187 0
157 179 0
166 188 0
160 181 0
166 188 0
162 184 0
162 185 0
162 184 0
159 181 0
160 183 0
161 183 0
162 185 0
158 180 0
163 185 0
162 184 0
156 179 0
159 180 0
159 181 0
153 175 0
159 181 0
161 182 0
165 188 0
155 177 0
157 179 0
152 175 0
157 180 0
152 174 0
162 185 0
158 180 0
163 185 0
161 184 0
158 180 0
156 179 0
160 182 0
166 189 0
159 182 0
155 177 0
156 179 0
156 180 0
151 174 0
163 185 0
162 184 0
159 181 0
157 178 0
157 179 0
155 178 0
152 175 0
152 175 0
152 175 0
156 179 0
158 179 0
154 176 0
159 181 0
156 178 0
152 175 0
156 178 0
148 172 0
158 180 0
152 174 0
161 183 0
157 179 0
154 177 0
156 178 0
152 175 0
150 173 0
148 169 0
152 175 0
151 173 0
150 171 0
152 174 0
158 181 0
152 174 0
148 170 0
160 183 0
147 169 0
156 177 0
149 171 0
145 167 0
153 175 0
157 180 0
152 174 0
154 177 0
152 175 0
155 177 0
153 176 0
148 168 0
153 176 0
158 180 0
153 176 0
159 181 0
144 166 0
149 172 0
153 175 0
149 172 0
150 172 0
148 171 0
146 168 0
150 173 0
151 173 0
154 177 0
146 168 0
140 163 0
148 170 0
148 170 0
154 177 0
153 175 0
154 176 0
143 165 0
154 176 0
149 171 0
155 178 0
151 172 0
150 171 0
146 168 0
152 173 0
142 165 0
142 165 0
150 172 0
150 172 0
155 175 0
143 164 0
149 170 0
144 166 0
143 164 0
144 165 0
153 176 0
149 170 0
153 174 0
151 173 0
144 165 0
149 169 0
150 172 0
144 165 0
154 175 0
142 164 0
145 167 0
150 172 0
146 168 0
141 162 0
151 171 0
145 165 0
145 167 0
149 169 0
151 173 0
152 173 0
149 170 0
151 172 0
150 169 0
155 175 0
150 172 0
147 168 0
149 171 0
152 172 0
149 169 0
152 172 0
151 173 0
143 163 0
143 164 0
155 175 0
147 167 0
149 168 0
148 169 0
150 170 0
144 165 0
154 175 0
156 176 0
149 170 0
145 166 0
147 168 0
155 177 0
146 164 0
149 168 0
144 166 0
141 162 0
147 165 0
147 166 0
152 171 0
146 166 0
154 174 0
154 175 0
151 171 0
148 168 0
146 166 0
143 164 0
143 160 0
145 165 0
160 180 0
148 168 0
148 168 0
152 171 0
152 171 0
156 177 0
153 172 0
150 169 0
144 162 0
147 168 0
151 169 0
146 164 0
150 171 0
147 164 0
149 170 0
149 168 0
154 171 0
153 173 0
153 171 0
153 173 0
143 163 0
156 174 0
154 173 0
154 175 0
153 170 0
142 159 0
150 167 0
154 175 0
162 184 0
155 175 0
153 170 0
149 168 0
147 163 0
159 177 0
152 170 0
152 167 0
148 165 0
157 176 0
148 165 0
154 172 0
152 169 0
154 170 0
154 169 0
158 176 0
149 166 0
141 159 0
153 170 0
156 173 0
152 169 0
152 169 0
152 170 0
142 157 0
146 163 0
147 164 0
147 162 0
154 171 0
149 165 0
154 169 0
154 172 0
148 163 0
156 172 0
155 171 0
151 167 0
152 166 0
155 169 0
154 170 0
146 159 0
150 163 0
148 161 0
150 166 0
147 163 0
152 168 0
146 160 0
157 171 0
152 165 0
153 167 0
151 167 0
154 166 0
152 168 0
154 167 0
156 168 0
149 162 0
157 173 0
151 165 0
156 165 0
152 163 0
153 167 0
149 161 0
159 175 0
149 160 0
157 170 0
157 172 0
161 175 0
154 169 0
158 169 0
153 164 0
154 166 0
156 169 0
152 165 0
150 161 0
153 166 0
155 167 0
154 163 0
150 162 0
151 162 0
153 163 0
154 166 0
151 160 0
150 161 0
158 167 0
152 165 0
153 165 0
151 162 0
152 163 0
159 168 0
156 167 0
152 160 0
161 175 0
155 162 0
156 166 0
153 164 0
154 163 0
160 172 0
151 162 0
155 162 0
160 170 0
155 164 0
154 162 0
154 166 0
158 168 0
159 172 0
160 171 0
157 166 0
156 166 0
155 165 0
154 165 0
158 167 0
159 169 0
158 167 0
156 164 0
159 172 0
159 168 0
157 168 0
154 162 0
171 192 0
174 196 0
172 193 0
174 196 0
175 196 0
173 195 0
172 194 0
174 196 0
171 193 0
173 195 0
172 193 0
173 194 0
167 189 0
173 194 0
169 190 0
172 194 0
169 191 0
172 194 0
172 193 0
173 194 0
172 193 0
170 191 0
169 190 0
169 192 0
174 196 0
166 187 0
167 188 0
171 193 0
168 189 0
168 190 0
169 191 0
166 188 0
173 195 0
170 191 0
169 190 0
166 188 0
169 191 0
169 190 0
166 187 0
166 188 0
164 186 0
163 186 0
167 190 0
166 187 0
164 186 0
167 188 0
167 189 0
164 186 0
165 186 0
164 186 0
165 188 0
167 188 0
163 184 0
164 186 0
167 188 0
161 183 0
168 190 0
166 188 0
162 184 0
163 186 0
163 184 0
165 186 0
159 181 0
156 179 0
165 188 0
153 176 0
160 182 0
162 183 0
160 182 0
160 183 0
161 183 0
158 180 0
160 183 0
155 177 0
167 189 0
161 184 0
161 184 0
158 180 0
164 187 0
163 186 0
158 180 0
159 181 0
159 181 0
158 180 0
160 182 0
156 178 0
158 181 0
154 176 0
157 180 0
162 185 0
162 184 0
157 179 0
159 182 0
162 185 0
158 180 0
159 181 0
164 185 0
158 182 0
160 182 0
161 184 0
159 182 0
165 188 0
161 184 0
155 178 0
160 182 0
162 185 0
150 173 0
155 178 0
154 176 0
166 188 0
154 176 0
158 180 0
158 180 0
151 174 0
155 178 0
154 175 0
158 181 0
150 173 0
156 178 0
155 177 0
161 184 0
145 167 0
160 184 0
157 179 0
154 177 0
145 168 0
158 181 0
153 175 0
154 176 0
160 182 0
152 175 0
152 174 0
152 174 0
155 177 0
150 172 0
155 177 0
157 179 0
153 176 0
154 177 0
156 178 0
156 177 0
156 179 0
150 172 0
152 174 0
158 180 0
148 170 0
159 180 0
155 177 0
159 182 0
152 173 0
146 168 0
151 173 0
154 176 0
159 182 0
144 167 0
149 171 0
153 175 0
149 171 0
141 163 0
150 171 0
155 179 0
151 173 0
150 173 0
156 179 0
149 171 0
153 176 0
150 173 0
151 171 0
149 173 0
147 169 0
155 177 0
152 173 0
150 172 0
150 170 0
150 171 0
155 175 0
157 180 0
158 180 0
150 173 0
142 164 0
154 176 0
151 172 0
150 172 0
154 176 0
148 169 0
150 172 0
147 169 0
143 165 0
149 170 0
150 172 0
151 173 0
147 169 0
151 174 0
155 177 0
153 174 0
149 171 0
150 170 0
147 168 0
148 169 0
151 172 0
150 170 0
156 178 0
141 161 0
153 174 0
146 166 0
152 173 0
150 172 0
150 171 0
152 174 0
149 169 0
142 162 0
148 169 0
144 165 0
159 179 0
146 166 0
141 160 0
152 171 0
148 171 0
146 165 0
150 171 0
153 174 0
144 165 0
152 173 0
145 165 0
137 156 0
146 166 0
142 163 0
150 171 0
141 161 0
141 160 0
152 173 0
142 160 0
156 176 0
145 166 0
145 165 0
151 170 0
151 171 0
143 162 0
149 170 0
141 160 0
145 164 0
141 161 0
149 170 0
141 162 0
144 164 0
151 171 0
141 160 0
150 170 0
149 168 0
150 170 0
152 172 0
148 168 0
147 166 0
147 168 0
151 173 0
149 167 0
153 172 0
152 173 0
143 163 0
156 174 0
148 167 0
148 166 0
138 157 0
154 174 0
144 163 0
142 161 0
151 170 0
144 162 0
152 171 0
152 171 0
144 163 0
149 168 0
149 167 0
148 168 0
152 170 0
148 168 0
149 168 0
152 173 0
146 165 0
156 175 0
147 166 0
147 165 0
146 165 0
164 182 0
148 166 0
145 164 0
144 161 0
156 174 0
154 173 0
156 170 0
157 174 0
158 176 0
149 168 0
151 167 0
148 166 0
151 169 0
150 167 0
148 164 0
159 177 0
152 170 0
142 158 0
148 167 0
151 167 0
149 167 0
141 156 0
156 174 0
150 167 0
143 160 0
144 162 0
148 165 0
148 163 0
158 175 0
156 174 0
157 175 0
153 169 0
146 162 0
150 166 0
160 176 0
151 168 0
148 164 0
150 165 0
151 166 0
153 166 0
156 170 0
148 165 0
151 166 0
151 166 0
156 171 0
157 173 0
148 163 0
150 165 0
140 154 0
148 164 0
150 166 0
154 168 0
144 159 0
149 162 0
151 163 0
154 168 0
152 164 0
157 173 0
150 165 0
145 159 0
155 167 0
158 172 0
150 162 0
152 167 0
149 163 0
147 162 0
155 170 0
162 175 0
151 162 0
151 163 0
154 169 0
153 167 0
154 165 0
155 168 0
152 166 0
158 171 0
153 165 0
153 165 0
158 172 0
151 162 0
153 166 0
154 161 0
158 169 0
158 170 0
149 159 0
157 168 0
150 161 0
152 162 0
153 164 0
156 168 0
158 168 0
155 164 0
155 166 0
157 168 0
152 164 0
151 162 0
159 170 0
157 170 0
148 157 0
156 169 0
146 153 0
155 167 0
160 174 0
154 164 0
152 161 0
158 170 0
156 166 0
156 165 0
159 169 0
161 171 0
161 171 0
157 167 0
160 170 0
161 174 0
160 170 0
159 171 0
156 164 0
169 191 0
173 194 0
172 194 0
171 192 0
170 192 0
172 194 0
170 192 0
170 192 0
170 192 0
172 194 0
174 195 0
175 197 0
169 191 0
172 194 0
168 190 0
171 193 0
171 191 0
168 189 0
170 191 0
168 190 0
174 196 0
163 184 0
170 192 0
163 185 0
170 191 0
165 186 0
167 188 0
169 190 0
168 190 0
167 189 0
170 192 0
170 191 0
167 189 0
166 188 0
167 188 0
169 191 0
168 190 0
169 190 0
168 191 0
164 184 0
165 188 0
170 191 0
164 186 0
166 187 0
168 190 0
164 186 0
168 190 0
167 189 0
168 190 0
166 187 0
165 186 0
168 190 0
166 187 0
160 180 0
166 188 0
163 185 0
163 185 0
164 186 0
161 183 0
166 188 0
165 188 0
163 186 0
161 183 0
165 188 0
161 184 0
162 184 0
164 186 0
169 191 0
161 183 0
164 187 0
161 184 0
164 187 0
162 184 0
164 186 0
164 187 0
158 181 0
165 188 0
161 183 0
159 181 0
164 186 0
161 183 0
164 186 0
159 182 0
159 181 0
167 191 0
162 185 0
155 178 0
158 180 0
156 178 0
157 180 0
154 175 0
158 181 0
161 184 0
158 181 0
160 182 0
161 183 0
151 174 0
157 180 0
157 179 0
156 180 0
150 174 0
158 180 0
160 183 0
160 183 0
163 185 0
155 176 0
162 185 0
157 180 0
160 182 0
156 179 0
158 181 0
155 177 0
161 185 0
154 177 0
162 185 0
159 182 0
155 178 0
155 177 0
159 181 0
160 182 0
155 176 0
160 183 0
160 183 0
162 185 0
159 182 0
155 178 0
161 183 0
154 176 0
163 186 0
155 178 0
155 177 0
155 178 0
152 174 0
147 170 0
157 179 0
161 183 0
158 180 0
154 176 0
151 172 0
157 180 0
151 173 0
153 176 0
152 174 0
159 182 0
163 186 0
156 178 0
157 179 0
163 186 0
151 174 0
157 178 0
157 179 0
157 179 0
149 172 0
143 165 0
143 166 0
153 175 0
150 172 0
154 176 0
147 169 0
150 172 0
154 177 0
151 173 0
146 166 0
153 175 0
154 176 0
152 174 0
147 169 0
154 176 0
147 167 0
153 173 0
141 163 0
154 177 0
152 173 0
147 170 0
151 174 0
152 174 0
150 171 0
151 174 0
148 170 0
144 165 0
143 164 0
151 173 0
146 168 0
153 174 0
152 173 0
153 175 0
151 173 0
149 170 0
144 166 0
150 171 0
150 170 0
151 173 0
143 165 0
147 169 0
150 171 0
148 168 0
153 176 0
154 176 0
150 173 0
143 164 0
150 170 0
145 167 0
142 163 0
138 160 0
143 163 0
149 171 0
151 172 0
146 168 0
148 168 0
148 170 0
149 170 0
150 172 0
153 174 0
140 161 0
146 168 0
144 165 0
153 175 0
141 162 0
143 164 0
158 179 0
151 172 0
151 171 0
148 168 0
145 166 0
151 173 0
151 172 0
151 171 0
142 161 0
145 164 0
144 163 0
141 161 0
149 169 0
142 163 0
143 164 0
149 169 0
147 167 0
145 166 0
155 176 0
145 165 0
151 172 0
151 171 0
148 169 0
151 171 0
153 174 0
148 169 0
150 170 0
141 162 0
151 173 0
152 173 0
152 172 0
148 169 0
148 168 0
154 173 0
142 164 0
147 167 0
153 173 0
151 171 0
149 170 0
148 168 0
153 174 0
151 172 0
150 168 0
146 167 0
150 171 0
154 175 0
145 163 0
154 173 0
154 172 0
152 171 0
146 168 0
145 163 0
148 166 0
154 175 0
149 169 0
152 170 0
152 171 0
153 172 0
147 166 0
144 162 0
144 162 0
147 166 0
159 179 0
153 172 0
148 165 0
156 174 0
147 166 0
152 170 0
157 174 0
146 165 0
151 171 0
153 172 0
154 173 0
146 162 0
150 168 0
148 162 0
151 168 0
156 176 0
150 165 0
158 174 0
158 176 0
149 165 0
150 168 0
154 172 0
154 171 0
150 167 0
147 165 0
145 162 0
152 166 0
154 170 0
150 165 0
154 171 0
147 164 0
152 168 0
152 167 0
152 168 0
155 172 0
150 167 0
149 165 0
140 155 0
153 170 0
150 166 0
153 169 0
153 168 0
152 169 0
150 165 0
155 168 0
152 167 0
156 170 0
153 167 0
148 162 0
149 164 0
146 162 0
155 171 0
151 164 0
155 169 0
150 164 0
156 173 0
156 170 0
155 170 0
148 159 0
150 164 0
157 169 0
154 167 0
151 165 0
148 160 0
148 160 0
157 171 0
155 170 0
154 169 0
153 169 0
159 173 0
154 168 0
156 171 0
154 166 0
158 169 0
148 159 0
157 169 0
154 167 0
161 175 0
151 165 0
152 163 0
153 165 0
158 171 0
161 173 0
152 163 0
153 163 0
157 169 0
158 170 0
152 164 0
154 164 0
155 164 0
159 171 0
156 169 0
160 171 0
151 161 0
158 170 0
158 169 0
159 170 0
152 160 0
158 171 0
157 168 0
161 173 0
153 164 0
154 165 0
159 173 0
161 174 0
162 176 0
164 177 0
161 172 0
157 167 0
153 163 0
157 167 0
156 167 0
161 172 0
155 163 0
157 169 0
156 168 0
164 175 0
161 172 0
156 167 0
174 195 0
172 194 0
171 192 0
166 189 0
173 195 0
170 192 0
171 193 0
168 191 0
169 189 0
172 195 0
174 195 0
167 188 0
173 193 0
167 189 0
173 194 0
173 195 0
169 191 0
168 190 0
166 188 0
171 193 0
167 188 0
171 193 0
167 189 0
169 191 0
171 193 0
169 190 0
172 193 0
167 188 0
164 187 0
168 190 0
172 194 0
167 189 0
169 190 0
170 192 0
168 190 0
168 189 0
169 191 0
162 184 0
167 190 0
165 188 0
168 189 0
164 184 0
168 190 0
164 185 0
167 189 0
166 189 0
159 182 0
163 185 0
165 187 0
164 186 0
162 185 0
165 187 0
160 181 0
161 184 0
159 181 0
164 186 0
167 190 0
167 189 0
159 182 0
164 185 0
165 187 0
167 189 0
164 186 0
164 186 0
170 193 0
164 187 0
160 183 0
167 190 0
155 178 0
161 183 0
151 174 0
167 189 0
155 178 0
165 186 0
157 179 0
160 182 0
159 182 0
159 182 0
163 185 0
160 182 0
156 178 0
163 185 0
158 180 0
168 189 0
161 184 0
158 181 0
159 182 0
153 175 0
158 180 0
161 184 0
163 186 0
162 184 0
156 179 0
163 186 0
156 179 0
161 185 0
156 179 0
156 178 0
159 183 0
154 176 0
154 176 0
160 183 0
153 175 0
164 186 0
154 176 0
162 186 0
161 185 0
162 185 0
165 188 0
158 179 0
151 173 0
158 181 0
160 183 0
153 176 0
159 182 0
156 178 0
155 177 0
158 180 0
159 181 0
157 180 0
160 183 0
156 178 0
154 177 0
157 180 0
158 180 0
164 187 0
151 173 0
152 174 0
153 176 0
155 177 0
155 178 0
153 175 0
163 186 0
156 178 0
157 179 0
150 173 0
157 180 0
156 179 0
160 180 0
153 177 0
162 185 0
149 172 0
157 180 0
156 178 0
157 179 0
153 175 0
149 170 0
154 176 0
155 177 0
153 174 0
159 181 0
157 180 0
154 177 0
156 177 0
152 174 0
153 175 0
148 170 0
156 178 0
151 173 0
150 173 0
156 177 0
153 175 0
151 172 0
156 178 0
153 174 0
154 177 0
150 172 0
153 176 0
149 170 0
153 174 0
147 169 0
147 168 0
150 172 0
148 170 0
147 168 0
154 176 0
158 180 0
152 174 0
149 170 0
148 168 0
137 158 0
148 170 0
151 172 0
149 172 0
153 175 0
155 178 0
156 179 0
149 170 0
145 166 0
146 167 0
155 177 0
147 167 0
153 174 0
144 165 0
148 170 0
142 165 0
151 172 0
146 169 0
150 171 0
154 175 0
155 176 0
160 182 0
146 165 0
153 174 0
143 164 0
149 169 0
143 164 0
152 174 0
140 162 0
161 183 0
153 174 0
141 162 0
143 165 0
151 173 0
147 168 0
147 168 0
140 160 0
154 175 0
154 173 0
144 164 0
157 177 0
151 171 0
153 174 0
147 167 0
148 168 0
152 173 0
153 174 0
150 169 0
149 171 0
154 174 0
146 166 0
144 165 0
145 167 0
142 161 0
143 164 0
150 170 0
151 173 0
144 165 0
151 172 0
152 171 0
153 172 0
151 173 0
140 161 0
148 168 0
148 167 0
156 176 0
149 169 0
149 170 0
140 160 0
154 173 0
151 172 0
146 167 0
148 169 0
146 166 0
148 168 0
150 170 0
156 178 0
153 174 0
155 175 0
156 174 0
155 176 0
150 170 0
149 168 0
148 168 0
153 172 0
149 170 0
145 163 0
148 168 0
151 171 0
156 176 0
151 171 0
152 172 0
153 172 0
149 167 0
149 170 0
139 158 0
150 169 0
149 167 0
150 170 0
147 166 0
150 169 0
145 165 0
150 166 0
151 171 0
155 174 0
151 170 0
148 165 0
155 173 0
150 169 0
152 170 0
147 165 0
156 172 0
152 168 0
145 162 0
148 167 0
150 166 0
152 170 0
150 169 0
147 165 0
150 167 0
151 169 0
154 171 0
150 166 0
150 167 0
153 171 0
152 171 0
150 166 0
148 164 0
155 173 0
153 168 0
151 169 0
149 163 0
151 169 0
154 171 0
154 170 0
152 168 0
152 167 0
151 166 0
155 173 0
149 165 0
149 164 0
159 177 0
153 171 0
150 168 0
149 165 0
152 166 0
158 175 0
150 165 0
152 170 0
151 166 0
151 164 0
149 165 0
152 167 0
157 172 0
157 172 0
154 169 0
158 176 0
146 162 0
156 172 0
150 163 0
156 168 0
157 171 0
154 167 0
148 161 0
154 168 0
161 173 0
156 170 0
156 171 0
150 164 0
151 166 0
158 172 0
159 174 0
153 166 0
157 171 0
158 173 0
156 166 0
156 171 0
157 168 0
153 164 0
151 160 0
152 162 0
153 167 0
150 164 0
155 168 0
152 163 0
152 164 0
156 166 0
150 160 0
159 174 0
158 167 0
160 173 0
156 168 0
152 163 0
156 170 0
159 172 0
159 168 0
159 172 0
157 168 0
155 170 0
153 162 0
164 175 0
160 171 0
154 164 0
162 174 0
157 167 0
160 171 0
153 161 0
160 169 0
157 168 0
156 167 0
158 170 0
159 170 0
156 167 0
152 163 0
154 163 0
160 171 0
157 168 0
162 174 0
155 164 0
156 166 0
169 191 0
171 194 0
170 190 0
171 193 0
169 191 0
168 190 0
172 194 0
173 194 0
168 190 0
173 193 0
170 191 0
171 193 0
169 191 0
171 194 0
168 190 0
170 191 0
172 194 0
170 192 0
167 189 0
168 189 0
166 188 0
171 192 0
172 194 0
170 191 0
167 189 0
168 190 0
163 185 0
168 190 0
165 187 0
165 186 0
166 187 0
166 189 0
169 191 0
164 187 0
166 187 0
166 188 0
166 188 0
170 192 0
170 192 0
166 188 0
166 188 0
168 190 0
164 187 0
165 187 0
166 188 0
168 190 0
171 193 0
168 190 0
163 186 0
167 190 0
163 185 0
171 192 0
165 186 0
163 185 0
165 187 0
169 191 0
161 183 0
160 182 0
164 186 0
164 187 0
162 184 0
164 187 0
163 186 0
165 188 0
166 188 0
163 186 0
164 186 0
161 182 0
160 182 0
164 186 0
159 181 0
162 185 0
163 185 0
158 181 0
161 184 0
160 181 0
163 186 0
160 183 0
162 184 0
164 186 0
160 182 0
159 182 0
161 184 0
163 185 0
159 180 0
161 183 0
158 181 0
158 181 0
159 181 0
163 186 0
156 178 0
164 186 0
158 180 0
160 182 0
151 174 0
162 185 0
155 178 0
158 181 0
159 182 0
161 183 0
169 191 0
160 182 0
158 180 0
163 185 0
154 176 0
159 181 0
157 179 0
161 183 0
165 188 0
159 181 0
156 179 0
157 179 0
153 175 0
162 184 0
154 177 0
161 183 0
160 183 0
160 185 0
158 182 0
152 176 0
159 182 0
154 177 0
163 185 0
156 178 0
158 180 0
157 179 0
161 183 0
156 179 0
153 175 0
158 181 0
159 181 0
159 181 0
161 183 0
149 171 0
157 180 0
158 181 0
158 181 0
157 180 0
155 178 0
147 170 0
142 164 0
154 176 0
154 177 0
157 180 0
160 182 0
156 179 0
156 178 0
153 176 0
156 178 0
154 176 0
154 175 0
150 172 0
148 169 0
151 173 0
153 176 0
147 170 0
146 168 0
149 171 0
155 177 0
143 165 0
150 171 0
153 176 0
157 179 0
150 170 0
151 173 0
146 167 0
154 176 0
153 176 0
149 170 0
155 176 0
155 177 0
151 173 0
155 176 0
143 165 0
155 179 0
154 175 0
148 170 0
142 164 0
151 172 0
148 168 0
146 167 0
155 177 0
154 176 0
147 169 0
156 178 0
146 168 0
151 173 0
162 183 0
147 169 0
153 175 0
151 173 0
153 175 0
155 177 0
137 159 0
154 176 0
151 172 0
157 178 0
148 169 0
151 171 0
152 174 0
153 174 0
145 166 0
149 171 0
152 173 0
152 173 0
151 172 0
149 169 0
151 172 0
153 175 0
147 168 0
149 171 0
146 166 0
152 174 0
151 173 0
151 172 0
143 164 0
149 170 0
149 168 0
141 162 0
148 168 0
143 164 0
141 161 0
155 175 0
137 158 0
148 168 0
141 161 0
155 177 0
150 171 0
149 171 0
151 172 0
148 168 0
150 171 0
149 170 0
146 167 0
150 172 0
152 172 0
150 170 0
149 169 0
151 171 0
149 171 0
150 170 0
149 169 0
151 171 0
145 166 0
154 174 0
140 162 0
147 166 0
148 166 0
156 177 0
152 173 0
150 169 0
150 170 0
145 164 0
156 176 0
148 168 0
148 165 0
157 179 0
153 174 0
150 170 0
151 172 0
147 165 0
147 167 0
150 169 0
153 173 0
149 170 0
148 168 0
146 167 0
156 176 0
148 166 0
148 168 0
154 175 0
153 172 0
146 165 0
144 163 0
150 169 0
144 162 0
162 181 0
149 168 0
153 170 0
149 170 0
149 170 0
153 173 0
144 163 0
148 169 0
153 172 0
145 164 0
155 175 0
154 173 0
149 167 0
157 177 0
146 164 0
149 169 0
152 170 0
149 167 0
153 172 0
161 181 0
144 159 0
152 170 0
149 168 0
157 175 0
154 172 0
147 163 0
154 171 0
154 170 0
147 163 0
154 171 0
151 167 0
148 166 0
150 168 0
152 168 0
154 172 0
155 172 0
157 172 0
155 171 0
155 172 0
148 164 0
156 172 0
155 172 0
143 159 0
157 175 0
153 171 0
150 167 0
158 176 0
152 168 0
159 177 0
150 166 0
152 169 0
148 164 0
154 171 0
152 167 0
152 167 0
148 162 0
153 168 0
156 171 0
148 162 0
154 168 0
149 164 0
162 177 0
153 166 0
155 170 0
154 168 0
151 165 0
157 172 0
152 165 0
157 171 0
148 161 0
153 167 0
159 174 0
151 165 0
155 169 0
154 168 0
149 163 0
153 166 0
156 169 0
156 169 0
152 167 0
154 165 0
156 168 0
148 160 0
157 168 0
157 171 0
151 163 0
156 167 0
158 173 0
155 165 0
153 166 0
156 171 0
153 165 0
151 163 0
157 171 0
157 172 0
155 166 0
157 170 0
159 173 0
153 165 0
160 169 0
152 162 0
150 162 0
155 164 0
159 172 0
156 170 0
155 170 0
165 178 0
156 169 0
160 170 0
162 176 0
159 170 0
160 173 0
158 170 0
158 172 0
159 173 0
158 171 0
153 163 0
156 168 0
151 165 0
156 166 0
156 169 0
162 176 0
158 169 0
161 173 0
172 194 0
172 194 0
170 192 0
168 190 0
168 190 0
170 192 0
172 194 0
170 192 0
169 192 0
169 191 0
168 190 0
167 189 0
170 191 0
172 193 0
172 193 0
164 185 0
164 185 0
167 188 0
170 192 0
170 192 0
170 191 0
170 192 0
166 188 0
172 194 0
166 188 0
164 186 0
168 190 0
168 190 0
171 193 0
165 187 0
163 185 0
167 189 0
168 192 0
165 186 0
166 187 0
169 191 0
165 185 0
164 185 0
172 193 0
166 186 0
164 186 0
163 185 0
167 189 0
166 188 0
163 184 0
166 187 0
168 191 0
169 192 0
162 184 0
169 191 0
159 180 0
159 181 0
162 184 0
163 186 0
169 190 0
163 185 0
165 188 0
167 188 0
167 190 0
164 186 0
160 183 0
160 182 0
161 184 0
164 187 0
165 187 0
162 184 0
164 187 0
162 183 0
159 181 0
163 186 0
163 185 0
166 189 0
159 182 0
166 188 0
165 186 0
158 180 0
161 184 0
158 181 0
162 185 0
160 182 0
168 190 0
160 181 0
163 185 0
161 184 0
157 180 0
161 183 0
161 183 0
160 181 0
162 183 0
157 179 0
152 174 0
159 182 0
157 180 0
164 187 0
155 178 0
157 179 0
158 182 0
158 181 0
160 182 0
164 187 0
161 184 0
152 176 0
157 180 0
157 180 0
159 182 0
152 175 0
158 180 0
163 186 0
151 173 0
158 181 0
161 184 0
162 184 0
157 180 0
151 174 0
158 181 0
161 183 0
150 173 0
153 177 0
154 176 0
157 180 0
158 179 0
153 176 0
155 178 0
153 175 0
155 179 0
150 173 0
160 183 0
150 172 0
152 175 0
157 179 0
157 179 0
153 176 0
148 170 0
154 178 0
156 179 0
151 174 0
155 177 0
146 168 0
150 171 0
160 183 0
146 168 0
157 179 0
152 175 0
160 183 0
154 176 0
155 177 0
154 177 0
156 178 0
152 174 0
151 173 0
151 173 0
157 179 0
152 174 0
150 172 0
157 180 0
147 168 0
150 172 0
152 174 0
149 171 0
148 170 0
150 173 0
157 179 0
150 172 0
152 173 0
146 169 0
145 166 0
152 174 0
145 168 0
159 182 0
155 176 0
155 177 0
150 172 0
154 177 0
151 173 0
151 173 0
150 171 0
153 174 0
151 173 0
150 172 0
156 178 0
154 176 0
146 167 0
148 169 0
151 173 0
146 169 0
154 177 0
160 182 0
147 169 0
150 173 0
151 174 0
149 170 0
149 171 0
153 176 0
148 170 0
147 170 0
154 176 0
155 176 0
146 166 0
147 169 0
147 169 0
149 169 0
150 170 0
150 171 0
150 173 0
147 170 0
154 176 0
150 171 0
154 176 0
155 179 0
146 168 0
148 170 0
151 171 0
148 169 0
149 171 0
149 170 0
152 174 0
157 179 0
155 176 0
155 177 0
145 166 0
150 171 0
148 169 0
155 177 0
146 167 0
151 172 0
139 160 0
150 171 0
154 175 0
149 171 0
147 169 0
153 173 0
149 168 0
145 166 0
154 175 0
140 160 0
154 175 0
155 176 0
153 174 0
150 170 0
144 165 0
146 167 0
150 171 0
152 173 0
148 169 0
150 169 0
148 169 0
147 166 0
151 173 0
147 167 0
148 168 0
141 162 0
148 167 0
152 172 0
161 180 0
153 174 0
144 165 0
146 166 0
151 170 0
156 178 0
143 161 0
151 172 0
150 170 0
146 165 0
156 175 0
151 171 0
152 172 0
149 170 0
152 172 0
150 169 0
148 168 0
150 169 0
146 165 0
151 170 0
153 173 0
151 172 0
154 174 0
148 167 0
152 171 0
158 179 0
153 173 0
151 171 0
152 171 0
158 177 0
149 167 0
146 166 0
150 166 0
152 171 0
152 171 0
153 171 0
150 167 0
151 169 0
160 177 0
150 168 0
157 175 0
152 170 0
150 168 0
153 171 0
154 173 0
155 174 0
156 174 0
153 171 0
151 168 0
154 174 0
155 174 0
146 166 0
153 171 0
143 158 0
150 167 0
149 166 0
154 169 0
152 168 0
155 172 0
158 174 0
143 161 0
157 174 0
153 169 0
151 165 0
153 171 0
149 165 0
155 169 0
150 166 0
153 168 0
156 172 0
158 174 0
146 164 0
149 165 0
153 170 0
157 173 0
147 161 0
156 171 0
160 176 0
153 168 0
159 173 0
154 170 0
149 163 0
150 165 0
156 172 0
156 171 0
149 165 0
153 167 0
147 160 0
151 165 0
151 165 0
153 166 0
148 161 0
149 163 0
152 167 0
155 169 0
162 178 0
154 168 0
150 162 0
153 166 0
153 166 0
161 176 0
157 173 0
157 172 0
158 171 0
158 170 0
155 167 0
156 169 0
153 168 0
154 167 0
148 158 0
150 159 0
151 166 0
154 164 0
161 174 0
157 169 0
157 166 0
157 171 0
156 168 0
155 168 0
155 168 0
159 175 0
151 163 0
154 166 0
160 173 0
151 165 0
156 170 0
156 168 0
158 169 0
160 170 0
156 166 0
158 169 0
154 165 0
162 174 0
152 161 0
150 159 0
158 169 0
154 167 0
155 169 0
161 176 0
157 169 0
155 167 0
156 165 0
160 173 0
154 165 0
153 163 0
160 171 0
161 173 0
172 193 0
174 196 0
171 193 0
170 192 0
171 193 0
170 192 0
166 188 0
169 191 0
172 193 0
172 194 0
171 194 0
167 189 0
171 193 0
171 192 0
169 191 0
165 187 0
169 191 0
164 187 0
169 190 0
168 190 0
168 190 0
169 190 0
166 188 0
170 191 0
166 189 0
163 185 0
168 189 0
171 193 0
167 190 0
165 187 0
166 188 0
170 192 0
165 187 0
167 189 0
163 185 0
170 192 0
163 186 0
169 191 0
160 182 0
163 184 0
161 183 0
167 188 0
166 187 0
163 185 0
163 185 0
165 187 0
162 184 0
162 184 0
160 181 0
163 185 0
167 189 0
165 188 0
165 187 0
165 187 0
161 183 0
164 187 0
157 179 0
162 186 0
164 186 0
166 188 0
166 188 0
163 185 0
157 180 0
164 186 0
160 182 0
160 181 0
165 187 0
164 187 0
163 186 0
161 183 0
165 188 0
160 183 0
166 188 0
159 182 0
160 182 0
160 184 0
159 180 0
154 176 0
166 188 0
164 186 0
155 177 0
155 178 0
166 189 0
162 185 0
162 183 0
159 183 0
156 179 0
162 185 0
159 182 0
160 183 0
166 188 0
168 190 0
150 173 0
154 176 0
161 184 0
162 185 0
161 185 0
162 185 0
160 183 0
157 179 0
163 186 0
157 178 0
155 178 0
160 182 0
160 182 0
155 178 0
156 179 0
156 178 0
158 181 0
153 176 0
157 179 0
158 181 0
156 179 0
154 176 0
160 183 0
157 180 0
151 173 0
154 177 0
149 172 0
154 177 0
154 177 0
156 179 0
162 185 0
158 180 0
156 178 0
152 174 0
154 177 0
156 179 0
151 174 0
153 176 0
150 172 0
156 178 0
159 181 0
157 178 0
156 179 0
160 183 0
156 178 0
158 180 0
155 177 0
155 178 0
151 173 0
157 181 0
157 180 0
155 177 0
151 173 0
158 181 0
153 175 0
156 178 0
153 175 0
153 176 0
156 179 0
154 176 0
148 170 0
157 180 0
152 175 0
148 170 0
154 176 0
154 177 0
153 175 0
151 173 0
146 168 0
146 168 0
156 178 0
153 176 0
153 176 0
158 180 0
147 169 0
147 169 0
155 178 0
150 171 0
149 170 0
155 175 0
148 169 0
163 185 0
154 175 0
157 178 0
155 176 0
156 177 0
157 178 0
147 168 0
153 176 0
147 168 0
153 175 0
152 176 0
150 170 0
146 168 0
148 169 0
152 173 0
153 175 0
152 174 0
149 171 0
151 172 0
142 164 0
153 175 0
157 177 0
146 167 0
155 177 0
157 178 0
150 172 0
155 176 0
145 166 0
152 173 0
153 174 0
144 164 0
151 172 0
155 176 0
155 177 0
152 172 0
152 174 0
155 177 0
151 173 0
155 176 0
152 173 0
151 172 0
154 176 0
148 170 0
138 159 0
147 168 0
142 162 0
152 173 0
152 174 0
148 170 0
143 165 0
147 169 0
146 166 0
154 176 0
151 172 0
155 177 0
150 171 0
152 173 0
152 173 0
153 175 0
157 178 0
150 172 0
150 171 0
149 169 0
153 175 0
149 169 0
158 180 0
148 169 0
145 163 0
159 181 0
153 175 0
158 180 0
141 160 0
153 175 0
147 167 0
156 177 0
146 167 0
156 179 0
153 172 0
154 174 0
145 165 0
155 176 0
149 169 0
152 172 0
144 164 0
155 175 0
152 173 0
153 173 0
154 175 0
152 170 0
149 171 0
152 171 0
151 170 0
147 168 0
145 166 0
156 176 0
149 168 0
147 167 0
152 173 0
151 171 0
150 170 0
151 172 0
151 171 0
150 170 0
146 164 0
155 175 0
152 168 0
150 169 0
150 169 0
161 181 0
154 172 0
153 172 0
154 174 0
148 168 0
153 172 0
146 163 0
158 179 0
151 169 0
157 175 0
155 172 0
149 168 0
149 168 0
154 174 0
153 172 0
154 174 0
152 171 0
144 162 0
154 173 0
156 175 0
156 175 0
147 164 0
150 167 0
152 171 0
161 181 0
154 171 0
155 170 0
150 167 0
150 166 0
148 166 0
152 169 0
152 169 0
156 173 0
153 168 0
155 172 0
154 169 0
146 163 0
148 164 0
153 167 0
155 170 0
154 168 0
155 170 0
151 166 0
157 174 0
153 168 0
148 164 0
150 166 0
154 169 0
150 164 0
149 163 0
153 168 0
149 165 0
162 177 0
162 178 0
155 172 0
152 167 0
158 173 0
159 174 0
151 165 0
157 174 0
152 167 0
156 170 0
152 167 0
156 172 0
156 167 0
154 168 0
154 169 0
163 180 0
159 172 0
162 178 0
160 175 0
154 166 0
154 169 0
152 165 0
157 173 0
155 170 0
153 168 0
159 174 0
156 173 0
155 170 0
150 164 0
155 168 0
151 165 0
163 178 0
159 173 0
164 178 0
153 165 0
153 167 0
160 173 0
156 170 0
156 168 0
159 172 0
154 168 0
154 166 0
151 166 0
156 167 0
154 165 0
157 170 0
158 173 0
160 171 0
159 170 0
149 161 0
161 175 0
156 167 0
156 167 0
158 172 0
156 166 0
160 171 0
155 166 0
152 166 0
159 171 0
159 171 0
155 168 0
158 170 0
160 172 0
157 170 0
155 166 0
157 166 0
161 173 0
172 193 0
169 191 0
171 193 0
170 193 0
167 190 0
167 189 0
173 195 0
170 191 0
171 193 0
169 190 0
173 195 0
168 190 0
171 193 0
168 191 0
171 191 0
170 191 0
169 191 0
168 189 0
168 190 0
169 190 0
168 190 0
168 190 0
168 190 0
166 188 0
172 193 0
169 191 0
172 193 0
168 189 0
166 188 0
170 192 0
169 190 0
164 187 0
162 185 0
162 183 0
165 187 0
168 191 0
168 190 0
162 184 0
166 188 0
163 185 0
166 188 0
171 193 0
167 190 0
165 187 0
164 187 0
164 187 0
166 187 0
164 186 0
164 186 0
162 184 0
158 181 0
163 185 0
161 184 0
169 191 0
164 186 0
159 182 0
168 189 0
158 179 0
165 187 0
167 189 0
161 184 0
163 185 0
167 189 0
162 185 0
163 186 0
161 183 0
161 184 0
160 182 0
163 185 0
169 192 0
159 182 0
157 180 0
159 182 0
164 188 0
165 187 0
159 182 0
162 185 0
159 181 0
159 181 0
164 187 0
157 179 0
162 185 0
152 174 0
165 187 0
163 185 0
164 187 0
157 180 0
161 183 0
163 186 0
168 192 0
153 176 0
158 180 0
161 183 0
155 177 0
154 176 0
155 179 0
167 189 0
159 182 0
161 183 0
160 183 0
160 183 0
157 179 0
158 181 0
156 180 0
157 179 0
151 174 0
157 180 0
159 181 0
157 181 0
155 177 0
159 182 0
165 186 0
160 183 0
163 185 0
164 185 0
164 186 0
157 180 0
160 183 0
150 173 0
154 177 0
156 179 0
154 177 0
160 182 0
161 183 0
156 178 0
151 173 0
160 182 0
151 173 0
163 186 0
162 184 0
153 176 0
150 172 0
154 177 0
154 177 0
152 174 0
153 175 0
158 179 0
156 179 0
149 171 0
151 174 0
154 177 0
154 176 0
160 183 0
151 173 0
151 173 0
155 177 0
157 180 0
151 174 0
153 175 0
153 175 0
153 176 0
161 184 0
151 174 0
155 177 0
154 176 0
150 172 0
157 178 0
149 171 0
154 177 0
150 173 0
147 170 0
151 173 0
154 175 0
150 172 0
153 175 0
149 172 0
155 178 0
154 177 0
146 169 0
150 173 0
154 176 0
149 172 0
150 172 0
153 175 0
149 172 0
154 176 0
151 172 0
155 177 0
158 180 0
153 175 0
151 173 0
141 163 0
148 170 0
143 164 0
155 177 0
154 175 0
147 170 0
162 184 0
148 171 0
151 172 0
153 175 0
152 173 0
148 170 0
155 176 0
152 173 0
149 170 0
153 174 0
145 167 0
155 176 0
145 168 0
142 163 0
155 177 0
151 173 0
151 172 0
145 168 0
141 162 0
159 180 0
157 178 0
148 168 0
146 169 0
144 166 0
145 167 0
151 171 0
159 181 0
149 170 0
150 171 0
148 169 0
146 166 0
151 171 0
152 172 0
149 169 0
155 176 0
148 169 0
153 174 0
151 174 0
150 172 0
154 176 0
148 167 0
151 171 0
148 170 0
147 167 0
146 166 0
146 165 0
147 167 0
150 173 0
151 173 0
149 170 0
148 169 0
146 165 0
141 161 0
154 175 0
152 174 0
153 173 0
146 167 0
151 172 0
157 178 0
149 168 0
157 178 0
149 170 0
151 172 0
151 170 0
146 167 0
152 173 0
154 174 0
146 167 0
152 172 0
145 165 0
152 173 0
145 166 0
145 166 0
154 176 0
151 170 0
152 172 0
154 174 0
151 172 0
151 171 0
152 171 0
155 175 0
150 171 0
158 177 0
150 171 0
151 170 0
146 165 0
152 171 0
153 172 0
149 171 0
157 178 0
151 172 0
154 172 0
150 169 0
147 167 0
158 177 0
151 171 0
149 167 0
157 176 0
153 173 0
152 172 0
150 168 0
149 169 0
156 176 0
159 180 0
149 167 0
153 172 0
147 165 0
158 178 0
149 168 0
147 165 0
153 171 0
147 165 0
158 176 0
155 174 0
150 170 0
153 170 0
146 162 0
150 168 0
154 172 0
156 172 0
156 174 0
160 176 0
151 169 0
149 168 0
156 172 0
152 170 0
155 173 0
157 174 0
151 166 0
151 166 0
144 161 0
150 166 0
148 165 0
150 165 0
151 169 0
158 173 0
149 164 0
146 164 0
156 174 0
153 170 0
158 175 0
153 167 0
158 173 0
151 165 0
152 169 0
159 172 0
147 163 0
161 176 0
149 165 0
159 175 0
161 179 0
153 170 0
149 164 0
157 172 0
149 163 0
151 167 0
149 162 0
152 168 0
152 167 0
153 168 0
148 164 0
159 176 0
159 176 0
159 175 0
159 171 0
159 173 0
159 174 0
154 169 0
152 164 0
162 176 0
155 167 0
151 164 0
153 167 0
162 176 0
156 170 0
149 160 0
156 170 0
159 175 0
155 169 0
156 170 0
154 167 0
160 175 0
151 164 0
155 167 0
156 167 0
158 172 0
159 169 0
158 173 0
151 164 0
164 178 0
158 172 0
159 171 0
157 170 0
162 178 0
158 170 0
154 166 0
157 169 0
160 172 0
159 174 0
156 167 0
155 168 0
156 170 0
161 175 0
152 162 0
162 172 0
163 175 0
158 170 0
155 166 0
157 169 0
158 169 0
162 172 0
160 171 0
160 172 0
174 195 0
170 193 0
171 193 0
169 190 0
168 190 0
171 193 0
171 193 0
170 192 0
168 190 0
171 193 0
170 192 0
169 190 0
170 192 0
168 190 0
173 194 0
172 193 0
170 192 0
168 189 0
171 192 0
165 187 0
169 190 0
165 186 0
169 191 0
166 188 0
169 191 0
164 187 0
168 190 0
166 188 0
166 188 0
163 185 0
165 187 0
168 190 0
159 181 0
165 187 0
166 188 0
163 184 0
163 186 0
164 186 0
166 189 0
165 188 0
164 186 0
167 190 0
165 188 0
166 189 0
167 189 0
162 185 0
163 185 0
163 185 0
166 188 0
157 179 0
164 187 0
156 178 0
165 187 0
167 189 0
163 186 0
167 189 0
168 191 0
164 186 0
162 184 0
163 186 0
164 186 0
167 189 0
158 181 0
164 187 0
164 187 0
163 186 0
160 182 0
161 183 0
167 190 0
163 186 0
164 186 0
164 187 0
158 181 0
157 180 0
159 182 0
160 183 0
159 181 0
163 185 0
158 181 0
158 181 0
159 181 0
159 181 0
164 186 0
157 179 0
162 183 0
156 179 0
166 189 0
159 181 0
153 176 0
162 184 0
160 183 0
162 185 0
160 182 0
161 183 0
159 182 0
156 180 0
165 188 0
152 175 0
157 180 0
153 175 0
155 178 0
154 176 0
158 180 0
156 179 0
162 186 0
155 178 0
159 182 0
156 179 0
157 180 0
157 179 0
162 185 0
154 178 0
159 181 0
155 178 0
155 178 0
155 177 0
161 183 0
158 181 0
156 179 0
158 180 0
163 186 0
156 179 0
153 176 0
157 180 0
151 174 0
159 180 0
162 185 0
152 175 0
158 180 0
152 175 0
157 179 0
158 181 0
150 173 0
160 183 0
154 176 0
148 171 0
157 180 0
158 182 0
156 178 0
154 176 0
153 175 0
153 176 0
159 181 0
151 173 0
148 170 0
152 174 0
156 178 0
151 174 0
156 179 0
156 179 0
156 179 0
154 176 0
159 182 0
154 176 0
156 178 0
150 172 0
157 180 0
151 173 0
159 182 0
152 175 0
152 175 0
156 179 0
148 171 0
152 174 0
148 169 0
153 175 0
149 170 0
158 179 0
148 171 0
152 175 0
157 178 0
143 166 0
155 177 0
151 173 0
148 170 0
149 171 0
151 173 0
152 174 0
143 165 0
145 165 0
152 174 0
152 174 0
151 173 0
152 174 0
156 178 0
156 178 0
155 178 0
159 182 0
159 180 0
157 179 0
153 176 0
158 180 0
155 179 0
155 178 0
153 174 0
158 180 0
148 170 0
155 177 0
153 176 0
150 172 0
147 169 0
148 170 0
150 172 0
153 173 0
156 178 0
150 173 0
149 171 0
154 175 0
153 175 0
146 167 0
157 178 0
155 176 0
148 167 0
153 174 0
156 177 0
148 171 0
151 172 0
154 176 0
151 171 0
150 172 0
148 169 0
140 160 0
149 171 0
149 171 0
154 175 0
153 174 0
154 175 0
148 170 0
151 172 0
144 165 0
153 174 0
147 170 0
157 177 0
151 172 0
155 176 0
154 173 0
149 171 0
148 170 0
145 166 0
149 172 0
152 174 0
151 172 0
154 174 0
159 179 0
150 170 0
149 170 0
151 173 0
151 171 0
149 169 0
159 180 0
147 168 0
153 174 0
151 172 0
154 175 0
154 174 0
144 165 0
148 169 0
152 172 0
149 170 0
149 169 0
151 171 0
152 171 0
145 166 0
160 181 0
149 167 0
151 171 0
156 177 0
150 169 0
154 174 0
148 169 0
153 173 0
159 180 0
158 180 0
155 176 0
153 170 0
146 166 0
157 175 0
146 166 0
151 171 0
153 173 0
156 176 0
153 172 0
152 172 0
155 174 0
153 172 0
153 174 0
156 177 0
158 178 0
155 174 0
151 169 0
149 167 0
151 169 0
150 168 0
152 169 0
155 175 0
159 179 0
155 175 0
160 180 0
148 167 0
156 174 0
145 160 0
152 171 0
152 171 0
148 165 0
140 158 0
148 163 0
158 177 0
143 159 0
153 172 0
154 171 0
149 165 0
152 170 0
158 177 0
152 169 0
159 177 0
156 172 0
147 162 0
154 173 0
152 169 0
161 179 0
153 172 0
152 172 0
149 167 0
151 169 0
145 162 0
156 174 0
158 173 0
149 165 0
155 170 0
158 174 0
155 172 0
148 163 0
150 164 0
152 166 0
156 173 0
152 170 0
149 164 0
156 171 0
150 168 0
154 169 0
152 166 0
158 174 0
150 165 0
152 167 0
156 172 0
158 173 0
151 168 0
156 168 0
151 167 0
161 177 0
154 171 0
153 168 0
159 174 0
151 164 0
158 174 0
157 172 0
158 173 0
151 164 0
158 172 0
154 170 0
159 174 0
156 166 0
154 168 0
161 174 0
154 165 0
158 173 0
155 166 0
156 172 0
149 163 0
157 169 0
159 172 0
153 163 0
159 175 0
157 171 0
154 166 0
159 172 0
155 167 0
157 170 0
159 172 0
158 171 0
159 173 0
156 166 0
156 167 0
159 171 0
155 167 0
157 170 0
156 170 0
151 164 0
155 168 0
154 163 0
160 171 0
166 178 0
165 181 0
163 178 0
157 170 0
157 168 0
164 178 0
156 170 0
162 177 0
158 169 0
172 194 0
170 192 0
168 190 0
172 194 0
168 189 0
170 192 0
166 189 0
171 193 0
165 187 0
165 187 0
166 189 0
169 192 0
169 191 0
172 194 0
165 187 0
166 188 0
166 188 0
171 193 0
167 189 0
169 191 0
172 195 0
166 188 0
170 191 0
163 186 0
166 187 0
162 184 0
169 192 0
164 186 0
166 188 0
168 190 0
162 184 0
166 188 0
163 185 0
169 191 0
167 189 0
164 186 0
169 192 0
161 182 0
167 189 0
164 186 0
161 183 0
167 187 0
166 188 0
164 187 0
160 182 0
166 188 0
165 187 0
165 188 0
166 186 0
164 186 0
165 187 0
164 186 0
163 186 0
161 184 0
164 186 0
160 182 0
164 186 0
163 185 0
162 185 0
162 185 0
165 188 0
163 185 0
159 182 0
160 182 0
164 187 0
159 181 0
162 185 0
161 184 0
159 183 0
167 189 0
162 184 0
160 183 0
164 187 0
161 184 0
159 181 0
157 181 0
157 179 0
159 182 0
164 187 0
165 187 0
153 176 0
157 179 0
162 184 0
153 175 0
161 183 0
166 189 0
159 182 0
161 183 0
159 181 0
165 188 0
161 185 0
155 177 0
169 191 0
159 182 0
155 178 0
157 180 0
159 180 0
159 181 0
153 177 0
159 181 0
163 185 0
159 182 0
159 182 0
155 178 0
161 184 0
159 182 0
164 186 0
155 177 0
154 177 0
151 174 0
153 177 0
158 180 0
152 175 0
156 179 0
155 177 0
156 179 0
157 180 0
161 183 0
161 183 0
155 176 0
157 179 0
159 183 0
150 173 0
157 180 0
156 179 0
158 182 0
155 178 0
157 179 0
154 176 0
154 175 0
159 182 0
153 175 0
160 182 0
158 179 0
151 173 0
159 183 0
154 178 0
157 179 0
155 177 0
160 183 0
153 175 0
155 179 0
151 173 0
155 178 0
157 180 0
152 173 0
155 177 0
155 178 0
155 177 0
154 177 0
154 178 0
150 170 0
153 176 0
151 173 0
153 175 0
156 179 0
148 170 0
141 163 0
159 182 0
150 172 0
152 175 0
156 178 0
155 177 0
153 175 0
152 173 0
154 176 0
154 176 0
152 174 0
154 176 0
154 176 0
156 178 0
151 173 0
157 179 0
153 176 0
151 173 0
159 181 0
152 174 0
155 177 0
161 183 0
152 173 0
149 171 0
143 164 0
150 172 0
155 177 0
153 174 0
153 175 0
153 175 0
151 175 0
161 183 0
152 174 0
143 165 0
150 172 0
154 175 0
152 174 0
154 175 0
152 172 0
151 172 0
154 175 0
149 170 0
147 169 0
152 174 0
144 165 0
148 169 0
154 176 0
153 175 0
153 175 0
147 168 0
147 168 0
151 173 0
151 172 0
147 167 0
146 166 0
151 172 0
149 172 0
152 173 0
158 180 0
154 176 0
150 172 0
156 178 0
151 172 0
148 168 0
147 168 0
150 172 0
152 173 0
150 171 0
149 169 0
149 170 0
157 178 0
151 173 0
160 181 0
152 171 0
147 168 0
155 176 0
155 175 0
154 175 0
152 174 0
148 169 0
150 171 0
145 165 0
147 167 0
146 165 0
144 164 0
156 178 0
154 175 0
149 169 0
150 172 0
150 171 0
149 171 0
145 163 0
148 168 0
150 171 0
157 178 0
155 174 0
146 167 0
144 165 0
151 170 0
152 172 0
151 172 0
155 175 0
156 177 0
151 172 0
148 168 0
159 181 0
156 174 0
157 176 0
153 174 0
155 176 0
150 170 0
147 170 0
155 174 0
154 174 0
150 170 0
155 174 0
156 177 0
152 171 0
152 173 0
153 173 0
150 169 0
156 178 0
153 172 0
152 171 0
143 161 0
149 167 0
158 177 0
155 175 0
156 174 0
152 170 0
157 176 0
152 170 0
151 170 0
153 171 0
150 169 0
154 172 0
146 164 0
153 173 0
148 167 0
151 169 0
147 166 0
148 167 0
149 167 0
155 173 0
156 174 0
159 179 0
156 174 0
160 177 0
151 167 0
156 175 0
156 174 0
152 170 0
150 165 0
151 169 0
154 170 0
148 167 0
152 170 0
147 166 0
156 175 0
155 171 0
152 169 0
149 166 0
155 173 0
147 164 0
159 177 0
156 173 0
155 171 0
156 173 0
155 172 0
157 174 0
153 171 0
157 172 0
156 173 0
156 172 0
160 176 0
155 172 0
146 160 0
153 170 0
158 177 0
161 179 0
150 166 0
156 170 0
158 174 0
149 165 0
155 172 0
153 168 0
155 172 0
154 169 0
152 166 0
162 179 0
149 163 0
153 167 0
152 167 0
152 168 0
151 166 0
163 178 0
156 169 0
156 170 0
156 169 0
154 168 0
151 163 0
153 170 0
153 166 0
157 169 0
159 175 0
153 167 0
148 162 0
159 176 0
155 171 0
148 162 0
155 168 0
155 170 0
151 164 0
155 168 0
150 163 0
153 164 0
150 160 0
153 164 0
149 160 0
156 168 0
150 162 0
154 165 0
153 166 0
154 164 0
157 170 0
155 167 0
161 176 0
157 171 0
156 168 0
149 162 0
157 169 0
161 174 0
157 170 0
158 172 0
164 178 0
155 168 0
155 168 0
156 168 0
162 176 0
159 171 0
157 170 0
161 174 0
163 177 0
169 192 0
173 194 0
170 192 0
172 194 0
165 188 0
170 192 0
166 188 0
164 186 0
169 191 0
172 194 0
169 191 0
167 188 0
168 190 0
172 194 0
168 191 0
171 192 0
171 192 0
168 191 0
167 190 0
170 192 0
168 190 0
165 186 0
165 187 0
171 192 0
167 188 0
161 183 0
169 191 0
169 192 0
168 190 0
168 189 0
166 189 0
161 183 0
169 191 0
170 192 0
168 190 0
163 185 0
168 190 0
163 187 0
163 185 0
167 190 0
164 186 0
164 186 0
163 186 0
167 189 0
160 182 0
169 191 0
160 183 0
159 181 0
165 188 0
163 186 0
164 186 0
157 180 0
165 188 0
166 189 0
160 183 0
159 182 0
167 189 0
164 187 0
162 185 0
166 188 0
159 182 0
160 183 0
162 185 0
165 187 0
166 189 0
161 183 0
162 185 0
161 184 0
161 184 0
160 182 0
162 185 0
158 180 0
164 186 0
159 181 0
157 180 0
155 179 0
166 190 0
162 185 0
161 184 0
160 183 0
155 178 0
162 185 0
161 183 0
163 185 0
160 182 0
161 183 0
158 180 0
155 178 0
162 183 0
150 173 0
160 183 0
160 183 0
160 182 0
163 187 0
161 183 0
162 185 0
159 182 0
161 184 0
156 178 0
161 184 0
158 181 0
160 183 0
160 181 0
158 180 0
160 183 0
157 180 0
157 180 0
157 180 0
156 179 0
156 179 0
153 175 0
159 183 0
158 180 0
164 185 0
152 175 0
161 184 0
161 184 0
162 185 0
157 179 0
153 176 0
158 181 0
153 175 0
159 182 0
152 175 0
160 184 0
159 180 0
157 180 0
147 170 0
155 177 0
156 178 0
162 185 0
153 176 0
155 178 0
155 177 0
157 179 0
157 179 0
153 176 0
156 178 0
157 180 0
156 179 0
150 172 0
154 177 0
160 181 0
155 177 0
155 179 0
159 181 0
157 180 0
147 170 0
157 180 0
154 175 0
154 177 0
158 181 0
147 169 0
159 182 0
152 175 0
152 175 0
160 182 0
151 173 0
155 178 0
151 174 0
154 174 0
156 179 0
147 168 0
154 177 0
155 177 0
154 175 0
154 175 0
155 178 0
149 171 0
157 180 0
145 168 0
156 178 0
152 173 0
150 172 0
151 174 0
153 175 0
147 170 0
147 167 0
156 179 0
152 172 0
154 175 0
156 178 0
154 176 0
155 176 0
159 180 0
154 176 0
146 168 0
151 172 0
156 178 0
152 174 0
154 176 0
148 169 0
154 176 0
155 177 0
151 173 0
150 172 0
152 174 0
152 174 0
154 175 0
153 174 0
148 171 0
148 169 0
158 179 0
149 170 0
153 176 0
151 172 0
154 175 0
145 166 0
155 176 0
150 170 0
152 172 0
152 174 0
156 177 0
157 179 0
157 179 0
160 181 0
152 173 0
154 174 0
153 174 0
150 172 0
160 182 0
143 164 0
151 173 0
153 173 0
152 173 0
150 172 0
148 168 0
158 178 0
149 168 0
153 174 0
151 172 0
158 179 0
149 172 0
151 172 0
149 171 0
158 180 0
151 171 0
151 170 0
153 174 0
151 172 0
149 170 0
157 178 0
150 170 0
155 175 0
145 166 0
157 178 0
150 170 0
155 177 0
145 165 0
154 176 0
145 167 0
157 179 0
157 177 0
152 173 0
150 169 0
145 165 0
151 172 0
152 171 0
155 175 0
156 175 0
149 169 0
156 177 0
151 173 0
156 176 0
154 175 0
149 168 0
160 182 0
155 175 0
151 173 0
152 170 0
152 173 0
155 175 0
154 176 0
148 165 0
158 178 0
150 169 0
157 178 0
153 172 0
153 173 0
144 164 0
147 166 0
157 176 0
148 166 0
156 176 0
150 167 0
153 173 0
159 179 0
156 174 0
154 171 0
152 171 0
159 177 0
152 170 0
156 175 0
154 174 0
144 164 0
155 172 0
151 169 0
159 177 0
157 175 0
159 178 0
150 167 0
155 174 0
158 176 0
153 171 0
151 167 0
157 175 0
148 165 0
153 171 0
157 179 0
151 171 0
155 174 0
157 176 0
155 174 0
151 167 0
149 166 0
153 171 0
152 171 0
149 167 0
155 173 0
158 175 0
154 173 0
157 176 0
162 178 0
161 179 0
153 171 0
153 167 0
156 170 0
155 172 0
153 169 0
155 175 0
154 170 0
157 173 0
153 170 0
159 178 0
152 170 0
156 173 0
150 164 0
155 171 0
157 171 0
152 168 0
159 174 0
155 173 0
153 170 0
157 174 0
152 166 0
159 176 0
157 175 0
157 174 0
151 164 0
150 164 0
151 167 0
152 168 0
156 174 0
153 167 0
157 173 0
152 167 0
155 169 0
154 168 0
156 169 0
158 171 0
161 177 0
163 178 0
154 168 0
154 169 0
155 170 0
157 174 0
164 180 0
155 169 0
158 172 0
149 163 0
157 172 0
159 173 0
159 173 0
161 175 0
154 165 0
154 167 0
158 172 0
158 172 0
157 170 0
152 166 0
158 170 0
157 171 0
156 169 0
157 168 0
157 168 0
153 164 0
158 175 0
161 177 0
160 175 0
153 165 0
159 172 0
159 172 0
155 167 0
161 175 0
157 170 0
158 171 0
155 169 0
154 167 0
155 166 0
164 179 0
167 190 0
169 191 0
165 187 0
167 188 0
167 188 0
165 187 0
168 190 0
167 188 0
162 184 0
168 190 0
169 192 0
168 190 0
169 192 0
168 191 0
172 193 0
169 191 0
172 193 0
173 193 0
164 186 0
168 190 0
164 187 0
166 188 0
164 187 0
162 185 0
165 188 0
162 185 0
168 190 0
164 186 0
164 186 0
164 186 0
164 187 0
164 186 0
167 190 0
164 186 0
169 192 0
160 183 0
163 187 0
164 186 0
167 190 0
164 187 0
164 186 0
163 186 0
165 187 0
164 186 0
168 190 0
168 190 0
167 190 0
164 187 0
164 186 0
165 186 0
163 185 0
160 182 0
163 187 0
159 182 0
166 188 0
164 187 0
164 187 0
165 188 0
162 184 0
167 190 0
160 182 0
164 187 0
153 175 0
161 184 0
154 177 0
159 183 0
161 184 0
163 185 0
162 185 0
163 185 0
163 185 0
162 185 0
165 188 0
160 182 0
164 187 0
163 185 0
164 186 0
165 187 0
158 181 0
167 189 0
160 182 0
159 181 0
163 186 0
157 179 0
156 177 0
152 175 0
157 180 0
162 184 0
161 184 0
159 181 0
166 188 0
164 186 0
159 182 0
160 183 0
158 180 0
161 184 0
158 180 0
161 184 0
162 185 0
155 178 0
157 179 0
164 187 0
155 178 0
161 183 0
158 181 0
164 187 0
155 177 0
157 179 0
158 181 0
162 185 0
160 180 0
154 177 0
160 184 0
158 181 0
157 180 0
157 180 0
160 183 0
158 181 0
162 185 0
155 176 0
159 182 0
160 182 0
159 181 0
151 173 0
165 187 0
153 174 0
163 186 0
156 179 0
149 172 0
155 178 0
157 179 0
158 181 0
156 179 0
152 176 0
155 178 0
152 174 0
156 178 0
156 178 0
153 176 0
152 174 0
155 177 0
158 181 0
157 179 0
157 179 0
155 179 0
152 175 0
160 183 0
154 177 0
152 176 0
155 178 0
159 182 0
153 176 0
155 176 0
151 173 0
154 176 0
159 181 0
152 175 0
155 177 0
155 177 0
151 174 0
150 173 0
146 168 0
157 179 0
162 184 0
160 183 0
154 176 0
156 178 0
157 179 0
154 177 0
151 173 0
152 176 0
150 171 0
144 165 0
160 182 0
151 173 0
154 176 0
156 177 0
155 176 0
157 179 0
149 170 0
154 177 0
154 177 0
157 179 0
150 173 0
150 173 0
155 178 0
158 180 0
156 179 0
155 177 0
143 164 0
143 164 0
157 178 0
146 169 0
155 177 0
152 173 0
151 171 0
150 173 0
147 167 0
153 175 0
156 178 0
153 175 0
150 172 0
150 171 0
157 180 0
152 172 0
150 169 0
145 166 0
150 171 0
152 173 0
154 176 0
154 177 0
157 179 0
154 175 0
143 164 0
156 177 0
150 172 0
150 172 0
155 176 0
143 165 0
150 171 0
151 172 0
156 176 0
141 164 0
145 166 0
152 174 0
156 178 0
157 180 0
146 166 0
148 169 0
155 176 0
153 174 0
149 169 0
146 167 0
146 165 0
147 169 0
153 172 0
147 167 0
162 182 0
154 175 0
155 176 0
147 169 0
155 174 0
152 174 0
145 166 0
153 172 0
155 176 0
149 171 0
147 170 0
157 177 0
149 169 0
147 168 0
148 169 0
157 178 0
152 172 0
157 177 0
152 174 0
159 178 0
151 170 0
151 172 0
152 172 0
153 172 0
159 178 0
155 175 0
151 172 0
153 173 0
156 177 0
154 176 0
154 175 0
153 173 0
156 177 0
158 178 0
153 173 0
152 173 0
153 174 0
153 173 0
150 170 0
152 172 0
144 164 0
151 171 0
152 171 0
153 173 0
156 177 0
155 175 0
146 166 0
158 179 0
152 171 0
151 172 0
152 173 0
158 177 0
157 176 0
154 173 0
159 177 0
153 172 0
159 179 0
151 169 0
161 179 0
155 174 0
154 173 0
156 175 0
155 175 0
148 165 0
149 169 0
155 173 0
146 164 0
156 173 0
151 170 0
154 173 0
150 168 0
157 175 0
159 176 0
152 172 0
159 177 0
153 172 0
159 177 0
161 180 0
157 177 0
152 168 0
145 160 0
146 162 0
159 176 0
149 167 0
144 161 0
155 172 0
156 172 0
157 174 0
151 167 0
155 172 0
158 174 0
155 174 0
154 170 0
156 173 0
155 171 0
152 169 0
159 174 0
152 166 0
152 169 0
155 171 0
154 170 0
159 174 0
152 168 0
158 175 0
153 170 0
151 168 0
158 175 0
152 166 0
159 175 0
154 169 0
163 181 0
158 174 0
153 167 0
159 175 0
154 168 0
152 168 0
151 165 0
154 169 0
156 171 0
155 169 0
160 173 0
153 167 0
156 171 0
157 171 0
159 172 0
151 165 0
151 164 0
156 173 0
156 170 0
160 176 0
158 173 0
163 178 0
154 168 0
157 169 0
156 170 0
155 170 0
154 167 0
161 175 0
156 171 0
159 173 0
159 171 0
155 169 0
159 174 0
152 164 0
155 169 0
157 170 0
156 169 0
160 175 0
159 173 0
159 172 0
152 164 0
160 175 0
155 167 0
154 166 0
157 170 0
160 173 0
152 165 0
161 172 0
163 176 0
159 171 0
157 171 0
156 168 0
156 166 0
169 190 0
170 192 0
165 186 0
168 189 0
166 189 0
170 191 0
171 193 0
165 187 0
170 192 0
169 191 0
165 187 0
164 187 0
169 192 0
171 193 0
169 191 0
166 189 0
166 188 0
166 189 0
167 188 0
167 190 0
167 189 0
167 189 0
168 190 0
166 188 0
167 189 0
166 189 0
165 187 0
166 188 0
164 186 0
166 189 0
167 189 0
163 186 0
165 187 0
163 186 0
170 192 0
165 186 0
167 190 0
166 187 0
163 186 0
162 185 0
164 187 0
169 191 0
168 190 0
162 185 0
166 190 0
163 186 0
166 188 0
162 185 0
164 187 0
163 186 0
167 190 0
159 181 0
166 189 0
162 185 0
162 186 0
160 182 0
166 190 0
162 184 0
162 185 0
162 183 0
162 185 0
166 189 0
165 188 0
162 183 0
159 181 0
163 185 0
163 185 0
159 182 0
163 187 0
162 184 0
160 183 0
165 188 0
158 181 0
160 183 0
162 185 0
159 181 0
159 181 0
156 178 0
159 184 0
161 183 0
158 182 0
160 182 0
158 180 0
161 183 0
158 180 0
155 178 0
156 179 0
158 181 0
155 177 0
158 182 0
158 181 0
159 181 0
166 189 0
160 183 0
157 180 0
165 188 0
156 178 0
156 178 0
160 183 0
151 174 0
151 174 0
164 187 0
162 184 0
154 177 0
160 180 0
162 185 0
157 180 0
158 181 0
162 186 0
159 181 0
160 182 0
161 184 0
152 175 0
163 185 0
161 184 0
161 184 0
155 177 0
156 179 0
158 180 0
157 180 0
157 180 0
160 183 0
159 182 0
163 185 0
158 180 0
158 180 0
160 183 0
157 180 0
152 173 0
153 176 0
156 179 0
162 184 0
157 180 0
159 181 0
150 173 0
153 177 0
159 182 0
152 175 0
161 184 0
156 178 0
155 177 0
154 176 0
158 181 0
153 175 0
155 177 0
146 168 0
154 177 0
155 176 0
147 169 0
154 177 0
148 171 0
156 178 0
147 169 0
152 175 0
150 173 0
155 179 0
146 168 0
155 178 0
151 173 0
159 180 0
156 177 0
154 176 0
158 181 0
154 176 0
158 181 0
149 170 0
152 173 0
152 173 0
155 177 0
152 174 0
149 172 0
151 173 0
149 170 0
157 180 0
151 174 0
141 162 0
153 176 0
153 175 0
149 170 0
153 174 0
157 180 0
158 180 0
146 168 0
152 173 0
149 171 0
151 174 0
147 169 0
157 179 0
155 178 0
159 179 0
147 169 0
154 175 0
153 175 0
156 179 0
166 187 0
146 168 0
154 175 0
163 184 0
156 178 0
150 172 0
154 175 0
151 174 0
149 171 0
154 174 0
150 172 0
153 175 0
154 176 0
149 172 0
151 172 0
147 168 0
150 172 0
157 179 0
157 179 0
155 178 0
145 167 0
154 176 0
149 169 0
149 172 0
149 170 0
155 176 0
159 181 0
151 173 0
161 184 0
155 177 0
148 168 0
148 169 0
157 179 0
152 174 0
155 176 0
148 170 0
151 173 0
151 172 0
155 177 0
153 174 0
157 178 0
151 173 0
147 167 0
150 172 0
153 174 0
145 166 0
155 176 0
144 164 0
157 179 0
156 177 0
153 174 0
150 171 0
151 171 0
152 172 0
154 174 0
155 176 0
154 173 0
144 164 0
157 178 0
155 176 0
157 178 0
151 169 0
151 170 0
158 180 0
153 174 0
147 166 0
151 172 0
155 175 0
149 168 0
153 173 0
151 171 0
151 172 0
152 172 0
154 173 0
150 170 0
150 169 0
152 172 0
148 166 0
158 179 0
156 177 0
157 178 0
151 172 0
150 169 0
159 180 0
151 170 0
156 174 0
152 172 0
157 177 0
158 177 0
148 168 0
159 179 0
154 174 0
150 171 0
158 178 0
154 176 0
150 168 0
157 176 0
152 172 0
162 183 0
147 163 0
159 178 0
151 169 0
151 170 0
153 173 0
155 175 0
154 171 0
157 175 0
158 177 0
151 170 0
155 176 0
154 171 0
156 174 0
155 173 0
155 175 0
156 174 0
154 173 0
153 172 0
154 172 0
158 176 0
150 169 0
154 172 0
164 184 0
152 169 0
148 164 0
154 172 0
153 170 0
159 176 0
153 168 0
150 168 0
153 169 0
152 168 0
165 182 0
162 180 0
148 164 0
156 175 0
159 177 0
150 167 0
153 168 0
156 173 0
150 166 0
157 174 0
157 174 0
155 175 0
156 171 0
157 173 0
153 171 0
162 178 0
159 177 0
155 171 0
159 176 0
150 166 0
155 172 0
156 171 0
155 170 0
160 175 0
149 163 0
164 180 0
151 169 0
160 177 0
156 174 0
154 169 0
157 171 0
158 174 0
153 168 0
157 172 0
156 171 0
158 174 0
158 174 0
156 170 0
155 169 0
159 173 0
150 164 0
154 168 0
153 166 0
161 176 0
157 169 0
164 177 0
153 169 0
159 175 0
155 167 0
159 174 0
156 169 0
160 174 0
154 167 0
157 172 0
157 170 0
153 170 0
156 170 0
158 171 0
158 172 0
160 174 0
162 177 0
165 181 0
160 174 0
160 171 0
159 171 0
162 178 0
159 173 0
156 167 0
156 166 0
162 177 0
163 175 0
156 169 0
163 176 0
162 173 0
160 172 0
174 195 0
170 192 0
167 189 0
173 194 0
171 194 0
171 193 0
166 188 0
169 191 0
169 191 0
168 190 0
165 187 0
165 188 0
169 191 0
163 186 0
171 192 0
166 188 0
171 192 0
172 194 0
166 189 0
170 193 0
169 189 0
164 187 0
168 191 0
166 188 0
167 189 0
167 189 0
166 189 0
170 193 0
167 189 0
169 191 0
165 188 0
165 188 0
165 188 0
163 186 0
167 189 0
161 184 0
163 186 0
167 189 0
168 190 0
163 185 0
163 186 0
168 190 0
169 191 0
168 190 0
160 183 0
165 186 0
163 186 0
158 181 0
163 186 0
161 183 0
161 183 0
168 190 0
164 186 0
168 191 0
164 187 0
161 183 0
164 186 0
163 185 0
161 184 0
165 186 0
157 180 0
162 186 0
167 189 0
163 185 0
166 188 0
164 186 0
156 179 0
160 181 0
163 185 0
159 182 0
160 182 0
163 185 0
158 181 0
166 188 0
162 185 0
160 182 0
164 186 0
159 182 0
161 184 0
161 183 0
163 186 0
157 180 0
166 188 0
157 180 0
155 178 0
154 177 0
158 180 0
159 183 0
161 184 0
155 177 0
157 180 0
157 180 0
156 179 0
168 191 0
163 186 0
160 183 0
160 184 0
158 181 0
157 180 0
153 177 0
161 183 0
165 188 0
152 175 0
158 180 0
160 182 0
159 181 0
160 182 0
160 182 0
148 171 0
157 180 0
153 177 0
166 188 0
164 186 0
160 183 0
151 173 0
154 178 0
152 176 0
161 183 0
150 173 0
161 184 0
152 174 0
159 182 0
161 184 0
156 178 0
148 171 0
149 172 0
159 182 0
158 180 0
154 176 0
163 186 0
153 176 0
148 170 0
157 180 0
159 183 0
155 178 0
159 182 0
155 176 0
153 175 0
161 185 0
158 181 0
156 179 0
158 180 0
154 177 0
152 174 0
160 182 0
155 177 0
160 182 0
160 182 0
157 180 0
157 180 0
151 172 0
150 173 0
153 175 0
159 182 0
156 180 0
157 180 0
155 178 0
157 180 0
156 177 0
151 172 0
154 176 0
154 176 0
155 178 0
153 175 0
152 175 0
150 173 0
161 183 0
153 176 0
147 170 0
153 175 0
158 181 0
153 175 0
157 179 0
150 172 0
154 176 0
161 182 0
153 175 0
152 174 0
152 174 0
156 178 0
158 181 0
152 174 0
152 175 0
156 177 0
159 180 0
149 170 0
141 163 0
148 169 0
145 167 0
153 175 0
157 179 0
146 167 0
154 176 0
158 179 0
146 167 0
148 169 0
156 178 0
152 173 0
154 176 0
153 175 0
150 172 0
147 168 0
148 169 0
147 168 0
146 167 0
151 172 0
150 172 0
148 168 0
154 177 0
152 173 0
150 172 0
149 170 0
151 174 0
151 172 0
157 179 0
152 173 0
152 173 0
154 175 0
151 174 0
156 177 0
148 169 0
152 172 0
154 176 0
150 171 0
152 175 0
159 181 0
160 182 0
150 173 0
155 176 0
151 173 0
154 176 0
153 174 0
157 177 0
150 172 0
145 165 0
151 172 0
157 178 0
149 171 0
155 175 0
153 173 0
145 165 0
153 175 0
154 174 0
147 168 0
158 180 0
152 173 0
154 175 0
154 176 0
149 168 0
152 172 0
153 174 0
151 171 0
152 173 0
150 172 0
153 174 0
156 177 0
158 178 0
152 174 0
146 166 0
158 180 0
152 173 0
151 170 0
150 170 0
157 178 0
159 180 0
159 179 0
153 173 0
151 171 0
151 173 0
150 170 0
147 168 0
152 173 0
152 171 0
147 165 0
157 177 0
148 167 0
148 168 0
147 168 0
151 171 0
150 171 0
152 169 0
147 169 0
157 178 0
154 176 0
156 176 0
144 163 0
149 167 0
150 170 0
157 176 0
154 172 0
152 172 0
152 171 0
150 166 0
157 179 0
152 171 0
144 164 0
157 175 0
153 173 0
148 167 0
147 165 0
156 175 0
150 171 0
156 175 0
155 173 0
158 178 0
161 180 0
158 176 0
159 178 0
154 172 0
153 171 0
159 177 0
151 170 0
157 174 0
156 173 0
155 172 0
157 178 0
154 172 0
153 170 0
158 178 0
155 172 0
156 173 0
156 176 0
150 166 0
149 164 0
149 166 0
155 172 0
155 172 0
161 180 0
149 166 0
158 174 0
157 173 0
155 171 0
155 170 0
151 167 0
156 174 0
150 165 0
157 175 0
153 170 0
155 172 0
153 169 0
157 175 0
154 171 0
151 167 0
161 179 0
156 173 0
150 166 0
155 172 0
149 164 0
151 167 0
157 173 0
160 176 0
157 174 0
158 177 0
160 176 0
154 170 0
161 179 0
159 177 0
154 167 0
156 173 0
158 175 0
159 173 0
157 173 0
152 165 0
156 171 0
154 170 0
157 173 0
155 170 0
158 170 0
156 171 0
154 167 0
163 176 0
157 172 0
149 161 0
155 167 0
158 173 0
154 170 0
158 172 0
149 164 0
156 171 0
155 170 0
157 169 0
157 169 0
161 174 0
157 169 0
157 170 0
156 168 0
153 170 0
157 170 0
160 173 0
161 174 0
155 168 0
159 173 0
160 171 0
160 173 0
155 169 0
159 173 0
156 169 0
156 169 0
151 162 0
161 176 0
169 192 0
167 190 0
169 191 0
165 188 0
168 190 0
164 186 0
169 190 0
171 193 0
166 188 0
167 188 0
169 191 0
166 188 0
168 191 0
168 190 0
167 190 0
160 183 0
161 184 0
169 192 0
173 195 0
165 188 0
163 186 0
165 187 0
164 186 0
166 188 0
169 191 0
170 192 0
166 188 0
168 191 0
168 190 0
162 184 0
165 187 0
165 186 0
169 191 0
163 185 0
166 189 0
167 188 0
166 188 0
164 187 0
165 187 0
161 184 0
167 189 0
160 183 0
163 186 0
164 186 0
158 179 0
163 186 0
166 188 0
166 189 0
162 185 0
162 185 0
160 184 0
168 192 0
157 179 0
163 185 0
159 183 0
162 186 0
159 183 0
161 184 0
165 188 0
164 187 0
160 184 0
164 185 0
164 187 0
161 183 0
160 183 0
163 186 0
160 183 0
157 180 0
161 185 0
161 184 0
159 181 0
165 189 0
161 184 0
161 184 0
167 189 0
156 179 0
165 188 0
155 179 0
162 185 0
164 188 0
160 184 0
159 182 0
165 187 0
164 186 0
163 185 0
163 186 0
161 184 0
160 182 0
164 187 0
166 189 0
159 183 0
164 188 0
159 182 0
156 178 0
164 186 0
157 179 0
159 182 0
156 179 0
162 184 0
162 184 0
161 183 0
162 185 0
161 184 0
159 182 0
157 179 0
162 185 0
166 188 0
162 185 0
164 186 0
157 179 0
156 178 0
160 184 0
151 172 0
155 177 0
157 180 0
158 181 0
156 179 0
161 184 0
154 176 0
163 185 0
158 181 0
157 180 0
156 179 0
160 183 0
157 179 0
157 180 0
155 178 0
152 173 0
161 183 0
159 181 0
144 166 0
156 179 0
157 180 0
156 179 0
155 179 0
156 178 0
153 176 0
157 180 0
158 180 0
154 175 0
158 180 0
155 178 0
153 175 0
157 180 0
159 182 0
160 182 0
159 182 0
154 177 0
156 179 0
156 179 0
156 180 0
154 176 0
150 172 0
153 176 0
156 178 0
156 179 0
162 185 0
161 183 0
152 174 0
152 176 0
152 175 0
152 173 0
161 185 0
156 177 0
149 172 0
153 176 0
149 172 0
153 175 0
153 176 0
146 170 0
157 179 0
144 166 0
149 172 0
153 176 0
152 174 0
148 170 0
150 172 0
155 178 0
159 181 0
150 170 0
152 172 0
156 177 0
147 169 0
156 179 0
148 170 0
148 171 0
156 177 0
151 172 0
154 176 0
159 181 0
145 166 0
157 179 0
155 178 0
153 175 0
145 167 0
151 174 0
152 173 0
153 174 0
144 167 0
141 163 0
152 174 0
154 175 0
158 180 0
146 167 0
149 171 0
159 181 0
148 169 0
151 172 0
156 179 0
153 175 0
154 175 0
153 175 0
153 174 0
155 176 0
154 175 0
149 169 0
149 171 0
153 174 0
157 178 0
153 175 0
149 170 0
141 162 0
150 171 0
150 172 0
150 171 0
152 173 0
153 175 0
156 178 0
148 169 0
149 169 0
150 171 0
154 174 0
150 170 0
149 170 0
155 177 0
155 175 0
148 166 0
147 168 0
151 171 0
152 173 0
159 180 0
148 170 0
156 179 0
148 169 0
152 173 0
155 175 0
153 175 0
151 171 0
147 170 0
151 172 0
152 172 0
148 169 0
156 176 0
156 176 0
149 169 0
155 176 0
157 179 0
152 173 0
159 181 0
152 173 0
156 177 0
149 168 0
156 176 0
148 167 0
149 169 0
151 171 0
153 174 0
149 169 0
148 168 0
154 174 0
152 173 0
148 167 0
155 176 0
154 175 0
157 179 0
157 175 0
156 174 0
156 176 0
159 178 0
149 168 0
154 174 0
160 180 0
152 171 0
154 171 0
157 175 0
156 175 0
153 173 0
152 171 0
154 175 0
155 174 0
150 168 0
157 175 0
160 179 0
152 172 0
160 180 0
156 174 0
153 172 0
150 168 0
153 173 0
155 174 0
154 172 0
158 176 0
151 168 0
151 169 0
160 178 0
158 177 0
152 171 0
158 175 0
159 177 0
154 171 0
153 171 0
150 166 0
152 170 0
155 172 0
152 173 0
155 172 0
158 176 0
154 170 0
163 182 0
150 168 0
152 170 0
154 172 0
153 170 0
152 168 0
155 173 0
154 172 0
151 169 0
159 177 0
161 180 0
152 169 0
158 176 0
156 174 0
149 166 0
152 169 0
156 173 0
157 175 0
153 168 0
162 179 0
151 166 0
156 173 0
152 168 0
154 168 0
157 172 0
151 166 0
156 172 0
154 171 0
158 175 0
153 170 0
159 176 0
158 174 0
154 169 0
156 172 0
159 175 0
157 172 0
154 167 0
162 179 0
160 177 0
152 169 0
155 168 0
157 173 0
162 179 0
159 177 0
155 170 0
157 173 0
157 173 0
156 171 0
155 169 0
161 174 0
157 172 0
157 171 0
157 171 0
157 172 0
157 173 0
156 171 0
159 172 0
157 170 0
156 171 0
157 174 0
159 174 0
158 173 0
158 172 0
160 174 0
159 176 0
158 172 0
159 172 0
156 171 0
154 169 0
159 173 0
159 173 0
161 177 0
154 169 0
162 177 0
159 172 0
159 173 0
161 176 0
159 175 0
154 166 0
164 177 0
158 172 0
157 168 0
162 184 0
164 187 0
167 190 0
165 187 0
168 190 0
170 192 0
169 191 0
169 192 0
171 193 0
167 190 0
166 188 0
167 190 0
164 187 0
167 188 0
168 191 0
166 188 0
164 186 0
167 188 0
168 191 0
166 189 0
165 187 0
164 186 0
168 190 0
167 189 0
164 187 0
168 190 0
163 186 0
163 184 0
166 188 0
167 190 0
164 187 0
164 187 0
163 187 0
165 186 0
168 189 0
165 187 0
164 186 0
162 184 0
165 187 0
166 188 0
168 191 0
163 185 0
161 183 0
163 185 0
165 187 0
164 187 0
163 185 0
164 187 0
161 183 0
159 180 0
160 183 0
157 180 0
161 184 0
165 187 0
163 185 0
165 187 0
165 189 0
163 186 0
160 182 0
167 190 0
160 183 0
163 186 0
160 182 0
161 183 0
162 185 0
162 185 0
164 187 0
165 187 0
158 182 0
167 190 0
165 188 0
155 177 0
159 182 0
162 184 0
159 182 0
166 189 0
161 184 0
155 178 0
163 185 0
158 180 0
154 177 0
160 183 0
164 187 0
157 180 0
160 183 0
159 182 0
158 181 0
163 185 0
162 184 0
160 183 0
153 177 0
161 185 0
156 179 0
163 186 0
156 178 0
158 180 0
161 184 0
158 182 0
153 176 0
153 176 0
155 178 0
155 177 0
155 177 0
157 180 0
161 183 0
160 182 0
154 177 0
157 180 0
157 181 0
154 177 0
155 177 0
163 185 0
165 187 0
158 180 0
163 186 0
162 185 0
163 186 0
158 182 0
158 181 0
161 185 0
151 173 0
155 178 0
157 180 0
149 171 0
162 186 0
151 174 0
150 174 0
163 186 0
153 175 0
151 174 0
157 181 0
158 181 0
153 176 0
150 171 0
162 184 0
160 182 0
158 180 0
159 182 0
161 184 0
159 182 0
162 185 0
153 175 0
152 174 0
158 182 0
161 183 0
157 178 0
158 179 0
158 181 0
153 176 0
155 177 0
153 177 0
160 182 0
161 183 0
159 183 0
153 174 0
157 180 0
155 176 0
158 180 0
156 178 0
151 173 0
157 178 0
159 182 0
153 176 0
158 180 0
162 185 0
149 172 0
148 171 0
157 180 0
151 174 0
150 172 0
147 167 0
148 170 0
158 181 0
154 175 0
158 180 0
155 177 0
152 172 0
147 169 0
162 185 0
150 172 0
153 176 0
144 166 0
148 170 0
157 178 0
151 172 0
154 176 0
159 182 0
145 167 0
156 179 0
147 168 0
150 171 0
160 180 0
156 177 0
157 180 0
156 178 0
147 169 0
158 180 0
154 176 0
153 176 0
154 176 0
156 178 0
156 178 0
153 174 0
150 173 0
150 171 0
145 167 0
148 169 0
151 173 0
157 177 0
160 183 0
141 161 0
150 171 0
157 179 0
148 169 0
157 180 0
154 176 0
152 174 0
147 169 0
157 178 0
146 167 0
153 174 0
155 176 0
157 178 0
149 171 0
154 176 0
152 174 0
151 172 0
154 175 0
148 170 0
155 177 0
153 175 0
158 180 0
152 174 0
151 172 0
156 177 0
150 172 0
157 179 0
151 172 0
155 175 0
149 169 0
151 170 0
155 176 0
156 177 0
150 170 0
157 178 0
149 169 0
152 172 0
153 174 0
152 173 0
157 178 0
151 173 0
154 174 0
155 176 0
159 179 0
149 170 0
160 182 0
156 177 0
149 171 0
151 173 0
154 173 0
154 175 0
157 178 0
149 169 0
156 177 0
157 177 0
160 180 0
149 170 0
156 176 0
152 171 0
152 173 0
151 171 0
155 173 0
156 175 0
150 169 0
151 173 0
156 173 0
159 179 0
156 177 0
154 174 0
161 182 0
156 177 0
156 173 0
161 183 0
154 173 0
149 170 0
151 170 0
156 175 0
150 171 0
151 170 0
147 164 0
157 175 0
158 176 0
152 171 0
154 171 0
156 175 0
154 173 0
163 183 0
154 172 0
152 169 0
155 174 0
158 176 0
156 175 0
154 173 0
144 163 0
152 171 0
152 172 0
155 174 0
152 170 0
152 171 0
162 181 0
151 169 0
157 173 0
153 168 0
152 170 0
157 173 0
157 176 0
155 173 0
150 169 0
155 172 0
150 166 0
160 180 0
157 174 0
152 170 0
146 163 0
161 180 0
159 177 0
161 178 0
154 172 0
159 175 0
158 175 0
159 176 0
159 177 0
160 180 0
159 175 0
160 179 0
155 171 0
159 176 0
157 176 0
154 172 0
152 169 0
156 174 0
158 174 0
153 169 0
153 170 0
161 178 0
161 179 0
155 173 0
155 175 0
151 169 0
156 173 0
150 163 0
159 177 0
155 172 0
155 171 0
156 173 0
154 169 0
156 173 0
156 169 0
157 172 0
153 169 0
155 170 0
159 174 0
155 170 0
155 168 0
155 171 0
158 175 0
158 176 0
159 176 0
160 177 0
154 167 0
161 177 0
155 171 0
164 180 0
159 174 0
156 171 0
163 178 0
154 167 0
159 173 0
157 172 0
152 165 0
162 179 0
156 172 0
156 171 0
160 175 0
158 172 0
160 175 0
160 173 0
158 171 0
153 166 0
161 175 0
158 171 0
152 168 0
155 166 0
159 175 0
152 166 0
159 173 0
154 167 0
160 172 0
152 164 0
161 176 0
168 190 0
172 194 0
163 186 0
166 188 0
171 193 0
164 186 0
165 187 0
165 187 0
170 192 0
168 189 0
168 190 0
167 190 0
164 187 0
167 189 0
163 186 0
169 193 0
171 192 0
165 187 0
169 191 0
167 188 0
170 192 0
160 183 0
166 189 0
163 186 0
165 187 0
169 192 0
163 185 0
164 186 0
170 192 0
169 192 0
166 188 0
168 190 0
162 185 0
165 188 0
168 191 0
165 186 0
167 190 0
164 186 0
169 191 0
165 188 0
164 187 0
164 186 0
159 182 0
164 187 0
163 186 0
164 185 0
164 186 0
163 186 0
158 181 0
166 189 0
160 183 0
161 183 0
161 184 0
167 190 0
161 184 0
162 185 0
164 187 0
158 181 0
162 185 0
163 185 0
158 181 0
158 180 0
162 185 0
162 185 0
163 186 0
165 189 0
155 177 0
160 183 0
158 181 0
159 181 0
161 184 0
165 188 0
161 185 0
152 175 0
162 186 0
158 180 0
166 188 0
163 186 0
157 180 0
159 181 0
153 175 0
166 188 0
165 187 0
162 185 0
163 186 0
161 184 0
163 187 0
159 182 0
162 185 0
157 181 0
162 186 0
159 181 0
158 180 0
164 186 0
159 180 0
161 184 0
161 184 0
156 180 0
168 190 0
157 180 0
153 176 0
162 184 0
158 180 0
156 179 0
161 184 0
154 178 0
157 180 0
157 179 0
156 179 0
155 176 0
159 181 0
156 179 0
160 183 0
161 185 0
156 179 0
155 176 0
154 177 0
160 183 0
155 178 0
165 187 0
160 183 0
154 177 0
154 177 0
163 186 0
158 180 0
156 180 0
160 183 0
160 184 0
159 183 0
161 183 0
161 184 0
158 180 0
153 175 0
153 175 0
157 181 0
156 179 0
156 177 0
162 184 0
158 181 0
152 175 0
156 179 0
151 174 0
158 180 0
157 180 0
152 174 0
150 173 0
152 174 0
155 178 0
159 182 0
161 183 0
152 173 0
157 179 0
162 185 0
162 185 0
160 183 0
152 175 0
148 170 0
154 177 0
156 180 0
160 183 0
159 182 0
157 177 0
155 176 0
160 182 0
152 175 0
153 176 0
154 177 0
150 171 0
155 177 0
148 170 0
150 173 0
154 176 0
155 177 0
155 177 0
154 176 0
156 178 0
149 172 0
156 177 0
152 175 0
154 175 0
150 172 0
152 174 0
154 177 0
146 168 0
161 183 0
154 177 0
143 165 0
157 181 0
156 178 0
150 173 0
154 176 0
148 169 0
152 173 0
153 174 0
159 181 0
152 173 0
148 171 0
147 168 0
149 171 0
153 174 0
155 176 0
149 169 0
158 180 0
146 167 0
152 174 0
153 175 0
158 179 0
159 179 0
157 179 0
153 172 0
154 176 0
150 172 0
151 173 0
151 173 0
157 180 0
155 176 0
157 178 0
149 170 0
152 173 0
151 173 0
144 164 0
156 178 0
158 179 0
145 166 0
155 177 0
147 170 0
157 180 0
159 181 0
162 183 0
150 173 0
157 179 0
152 173 0
148 167 0
155 177 0
155 177 0
159 181 0
159 180 0
144 165 0
158 179 0
148 169 0
155 177 0
154 174 0
153 173 0
154 175 0
156 177 0
152 174 0
149 169 0
147 169 0
150 170 0
150 169 0
151 173 0
157 180 0
147 168 0
152 172 0
153 174 0
158 178 0
157 178 0
154 172 0
150 171 0
153 174 0
148 169 0
156 176 0
157 177 0
156 177 0
152 173 0
155 177 0
157 178 0
160 181 0
155 175 0
149 167 0
158 178 0
157 177 0
150 169 0
161 182 0
156 176 0
156 175 0
153 173 0
150 171 0
156 177 0
151 172 0
157 177 0
158 178 0
157 177 0
156 173 0
158 179 0
156 176 0
154 174 0
152 172 0
154 176 0
157 176 0
156 176 0
152 173 0
156 174 0
152 171 0
158 177 0
155 175 0
159 179 0
159 179 0
156 175 0
157 178 0
155 174 0
152 172 0
149 167 0
160 180 0
153 174 0
154 173 0
151 169 0
159 179 0
153 173 0
147 166 0
158 176 0
151 168 0
154 173 0
154 171 0
146 165 0
157 176 0
151 169 0
154 170 0
152 172 0
154 171 0
157 174 0
153 170 0
150 168 0
155 174 0
156 175 0
149 166 0
157 174 0
159 177 0
159 176 0
162 179 0
153 171 0
157 174 0
155 174 0
153 171 0
154 169 0
151 169 0
150 169 0
158 175 0
152 171 0
156 171 0
153 170 0
156 174 0
157 174 0
158 176 0
161 177 0
154 169 0
149 167 0
156 172 0
155 172 0
157 172 0
158 174 0
157 175 0
160 176 0
154 170 0
151 165 0
161 178 0
151 165 0
158 175 0
157 173 0
159 177 0
156 172 0
158 173 0
155 168 0
165 181 0
154 169 0
163 178 0
158 175 0
162 177 0
162 175 0
159 175 0
153 167 0
156 173 0
155 170 0
154 170 0
159 175 0
158 172 0
160 177 0
159 175 0
159 174 0
155 170 0
158 175 0
160 176 0
168 185 0
152 168 0
159 176 0
155 166 0
159 175 0
158 174 0
163 178 0
159 172 0
154 167 0
154 168 0
159 173 0
154 169 0
159 176 0
159 171 0
161 175 0
163 179 0
155 168 0
161 180 0
168 190 0
167 190 0
173 195 0
169 192 0
167 189 0
170 193 0
168 190 0
171 194 0
166 189 0
168 191 0
167 189 0
167 189 0
168 190 0
166 189 0
166 189 0
163 186 0
165 188 0
164 186 0
167 190 0
169 190 0
168 191 0
166 189 0
165 187 0
165 187 0
167 190 0
163 186 0
167 188 0
167 190 0
166 188 0
164 186 0
170 193 0
168 190 0
166 190 0
165 187 0
157 179 0
163 186 0
164 187 0
166 188 0
166 189 0
159 182 0
162 186 0
164 187 0
160 182 0
165 187 0
166 189 0
167 190 0
164 186 0
167 190 0
163 186 0
166 189 0
167 189 0
166 188 0
167 190 0
161 183 0
166 188 0
166 188 0
164 186 0
162 185 0
162 186 0
167 190 0
166 189 0
161 184 0
167 190 0
163 185 0
162 185 0
160 183 0
169 192 0
156 180 0
160 183 0
156 179 0
164 186 0
161 184 0
163 186 0
162 185 0
162 186 0
159 182 0
162 185 0
163 185 0
166 189 0
166 189 0
158 181 0
161 185 0
157 180 0
161 184 0
156 179 0
162 185 0
161 184 0
163 185 0
159 182 0
164 187 0
166 189 0
161 183 0
159 182 0
162 185 0
152 175 0
164 187 0
162 184 0
157 179 0
162 185 0
157 181 0
164 187 0
160 183 0
156 178 0
151 173 0
167 190 0
161 183 0
151 173 0
157 180 0
155 179 0
160 183 0
158 179 0
155 178 0
153 177 0
159 181 0
156 180 0
159 183 0
160 182 0
162 185 0
161 184 0
162 186 0
151 174 0
161 185 0
163 185 0
160 185 0
162 184 0
157 180 0
156 179 0
163 187 0
157 179 0
153 176 0
152 174 0
158 181 0
158 180 0
158 182 0
157 180 0
153 174 0
153 176 0
157 179 0
156 179 0
158 180 0
159 181 0
155 176 0
157 180 0
157 181 0
161 184 0
156 180 0
162 185 0
146 169 0
153 175 0
155 178 0
156 177 0
152 174 0
158 181 0
149 173 0
158 180 0
162 185 0
158 181 0
161 183 0
157 179 0
155 178 0
155 178 0
153 176 0
154 176 0
155 178 0
155 177 0
145 167 0
154 177 0
161 183 0
153 175 0
159 182 0
154 175 0
150 173 0
154 177 0
152 174 0
152 174 0
156 178 0
154 176 0
155 177 0
156 179 0
160 181 0
152 174 0
158 180 0
148 170 0
154 176 0
156 177 0
150 172 0
161 185 0
154 175 0
155 178 0
154 177 0
159 180 0
153 174 0
161 182 0
156 178 0
147 169 0
149 171 0
155 178 0
150 172 0
160 181 0
154 177 0
159 181 0
152 174 0
152 173 0
146 167 0
153 174 0
159 180 0
152 175 0
157 180 0
151 172 0
157 178 0
160 182 0
152 175 0
153 174 0
151 173 0
151 173 0
153 175 0
153 175 0
153 175 0
151 174 0
152 174 0
161 182 0
156 178 0
155 176 0
148 169 0
156 177 0
151 171 0
157 178 0
156 178 0
152 172 0
156 177 0
160 181 0
157 178 0
151 171 0
152 174 0
158 179 0
154 174 0
150 172 0
149 170 0
158 179 0
157 181 0
154 175 0
155 176 0
153 175 0
154 175 0
150 171 0
158 179 0
156 176 0
150 170 0
148 166 0
150 171 0
154 175 0
155 177 0
148 169 0
150 171 0
154 175 0
149 171 0
153 175 0
149 168 0
154 175 0
154 174 0
154 174 0
153 174 0
159 180 0
153 172 0
150 171 0
155 177 0
151 172 0
159 180 0
155 176 0
151 172 0
157 176 0
156 176 0
151 170 0
155 175 0
152 172 0
154 175 0
151 172 0
157 178 0
162 183 0
154 175 0
145 166 0
159 179 0
152 172 0
153 173 0
160 181 0
158 175 0
146 166 0
153 171 0
159 180 0
158 177 0
149 168 0
153 173 0
163 182 0
152 171 0
159 180 0
159 179 0
151 170 0
156 175 0
154 173 0
155 174 0
155 176 0
159 180 0
153 173 0
155 175 0
159 179 0
155 174 0
151 171 0
153 173 0
160 180 0
157 177 0
155 176 0
158 176 0
156 176 0
158 177 0
158 174 0
155 174 0
157 176 0
159 177 0
155 173 0
149 165 0
151 171 0
157 175 0
155 172 0
162 181 0
154 171 0
152 170 0
152 171 0
160 179 0
154 171 0
157 177 0
155 171 0
163 182 0
161 180 0
157 176 0
165 183 0
161 179 0
160 177 0
158 175 0
152 168 0
155 170 0
154 167 0
155 173 0
156 173 0
147 163 0
157 175 0
153 172 0
158 173 0
150 166 0
157 172 0
156 174 0
153 169 0
155 170 0
162 181 0
160 178 0
159 178 0
151 167 0
158 171 0
153 172 0
151 168 0
159 175 0
154 170 0
155 170 0
157 175 0
154 171 0
156 173 0
161 179 0
161 179 0
160 175 0
159 174 0
158 175 0
164 182 0
159 174 0
157 173 0
162 179 0
159 175 0
160 175 0
164 179 0
160 177 0
153 167 0
153 168 0
159 173 0
159 174 0
159 175 0
156 170 0
160 175 0
154 167 0
158 174 0
160 174 0
158 170 0
157 170 0
159 177 0
154 169 0
162 177 0
157 172 0
160 174 0
159 172 0
154 167 0
160 174 0
157 174 0
161 175 0
