P3
400 225
255
204 226 255
204 226 255
204 226 255
204 226 255
204 226 255
204 226 255
204 226 255
204 226 255
204 226 255
204 226 255
204 226 255
204 226 255
204 226 255
204 226 255
204 226 255
203 226 255
203 226 255
203 226 255
203 226 255
203 226 255
203 226 255
203 226 255
203 226 255
203 225 255
203 225 255
203 225 255
203 225 255
203 225 255
203 225 255
203 225 255
203 225 255
203 225 255
202 225 255
202 225 255
202 225 255
202 225 255
202 225 255
202 225 255
202 225 255
202 225 255
202 225 255
202 225 255
202 225 255
202 225 255
202 225 255
202 225 255
202 225 255
202 225 255
201 225 255
201 225 255
201 225 255
201 225 255
201 225 255
201 224 255
201 224 255
201 224 255
201 224 255
201 224 255
201 224 255
201 224 255
201 224 255
201 224 255
201 224 255
200 224 255
200 224 255
200 224 255
200 224 255
200 224 255
200 224 255
200 224 255
200 224 255
200 224 255
200 224 255
200 224 255
200 224 255
200 224 255
200 224 255
200 224 255
199 224 255
199 224 255
199 223 255
199 223 255
199 223 255
199 223 255
199 223 255
199 223 255
199 223 255
199 223 255
199 223 255
199 223 255
199 223 255
199 223 255
198 223 255
198 223 255
198 223 255
198 223 255
198 223 255
198 223 255
198 223 255
198 223 255
198 223 255
198 223 255
198 223 255
198 223 255
198 223 255
198 223 255
197 222 255
197 222 255
197 222 255
197 222 255
197 222 255
197 222 255
197 222 255
197 222 255
197 222 255
197 222 255
197 222 255
197 222 255
197 222 255
197 222 255
197 222 255
196 222 255
196 222 255
196 222 255
196 222 255
196 222 255
196 222 255
196 222 255
196 222 255
196 222 255
196 222 255
196 222 255
196 222 255
196 222 255
196 222 255
196 221 255
196 221 255
195 221 255
195 221 255
195 221 255
195 221 255
195 221 255
195 221 255
195 221 255
195 221 255
195 221 255
195 221 255
195 221 255
195 221 255
195 221 255
195 221 255
195 221 255
195 221 255
195 221 255
195 221 255
194 221 255
194 221 255
194 221 255
194 221 255
194 221 255
194 221 255
194 221 255
194 221 255
194 221 255
194 221 255
194 221 255
194 221 255
194 221 255
194 221 255
194 221 255
194 221 255
194 221 255
194 221 255
194 221 255
194 221 255
194 221 255
194 221 255
194 220 255
194 220 255
194 220 255
194 220 255
194 220 255
194 220 255
194 220 255
194 220 255
194 220 255
193 220 255
193 220 255
193 220 255
193 220 255
193 220 255
193 220 255
193 220 255
193 220 255
193 220 255
193 220 255
193 220 255
193 220 255
193 220 255
193 220 255
193 220 255
193 220 255
193 220 255
193 220 255
193 220 255
193 220 255
193 220 255
193 220 255
193 220 255
193 220 255
193 220 255
193 220 255
193 220 255
193 220 255
194 220 255
194 220 255
194 220 255
194 220 255
194 220 255
194 220 255
194 220 255
194 220 255
194 220 255
194 221 255
194 221 255
194 221 255
194 221 255
194 221 255
194 221 255
194 221 255
194 221 255
194 221 255
194 221 255
194 221 255
194 221 255
194 221 255
194 221 255
194 221 255
194 221 255
194 221 255
194 221 255
194 221 255
194 221 255
194 221 255
194 221 255
195 221 255
195 221 255
195 221 255
195 221 255
195 221 255
195 221 255
195 221 255
195 221 255
195 221 255
195 221 255
195 221 255
195 221 255
195 221 255
195 221 255
195 221 255
195 221 255
195 221 255
195 221 255
196 221 255
196 221 255
196 222 255
196 222 255
196 222 255
196 222 255
196 222 255
196 222 255
196 222 255
196 222 255
196 222 255
196 222 255
196 222 255
196 222 255
196 222 255
196 222 255
197 222 255
197 222 255
197 222 255
197 222 255
197 222 255
197 222 255
197 222 255
197 222 255
197 222 255
197 222 255
197 222 255
197 222 255
197 222 255
197 222 255
197 222 255
198 223 255
198 223 255
198 223 255
198 223 255
198 223 255
198 223 255
198 223 255
198 223 255
198 223 255
198 223 255
198 223 255
198 223 255
198 223 255
198 223 255
199 223 255
199 223 255
199 223 255
199 223 255
199 223 255
199 223 255
199 223 255
199 223 255
199 223 255
199 223 255
199 223 255
199 223 255
199 224 255
199 224 255
200 224 255
200 224 255
200 224 255
200 224 255
200 224 255
200 224 255
200 224 255
200 224 255
200 224 255
200 224 255
200 224 255
200 224 255
200 224 255
200 224 255
200 224 255
201 224 255
201 224 255
201 224 255
201 224 255
201 224 255
201 224 255
201 224 255
201 224 255
201 224 255
201 224 255
201 225 255
201 225 255
201 225 255
201 225 255
201 225 255
202 225 255
202 225 255
202 225 255
202 225 255
202 225 255
202 225 255
202 225 255
202 225 255
202 225 255
202 225 255
202 225 255
202 225 255
202 225 255
202 225 255
202 225 255
202 225 255
203 225 255
203 225 255
203 225 255
203 225 255
203 225 255
203 225 255
203 225 255
203 225 255
203 225 255
203 226 255
203 226 255
203 226 255
203 226 255
203 226 255
203 226 255
203 226 255
203 226 255
204 226 255
204 226 255
204 226 255
204 226 255
204 226 255
204 226 255
204 226 255
204 226 255
204 226 255
204 226 255
204 226 255
204 226 255
204 226 255
204 226 255
204 226 255
204 226 255
204 226 255
204 226 255
204 226 255
204 226 255
204 226 255
204 226 255
204 226 255
204 226 255
204 226 255
204 226 255
204 226 255
204 226 255
204 226 255
204 226 255
204 226 255
204 226 255
204 226 255
203 226 255
203 226 255
203 226 255
203 226 255
203 226 255
203 226 255
203 226 255
203 225 255
203 225 255
203 225 255
203 225 255
203 225 255
203 225 255
203 225 255
203 225 255
203 225 255
202 225 255
202 225 255
202 225 255
202 225 255
202 225 255
202 225 255
202 225 255
202 225 255
202 225 255
202 225 255
202 225 255
202 225 255
202 225 255
202 225 255
202 225 255
202 225 255
201 225 255
201 225 255
201 225 255
201 225 255
201 224 255
201 224 255
201 224 255
201 224 255
201 224 255
201 224 255
201 224 255
201 224 255
201 224 255
201 224 255
201 224 255
200 224 255
200 224 255
200 224 255
200 224 255
200 224 255
200 224 255
200 224 255
200 224 255
200 224 255
200 224 255
200 224 255
200 224 255
200 224 255
200 224 255
199 224 255
199 224 255
199 224 255
199 223 255
199 223 255
199 223 255
199 223 255
199 223 255
199 223 255
199 223 255
199 223 255
199 223 255
199 223 255
199 223 255
199 223 255
198 223 255
198 223 255
198 223 255
198 223 255
198 223 255
198 223 255
198 223 255
198 223 255
198 223 255
198 223 255
198 223 255
198 223 255
198 223 255
198 223 255
197 223 255
197 222 255
197 222 255
197 222 255
197 222 255
197 222 255
197 222 255
197 222 255
197 222 255
197 222 255
197 222 255
197 222 255
197 222 255
197 222 255
197 222 255
196 222 255
196 222 255
196 222 255
196 222 255
196 222 255
196 222 255
196 222 255
196 222 255
196 222 255
196 222 255
196 222 255
196 222 255
196 222 255
196 222 255
196 222 255
196 221 255
195 221 255
195 221 255
195 221 255
195 221 255
195 221 255
195 221 255
195 221 255
195 221 255
195 221 255
195 221 255
195 221 255
195 221 255
195 221 255
195 221 255
195 221 255
195 221 255
195 221 255
195 221 255
195 221 255
194 221 255
194 221 255
194 221 255
194 221 255
194 221 255
194 221 255
194 221 255
194 221 255
194 221 255
194 221 255
194 221 255
194 221 255
194 221 255
194 221 255
194 221 255
194 221 255
194 221 255
194 221 255
194 221 255
194 221 255
194 221 255
194 221 255
194 221 255
194 221 255
194 221 255
194 220 255
194 220 255
194 220 255
194 220 255
194 220 255
194 220 255
194 220 255
194 220 255
194 220 255
194 220 255
194 220 255
194 220 255
194 220 255
194 220 255
194 220 255
194 220 255
194 220 255
194 220 255
194 220 255
194 220 255
194 220 255
194 220 255
194 220 255
194 220 255
194 220 255
194 220 255
194 220 255
194 220 255
194 220 255
194 220 255
194 220 255
194 220 255
194 220 255
194 220 255
194 221 255
194 221 255
194 221 255
194 221 255
194 221 255
194 221 255
194 221 255
194 221 255
194 221 255
194 221 255
194 221 255
194 221 255
194 221 255
194 221 255
194 221 255
194 221 255
194 221 255
194 221 255
194 221 255
194 221 255
194 221 255
194 221 255
194 221 255
194 221 255
194 221 255
195 221 255
195 221 255
195 221 255
195 221 255
195 221 255
195 221 255
195 221 255
195 221 255
195 221 255
195 221 255
195 221 255
195 221 255
195 221 255
195 221 255
195 221 255
195 221 255
195 221 255
195 221 255
195 221 255
196 221 255
196 222 255
196 222 255
196 222 255
196 222 255
196 222 255
196 222 255
196 222 255
196 222 255
196 222 255
196 222 255
196 222 255
196 222 255
196 222 255
196 222 255
196 222 255
197 222 255
197 222 255
197 222 255
197 222 255
197 222 255
197 222 255
197 222 255
197 222 255
197 222 255
197 222 255
197 222 255
197 222 255
197 222 255
197 222 255
197 223 255
198 223 255
198 223 255
198 223 255
198 223 255
198 223 255
198 223 255
198 223 255
198 223 255
198 223 255
198 223 255
198 223 255
198 223 255
198 223 255
198 223 255
199 223 255
199 223 255
199 223 255
199 223 255
199 223 255
199 223 255
199 223 255
199 223 255
199 223 255
199 223 255
199 223 255
199 223 255
199 224 255
199 224 255
200 224 255
200 224 255
200 224 255
200 224 255
200 224 255
200 224 255
200 224 255
200 224 255
200 224 255
200 224 255
200 224 255
200 224 255
200 224 255
200 224 255
200 224 255
201 224 255
201 224 255
201 224 255
201 224 255
201 224 255
201 224 255
201 224 255
201 224 255
201 224 255
201 224 255
201 225 255
201 225 255
201 225 255
201 225 255
201 225 255
202 225 255
202 225 255
202 225 255
202 225 255
202 225 255
202 225 255
202 225 255
202 225 255
202 225 255
202 225 255
202 225 255
202 225 255
202 225 255
202 225 255
202 225 255
202 225 255
203 225 255
203 225 255
203 225 255
203 225 255
203 225 255
203 225 255
203 225 255
203 225 255
203 225 255
203 226 255
203 226 255
203 226 255
203 226 255
203 226 255
203 226 255
203 226 255
203 226 255
204 226 255
204 226 255
204 226 255
204 226 255
204 226 255
204 226 255
204 226 255
204 226 255
204 226 255
204 226 255
204 226 255
204 226 255
204 226 255
204 226 255
204 226 255
204 226 255
204 226 255
205 226 255
205 226 255
204 226 255
204 226 255
204 226 255
204 226 255
204 226 255
204 226 255
204 226 255
204 226 255
204 226 255
204 226 255
204 226 255
204 226 255
204 226 255
204 226 255
204 226 255
204 226 255
204 226 255
204 226 255
203 226 255
203 226 255
203 226 255
203 226 255
203 226 255
203 226 255
203 226 255
203 226 255
203 225 255
203 225 255
203 225 255
203 225 255
203 225 255
203 225 255
203 225 255
203 225 255
202 225 255
202 225 255
202 225 255
202 225 255
202 225 255
202 225 255
202 225 255
202 225 255
202 225 255
202 225 255
202 225 255
202 225 255
202 225 255
202 225 255
202 225 255
202 225 255
201 225 255
201 225 255
201 225 255
201 225 255
201 225 255
201 224 255
201 224 255
201 224 255
201 224 255
201 224 255
201 224 255
201 224 255
201 224 255
201 224 255
201 224 255
200 224 255
200 224 255
200 224 255
200 224 255
200 224 255
200 224 255
200 224 255
200 224 255
200 224 255
200 224 255
200 224 255
200 224 255
200 224 255
200 224 255
199 224 255
199 224 255
199 224 255
199 223 255
199 223 255
199 223 255
199 223 255
199 223 255
199 223 255
199 223 255
199 223 255
199 223 255
199 223 255
199 223 255
199 223 255
198 223 255
198 223 255
198 223 255
198 223 255
198 223 255
198 223 255
198 223 255
198 223 255
198 223 255
198 223 255
198 223 255
198 223 255
198 223 255
198 223 255
197 223 255
197 222 255
197 222 255
197 222 255
197 222 255
197 222 255
197 222 255
197 222 255
197 222 255
197 222 255
197 222 255
197 222 255
197 222 255
197 222 255
197 222 255
196 222 255
196 222 255
196 222 255
196 222 255
196 222 255
196 222 255
196 222 255
196 222 255
196 222 255
196 222 255
196 222 255
196 222 255
196 222 255
196 222 255
196 222 255
196 221 255
195 221 255
195 221 255
195 221 255
195 221 255
195 221 255
195 221 255
195 221 255
195 221 255
195 221 255
195 221 255
195 221 255
195 221 255
195 221 255
195 221 255
195 221 255
195 221 255
195 221 255
195 221 255
195 221 255
195 221 255
195 221 255
194 221 255
194 221 255
194 221 255
194 221 255
194 221 255
194 221 255
194 221 255
194 221 255
194 221 255
194 221 255
194 221 255
194 221 255
194 221 255
194 221 255
194 221 255
194 221 255
194 221 255
194 221 255
194 221 255
194 221 255
194 221 255
194 221 255
194 221 255
194 221 255
194 221 255
194 221 255
194 221 255
194 221 255
194 221 255
194 221 255
194 220 255
194 220 255
194 220 255
194 220 255
194 220 255
194 220 255
194 220 255
194 220 255
194 220 255
194 220 255
194 220 255
194 220 255
194 220 255
194 220 255
194 220 255
194 221 255
194 221 255
194 221 255
194 221 255
194 221 255
194 221 255
194 221 255
194 221 255
194 221 255
194 221 255
194 221 255
194 221 255
194 221 255
194 221 255
194 221 255
194 221 255
194 221 255
194 221 255
194 221 255
194 221 255
194 221 255
194 221 255
194 221 255
194 221 255
194 221 255
194 221 255
194 221 255
194 221 255
194 221 255
194 221 255
194 221 255
195 221 255
195 221 255
195 221 255
195 221 255
195 221 255
195 221 255
195 221 255
195 221 255
195 221 255
195 221 255
195 221 255
195 221 255
195 221 255
195 221 255
195 221 255
195 221 255
195 221 255
195 221 255
195 221 255
195 221 255
195 221 255
196 221 255
196 222 255
196 222 255
196 222 255
196 222 255
196 222 255
196 222 255
196 222 255
196 222 255
196 222 255
196 222 255
196 222 255
196 222 255
196 222 255
196 222 255
196 222 255
197 222 255
197 222 255
197 222 255
197 222 255
197 222 255
197 222 255
197 222 255
197 222 255
197 222 255
197 222 255
197 222 255
197 222 255
197 222 255
197 222 255
197 223 255
198 223 255
198 223 255
198 223 255
198 223 255
198 223 255
198 223 255
198 223 255
198 223 255
198 223 255
198 223 255
198 223 255
198 223 255
198 223 255
198 223 255
199 223 255
199 223 255
199 223 255
199 223 255
199 223 255
199 223 255
199 223 255
199 223 255
199 223 255
199 223 255
199 223 255
199 223 255
199 224 255
199 224 255
200 224 255
200 224 255
200 224 255
200 224 255
200 224 255
200 224 255
200 224 255
200 224 255
200 224 255
200 224 255
200 224 255
200 224 255
200 224 255
200 224 255
200 224 255
201 224 255
201 224 255
201 224 255
201 224 255
201 224 255
201 224 255
201 224 255
201 224 255
201 224 255
201 224 255
201 225 255
201 225 255
201 225 255
201 225 255
201 225 255
202 225 255
202 225 255
202 225 255
202 225 255
202 225 255
202 225 255
202 225 255
202 225 255
202 225 255
202 225 255
202 225 255
202 225 255
202 225 255
202 225 255
202 225 255
203 225 255
203 225 255
203 225 255
203 225 255
203 225 255
203 225 255
203 225 255
203 225 255
203 225 255
203 225 255
203 226 255
203 226 255
203 226 255
203 226 255
203 226 255
203 226 255
203 226 255
204 226 255
204 226 255
204 226 255
204 226 255
204 226 255
204 226 255
204 226 255
204 226 255
204 226 255
204 226 255
204 226 255
204 226 255
204 226 255
204 226 255
204 226 255
204 226 255
204 226 255
204 226 255
205 226 255
205 226 255
205 226 255
205 226 255
205 226 255
205 226 255
204 226 255
204 226 255
204 226 255
204 226 255
204 226 255
204 226 255
204 226 255
204 226 255
204 226 255
204 226 255
204 226 255
204 226 255
204 226 255
204 226 255
204 226 255
204 226 255
204 226 255
204 226 255
203 226 255
203 226 255
203 226 255
203 226 255
203 226 255
203 226 255
203 226 255
203 226 255
203 225 255
203 225 255
203 225 255
203 225 255
203 225 255
203 225 255
203 225 255
203 225 255
203 225 255
202 225 255
202 225 255
202 225 255
202 225 255
202 225 255
202 225 255
202 225 255
202 225 255
202 225 255
202 225 255
202 225 255
202 225 255
202 225 255
202 225 255
202 225 255
201 225 255
201 225 255
201 225 255
201 225 255
201 225 255
201 224 255
201 224 255
201 224 255
201 224 255
201 224 255
201 224 255
201 224 255
201 224 255
201 224 255
201 224 255
200 224 255
200 224 255
200 224 255
200 224 255
200 224 255
200 224 255
200 224 255
200 224 255
200 224 255
200 224 255
200 224 255
200 224 255
200 224 255
200 224 255
200 224 255
199 224 255
199 224 255
199 223 255
199 223 255
199 223 255
199 223 255
199 223 255
199 223 255
199 223 255
199 223 255
199 223 255
199 223 255
199 223 255
199 223 255
198 223 255
198 223 255
198 223 255
198 223 255
198 223 255
198 223 255
198 223 255
198 223 255
198 223 255
198 223 255
198 223 255
198 223 255
198 223 255
198 223 255
197 223 255
197 222 255
197 222 255
197 222 255
197 222 255
197 222 255
197 222 255
197 222 255
197 222 255
197 222 255
197 222 255
197 222 255
197 222 255
197 222 255
197 222 255
196 222 255
196 222 255
196 222 255
196 222 255
196 222 255
196 222 255
196 222 255
196 222 255
196 222 255
196 222 255
196 222 255
196 222 255
196 222 255
196 222 255
196 222 255
196 222 255
196 221 255
195 221 255
195 221 255
195 221 255
195 221 255
195 221 255
195 221 255
195 221 255
195 221 255
195 221 255
195 221 255
195 221 255
195 221 255
195 221 255
195 221 255
195 221 255
195 221 255
195 221 255
195 221 255
195 221 255
195 221 255
195 221 255
194 221 255
194 221 255
194 221 255
194 221 255
194 221 255
194 221 255
194 221 255
194 221 255
194 221 255
194 221 255
194 221 255
194 221 255
194 221 255
194 221 255
194 221 255
194 221 255
194 221 255
194 221 255
194 221 255
194 221 255
194 221 255
194 221 255
194 221 255
194 221 255
194 221 255
194 221 255
194 221 255
194 221 255
194 221 255
194 221 255
194 221 255
194 221 255
194 221 255
194 221 255
194 221 255
194 221 255
194 221 255
194 221 255
194 221 255
194 221 255
194 221 255
194 221 255
194 221 255
194 221 255
194 221 255
194 221 255
194 221 255
194 221 255
194 221 255
194 221 255
194 221 255
194 221 255
194 221 255
194 221 255
194 221 255
194 221 255
194 221 255
194 221 255
194 221 255
194 221 255
194 221 255
194 221 255
194 221 255
194 221 255
194 221 255
194 221 255
194 221 255
194 221 255
194 221 255
194 221 255
195 221 255
195 221 255
195 221 255
195 221 255
195 221 255
195 221 255
195 221 255
195 221 255
195 221 255
195 221 255
195 221 255
195 221 255
195 221 255
195 221 255
195 221 255
195 221 255
195 221 255
195 221 255
195 221 255
195 221 255
195 221 255
196 221 255
196 221 255
196 222 255
196 222 255
196 222 255
196 222 255
196 222 255
196 222 255
196 222 255
196 222 255
196 222 255
196 222 255
196 222 255
196 222 255
196 222 255
196 222 255
196 222 255
197 222 255
197 222 255
197 222 255
197 222 255
197 222 255
197 222 255
197 222 255
197 222 255
197 222 255
197 222 255
197 222 255
197 222 255
197 222 255
197 222 255
197 223 255
198 223 255
198 223 255
198 223 255
198 223 255
198 223 255
198 223 255
198 223 255
198 223 255
198 223 255
198 223 255
198 223 255
198 223 255
198 223 255
198 223 255
199 223 255
199 223 255
199 223 255
199 223 255
199 223 255
199 223 255
199 223 255
199 223 255
199 223 255
199 223 255
199 223 255
199 223 255
199 224 255
199 224 255
200 224 255
200 224 255
200 224 255
200 224 255
200 224 255
200 224 255
200 224 255
200 224 255
200 224 255
200 224 255
200 224 255
200 224 255
200 224 255
200 224 255
200 224 255
201 224 255
201 224 255
201 224 255
201 224 255
201 224 255
201 224 255
201 224 255
201 224 255
201 224 255
201 224 255
201 225 255
201 225 255
201 225 255
201 225 255
201 225 255
202 225 255
202 225 255
202 225 255
202 225 255
202 225 255
202 225 255
202 225 255
202 225 255
202 225 255
202 225 255
202 225 255
202 225 255
202 225 255
202 225 255
202 225 255
203 225 255
203 225 255
203 225 255
203 225 255
203 225 255
203 225 255
203 225 255
203 225 255
203 225 255
203 226 255
203 226 255
203 226 255
203 226 255
203 226 255
203 226 255
203 226 255
203 226 255
204 226 255
204 226 255
204 226 255
204 226 255
204 226 255
204 226 255
204 226 255
204 226 255
204 226 255
204 226 255
204 226 255
204 226 255
204 226 255
204 226 255
204 226 255
204 226 255
204 226 255
205 226 255
205 226 255
205 226 255
205 226 255
205 226 255
205 226 255
205 226 255
205 226 255
205 226 255
205 226 255
205 226 255
205 226 255
204 226 255
204 226 255
204 226 255
204 226 255
204 226 255
204 226 255
204 226 255
204 226 255
204 226 255
204 226 255
204 226 255
204 226 255
204 226 255
204 226 255
204 226 255
204 226 255
204 226 255
203 226 255
203 226 255
203 226 255
203 226 255
203 226 255
203 226 255
203 226 255
203 226 255
203 225 255
203 225 255
203 225 255
203 225 255
203 225 255
203 225 255
203 225 255
203 225 255
203 225 255
202 225 255
202 225 255
202 225 255
202 225 255
202 225 255
202 225 255
202 225 255
202 225 255
202 225 255
202 225 255
202 225 255
202 225 255
202 225 255
202 225 255
202 225 255
201 225 255
201 225 255
201 225 255
201 225 255
201 225 255
201 224 255
201 224 255
201 224 255
201 224 255
201 224 255
201 224 255
201 224 255
201 224 255
201 224 255
201 224 255
200 224 255
200 224 255
200 224 255
200 224 255
200 224 255
200 224 255
200 224 255
200 224 255
200 224 255
200 224 255
200 224 255
200 224 255
200 224 255
200 224 255
200 224 255
199 224 255
199 224 255
199 223 255
199 223 255
199 223 255
199 223 255
199 223 255
199 223 255
199 223 255
199 223 255
199 223 255
199 223 255
199 223 255
199 223 255
198 223 255
198 223 255
198 223 255
198 223 255
198 223 255
198 223 255
198 223 255
198 223 255
198 223 255
198 223 255
198 223 255
198 223 255
198 223 255
198 223 255
198 223 255
197 222 255
197 222 255
197 222 255
197 222 255
197 222 255
197 222 255
197 222 255
197 222 255
197 222 255
197 222 255
197 222 255
197 222 255
197 222 255
197 222 255
197 222 255
196 222 255
196 222 255
196 222 255
196 222 255
196 222 255
196 222 255
196 222 255
196 222 255
196 222 255
196 222 255
196 222 255
196 222 255
196 222 255
196 222 255
196 222 255
196 221 255
196 221 255
195 221 255
195 221 255
195 221 255
195 221 255
195 221 255
195 221 255
195 221 255
195 221 255
195 221 255
195 221 255
195 221 255
195 221 255
195 221 255
195 221 255
195 221 255
195 221 255
195 221 255
195 221 255
195 221 255
195 221 255
195 221 255
195 221 255
194 221 255
194 221 255
194 221 255
194 221 255
194 221 255
194 221 255
194 221 255
194 221 255
194 221 255
194 221 255
194 221 255
194 221 255
194 221 255
194 221 255
194 221 255
194 221 255
194 221 255
194 221 255
194 221 255
194 221 255
194 221 255
194 221 255
194 221 255
194 221 255
194 221 255
194 221 255
194 221 255
194 221 255
194 221 255
194 221 255
194 221 255
194 221 255
194 221 255
194 221 255
194 221 255
194 221 255
194 221 255
194 221 255
194 221 255
194 221 255
194 221 255
194 221 255
194 221 255
194 221 255
194 221 255
194 221 255
194 221 255
194 221 255
194 221 255
194 221 255
194 221 255
194 221 255
194 221 255
194 221 255
194 221 255
194 221 255
194 221 255
194 221 255
194 221 255
194 221 255
194 221 255
194 221 255
195 221 255
195 221 255
195 221 255
195 221 255
195 221 255
195 221 255
195 221 255
195 221 255
195 221 255
195 221 255
195 221 255
195 221 255
195 221 255
195 221 255
195 221 255
195 221 255
195 221 255
195 221 255
195 221 255
195 221 255
195 221 255
195 221 255
196 221 255
196 221 255
196 222 255
196 222 255
196 222 255
196 222 255
196 222 255
196 222 255
196 222 255
196 222 255
196 222 255
196 222 255
196 222 255
196 222 255
196 222 255
196 222 255
196 222 255
197 222 255
197 222 255
197 222 255
197 222 255
197 222 255
197 222 255
197 222 255
197 222 255
197 222 255
197 222 255
197 222 255
197 222 255
197 222 255
197 222 255
197 222 255
197 223 255
198 223 255
198 223 255
198 223 255
198 223 255
198 223 255
198 223 255
198 223 255
198 223 255
198 223 255
198 223 255
198 223 255
198 223 255
198 223 255
198 223 255
199 223 255
199 223 255
199 223 255
199 223 255
199 223 255
199 223 255
199 223 255
199 223 255
199 223 255
199 223 255
199 223 255
199 223 255
199 224 255
199 224 255
200 224 255
200 224 255
200 224 255
200 224 255
200 224 255
200 224 255
200 224 255
200 224 255
200 224 255
200 224 255
200 224 255
200 224 255
200 224 255
200 224 255
200 224 255
201 224 255
201 224 255
201 224 255
201 224 255
201 224 255
201 224 255
201 224 255
201 224 255
201 224 255
201 224 255
201 225 255
201 225 255
201 225 255
201 225 255
201 225 255
202 225 255
202 225 255
202 225 255
202 225 255
202 225 255
202 225 255
202 225 255
202 225 255
202 225 255
202 225 255
202 225 255
202 225 255
202 225 255
202 225 255
202 225 255
203 225 255
203 225 255
203 225 255
203 225 255
203 225 255
203 225 255
203 225 255
203 225 255
203 225 255
203 226 255
203 226 255
203 226 255
203 226 255
203 226 255
203 226 255
203 226 255
204 226 255
204 226 255
204 226 255
204 226 255
204 226 255
204 226 255
204 226 255
204 226 255
204 226 255
204 226 255
204 226 255
204 226 255
204 226 255
204 226 255
204 226 255
204 226 255
204 226 255
204 226 255
205 226 255
205 226 255
205 226 255
205 226 255
205 226 255
205 226 255
205 226 255
205 227 255
205 227 255
205 226 255
205 226 255
205 226 255
205 226 255
205 226 255
205 226 255
205 226 255
204 226 255
204 226 255
204 226 255
204 226 255
204 226 255
204 226 255
204 226 255
204 226 255
204 226 255
204 226 255
204 226 255
204 226 255
204 226 255
204 226 255
204 226 255
204 226 255
204 226 255
204 226 255
203 226 255
203 226 255
203 226 255
203 226 255
203 226 255
203 226 255
203 226 255
203 225 255
203 225 255
203 225 255
203 225 255
203 225 255
203 225 255
203 225 255
203 225 255
203 225 255
202 225 255
202 225 255
202 225 255
202 225 255
202 225 255
202 225 255
202 225 255
202 225 255
202 225 255
202 225 255
202 225 255
202 225 255
202 225 255
202 225 255
202 225 255
202 225 255
201 225 255
201 225 255
201 225 255
201 225 255
201 224 255
201 224 255
201 224 255
201 224 255
201 224 255
201 224 255
201 224 255
201 224 255
201 224 255
201 224 255
200 224 255
200 224 255
200 224 255
200 224 255
200 224 255
200 224 255
200 224 255
200 224 255
200 224 255
200 224 255
200 224 255
200 224 255
200 224 255
200 224 255
200 224 255
199 224 255
199 224 255
199 223 255
199 223 255
199 223 255
199 223 255
199 223 255
199 223 255
199 223 255
199 223 255
199 223 255
199 223 255
199 223 255
199 223 255
198 223 255
198 223 255
198 223 255
198 223 255
198 223 255
198 223 255
198 223 255
198 223 255
198 223 255
198 223 255
198 223 255
198 223 255
198 223 255
198 223 255
198 223 255
197 222 255
197 222 255
197 222 255
197 222 255
197 222 255
197 222 255
197 222 255
197 222 255
197 222 255
197 222 255
197 222 255
197 222 255
197 222 255
197 222 255
197 222 255
196 222 255
196 222 255
196 222 255
196 222 255
196 222 255
196 222 255
196 222 255
196 222 255
196 222 255
196 222 255
196 222 255
196 222 255
196 222 255
196 222 255
196 222 255
196 222 255
196 221 255
195 221 255
195 221 255
195 221 255
195 221 255
195 221 255
195 221 255
195 221 255
195 221 255
195 221 255
195 221 255
195 221 255
195 221 255
195 221 255
195 221 255
195 221 255
195 221 255
195 221 255
195 221 255
195 221 255
195 221 255
195 221 255
195 221 255
195 221 255
195 221 255
194 221 255
194 221 255
194 221 255
194 221 255
194 221 255
194 221 255
194 221 255
194 221 255
194 221 255
194 221 255
194 221 255
194 221 255
194 221 255
194 221 255
194 221 255
194 221 255
194 221 255
194 221 255
194 221 255
194 221 255
194 221 255
194 221 255
194 221 255
194 221 255
194 221 255
194 221 255
194 221 255
194 221 255
194 221 255
194 221 255
194 221 255
194 221 255
194 221 255
194 221 255
194 221 255
194 221 255
194 221 255
194 221 255
194 221 255
194 221 255
194 221 255
194 221 255
194 221 255
194 221 255
194 221 255
194 221 255
194 221 255
194 221 255
194 221 255
194 221 255
194 221 255
194 221 255
194 221 255
194 221 255
195 221 255
195 221 255
195 221 255
195 221 255
195 221 255
195 221 255
195 221 255
195 221 255
195 221 255
195 221 255
195 221 255
195 221 255
195 221 255
195 221 255
195 221 255
195 221 255
195 221 255
195 221 255
195 221 255
195 221 255
195 221 255
195 221 255
195 221 255
195 221 255
196 221 255
196 222 255
196 222 255
196 222 255
196 222 255
196 222 255
196 222 255
196 222 255
196 222 255
196 222 255
196 222 255
196 222 255
196 222 255
196 222 255
196 222 255
196 222 255
196 222 255
197 222 255
197 222 255
197 222 255
197 222 255
197 222 255
197 222 255
197 222 255
197 222 255
197 222 255
197 222 255
197 222 255
197 222 255
197 222 255
197 222 255
197 222 255
198 223 255
198 223 255
198 223 255
198 223 255
198 223 255
198 223 255
198 223 255
198 223 255
198 223 255
198 223 255
198 223 255
198 223 255
198 223 255
198 223 255
198 223 255
199 223 255
199 223 255
199 223 255
199 223 255
199 223 255
199 223 255
199 223 255
199 223 255
199 223 255
199 223 255
199 223 255
199 223 255
199 224 255
199 224 255
200 224 255
200 224 255
200 224 255
200 224 255
200 224 255
200 224 255
200 224 255
200 224 255
200 224 255
200 224 255
200 224 255
200 224 255
200 224 255
200 224 255
200 224 255
201 224 255
201 224 255
201 224 255
201 224 255
201 224 255
201 224 255
201 224 255
201 224 255
201 224 255
201 224 255
201 225 255
201 225 255
201 225 255
201 225 255
202 225 255
202 225 255
202 225 255
202 225 255
202 225 255
202 225 255
202 225 255
202 225 255
202 225 255
202 225 255
202 225 255
202 225 255
202 225 255
202 225 255
202 225 255
202 225 255
203 225 255
203 225 255
203 225 255
203 225 255
203 225 255
203 225 255
203 225 255
203 225 255
203 225 255
203 226 255
203 226 255
203 226 255
203 226 255
203 226 255
203 226 255
203 226 255
204 226 255
204 226 255
204 226 255
204 226 255
204 226 255
204 226 255
204 226 255
204 226 255
204 226 255
204 226 255
204 226 255
204 226 255
204 226 255
204 226 255
204 226 255
204 226 255
204 226 255
204 226 255
205 226 255
205 226 255
205 226 255
205 226 255
205 226 255
205 226 255
205 226 255
205 227 255
205 227 255
205 227 255
205 227 255
205 227 255
205 227 255
205 226 255
205 226 255
205 226 255
205 226 255
205 226 255
205 226 255
205 226 255
205 226 255
204 226 255
204 226 255
204 226 255
204 226 255
204 226 255
204 226 255
204 226 255
204 226 255
204 226 255
204 226 255
204 226 255
204 226 255
204 226 255
204 226 255
204 226 255
204 226 255
204 226 255
203 226 255
203 226 255
203 226 255
203 226 255
203 226 255
203 226 255
203 226 255
203 225 255
203 225 255
203 225 255
203 225 255
203 225 255
203 225 255
203 225 255
203 225 255
203 225 255
202 225 255
202 225 255
202 225 255
202 225 255
202 225 255
202 225 255
202 225 255
202 225 255
202 225 255
202 225 255
202 225 255
202 225 255
202 225 255
202 225 255
202 225 255
202 225 255
201 225 255
201 225 255
201 225 255
201 225 255
201 224 255
201 224 255
201 224 255
201 224 255
201 224 255
201 224 255
201 224 255
201 224 255
201 224 255
201 224 255
201 224 255
200 224 255
200 224 255
200 224 255
200 224 255
200 224 255
200 224 255
200 224 255
200 224 255
200 224 255
200 224 255
200 224 255
200 224 255
200 224 255
200 224 255
199 224 255
199 224 255
199 223 255
199 223 255
199 223 255
199 223 255
199 223 255
199 223 255
199 223 255
199 223 255
199 223 255
199 223 255
199 223 255
199 223 255
198 223 255
198 223 255
198 223 255
198 223 255
198 223 255
198 223 255
198 223 255
198 223 255
198 223 255
198 223 255
198 223 255
198 223 255
198 223 255
198 223 255
198 223 255
197 222 255
197 222 255
197 222 255
197 222 255
197 222 255
197 222 255
197 222 255
197 222 255
197 222 255
197 222 255
197 222 255
197 222 255
197 222 255
197 222 255
197 222 255
196 222 255
196 222 255
196 222 255
196 222 255
196 222 255
196 222 255
196 222 255
196 222 255
196 222 255
196 222 255
196 222 255
196 222 255
196 222 255
196 222 255
196 222 255
196 222 255
196 222 255
196 221 255
195 221 255
195 221 255
195 221 255
195 221 255
195 221 255
195 221 255
195 221 255
195 221 255
195 221 255
195 221 255
195 221 255
195 221 255
195 221 255
195 221 255
195 221 255
195 221 255
195 221 255
195 221 255
195 221 255
195 221 255
195 221 255
195 221 255
195 221 255
195 221 255
195 221 255
195 221 255
194 221 255
194 221 255
194 221 255
194 221 255
194 221 255
194 221 255
194 221 255
194 221 255
194 221 255
194 221 255
194 221 255
194 221 255
194 221 255
194 221 255
194 221 255
194 221 255
194 221 255
194 221 255
194 221 255
194 221 255
194 221 255
194 221 255
194 221 255
194 221 255
194 221 255
194 221 255
194 221 255
194 221 255
194 221 255
194 221 255
194 221 255
194 221 255
194 221 255
194 221 255
194 221 255
194 221 255
194 221 255
194 221 255
194 221 255
194 221 255
194 221 255
194 221 255
194 221 255
195 221 255
195 221 255
195 221 255
195 221 255
195 221 255
195 221 255
195 221 255
195 221 255
195 221 255
195 221 255
195 221 255
195 221 255
195 221 255
195 221 255
195 221 255
195 221 255
195 221 255
195 221 255
195 221 255
195 221 255
195 221 255
195 221 255
195 221 255
195 221 255
195 221 255
195 221 255
195 221 255
196 221 255
196 222 255
196 222 255
196 222 255
196 222 255
196 222 255
196 222 255
196 222 255
196 222 255
196 222 255
196 222 255
196 222 255
196 222 255
196 222 255
196 222 255
196 222 255
196 222 255
196 222 255
197 222 255
197 222 255
197 222 255
197 222 255
197 222 255
197 222 255
197 222 255
197 222 255
197 222 255
197 222 255
197 222 255
197 222 255
197 222 255
197 222 255
197 222 255
198 223 255
198 223 255
198 223 255
198 223 255
198 223 255
198 223 255
198 223 255
198 223 255
198 223 255
198 223 255
198 223 255
198 223 255
198 223 255
198 223 255
198 223 255
199 223 255
199 223 255
199 223 255
199 223 255
199 223 255
199 223 255
199 223 255
199 223 255
199 223 255
199 223 255
199 223 255
199 223 255
199 224 255
199 224 255
200 224 255
200 224 255
200 224 255
200 224 255
200 224 255
200 224 255
200 224 255
200 224 255
200 224 255
200 224 255
200 224 255
200 224 255
200 224 255
200 224 255
200 224 255
201 224 255
201 224 255
201 224 255
201 224 255
201 224 255
201 224 255
201 224 255
201 224 255
201 224 255
201 224 255
201 225 255
201 225 255
201 225 255
201 225 255
202 225 255
202 225 255
202 225 255
202 225 255
202 225 255
202 225 255
202 225 255
202 225 255
202 225 255
202 225 255
202 225 255
202 225 255
202 225 255
202 225 255
202 225 255
202 225 255
203 225 255
203 225 255
203 225 255
203 225 255
203 225 255
203 225 255
203 225 255
203 225 255
203 225 255
203 226 255
203 226 255
203 226 255
203 226 255
203 226 255
203 226 255
203 226 255
204 226 255
204 226 255
204 226 255
204 226 255
204 226 255
204 226 255
204 226 255
204 226 255
204 226 255
204 226 255
204 226 255
204 226 255
204 226 255
204 226 255
204 226 255
204 226 255
204 226 255
205 226 255
205 226 255
205 226 255
205 226 255
205 226 255
205 226 255
205 226 255
205 226 255
205 227 255
205 227 255
205 227 255
205 227 255
205 227 255
205 227 255
205 227 255
205 227 255
205 227 255
205 227 255
205 227 255
205 226 255
205 226 255
205 226 255
205 226 255
205 226 255
205 226 255
205 226 255
204 226 255
204 226 255
204 226 255
204 226 255
204 226 255
204 226 255
204 226 255
204 226 255
204 226 255
204 226 255
204 226 255
204 226 255
204 226 255
204 226 255
204 226 255
204 226 255
204 226 255
203 226 255
203 226 255
203 226 255
203 226 255
203 226 255
203 226 255
203 226 255
203 226 255
203 225 255
203 225 255
203 225 255
203 225 255
203 225 255
203 225 255
203 225 255
203 225 255
203 225 255
202 225 255
202 225 255
202 225 255
202 225 255
202 225 255
202 225 255
202 225 255
202 225 255
202 225 255
202 225 255
202 225 255
202 225 255
202 225 255
202 225 255
202 225 255
201 225 255
201 225 255
201 225 255
201 225 255
201 224 255
201 224 255
201 224 255
201 224 255
201 224 255
201 224 255
201 224 255
201 224 255
201 224 255
201 224 255
201 224 255
200 224 255
200 224 255
200 224 255
200 224 255
200 224 255
200 224 255
200 224 255
200 224 255
200 224 255
200 224 255
200 224 255
200 224 255
200 224 255
200 224 255
199 224 255
199 224 255
199 223 255
199 223 255
199 223 255
199 223 255
199 223 255
199 223 255
199 223 255
199 223 255
199 223 255
199 223 255
199 223 255
199 223 255
199 223 255
198 223 255
198 223 255
198 223 255
198 223 255
198 223 255
198 223 255
198 223 255
198 223 255
198 223 255
198 223 255
198 223 255
198 223 255
198 223 255
198 223 255
197 223 255
197 222 255
197 222 255
197 222 255
197 222 255
197 222 255
197 222 255
197 222 255
197 222 255
197 222 255
197 222 255
197 222 255
197 222 255
197 222 255
197 222 255
197 222 255
196 222 255
196 222 255
196 222 255
196 222 255
196 222 255
196 222 255
196 222 255
196 222 255
196 222 255
196 222 255
196 222 255
196 222 255
196 222 255
196 222 255
196 222 255
196 222 255
196 221 255
196 221 255
195 221 255
195 221 255
195 221 255
195 221 255
195 221 255
195 221 255
195 221 255
195 221 255
195 221 255
195 221 255
195 221 255
195 221 255
195 221 255
195 221 255
195 221 255
195 221 255
195 221 255
195 221 255
195 221 255
195 221 255
195 221 255
195 221 255
195 221 255
195 221 255
195 221 255
195 221 255
195 221 255
195 221 255
195 221 255
195 221 255
194 221 255
194 221 255
194 221 255
194 221 255
194 221 255
194 221 255
194 221 255
194 221 255
194 221 255
194 221 255
194 221 255
194 221 255
194 221 255
194 221 255
194 221 255
194 221 255
194 221 255
194 221 255
194 221 255
194 221 255
194 221 255
194 221 255
194 221 255
194 221 255
194 221 255
194 221 255
194 221 255
194 221 255
194 221 255
194 221 255
195 221 255
195 221 255
195 221 255
195 221 255
195 221 255
195 221 255
195 221 255
195 221 255
195 221 255
195 221 255
195 221 255
195 221 255
195 221 255
195 221 255
195 221 255
195 221 255
195 221 255
195 221 255
195 221 255
195 221 255
195 221 255
195 221 255
195 221 255
195 221 255
195 221 255
195 221 255
195 221 255
195 221 255
195 221 255
195 221 255
196 221 255
196 222 255
196 222 255
196 222 255
196 222 255
196 222 255
196 222 255
196 222 255
196 222 255
196 222 255
196 222 255
196 222 255
196 222 255
196 222 255
196 222 255
196 222 255
196 222 255
196 222 255
197 222 255
197 222 255
197 222 255
197 222 255
197 222 255
197 222 255
197 222 255
197 222 255
197 222 255
197 222 255
197 222 255
197 222 255
197 222 255
197 222 255
197 222 255
197 223 255
198 223 255
198 223 255
198 223 255
198 223 255
198 223 255
198 223 255
198 223 255
198 223 255
198 223 255
198 223 255
198 223 255
198 223 255
198 223 255
198 223 255
198 223 255
199 223 255
199 223 255
199 223 255
199 223 255
199 223 255
199 223 255
199 223 255
199 223 255
199 223 255
199 223 255
199 223 255
199 223 255
199 224 255
199 224 255
200 224 255
200 224 255
200 224 255
200 224 255
200 224 255
200 224 255
200 224 255
200 224 255
200 224 255
200 224 255
200 224 255
200 224 255
200 224 255
200 224 255
201 224 255
201 224 255
201 224 255
201 224 255
201 224 255
201 224 255
201 224 255
201 224 255
201 224 255
201 224 255
201 224 255
201 225 255
201 225 255
201 225 255
201 225 255
202 225 255
202 225 255
202 225 255
202 225 255
202 225 255
202 225 255
202 225 255
202 225 255
202 225 255
202 225 255
202 225 255
202 225 255
202 225 255
202 225 255
202 225 255
203 225 255
203 225 255
203 225 255
203 225 255
203 225 255
203 225 255
203 225 255
203 225 255
203 225 255
203 226 255
203 226 255
203 226 255
203 226 255
203 226 255
203 226 255
203 226 255
203 226 255
204 226 255
204 226 255
204 226 255
204 226 255
204 226 255
204 226 255
204 226 255
204 226 255
204 226 255
204 226 255
204 226 255
204 226 255
204 226 255
204 226 255
204 226 255
204 226 255
204 226 255
205 226 255
205 226 255
205 226 255
205 226 255
205 226 255
205 226 255
205 226 255
205 227 255
205 227 255
205 227 255
205 227 255
205 227 255
205 227 255
205 227 255
205 227 255
205 227 255
205 227 255
205 227 255
205 227 255
205 227 255
205 227 255
205 227 255
205 227 255
205 226 255
205 226 255
205 226 255
205 226 255
205 226 255
205 226 255
205 226 255
204 226 255
204 226 255
204 226 255
204 226 255
204 226 255
204 226 255
204 226 255
204 226 255
204 226 255
204 226 255
204 226 255
204 226 255
204 226 255
204 226 255
204 226 255
204 226 255
204 226 255
204 226 255
203 226 255
203 226 255
203 226 255
203 226 255
203 226 255
203 226 255
203 226 255
203 225 255
203 225 255
203 225 255
203 225 255
203 225 255
203 225 255
203 225 255
203 225 255
203 225 255
202 225 255
202 225 255
202 225 255
202 225 255
202 225 255
202 225 255
202 225 255
202 225 255
202 225 255
202 225 255
202 225 255
202 225 255
202 225 255
202 225 255
202 225 255
201 225 255
201 225 255
201 225 255
201 225 255
201 225 255
201 224 255
201 224 255
201 224 255
201 224 255
201 224 255
201 224 255
201 224 255
201 224 255
201 224 255
201 224 255
200 224 255
200 224 255
200 224 255
200 224 255
200 224 255
200 224 255
200 224 255
200 224 255
200 224 255
200 224 255
200 224 255
200 224 255
200 224 255
200 224 255
199 224 255
199 224 255
199 224 255
199 223 255
199 223 255
199 223 255
199 223 255
199 223 255
199 223 255
199 223 255
199 223 255
199 223 255
199 223 255
199 223 255
199 223 255
198 223 255
198 223 255
198 223 255
198 223 255
198 223 255
198 223 255
198 223 255
198 223 255
198 223 255
198 223 255
198 223 255
198 223 255
198 223 255
198 223 255
197 223 255
197 222 255
197 222 255
197 222 255
197 222 255
197 222 255
197 222 255
197 222 255
197 222 255
197 222 255
197 222 255
197 222 255
197 222 255
197 222 255
197 222 255
197 222 255
196 222 255
196 222 255
196 222 255
196 222 255
196 222 255
196 222 255
196 222 255
196 222 255
196 222 255
196 222 255
196 222 255
196 222 255
196 222 255
196 222 255
196 222 255
196 222 255
196 222 255
196 222 255
196 221 255
196 221 255
195 221 255
195 221 255
195 221 255
195 221 255
195 221 255
195 221 255
195 221 255
195 221 255
195 221 255
195 221 255
195 221 255
195 221 255
195 221 255
195 221 255
195 221 255
195 221 255
195 221 255
195 221 255
195 221 255
195 221 255
195 221 255
195 221 255
195 221 255
195 221 255
195 221 255
195 221 255
195 221 255
195 221 255
195 221 255
195 221 255
195 221 255
195 221 255
195 221 255
195 221 255
195 221 255
195 221 255
195 221 255
195 221 255
195 221 255
195 221 255
195 221 255
195 221 255
195 221 255
195 221 255
195 221 255
195 221 255
195 221 255
195 221 255
195 221 255
195 221 255
195 221 255
195 221 255
195 221 255
195 221 255
195 221 255
195 221 255
195 221 255
195 221 255
195 221 255
195 221 255
195 221 255
195 221 255
195 221 255
195 221 255
195 221 255
195 221 255
195 221 255
195 221 255
195 221 255
195 221 255
195 221 255
195 221 255
195 221 255
195 221 255
195 221 255
195 221 255
195 221 255
195 221 255
195 221 255
195 221 255
195 221 255
195 221 255
196 221 255
196 221 255
196 222 255
196 222 255
196 222 255
196 222 255
196 222 255
196 222 255
196 222 255
196 222 255
196 222 255
196 222 255
196 222 255
196 222 255
196 222 255
196 222 255
196 222 255
196 222 255
196 222 255
196 222 255
197 222 255
197 222 255
197 222 255
197 222 255
197 222 255
197 222 255
197 222 255
197 222 255
197 222 255
197 222 255
197 222 255
197 222 255
197 222 255
197 222 255
197 222 255
198 223 255
198 223 255
198 223 255
198 223 255
198 223 255
198 223 255
198 223 255
198 223 255
198 223 255
198 223 255
198 223 255
198 223 255
198 223 255
198 223 255
198 223 255
199 223 255
199 223 255
199 223 255
199 223 255
199 223 255
199 223 255
199 223 255
199 223 255
199 223 255
199 223 255
199 223 255
199 223 255
199 224 255
199 224 255
199 224 255
200 224 255
200 224 255
200 224 255
200 224 255
200 224 255
200 224 255
200 224 255
200 224 255
200 224 255
200 224 255
200 224 255
200 224 255
200 224 255
200 224 255
201 224 255
201 224 255
201 224 255
201 224 255
201 224 255
201 224 255
201 224 255
201 224 255
201 224 255
201 224 255
201 225 255
201 225 255
201 225 255
201 225 255
201 225 255
202 225 255
202 225 255
202 225 255
202 225 255
202 225 255
202 225 255
202 225 255
202 225 255
202 225 255
202 225 255
202 225 255
202 225 255
202 225 255
202 225 255
202 225 255
203 225 255
203 225 255
203 225 255
203 225 255
203 225 255
203 225 255
203 225 255
203 225 255
203 225 255
203 226 255
203 226 255
203 226 255
203 226 255
203 226 255
203 226 255
203 226 255
204 226 255
204 226 255
204 226 255
204 226 255
204 226 255
204 226 255
204 226 255
204 226 255
204 226 255
204 226 255
204 226 255
204 226 255
204 226 255
204 226 255
204 226 255
204 226 255
204 226 255
204 226 255
205 226 255
205 226 255
205 226 255
205 226 255
205 226 255
205 226 255
205 226 255
205 227 255
205 227 255
205 227 255
205 227 255
205 227 255
205 227 255
205 227 255
205 227 255
205 227 255
205 227 255
205 227 255
205 227 255
205 227 255
205 227 255
205 227 255
205 227 255
205 227 255
205 227 255
205 227 255
205 227 255
205 226 255
205 226 255
205 226 255
205 226 255
205 226 255
205 226 255
205 226 255
205 226 255
204 226 255
204 226 255
204 226 255
204 226 255
204 226 255
204 226 255
204 226 255
204 226 255
204 226 255
204 226 255
204 226 255
204 226 255
204 226 255
204 226 255
204 226 255
204 226 255
204 226 255
203 226 255
203 226 255
203 226 255
203 226 255
203 226 255
203 226 255
203 226 255
203 225 255
203 225 255
203 225 255
203 225 255
203 225 255
203 225 255
203 225 255
203 225 255
203 225 255
202 225 255
202 225 255
202 225 255
202 225 255
202 225 255
202 225 255
202 225 255
202 225 255
202 225 255
202 225 255
202 225 255
202 225 255
202 225 255
202 225 255
202 225 255
201 225 255
201 225 255
201 225 255
201 225 255
201 225 255
201 224 255
201 224 255
201 224 255
201 224 255
201 224 255
201 224 255
201 224 255
201 224 255
201 224 255
201 224 255
200 224 255
200 224 255
200 224 255
200 224 255
200 224 255
200 224 255
200 224 255
200 224 255
200 224 255
200 224 255
200 224 255
200 224 255
200 224 255
200 224 255
199 224 255
199 224 255
199 224 255
199 223 255
199 223 255
199 223 255
199 223 255
199 223 255
199 223 255
199 223 255
199 223 255
199 223 255
199 223 255
199 223 255
199 223 255
198 223 255
198 223 255
198 223 255
198 223 255
198 223 255
198 223 255
198 223 255
198 223 255
198 223 255
198 223 255
198 223 255
198 223 255
198 223 255
198 223 255
198 223 255
197 222 255
197 222 255
197 222 255
197 222 255
197 222 255
197 222 255
197 222 255
197 222 255
197 222 255
197 222 255
197 222 255
197 222 255
197 222 255
197 222 255
197 222 255
197 222 255
196 222 255
196 222 255
196 222 255
196 222 255
196 222 255
196 222 255
196 222 255
196 222 255
196 222 255
196 222 255
196 222 255
196 222 255
196 222 255
196 222 255
196 222 255
196 222 255
196 222 255
196 222 255
196 221 255
196 221 255
195 221 255
195 221 255
195 221 255
195 221 255
195 221 255
195 221 255
195 221 255
195 221 255
195 221 255
195 221 255
195 221 255
195 221 255
195 221 255
195 221 255
195 221 255
195 221 255
195 221 255
195 221 255
195 221 255
195 221 255
195 221 255
195 221 255
195 221 255
195 221 255
195 221 255
195 221 255
195 221 255
195 221 255
195 221 255
195 221 255
195 221 255
195 221 255
195 221 255
195 221 255
195 221 255
195 221 255
195 221 255
195 221 255
195 221 255
195 221 255
195 221 255
195 221 255
195 221 255
195 221 255
195 221 255
195 221 255
195 221 255
195 221 255
195 221 255
195 221 255
195 221 255
195 221 255
195 221 255
195 221 255
195 221 255
195 221 255
195 221 255
195 221 255
195 221 255
195 221 255
195 221 255
195 221 255
195 221 255
195 221 255
195 221 255
195 221 255
195 221 255
195 221 255
195 221 255
195 221 255
195 221 255
195 221 255
195 221 255
195 221 255
195 221 255
195 221 255
196 221 255
196 221 255
196 222 255
196 222 255
196 222 255
196 222 255
196 222 255
196 222 255
196 222 255
196 222 255
196 222 255
196 222 255
196 222 255
196 222 255
196 222 255
196 222 255
196 222 255
196 222 255
196 222 255
196 222 255
197 222 255
197 222 255
197 222 255
197 222 255
197 222 255
197 222 255
197 222 255
197 222 255
197 222 255
197 222 255
197 222 255
197 222 255
197 222 255
197 222 255
197 222 255
197 222 255
198 223 255
198 223 255
198 223 255
198 223 255
198 223 255
198 223 255
198 223 255
198 223 255
198 223 255
198 223 255
198 223 255
198 223 255
198 223 255
198 223 255
198 223 255
199 223 255
199 223 255
199 223 255
199 223 255
199 223 255
199 223 255
199 223 255
199 223 255
199 223 255
199 223 255
199 223 255
199 223 255
199 224 255
199 224 255
199 224 255
200 224 255
200 224 255
200 224 255
200 224 255
200 224 255
200 224 255
200 224 255
200 224 255
200 224 255
200 224 255
200 224 255
200 224 255
200 224 255
200 224 255
201 224 255
201 224 255
201 224 255
201 224 255
201 224 255
201 224 255
201 224 255
201 224 255
201 224 255
201 224 255
201 225 255
201 225 255
201 225 255
201 225 255
201 225 255
202 225 255
202 225 255
202 225 255
202 225 255
202 225 255
202 225 255
202 225 255
202 225 255
202 225 255
202 225 255
202 225 255
202 225 255
202 225 255
202 225 255
202 225 255
203 225 255
203 225 255
203 225 255
203 225 255
203 225 255
203 225 255
203 225 255
203 225 255
203 225 255
203 226 255
203 226 255
203 226 255
203 226 255
203 226 255
203 226 255
203 226 255
204 226 255
204 226 255
204 226 255
204 226 255
204 226 255
204 226 255
204 226 255
204 226 255
204 226 255
204 226 255
204 226 255
204 226 255
204 226 255
204 226 255
204 226 255
204 226 255
204 226 255
205 226 255
205 226 255
205 226 255
205 226 255
205 226 255
205 226 255
205 226 255
205 227 255
205 227 255
205 227 255
205 227 255
205 227 255
205 227 255
205 227 255
205 227 255
205 227 255
205 227 255
205 227 255
205 227 255
206 227 255
206 227 255
206 227 255
205 227 255
205 227 255
205 227 255
205 227 255
205 227 255
205 227 255
205 227 255
205 227 255
205 227 255
205 227 255
205 227 255
205 226 255
205 226 255
205 226 255
205 226 255
205 226 255
205 226 255
205 226 255
204 226 255
204 226 255
204 226 255
204 226 255
204 226 255
204 226 255
204 226 255
204 226 255
204 226 255
204 226 255
204 226 255
204 226 255
204 226 255
204 226 255
204 226 255
204 226 255
204 226 255
203 226 255
203 226 255
203 226 255
203 226 255
203 226 255
203 226 255
203 226 255
203 226 255
203 225 255
203 225 255
203 225 255
203 225 255
203 225 255
203 225 255
203 225 255
203 225 255
202 225 255
202 225 255
202 225 255
202 225 255
202 225 255
202 225 255
202 225 255
202 225 255
202 225 255
202 225 255
202 225 255
202 225 255
202 225 255
202 225 255
202 225 255
202 225 255
201 225 255
201 225 255
201 225 255
201 225 255
201 224 255
201 224 255
201 224 255
201 224 255
201 224 255
201 224 255
201 224 255
201 224 255
201 224 255
201 224 255
200 224 255
200 224 255
200 224 255
200 224 255
200 224 255
200 224 255
200 224 255
200 224 255
200 224 255
200 224 255
200 224 255
200 224 255
200 224 255
200 224 255
200 224 255
199 224 255
199 224 255
199 223 255
199 223 255
199 223 255
199 223 255
199 223 255
199 223 255
199 223 255
199 223 255
199 223 255
199 223 255
199 223 255
199 223 255
198 223 255
198 223 255
198 223 255
198 223 255
198 223 255
198 223 255
198 223 255
198 223 255
198 223 255
198 223 255
198 223 255
198 223 255
198 223 255
198 223 255
198 223 255
197 223 255
197 222 255
197 222 255
197 222 255
197 222 255
197 222 255
197 222 255
197 222 255
197 222 255
197 222 255
197 222 255
197 222 255
197 222 255
197 222 255
197 222 255
197 222 255
197 222 255
196 222 255
196 222 255
196 222 255
196 222 255
196 222 255
196 222 255
196 222 255
196 222 255
196 222 255
196 222 255
196 222 255
196 222 255
196 222 255
196 222 255
196 222 255
196 222 255
196 222 255
196 222 255
196 221 255
196 221 255
196 221 255
195 221 255
195 221 255
195 221 255
195 221 255
195 221 255
195 221 255
195 221 255
195 221 255
195 221 255
195 221 255
195 221 255
195 221 255
195 221 255
195 221 255
195 221 255
195 221 255
195 221 255
195 221 255
195 221 255
195 221 255
195 221 255
195 221 255
195 221 255
195 221 255
195 221 255
195 221 255
195 221 255
195 221 255
195 221 255
195 221 255
195 221 255
195 221 255
195 221 255
195 221 255
195 221 255
195 221 255
195 221 255
195 221 255
195 221 255
195 221 255
195 221 255
195 221 255
195 221 255
195 221 255
195 221 255
195 221 255
195 221 255
195 221 255
195 221 255
195 221 255
195 221 255
195 221 255
195 221 255
195 221 255
195 221 255
195 221 255
195 221 255
195 221 255
195 221 255
195 221 255
195 221 255
195 221 255
195 221 255
195 221 255
195 221 255
195 221 255
195 221 255
195 221 255
196 221 255
196 221 255
196 222 255
196 222 255
196 222 255
196 222 255
196 222 255
196 222 255
196 222 255
196 222 255
196 222 255
196 222 255
196 222 255
196 222 255
196 222 255
196 222 255
196 222 255
196 222 255
196 222 255
196 222 255
196 222 255
197 222 255
197 222 255
197 222 255
197 222 255
197 222 255
197 222 255
197 222 255
197 222 255
197 222 255
197 222 255
197 222 255
197 222 255
197 222 255
197 222 255
197 222 255
197 222 255
197 223 255
198 223 255
198 223 255
198 223 255
198 223 255
198 223 255
198 223 255
198 223 255
198 223 255
198 223 255
198 223 255
198 223 255
198 223 255
198 223 255
198 223 255
198 223 255
199 223 255
199 223 255
199 223 255
199 223 255
199 223 255
199 223 255
199 223 255
199 223 255
199 223 255
199 223 255
199 223 255
199 223 255
199 224 255
199 224 255
200 224 255
200 224 255
200 224 255
200 224 255
200 224 255
200 224 255
200 224 255
200 224 255
200 224 255
200 224 255
200 224 255
200 224 255
200 224 255
200 224 255
200 224 255
201 224 255
201 224 255
201 224 255
201 224 255
201 224 255
201 224 255
201 224 255
201 224 255
201 224 255
201 224 255
201 225 255
201 225 255
201 225 255
201 225 255
202 225 255
202 225 255
202 225 255
202 225 255
202 225 255
202 225 255
202 225 255
202 225 255
202 225 255
202 225 255
202 225 255
202 225 255
202 225 255
202 225 255
202 225 255
202 225 255
203 225 255
203 225 255
203 225 255
203 225 255
203 225 255
203 225 255
203 225 255
203 225 255
203 225 255
203 226 255
203 226 255
203 226 255
203 226 255
203 226 255
203 226 255
203 226 255
204 226 255
204 226 255
204 226 255
204 226 255
204 226 255
204 226 255
204 226 255
204 226 255
204 226 255
204 226 255
204 226 255
204 226 255
204 226 255
204 226 255
204 226 255
204 226 255
204 226 255
205 226 255
205 226 255
205 226 255
205 226 255
205 226 255
205 226 255
205 226 255
205 227 255
205 227 255
205 227 255
205 227 255
205 227 255
205 227 255
205 227 255
205 227 255
205 227 255
205 227 255
205 227 255
206 227 255
206 227 255
206 227 255
206 227 255
206 227 255
206 227 255
206 227 255
206 227 255
205 227 255
205 227 255
205 227 255
205 227 255
205 227 255
205 227 255
205 227 255
205 227 255
205 227 255
205 227 255
205 227 255
205 227 255
205 226 255
205 226 255
205 226 255
205 226 255
205 226 255
205 226 255
205 226 255
204 226 255
204 226 255
204 226 255
204 226 255
204 226 255
204 226 255
204 226 255
204 226 255
204 226 255
204 226 255
204 226 255
204 226 255
204 226 255
204 226 255
204 226 255
204 226 255
204 226 255
203 226 255
203 226 255
203 226 255
203 226 255
203 226 255
203 226 255
203 226 255
203 225 255
203 225 255
203 225 255
203 225 255
203 225 255
203 225 255
203 225 255
203 225 255
203 225 255
202 225 255
202 225 255
202 225 255
202 225 255
202 225 255
202 225 255
202 225 255
202 225 255
202 225 255
202 225 255
202 225 255
202 225 255
202 225 255
202 225 255
202 225 255
201 225 255
201 225 255
201 225 255
201 225 255
201 224 255
201 224 255
201 224 255
201 224 255
201 224 255
201 224 255
201 224 255
201 224 255
201 224 255
201 224 255
201 224 255
200 224 255
200 224 255
200 224 255
200 224 255
200 224 255
200 224 255
200 224 255
200 224 255
200 224 255
200 224 255
200 224 255
200 224 255
200 224 255
200 224 255
199 224 255
199 224 255
199 223 255
199 223 255
199 223 255
199 223 255
199 223 255
199 223 255
199 223 255
199 223 255
199 223 255
199 223 255
199 223 255
199 223 255
198 223 255
198 223 255
198 223 255
198 223 255
198 223 255
198 223 255
198 223 255
198 223 255
198 223 255
198 223 255
198 223 255
198 223 255
198 223 255
198 223 255
198 223 255
198 223 255
197 222 255
197 222 255
197 222 255
197 222 255
197 222 255
197 222 255
197 222 255
197 222 255
197 222 255
197 222 255
197 222 255
197 222 255
197 222 255
197 222 255
197 222 255
197 222 255
197 222 255
196 222 255
196 222 255
196 222 255
196 222 255
196 222 255
196 222 255
196 222 255
196 222 255
196 222 255
196 222 255
196 222 255
196 222 255
196 222 255
196 222 255
196 222 255
196 222 255
196 222 255
196 222 255
196 222 255
196 221 255
196 221 255
196 221 255
195 221 255
195 221 255
195 221 255
195 221 255
195 221 255
195 221 255
195 221 255
195 221 255
195 221 255
195 221 255
195 221 255
195 221 255
195 221 255
195 221 255
195 221 255
195 221 255
195 221 255
195 221 255
195 221 255
195 221 255
195 221 255
195 221 255
195 221 255
195 221 255
195 221 255
195 221 255
195 221 255
195 221 255
195 221 255
195 221 255
195 221 255
195 221 255
195 221 255
195 221 255
195 221 255
195 221 255
195 221 255
195 221 255
195 221 255
195 221 255
195 221 255
195 221 255
195 221 255
195 221 255
195 221 255
195 221 255
195 221 255
195 221 255
195 221 255
195 221 255
195 221 255
195 221 255
195 221 255
195 221 255
195 221 255
195 221 255
195 221 255
195 221 255
195 221 255
195 221 255
196 221 255
196 221 255
196 222 255
196 222 255
196 222 255
196 222 255
196 222 255
196 222 255
196 222 255
196 222 255
196 222 255
196 222 255
196 222 255
196 222 255
196 222 255
196 222 255
196 222 255
196 222 255
196 222 255
196 222 255
196 222 255
196 222 255
197 222 255
197 222 255
197 222 255
197 222 255
197 222 255
197 222 255
197 222 255
197 222 255
197 222 255
197 222 255
197 222 255
197 222 255
197 222 255
197 222 255
197 222 255
197 222 255
197 222 255
198 223 255
198 223 255
198 223 255
198 223 255
198 223 255
198 223 255
198 223 255
198 223 255
198 223 255
198 223 255
198 223 255
198 223 255
198 223 255
198 223 255
198 223 255
198 223 255
199 223 255
199 223 255
199 223 255
199 223 255
199 223 255
199 223 255
199 223 255
199 223 255
199 223 255
199 223 255
199 223 255
199 223 255
199 224 255
199 224 255
200 224 255
200 224 255
200 224 255
200 224 255
200 224 255
200 224 255
200 224 255
200 224 255
200 224 255
200 224 255
200 224 255
200 224 255
200 224 255
200 224 255
201 224 255
201 224 255
201 224 255
201 224 255
201 224 255
201 224 255
201 224 255
201 224 255
201 224 255
201 224 255
201 224 255
201 225 255
201 225 255
201 225 255
201 225 255
202 225 255
202 225 255
202 225 255
202 225 255
202 225 255
202 225 255
202 225 255
202 225 255
202 225 255
202 225 255
202 225 255
202 225 255
202 225 255
202 225 255
202 225 255
203 225 255
203 225 255
203 225 255
203 225 255
203 225 255
203 225 255
203 225 255
203 225 255
203 225 255
203 226 255
203 226 255
203 226 255
203 226 255
203 226 255
203 226 255
203 226 255
204 226 255
204 226 255
204 226 255
204 226 255
204 226 255
204 226 255
204 226 255
204 226 255
204 226 255
204 226 255
204 226 255
204 226 255
204 226 255
204 226 255
204 226 255
204 226 255
204 226 255
205 226 255
205 226 255
205 226 255
205 226 255
205 226 255
205 226 255
205 226 255
205 226 255
205 227 255
205 227 255
205 227 255
205 227 255
205 227 255
205 227 255
205 227 255
205 227 255
205 227 255
205 227 255
206 227 255
206 227 255
206 227 255
206 227 255
206 227 255
206 227 255
206 227 255
206 227 255
206 227 255
206 227 255
206 227 255
206 227 255
206 227 255
206 227 255
205 227 255
205 227 255
205 227 255
205 227 255
205 227 255
205 227 255
205 227 255
205 227 255
205 227 255
205 227 255
205 227 255
205 226 255
205 226 255
205 226 255
205 226 255
205 226 255
205 226 255
205 226 255
204 226 255
204 226 255
204 226 255
204 226 255
204 226 255
204 226 255
204 226 255
204 226 255
204 226 255
204 226 255
204 226 255
204 226 255
204 226 255
204 226 255
204 226 255
204 226 255
204 226 255
203 226 255
203 226 255
203 226 255
203 226 255
203 226 255
203 226 255
203 226 255
203 225 255
203 225 255
203 225 255
203 225 255
203 225 255
203 225 255
203 225 255
203 225 255
203 225 255
202 225 255
202 225 255
202 225 255
202 225 255
202 225 255
202 225 255
202 225 255
202 225 255
202 225 255
202 225 255
202 225 255
202 225 255
202 225 255
202 225 255
202 225 255
201 225 255
201 225 255
201 225 255
201 225 255
201 224 255
201 224 255
201 224 255
201 224 255
201 224 255
201 224 255
201 224 255
201 224 255
201 224 255
201 224 255
201 224 255
200 224 255
200 224 255
200 224 255
200 224 255
200 224 255
200 224 255
200 224 255
200 224 255
200 224 255
200 224 255
200 224 255
200 224 255
200 224 255
200 224 255
199 224 255
199 224 255
199 223 255
199 223 255
199 223 255
199 223 255
199 223 255
199 223 255
199 223 255
199 223 255
199 223 255
199 223 255
199 223 255
199 223 255
199 223 255
198 223 255
198 223 255
198 223 255
198 223 255
198 223 255
198 223 255
198 223 255
198 223 255
198 223 255
198 223 255
198 223 255
198 223 255
198 223 255
198 223 255
198 223 255
197 223 255
197 222 255
197 222 255
197 222 255
197 222 255
197 222 255
197 222 255
197 222 255
197 222 255
197 222 255
197 222 255
197 222 255
197 222 255
197 222 255
197 222 255
197 222 255
197 222 255
197 222 255
196 222 255
196 222 255
196 222 255
196 222 255
196 222 255
196 222 255
196 222 255
196 222 255
196 222 255
196 222 255
196 222 255
196 222 255
196 222 255
196 222 255
196 222 255
196 222 255
196 222 255
196 222 255
196 222 255
196 222 255
196 222 255
196 221 255
196 221 255
196 221 255
195 221 255
195 221 255
195 221 255
195 221 255
195 221 255
195 221 255
195 221 255
195 221 255
195 221 255
195 221 255
195 221 255
195 221 255
195 221 255
195 221 255
195 221 255
195 221 255
195 221 255
195 221 255
195 221 255
195 221 255
195 221 255
195 221 255
195 221 255
195 221 255
195 221 255
195 221 255
195 221 255
195 221 255
195 221 255
195 221 255
195 221 255
195 221 255
195 221 255
195 221 255
195 221 255
195 221 255
195 221 255
195 221 255
195 221 255
195 221 255
195 221 255
195 221 255
195 221 255
195 221 255
195 221 255
195 221 255
195 221 255
195 221 255
195 221 255
195 221 255
196 221 255
196 221 255
196 221 255
196 222 255
196 222 255
196 222 255
196 222 255
196 222 255
196 222 255
196 222 255
196 222 255
196 222 255
196 222 255
196 222 255
196 222 255
196 222 255
196 222 255
196 222 255
196 222 255
196 222 255
196 222 255
196 222 255
196 222 255
196 222 255
197 222 255
197 222 255
197 222 255
197 222 255
197 222 255
197 222 255
197 222 255
197 222 255
197 222 255
197 222 255
197 222 255
197 222 255
197 222 255
197 222 255
197 222 255
197 222 255
197 222 255
197 223 255
198 223 255
198 223 255
198 223 255
198 223 255
198 223 255
198 223 255
198 223 255
198 223 255
198 223 255
198 223 255
198 223 255
198 223 255
198 223 255
198 223 255
198 223 255
199 223 255
199 223 255
199 223 255
199 223 255
199 223 255
199 223 255
199 223 255
199 223 255
199 223 255
199 223 255
199 223 255
199 223 255
199 223 255
199 224 255
199 224 255
200 224 255
200 224 255
200 224 255
200 224 255
200 224 255
200 224 255
200 224 255
200 224 255
200 224 255
200 224 255
200 224 255
200 224 255
200 224 255
200 224 255
201 224 255
201 224 255
201 224 255
201 224 255
201 224 255
201 224 255
201 224 255
201 224 255
201 224 255
201 224 255
201 224 255
201 225 255
201 225 255
201 225 255
201 225 255
202 225 255
202 225 255
202 225 255
202 225 255
202 225 255
202 225 255
202 225 255
202 225 255
202 225 255
202 225 255
202 225 255
202 225 255
202 225 255
202 225 255
202 225 255
203 225 255
203 225 255
203 225 255
203 225 255
203 225 255
203 225 255
203 225 255
203 225 255
203 225 255
203 226 255
203 226 255
203 226 255
203 226 255
203 226 255
203 226 255
203 226 255
204 226 255
204 226 255
204 226 255
204 226 255
204 226 255
204 226 255
204 226 255
204 226 255
204 226 255
204 226 255
204 226 255
204 226 255
204 226 255
204 226 255
204 226 255
204 226 255
204 226 255
205 226 255
205 226 255
205 226 255
205 226 255
205 226 255
205 226 255
205 226 255
205 227 255
205 227 255
205 227 255
205 227 255
205 227 255
205 227 255
205 227 255
205 227 255
205 227 255
205 227 255
205 227 255
206 227 255
206 227 255
206 227 255
206 227 255
206 227 255
206 227 255
206 227 255
206 227 255
206 227 255
206 227 255
206 227 255
206 227 255
206 227 255
206 227 255
206 227 255
206 227 255
206 227 255
206 227 255
206 227 255
205 227 255
205 227 255
205 227 255
205 227 255
205 227 255
205 227 255
205 227 255
205 227 255
205 227 255
205 227 255
205 227 255
205 226 255
205 226 255
205 226 255
205 226 255
205 226 255
205 226 255
205 226 255
204 226 255
204 226 255
204 226 255
204 226 255
204 226 255
204 226 255
204 226 255
204 226 255
204 226 255
204 226 255
204 226 255
204 226 255
204 226 255
204 226 255
204 226 255
204 226 255
203 226 255
203 226 255
203 226 255
203 226 255
203 226 255
203 226 255
203 226 255
203 225 255
203 225 255
203 225 255
203 225 255
203 225 255
203 225 255
203 225 255
203 225 255
203 225 255
202 225 255
202 225 255
202 225 255
202 225 255
202 225 255
202 225 255
202 225 255
202 225 255
202 225 255
202 225 255
202 225 255
202 225 255
202 225 255
202 225 255
202 225 255
201 225 255
201 225 255
201 225 255
201 225 255
201 225 255
201 224 255
201 224 255
201 224 255
201 224 255
201 224 255
201 224 255
201 224 255
201 224 255
201 224 255
201 224 255
200 224 255
200 224 255
200 224 255
200 224 255
200 224 255
200 224 255
200 224 255
200 224 255
200 224 255
200 224 255
200 224 255
200 224 255
200 224 255
200 224 255
199 224 255
199 224 255
199 224 255
199 223 255
199 223 255
199 223 255
199 223 255
199 223 255
199 223 255
199 223 255
199 223 255
199 223 255
199 223 255
199 223 255
199 223 255
198 223 255
198 223 255
198 223 255
198 223 255
198 223 255
198 223 255
198 223 255
198 223 255
198 223 255
198 223 255
198 223 255
198 223 255
198 223 255
198 223 255
198 223 255
198 223 255
197 222 255
197 222 255
197 222 255
197 222 255
197 222 255
197 222 255
197 222 255
197 222 255
197 222 255
197 222 255
197 222 255
197 222 255
197 222 255
197 222 255
197 222 255
197 222 255
197 222 255
197 222 255
196 222 255
196 222 255
196 222 255
196 222 255
196 222 255
196 222 255
196 222 255
196 222 255
196 222 255
196 222 255
196 222 255
196 222 255
196 222 255
196 222 255
196 222 255
196 222 255
196 222 255
196 222 255
196 222 255
196 222 255
196 222 255
196 222 255
196 222 255
196 222 255
196 221 255
196 221 255
196 221 255
195 221 255
195 221 255
195 221 255
195 221 255
195 221 255
195 221 255
195 221 255
195 221 255
195 221 255
195 221 255
195 221 255
195 221 255
195 221 255
195 221 255
195 221 255
195 221 255
195 221 255
195 221 255
195 221 255
195 221 255
195 221 255
195 221 255
195 221 255
195 221 255
195 221 255
195 221 255
195 221 255
195 221 255
195 221 255
195 221 255
195 221 255
195 221 255
195 221 255
195 221 255
195 221 255
195 221 255
195 221 255
195 221 255
196 221 255
196 221 255
196 221 255
196 221 255
196 222 255
196 222 255
196 222 255
196 222 255
196 222 255
196 222 255
196 222 255
196 222 255
196 222 255
196 222 255
196 222 255
196 222 255
196 222 255
196 222 255
196 222 255
196 222 255
196 222 255
196 222 255
196 222 255
196 222 255
196 222 255
196 222 255
196 222 255
197 222 255
197 222 255
197 222 255
197 222 255
197 222 255
197 222 255
197 222 255
197 222 255
197 222 255
197 222 255
197 222 255
197 222 255
197 222 255
197 222 255
197 222 255
197 222 255
197 222 255
197 222 255
198 223 255
198 223 255
198 223 255
198 223 255
198 223 255
198 223 255
198 223 255
198 223 255
198 223 255
198 223 255
198 223 255
198 223 255
198 223 255
198 223 255
198 223 255
198 223 255
199 223 255
199 223 255
199 223 255
199 223 255
199 223 255
199 223 255
199 223 255
199 223 255
199 223 255
199 223 255
199 223 255
199 223 255
199 224 255
199 224 255
199 224 255
200 224 255
200 224 255
200 224 255
200 224 255
200 224 255
200 224 255
200 224 255
200 224 255
200 224 255
200 224 255
200 224 255
200 224 255
200 224 255
200 224 255
201 224 255
201 224 255
201 224 255
201 224 255
201 224 255
201 224 255
201 224 255
201 224 255
201 224 255
201 224 255
201 225 255
201 225 255
201 225 255
201 225 255
201 225 255
202 225 255
202 225 255
202 225 255
202 225 255
202 225 255
202 225 255
202 225 255
202 225 255
202 225 255
202 225 255
202 225 255
202 225 255
202 225 255
202 225 255
202 225 255
203 225 255
203 225 255
203 225 255
203 225 255
203 225 255
203 225 255
203 225 255
203 225 255
203 226 255
203 226 255
203 226 255
203 226 255
203 226 255
203 226 255
203 226 255
203 226 255
204 226 255
204 226 255
204 226 255
204 226 255
204 226 255
204 226 255
204 226 255
204 226 255
204 226 255
204 226 255
204 226 255
204 226 255
204 226 255
204 226 255
204 226 255
204 226 255
205 226 255
205 226 255
205 226 255
205 226 255
205 226 255
205 226 255
205 226 255
205 227 255
205 227 255
205 227 255
205 227 255
205 227 255
205 227 255
205 227 255
205 227 255
205 227 255
205 227 255
205 227 255
206 227 255
206 227 255
206 227 255
206 227 255
206 227 255
206 227 255
206 227 255
206 227 255
206 227 255
206 227 255
206 227 255
206 227 255
206 227 255
206 227 255
206 227 255
206 227 255
206 227 255
206 227 255
206 227 255
206 227 255
206 227 255
206 227 255
206 227 255
206 227 255
205 227 255
205 227 255
205 227 255
205 227 255
205 227 255
205 227 255
205 227 255
205 227 255
205 227 255
205 227 255
205 227 255
205 226 255
205 226 255
205 226 255
205 226 255
205 226 255
205 226 255
205 226 255
204 226 255
204 226 255
204 226 255
204 226 255
204 226 255
204 226 255
204 226 255
204 226 255
204 226 255
204 226 255
204 226 255
204 226 255
204 226 255
204 226 255
204 226 255
204 226 255
204 226 255
203 226 255
203 226 255
203 226 255
203 226 255
203 226 255
203 226 255
203 226 255
203 225 255
203 225 255
203 225 255
203 225 255
203 225 255
203 225 255
203 225 255
203 225 255
203 225 255
202 225 255
202 225 255
202 225 255
202 225 255
202 225 255
202 225 255
202 225 255
202 225 255
202 225 255
202 225 255
202 225 255
202 225 255
202 225 255
202 225 255
202 225 255
201 225 255
201 225 255
201 225 255
201 225 255
201 224 255
201 224 255
201 224 255
201 224 255
201 224 255
201 224 255
201 224 255
201 224 255
201 224 255
201 224 255
200 224 255
200 224 255
200 224 255
200 224 255
200 224 255
200 224 255
200 224 255
200 224 255
200 224 255
200 224 255
200 224 255
200 224 255
200 224 255
200 224 255
200 224 255
199 224 255
199 224 255
199 223 255
199 223 255
199 223 255
199 223 255
199 223 255
199 223 255
199 223 255
199 223 255
199 223 255
199 223 255
199 223 255
199 223 255
198 223 255
198 223 255
198 223 255
198 223 255
198 223 255
198 223 255
198 223 255
198 223 255
198 223 255
198 223 255
198 223 255
198 223 255
198 223 255
198 223 255
198 223 255
198 223 255
198 223 255
197 222 255
197 222 255
197 222 255
197 222 255
197 222 255
197 222 255
197 222 255
197 222 255
197 222 255
197 222 255
197 222 255
197 222 255
197 222 255
197 222 255
197 222 255
197 222 255
197 222 255
197 222 255
196 222 255
196 222 255
196 222 255
196 222 255
196 222 255
196 222 255
196 222 255
196 222 255
196 222 255
196 222 255
196 222 255
196 222 255
196 222 255
196 222 255
196 222 255
196 222 255
196 222 255
196 222 255
196 222 255
196 222 255
196 222 255
196 222 255
196 222 255
196 222 255
196 222 255
196 222 255
196 222 255
196 221 255
196 221 255
196 221 255
196 221 255
196 221 255
196 221 255
195 221 255
195 221 255
195 221 255
195 221 255
195 221 255
195 221 255
195 221 255
195 221 255
195 221 255
195 221 255
195 221 255
195 221 255
195 221 255
195 221 255
195 221 255
195 221 255
195 221 255
195 221 255
195 221 255
195 221 255
195 221 255
196 221 255
196 221 255
196 221 255
196 221 255
196 221 255
196 222 255
196 222 255
196 222 255
196 222 255
196 222 255
196 222 255
196 222 255
196 222 255
196 222 255
196 222 255
196 222 255
196 222 255
196 222 255
196 222 255
196 222 255
196 222 255
196 222 255
196 222 255
196 222 255
196 222 255
196 222 255
196 222 255
196 222 255
196 222 255
196 222 255
196 222 255
196 222 255
197 222 255
197 222 255
197 222 255
197 222 255
197 222 255
197 222 255
197 222 255
197 222 255
197 222 255
197 222 255
197 222 255
197 222 255
197 222 255
197 222 255
197 222 255
197 222 255
197 222 255
197 222 255
197 223 255
198 223 255
198 223 255
198 223 255
198 223 255
198 223 255
198 223 255
198 223 255
198 223 255
198 223 255
198 223 255
198 223 255
198 223 255
198 223 255
198 223 255
198 223 255
198 223 255
199 223 255
199 223 255
199 223 255
199 223 255
199 223 255
199 223 255
199 223 255
199 223 255
199 223 255
199 223 255
199 223 255
199 223 255
199 224 255
199 224 255
200 224 255
200 224 255
200 224 255
200 224 255
200 224 255
200 224 255
200 224 255
200 224 255
200 224 255
200 224 255
200 224 255
200 224 255
200 224 255
200 224 255
200 224 255
201 224 255
201 224 255
201 224 255
201 224 255
201 224 255
201 224 255
201 224 255
201 224 255
201 224 255
201 224 255
201 225 255
201 225 255
201 225 255
201 225 255
202 225 255
202 225 255
202 225 255
202 225 255
202 225 255
202 225 255
202 225 255
202 225 255
202 225 255
202 225 255
202 225 255
202 225 255
202 225 255
202 225 255
202 225 255
203 225 255
203 225 255
203 225 255
203 225 255
203 225 255
203 225 255
203 225 255
203 225 255
203 225 255
203 226 255
203 226 255
203 226 255
203 226 255
203 226 255
203 226 255
203 226 255
204 226 255
204 226 255
204 226 255
204 226 255
204 226 255
204 226 255
204 226 255
204 226 255
204 226 255
204 226 255
204 226 255
204 226 255
204 226 255
204 226 255
204 226 255
204 226 255
204 226 255
205 226 255
205 226 255
205 226 255
205 226 255
205 226 255
205 226 255
205 226 255
205 227 255
205 227 255
205 227 255
205 227 255
205 227 255
205 227 255
205 227 255
205 227 255
205 227 255
205 227 255
205 227 255
206 227 255
206 227 255
206 227 255
206 227 255
206 227 255
206 227 255
206 227 255
206 227 255
206 227 255
206 227 255
206 227 255
206 227 255
206 227 255
206 227 255
206 227 255
206 227 255
206 227 255
206 227 255
206 227 255
206 227 255
206 227 255
206 227 255
206 227 255
206 227 255
206 227 255
206 227 255
206 227 255
206 227 255
206 227 255
205 227 255
205 227 255
205 227 255
205 227 255
205 227 255
205 227 255
205 227 255
205 227 255
205 227 255
205 227 255
205 227 255
205 226 255
205 226 255
205 226 255
205 226 255
205 226 255
205 226 255
205 226 255
204 226 255
204 226 255
204 226 255
204 226 255
204 226 255
204 226 255
204 226 255
204 226 255
204 226 255
204 226 255
204 226 255
204 226 255
204 226 255
204 226 255
204 226 255
204 226 255
203 226 255
203 226 255
203 226 255
203 226 255
203 226 255
203 226 255
203 226 255
203 225 255
203 225 255
203 225 255
203 225 255
203 225 255
203 225 255
203 225 255
203 225 255
203 225 255
202 225 255
202 225 255
202 225 255
202 225 255
202 225 255
202 225 255
202 225 255
202 225 255
202 225 255
202 225 255
202 225 255
202 225 255
202 225 255
202 225 255
202 225 255
201 225 255
201 225 255
201 225 255
201 225 255
201 224 255
201 224 255
201 224 255
201 224 255
201 224 255
201 224 255
201 224 255
201 224 255
201 224 255
201 224 255
200 224 255
200 224 255
200 224 255
200 224 255
200 224 255
200 224 255
200 224 255
200 224 255
200 224 255
200 224 255
200 224 255
200 224 255
200 224 255
200 224 255
200 224 255
199 224 255
199 224 255
199 223 255
199 223 255
199 223 255
199 223 255
199 223 255
199 223 255
199 223 255
199 223 255
199 223 255
199 223 255
199 223 255
199 223 255
199 223 255
198 223 255
198 223 255
198 223 255
198 223 255
198 223 255
198 223 255
198 223 255
198 223 255
198 223 255
198 223 255
198 223 255
198 223 255
198 223 255
198 223 255
198 223 255
198 223 255
197 223 255
197 222 255
197 222 255
197 222 255
197 222 255
197 222 255
197 222 255
197 222 255
197 222 255
197 222 255
197 222 255
197 222 255
197 222 255
197 222 255
197 222 255
197 222 255
197 222 255
197 222 255
197 222 255
197 222 255
196 222 255
196 222 255
196 222 255
196 222 255
196 222 255
196 222 255
196 222 255
196 222 255
196 222 255
196 222 255
196 222 255
196 222 255
196 222 255
196 222 255
196 222 255
196 222 255
196 222 255
196 222 255
196 222 255
196 222 255
196 222 255
196 222 255
196 222 255
196 222 255
196 222 255
196 222 255
196 222 255
196 222 255
196 222 255
196 222 255
196 222 255
196 222 255
196 222 255
196 222 255
196 222 255
196 222 255
196 222 255
196 222 255
196 222 255
196 222 255
196 222 255
196 222 255
196 222 255
196 222 255
196 222 255
196 222 255
196 222 255
196 222 255
196 222 255
196 222 255
196 222 255
196 222 255
196 222 255
196 222 255
196 222 255
196 222 255
196 222 255
196 222 255
196 222 255
196 222 255
196 222 255
196 222 255
196 222 255
196 222 255
196 222 255
196 222 255
196 222 255
196 222 255
196 222 255
196 222 255
196 222 255
196 222 255
196 222 255
196 222 255
196 222 255
196 222 255
196 222 255
196 222 255
197 222 255
197 222 255
197 222 255
197 222 255
197 222 255
197 222 255
197 222 255
197 222 255
197 222 255
197 222 255
197 222 255
197 222 255
197 222 255
197 222 255
197 222 255
197 222 255
197 222 255
197 222 255
197 222 255
197 223 255
198 223 255
198 223 255
198 223 255
198 223 255
198 223 255
198 223 255
198 223 255
198 223 255
198 223 255
198 223 255
198 223 255
198 223 255
198 223 255
198 223 255
198 223 255
198 223 255
199 223 255
199 223 255
199 223 255
199 223 255
199 223 255
199 223 255
199 223 255
199 223 255
199 223 255
199 223 255
199 223 255
199 223 255
199 223 255
199 224 255
199 224 255
200 224 255
200 224 255
200 224 255
200 224 255
200 224 255
200 224 255
200 224 255
200 224 255
200 224 255
200 224 255
200 224 255
200 224 255
200 224 255
200 224 255
200 224 255
201 224 255
201 224 255
201 224 255
201 224 255
201 224 255
201 224 255
201 224 255
201 224 255
201 224 255
201 224 255
201 225 255
201 225 255
201 225 255
201 225 255
202 225 255
202 225 255
202 225 255
202 225 255
202 225 255
202 225 255
202 225 255
202 225 255
202 225 255
202 225 255
202 225 255
202 225 255
202 225 255
202 225 255
202 225 255
203 225 255
203 225 255
203 225 255
203 225 255
203 225 255
203 225 255
203 225 255
203 225 255
203 225 255
203 226 255
203 226 255
203 226 255
203 226 255
203 226 255
203 226 255
203 226 255
204 226 255
204 226 255
204 226 255
204 226 255
204 226 255
204 226 255
204 226 255
204 226 255
204 226 255
204 226 255
204 226 255
204 226 255
204 226 255
204 226 255
204 226 255
204 226 255
205 226 255
205 226 255
205 226 255
205 226 255
205 226 255
205 226 255
205 226 255
205 226 255
205 227 255
205 227 255
205 227 255
205 227 255
205 227 255
205 227 255
205 227 255
205 227 255
205 227 255
205 227 255
206 227 255
206 227 255
206 227 255
206 227 255
206 227 255
206 227 255
206 227 255
206 227 255
206 227 255
206 227 255
206 227 255
206 227 255
206 227 255
206 227 255
206 227 255
206 227 255
206 227 255
206 227 255
206 227 255
206 227 255
206 227 255
206 227 255
206 227 255
206 227 255
206 227 255
206 227 255
206 227 255
206 227 255
206 227 255
206 227 255
206 227 255
206 227 255
206 227 255
206 227 255
205 227 255
205 227 255
205 227 255
205 227 255
205 227 255
205 227 255
205 227 255
205 227 255
205 227 255
205 227 255
205 227 255
205 226 255
205 226 255
205 226 255
205 226 255
205 226 255
205 226 255
205 226 255
204 226 255
204 226 255
204 226 255
204 226 255
204 226 255
204 226 255
204 226 255
204 226 255
204 226 255
204 226 255
204 226 255
204 226 255
204 226 255
204 226 255
204 226 255
204 226 255
204 226 255
203 226 255
203 226 255
203 226 255
203 226 255
203 226 255
203 226 255
203 226 255
203 225 255
203 225 255
203 225 255
203 225 255
203 225 255
203 225 255
203 225 255
203 225 255
202 225 255
202 225 255
202 225 255
202 225 255
202 225 255
202 225 255
202 225 255
202 225 255
202 225 255
202 225 255
202 225 255
202 225 255
202 225 255
202 225 255
202 225 255
201 225 255
201 225 255
201 225 255
201 225 255
201 225 255
201 224 255
201 224 255
201 224 255
201 224 255
201 224 255
201 224 255
201 224 255
201 224 255
201 224 255
201 224 255
200 224 255
200 224 255
200 224 255
200 224 255
200 224 255
200 224 255
200 224 255
200 224 255
200 224 255
200 224 255
200 224 255
200 224 255
200 224 255
200 224 255
199 224 255
199 224 255
199 224 255
199 223 255
199 223 255
199 223 255
199 223 255
199 223 255
199 223 255
199 223 255
199 223 255
199 223 255
199 223 255
199 223 255
199 223 255
199 223 255
198 223 255
198 223 255
198 223 255
198 223 255
198 223 255
198 223 255
198 223 255
198 223 255
198 223 255
198 223 255
198 223 255
198 223 255
198 223 255
198 223 255
198 223 255
198 223 255
197 223 255
197 222 255
197 222 255
197 222 255
197 222 255
197 222 255
197 222 255
197 222 255
197 222 255
197 222 255
197 222 255
197 222 255
197 222 255
197 222 255
197 222 255
197 222 255
197 222 255
197 222 255
197 222 255
197 222 255
197 222 255
196 222 255
196 222 255
196 222 255
196 222 255
196 222 255
196 222 255
196 222 255
196 222 255
196 222 255
196 222 255
196 222 255
196 222 255
196 222 255
196 222 255
196 222 255
196 222 255
196 222 255
196 222 255
196 222 255
196 222 255
196 222 255
196 222 255
196 222 255
196 222 255
196 222 255
196 222 255
196 222 255
196 222 255
196 222 255
196 222 255
196 222 255
196 222 255
196 222 255
196 222 255
196 222 255
196 222 255
196 222 255
196 222 255
196 222 255
196 222 255
196 222 255
196 222 255
196 222 255
196 222 255
196 222 255
196 222 255
196 222 255
196 222 255
196 222 255
196 222 255
196 222 255
196 222 255
196 222 255
196 222 255
196 222 255
196 222 255
196 222 255
196 222 255
196 222 255
196 222 255
196 222 255
196 222 255
196 222 255
196 222 255
196 222 255
196 222 255
196 222 255
196 222 255
196 222 255
196 222 255
197 222 255
197 222 255
197 222 255
197 222 255
197 222 255
197 222 255
197 222 255
197 222 255
197 222 255
197 222 255
197 222 255
197 222 255
197 222 255
197 222 255
197 222 255
197 222 255
197 222 255
197 222 255
197 222 255
197 222 255
197 223 255
198 223 255
198 223 255
198 223 255
198 223 255
198 223 255
198 223 255
198 223 255
198 223 255
198 223 255
198 223 255
198 223 255
198 223 255
198 223 255
198 223 255
198 223 255
198 223 255
198 223 255
199 223 255
199 223 255
199 223 255
199 223 255
199 223 255
199 223 255
199 223 255
199 223 255
199 223 255
199 223 255
199 223 255
199 223 255
199 224 255
199 224 255
199 224 255
200 224 255
200 224 255
200 224 255
200 224 255
200 224 255
200 224 255
200 224 255
200 224 255
200 224 255
200 224 255
200 224 255
200 224 255
200 224 255
200 224 255
201 224 255
201 224 255
201 224 255
201 224 255
201 224 255
201 224 255
201 224 255
201 224 255
201 224 255
201 224 255
201 225 255
201 225 255
201 225 255
201 225 255
201 225 255
202 225 255
202 225 255
202 225 255
202 225 255
202 225 255
202 225 255
202 225 255
202 225 255
202 225 255
202 225 255
202 225 255
202 225 255
202 225 255
202 225 255
202 225 255
203 225 255
203 225 255
203 225 255
203 225 255
203 225 255
203 225 255
203 225 255
203 225 255
203 226 255
203 226 255
203 226 255
203 226 255
203 226 255
203 226 255
203 226 255
204 226 255
204 226 255
204 226 255
204 226 255
204 226 255
204 226 255
204 226 255
204 226 255
204 226 255
204 226 255
204 226 255
204 226 255
204 226 255
204 226 255
204 226 255
204 226 255
204 226 255
205 226 255
205 226 255
205 226 255
205 226 255
205 226 255
205 226 255
205 226 255
205 227 255
205 227 255
205 227 255
205 227 255
205 227 255
205 227 255
205 227 255
205 227 255
205 227 255
205 227 255
205 227 255
206 227 255
206 227 255
206 227 255
206 227 255
206 227 255
206 227 255
206 227 255
206 227 255
206 227 255
206 227 255
206 227 255
206 227 255
206 227 255
206 227 255
206 227 255
206 227 255
206 227 255
206 227 255
207 227 255
207 227 255
206 227 255
206 227 255
206 227 255
206 227 255
206 227 255
206 227 255
206 227 255
206 227 255
206 227 255
206 227 255
206 227 255
206 227 255
206 227 255
206 227 255
206 227 255
206 227 255
206 227 255
206 227 255
206 227 255
205 227 255
205 227 255
205 227 255
205 227 255
205 227 255
205 227 255
205 227 255
205 227 255
205 227 255
205 227 255
205 227 255
205 226 255
205 226 255
205 226 255
205 226 255
205 226 255
205 226 255
205 226 255
204 226 255
204 226 255
204 226 255
204 226 255
204 226 255
204 226 255
204 226 255
204 226 255
204 226 255
204 226 255
204 226 255
204 226 255
204 226 255
204 226 255
204 226 255
204 226 255
203 226 255
203 226 255
203 226 255
203 226 255
203 226 255
203 226 255
203 226 255
203 225 255
203 225 255
203 225 255
203 225 255
203 225 255
203 225 255
203 225 255
203 225 255
203 225 255
202 225 255
202 225 255
202 225 255
202 225 255
202 225 255
202 225 255
202 225 255
202 225 255
202 225 255
202 225 255
202 225 255
202 225 255
202 225 255
202 225 255
202 225 255
201 225 255
201 225 255
201 225 255
201 225 255
201 224 255
201 224 255
201 224 255
201 224 255
201 224 255
201 224 255
201 224 255
201 224 255
201 224 255
201 224 255
200 224 255
200 224 255
200 224 255
200 224 255
200 224 255
200 224 255
200 224 255
200 224 255
200 224 255
200 224 255
200 224 255
200 224 255
200 224 255
200 224 255
200 224 255
199 224 255
199 224 255
199 223 255
199 223 255
199 223 255
199 223 255
199 223 255
199 223 255
199 223 255
199 223 255
199 223 255
199 223 255
199 223 255
199 223 255
199 223 255
198 223 255
198 223 255
198 223 255
198 223 255
198 223 255
198 223 255
198 223 255
198 223 255
198 223 255
198 223 255
198 223 255
198 223 255
198 223 255
198 223 255
198 223 255
198 223 255
198 223 255
197 223 255
197 222 255
197 222 255
197 222 255
197 222 255
197 222 255
197 222 255
197 222 255
197 222 255
197 222 255
197 222 255
197 222 255
197 222 255
197 222 255
197 222 255
197 222 255
197 222 255
197 222 255
197 222 255
197 222 255
197 222 255
197 222 255
196 222 255
196 222 255
196 222 255
196 222 255
196 222 255
196 222 255
196 222 255
196 222 255
196 222 255
196 222 255
196 222 255
196 222 255
196 222 255
196 222 255
196 222 255
196 222 255
196 222 255
196 222 255
196 222 255
196 222 255
196 222 255
196 222 255
196 222 255
196 222 255
196 222 255
196 222 255
196 222 255
196 222 255
196 222 255
196 222 255
196 222 255
196 222 255
196 222 255
196 222 255
196 222 255
196 222 255
196 222 255
196 222 255
196 222 255
196 222 255
196 222 255
196 222 255
196 222 255
196 222 255
196 222 255
196 222 255
196 222 255
196 222 255
196 222 255
196 222 255
196 222 255
196 222 255
196 222 255
196 222 255
196 222 255
196 222 255
196 222 255
196 222 255
196 222 255
196 222 255
196 222 255
196 222 255
197 222 255
197 222 255
197 222 255
197 222 255
197 222 255
197 222 255
197 222 255
197 222 255
197 222 255
197 222 255
197 222 255
197 222 255
197 222 255
197 222 255
197 222 255
197 222 255
197 222 255
197 222 255
197 222 255
197 222 255
197 222 255
197 223 255
198 223 255
198 223 255
198 223 255
198 223 255
198 223 255
198 223 255
198 223 255
198 223 255
198 223 255
198 223 255
198 223 255
198 223 255
198 223 255
198 223 255
198 223 255
198 223 255
198 223 255
199 223 255
199 223 255
199 223 255
199 223 255
199 223 255
199 223 255
199 223 255
199 223 255
199 223 255
199 223 255
199 223 255
199 223 255
199 223 255
199 224 255
199 224 255
200 224 255
200 224 255
200 224 255
200 224 255
200 224 255
200 224 255
200 224 255
200 224 255
200 224 255
200 224 255
200 224 255
200 224 255
200 224 255
200 224 255
200 224 255
201 224 255
201 224 255
201 224 255
201 224 255
201 224 255
201 224 255
201 224 255
201 224 255
201 224 255
201 224 255
201 225 255
201 225 255
201 225 255
201 225 255
202 225 255
202 225 255
202 225 255
202 225 255
202 225 255
202 225 255
202 225 255
202 225 255
202 225 255
202 225 255
202 225 255
202 225 255
202 225 255
202 225 255
202 225 255
203 225 255
203 225 255
203 225 255
203 225 255
203 225 255
203 225 255
203 225 255
203 225 255
203 225 255
203 226 255
203 226 255
203 226 255
203 226 255
203 226 255
203 226 255
203 226 255
204 226 255
204 226 255
204 226 255
204 226 255
204 226 255
204 226 255
204 226 255
204 226 255
204 226 255
204 226 255
204 226 255
204 226 255
204 226 255
204 226 255
204 226 255
204 226 255
205 226 255
205 226 255
205 226 255
205 226 255
205 226 255
205 226 255
205 226 255
205 227 255
205 227 255
205 227 255
205 227 255
205 227 255
205 227 255
205 227 255
205 227 255
205 227 255
205 227 255
205 227 255
206 227 255
206 227 255
206 227 255
206 227 255
206 227 255
206 227 255
206 227 255
206 227 255
206 227 255
206 227 255
206 227 255
206 227 255
206 227 255
206 227 255
206 227 255
206 227 255
206 227 255
206 227 255
206 227 255
207 227 255
207 227 255
207 227 255
207 227 255
207 227 255
207 227 255
206 227 255
206 227 255
206 227 255
206 227 255
206 227 255
206 227 255
206 227 255
206 227 255
206 227 255
206 227 255
206 227 255
206 227 255
206 227 255
206 227 255
206 227 255
206 227 255
206 227 255
206 227 255
206 227 255
206 227 255
205 227 255
205 227 255
205 227 255
205 227 255
205 227 255
205 227 255
205 227 255
205 227 255
205 227 255
205 227 255
205 226 255
205 226 255
205 226 255
205 226 255
205 226 255
205 226 255
205 226 255
204 226 255
204 226 255
204 226 255
204 226 255
204 226 255
204 226 255
204 226 255
204 226 255
204 226 255
204 226 255
204 226 255
204 226 255
204 226 255
204 226 255
204 226 255
204 226 255
204 226 255
203 226 255
203 226 255
203 226 255
203 226 255
203 226 255
203 226 255
203 226 255
203 225 255
203 225 255
203 225 255
203 225 255
203 225 255
203 225 255
203 225 255
203 225 255
202 225 255
202 225 255
202 225 255
202 225 255
202 225 255
202 225 255
202 225 255
202 225 255
202 225 255
202 225 255
202 225 255
202 225 255
202 225 255
202 225 255
202 225 255
201 225 255
201 225 255
201 225 255
201 225 255
201 224 255
201 224 255
201 224 255
201 224 255
201 224 255
201 224 255
201 224 255
201 224 255
201 224 255
201 224 255
201 224 255
200 224 255
200 224 255
200 224 255
200 224 255
200 224 255
200 224 255
200 224 255
200 224 255
200 224 255
200 224 255
200 224 255
200 224 255
200 224 255
200 224 255
199 224 255
199 224 255
199 224 255
199 223 255
199 223 255
199 223 255
199 223 255
199 223 255
199 223 255
199 223 255
199 223 255
199 223 255
199 223 255
199 223 255
199 223 255
199 223 255
198 223 255
198 223 255
198 223 255
198 223 255
198 223 255
198 223 255
198 223 255
198 223 255
198 223 255
198 223 255
198 223 255
198 223 255
198 223 255
198 223 255
198 223 255
198 223 255
198 223 255
197 223 255
197 222 255
197 222 255
197 222 255
197 222 255
197 222 255
197 222 255
197 222 255
197 222 255
197 222 255
197 222 255
197 222 255
197 222 255
197 222 255
197 222 255
197 222 255
197 222 255
197 222 255
197 222 255
197 222 255
197 222 255
197 222 255
197 222 255
197 222 255
196 222 255
196 222 255
196 222 255
196 222 255
196 222 255
196 222 255
196 222 255
196 222 255
196 222 255
196 222 255
196 222 255
196 222 255
196 222 255
196 222 255
196 222 255
196 222 255
196 222 255
196 222 255
196 222 255
196 222 255
196 222 255
196 222 255
196 222 255
196 222 255
196 222 255
196 222 255
196 222 255
196 222 255
196 222 255
196 222 255
196 222 255
196 222 255
196 222 255
196 222 255
196 222 255
196 222 255
196 222 255
196 222 255
196 222 255
196 222 255
196 222 255
196 222 255
196 222 255
196 222 255
196 222 255
196 222 255
196 222 255
196 222 255
196 222 255
196 222 255
196 222 255
196 222 255
197 222 255
197 222 255
197 222 255
197 222 255
197 222 255
197 222 255
197 222 255
197 222 255
197 222 255
197 222 255
197 222 255
197 222 255
197 222 255
197 222 255
197 222 255
197 222 255
197 222 255
197 222 255
197 222 255
197 222 255
197 222 255
197 222 255
197 222 255
197 223 255
198 223 255
198 223 255
198 223 255
198 223 255
198 223 255
198 223 255
198 223 255
198 223 255
198 223 255
198 223 255
198 223 255
198 223 255
198 223 255
198 223 255
198 223 255
198 223 255
198 223 255
199 223 255
199 223 255
199 223 255
199 223 255
199 223 255
199 223 255
199 223 255
199 223 255
199 223 255
199 223 255
199 223 255
199 223 255
199 223 255
199 224 255
199 224 255
199 224 255
200 224 255
200 224 255
200 224 255
200 224 255
200 224 255
200 224 255
200 224 255
200 224 255
200 224 255
200 224 255
200 224 255
200 224 255
200 224 255
200 224 255
201 224 255
201 224 255
201 224 255
201 224 255
201 224 255
201 224 255
201 224 255
201 224 255
201 224 255
201 224 255
201 224 255
201 225 255
201 225 255
201 225 255
201 225 255
202 225 255
202 225 255
202 225 255
202 225 255
202 225 255
202 225 255
202 225 255
202 225 255
202 225 255
202 225 255
202 225 255
202 225 255
202 225 255
202 225 255
202 225 255
203 225 255
203 225 255
203 225 255
203 225 255
203 225 255
203 225 255
203 225 255
203 225 255
203 226 255
203 226 255
203 226 255
203 226 255
203 226 255
203 226 255
203 226 255
204 226 255
204 226 255
204 226 255
204 226 255
204 226 255
204 226 255
204 226 255
204 226 255
204 226 255
204 226 255
204 226 255
204 226 255
204 226 255
204 226 255
204 226 255
204 226 255
204 226 255
205 226 255
205 226 255
205 226 255
205 226 255
205 226 255
205 226 255
205 226 255
205 227 255
205 227 255
205 227 255
205 227 255
205 227 255
205 227 255
205 227 255
205 227 255
205 227 255
205 227 255
206 227 255
206 227 255
206 227 255
206 227 255
206 227 255
206 227 255
206 227 255
206 227 255
206 227 255
206 227 255
206 227 255
206 227 255
206 227 255
206 227 255
206 227 255
206 227 255
206 227 255
206 227 255
206 227 255
206 227 255
207 227 255
207 227 255
207 227 255
207 227 255
207 228 255
207 228 255
207 227 255
207 227 255
207 227 255
207 227 255
207 227 255
206 227 255
206 227 255
206 227 255
206 227 255
206 227 255
206 227 255
206 227 255
206 227 255
206 227 255
206 227 255
206 227 255
206 227 255
206 227 255
206 227 255
206 227 255
206 227 255
206 227 255
206 227 255
206 227 255
205 227 255
205 227 255
205 227 255
205 227 255
205 227 255
205 227 255
205 227 255
205 227 255
205 227 255
205 227 255
205 227 255
205 226 255
205 226 255
205 226 255
205 226 255
205 226 255
205 226 255
205 226 255
204 226 255
204 226 255
204 226 255
204 226 255
204 226 255
204 226 255
204 226 255
204 226 255
204 226 255
204 226 255
204 226 255
204 226 255
204 226 255
204 226 255
204 226 255
204 226 255
203 226 255
203 226 255
203 226 255
203 226 255
203 226 255
203 226 255
203 226 255
203 225 255
203 225 255
203 225 255
203 225 255
203 225 255
203 225 255
203 225 255
203 225 255
202 225 255
202 225 255
202 225 255
202 225 255
202 225 255
202 225 255
202 225 255
202 225 255
202 225 255
202 225 255
202 225 255
202 225 255
202 225 255
202 225 255
202 225 255
201 225 255
201 225 255
201 225 255
201 225 255
201 225 255
201 224 255
201 224 255
201 224 255
201 224 255
201 224 255
201 224 255
201 224 255
201 224 255
201 224 255
201 224 255
200 224 255
200 224 255
200 224 255
200 224 255
200 224 255
200 224 255
200 224 255
200 224 255
200 224 255
200 224 255
200 224 255
200 224 255
200 224 255
200 224 255
200 224 255
199 224 255
199 224 255
199 223 255
199 223 255
199 223 255
199 223 255
199 223 255
199 223 255
199 223 255
199 223 255
199 223 255
199 223 255
199 223 255
199 223 255
199 223 255
199 223 255
198 223 255
198 223 255
198 223 255
198 223 255
198 223 255
198 223 255
198 223 255
198 223 255
198 223 255
198 223 255
198 223 255
198 223 255
198 223 255
198 223 255
198 223 255
198 223 255
198 223 255
198 223 255
197 222 255
197 222 255
197 222 255
197 222 255
197 222 255
197 222 255
197 222 255
197 222 255
197 222 255
197 222 255
197 222 255
197 222 255
197 222 255
197 222 255
197 222 255
197 222 255
197 222 255
197 222 255
197 222 255
197 222 255
197 222 255
197 222 255
197 222 255
197 222 255
197 222 255
197 222 255
197 222 255
196 222 255
196 222 255
196 222 255
196 222 255
196 222 255
196 222 255
196 222 255
196 222 255
196 222 255
196 222 255
196 222 255
196 222 255
196 222 255
196 222 255
196 222 255
196 222 255
196 222 255
196 222 255
196 222 255
196 222 255
196 222 255
196 222 255
196 222 255
196 222 255
196 222 255
196 222 255
196 222 255
196 222 255
196 222 255
196 222 255
196 222 255
196 222 255
196 222 255
196 222 255
196 222 255
196 222 255
196 222 255
196 222 255
196 222 255
197 222 255
197 222 255
197 222 255
197 222 255
197 222 255
197 222 255
197 222 255
197 222 255
197 222 255
197 222 255
197 222 255
197 222 255
197 222 255
197 222 255
197 222 255
197 222 255
197 222 255
197 222 255
197 222 255
197 222 255
197 222 255
197 222 255
197 222 255
197 222 255
197 222 255
197 222 255
198 223 255
198 223 255
198 223 255
198 223 255
198 223 255
198 223 255
198 223 255
198 223 255
198 223 255
198 223 255
198 223 255
198 223 255
198 223 255
198 223 255
198 223 255
198 223 255
198 223 255
198 223 255
199 223 255
199 223 255
199 223 255
199 223 255
199 223 255
199 223 255
199 223 255
199 223 255
199 223 255
199 223 255
199 223 255
199 223 255
199 223 255
199 223 255
199 224 255
199 224 255
200 224 255
200 224 255
200 224 255
200 224 255
200 224 255
200 224 255
200 224 255
200 224 255
200 224 255
200 224 255
200 224 255
200 224 255
200 224 255
200 224 255
200 224 255
201 224 255
201 224 255
201 224 255
201 224 255
201 224 255
201 224 255
201 224 255
201 224 255
201 224 255
201 224 255
201 225 255
201 225 255
201 225 255
201 225 255
201 225 255
202 225 255
202 225 255
202 225 255
202 225 255
202 225 255
202 225 255
202 225 255
202 225 255
202 225 255
202 225 255
202 225 255
202 225 255
202 225 255
202 225 255
202 225 255
203 225 255
203 225 255
203 225 255
203 225 255
203 225 255
203 225 255
203 225 255
203 225 255
203 226 255
203 226 255
203 226 255
203 226 255
203 226 255
203 226 255
203 226 255
204 226 255
204 226 255
204 226 255
204 226 255
204 226 255
204 226 255
204 226 255
204 226 255
204 226 255
204 226 255
204 226 255
204 226 255
204 226 255
204 226 255
204 226 255
204 226 255
205 226 255
205 226 255
205 226 255
205 226 255
205 226 255
205 226 255
205 226 255
205 227 255
205 227 255
205 227 255
205 227 255
205 227 255
205 227 255
205 227 255
205 227 255
205 227 255
205 227 255
205 227 255
206 227 255
206 227 255
206 227 255
206 227 255
206 227 255
206 227 255
206 227 255
206 227 255
206 227 255
206 227 255
206 227 255
206 227 255
206 227 255
206 227 255
206 227 255
206 227 255
206 227 255
206 227 255
206 227 255
207 227 255
207 227 255
207 227 255
207 227 255
207 227 255
207 228 255
207 228 255
207 228 255
207 228 255
207 228 255
207 228 255
207 228 255
207 227 255
207 227 255
207 227 255
207 227 255
207 227 255
206 227 255
206 227 255
206 227 255
206 227 255
206 227 255
206 227 255
206 227 255
206 227 255
206 227 255
206 227 255
206 227 255
206 227 255
206 227 255
206 227 255
206 227 255
206 227 255
206 227 255
206 227 255
206 227 255
205 227 255
205 227 255
205 227 255
205 227 255
205 227 255
205 227 255
205 227 255
205 227 255
205 227 255
205 227 255
205 226 255
205 226 255
205 226 255
205 226 255
205 226 255
205 226 255
205 226 255
204 226 255
204 226 255
204 226 255
204 226 255
204 226 255
204 226 255
204 226 255
204 226 255
204 226 255
204 226 255
204 226 255
204 226 255
204 226 255
204 226 255
204 226 255
204 226 255
204 226 255
203 226 255
203 226 255
203 226 255
203 226 255
203 226 255
203 226 255
203 225 255
203 225 255
203 225 255
203 225 255
203 225 255
203 225 255
203 225 255
203 225 255
203 225 255
202 225 255
202 225 255
202 225 255
202 225 255
202 225 255
202 225 255
202 225 255
202 225 255
202 225 255
202 225 255
202 225 255
202 225 255
202 225 255
202 225 255
202 225 255
201 225 255
201 225 255
201 225 255
201 225 255
201 224 255
201 224 255
201 224 255
201 224 255
201 224 255
201 224 255
201 224 255
201 224 255
201 224 255
201 224 255
200 224 255
200 224 255
200 224 255
200 224 255
200 224 255
200 224 255
200 224 255
200 224 255
200 224 255
200 224 255
200 224 255
200 224 255
200 224 255
200 224 255
200 224 255
200 224 255
199 224 255
199 224 255
199 223 255
199 223 255
199 223 255
199 223 255
199 223 255
199 223 255
199 223 255
199 223 255
199 223 255
199 223 255
199 223 255
199 223 255
199 223 255
198 223 255
198 223 255
198 223 255
198 223 255
198 223 255
198 223 255
198 223 255
198 223 255
198 223 255
198 223 255
198 223 255
198 223 255
198 223 255
198 223 255
198 223 255
198 223 255
198 223 255
198 223 255
198 223 255
197 223 255
197 222 255
197 222 255
197 222 255
197 222 255
197 222 255
197 222 255
197 222 255
197 222 255
197 222 255
197 222 255
197 222 255
197 222 255
197 222 255
197 222 255
197 222 255
197 222 255
197 222 255
197 222 255
197 222 255
197 222 255
197 222 255
197 222 255
197 222 255
197 222 255
197 222 255
197 222 255
197 222 255
197 222 255
197 222 255
197 222 255
197 222 255
196 222 255
196 222 255
196 222 255
196 222 255
196 222 255
196 222 255
196 222 255
196 222 255
196 222 255
196 222 255
196 222 255
196 222 255
196 222 255
196 222 255
196 222 255
196 222 255
196 222 255
196 222 255
196 222 255
196 222 255
196 222 255
197 222 255
197 222 255
197 222 255
197 222 255
197 222 255
197 222 255
197 222 255
197 222 255
197 222 255
197 222 255
197 222 255
197 222 255
197 222 255
197 222 255
197 222 255
197 222 255
197 222 255
197 222 255
197 222 255
197 222 255
197 222 255
197 222 255
197 222 255
197 222 255
197 222 255
197 222 255
197 222 255
197 222 255
197 222 255
197 222 255
197 222 255
197 222 255
197 223 255
198 223 255
198 223 255
198 223 255
198 223 255
198 223 255
198 223 255
198 223 255
198 223 255
198 223 255
198 223 255
198 223 255
198 223 255
198 223 255
198 223 255
198 223 255
198 223 255
198 223 255
198 223 255
198 223 255
199 223 255
199 223 255
199 223 255
199 223 255
199 223 255
199 223 255
199 223 255
199 223 255
199 223 255
199 223 255
199 223 255
199 223 255
199 223 255
199 224 255
199 224 255
199 224 255
200 224 255
200 224 255
200 224 255
200 224 255
200 224 255
200 224 255
200 224 255
200 224 255
200 224 255
200 224 255
200 224 255
200 224 255
200 224 255
200 224 255
201 224 255
201 224 255
201 224 255
201 224 255
201 224 255
201 224 255
201 224 255
201 224 255
201 224 255
201 224 255
201 224 255
201 225 255
201 225 255
201 225 255
201 225 255
202 225 255
202 225 255
202 225 255
202 225 255
202 225 255
202 225 255
202 225 255
202 225 255
202 225 255
202 225 255
202 225 255
202 225 255
202 225 255
202 225 255
202 225 255
203 225 255
203 225 255
203 225 255
203 225 255
203 225 255
203 225 255
203 225 255
203 225 255
203 225 255
203 226 255
203 226 255
203 226 255
203 226 255
203 226 255
203 226 255
204 226 255
204 226 255
204 226 255
204 226 255
204 226 255
204 226 255
204 226 255
204 226 255
204 226 255
204 226 255
204 226 255
204 226 255
204 226 255
204 226 255
204 226 255
204 226 255
204 226 255
205 226 255
205 226 255
205 226 255
205 226 255
205 226 255
205 226 255
205 226 255
205 227 255
205 227 255
205 227 255
205 227 255
205 227 255
205 227 255
205 227 255
205 227 255
205 227 255
205 227 255
206 227 255
206 227 255
206 227 255
206 227 255
206 227 255
206 227 255
206 227 255
206 227 255
206 227 255
206 227 255
206 227 255
206 227 255
206 227 255
206 227 255
206 227 255
206 227 255
206 227 255
206 227 255
206 227 255
207 227 255
207 227 255
207 227 255
207 227 255
207 227 255
207 228 255
207 228 255
207 228 255
207 228 255
207 228 255
207 228 255
207 228 255
207 228 255
207 228 255
207 228 255
207 228 255
207 228 255
207 228 255
207 227 255
207 227 255
207 227 255
207 227 255
207 227 255
206 227 255
206 227 255
206 227 255
206 227 255
206 227 255
206 227 255
206 227 255
206 227 255
206 227 255
206 227 255
206 227 255
206 227 255
206 227 255
206 227 255
206 227 255
206 227 255
206 227 255
206 227 255
206 227 255
205 227 255
205 227 255
205 227 255
205 227 255
205 227 255
205 227 255
205 227 255
205 227 255
205 227 255
205 227 255
205 226 255
205 226 255
205 226 255
205 226 255
205 226 255
205 226 255
205 226 255
204 226 255
204 226 255
204 226 255
204 226 255
204 226 255
204 226 255
204 226 255
204 226 255
204 226 255
204 226 255
204 226 255
204 226 255
204 226 255
204 226 255
204 226 255
204 226 255
203 226 255
203 226 255
203 226 255
203 226 255
203 226 255
203 226 255
203 226 255
203 225 255
203 225 255
203 225 255
203 225 255
203 225 255
203 225 255
203 225 255
203 225 255
202 225 255
202 225 255
202 225 255
202 225 255
202 225 255
202 225 255
202 225 255
202 225 255
202 225 255
202 225 255
202 225 255
202 225 255
202 225 255
202 225 255
202 225 255
201 225 255
201 225 255
201 225 255
201 225 255
201 225 255
201 224 255
201 224 255
201 224 255
201 224 255
201 224 255
201 224 255
201 224 255
201 224 255
201 224 255
201 224 255
200 224 255
200 224 255
200 224 255
200 224 255
200 224 255
200 224 255
200 224 255
200 224 255
200 224 255
200 224 255
200 224 255
200 224 255
200 224 255
200 224 255
200 224 255
199 224 255
199 224 255
199 224 255
199 223 255
199 223 255
199 223 255
199 223 255
199 223 255
199 223 255
199 223 255
199 223 255
199 223 255
199 223 255
199 223 255
199 223 255
199 223 255
198 223 255
198 223 255
198 223 255
198 223 255
198 223 255
198 223 255
198 223 255
198 223 255
198 223 255
198 223 255
198 223 255
198 223 255
198 223 255
198 223 255
198 223 255
198 223 255
198 223 255
198 223 255
198 223 255
198 223 255
197 223 255
197 222 255
197 222 255
197 222 255
197 222 255
197 222 255
197 222 255
197 222 255
197 222 255
197 222 255
197 222 255
197 222 255
197 222 255
197 222 255
197 222 255
197 222 255
197 222 255
197 222 255
197 222 255
197 222 255
197 222 255
197 222 255
197 222 255
197 222 255
197 222 255
197 222 255
197 222 255
197 222 255
197 222 255
197 222 255
197 222 255
197 222 255
197 222 255
197 222 255
197 222 255
197 222 255
197 222 255
197 222 255
197 222 255
197 222 255
197 222 255
197 222 255
197 222 255
197 222 255
197 222 255
197 222 255
197 222 255
197 222 255
197 222 255
197 222 255
197 222 255
197 222 255
197 222 255
197 222 255
197 222 255
197 222 255
197 222 255
197 222 255
197 222 255
197 222 255
197 222 255
197 222 255
197 222 255
197 222 255
197 222 255
197 222 255
197 222 255
197 222 255
197 222 255
197 222 255
197 222 255
197 222 255
197 222 255
197 222 255
197 222 255
197 222 255
197 222 255
197 223 255
198 223 255
198 223 255
198 223 255
198 223 255
198 223 255
198 223 255
198 223 255
198 223 255
198 223 255
198 223 255
198 223 255
198 223 255
198 223 255
198 223 255
198 223 255
198 223 255
198 223 255
198 223 255
198 223 255
198 223 255
199 223 255
199 223 255
199 223 255
199 223 255
199 223 255
199 223 255
199 223 255
199 223 255
199 223 255
199 223 255
199 223 255
199 223 255
199 223 255
199 224 255
199 224 255
199 224 255
200 224 255
200 224 255
200 224 255
200 224 255
200 224 255
200 224 255
200 224 255
200 224 255
200 224 255
200 224 255
200 224 255
200 224 255
200 224 255
200 224 255
200 224 255
201 224 255
201 224 255
201 224 255
201 224 255
201 224 255
201 224 255
201 224 255
201 224 255
201 224 255
201 224 255
201 225 255
201 225 255
201 225 255
201 225 255
201 225 255
202 225 255
202 225 255
202 225 255
202 225 255
202 225 255
202 225 255
202 225 255
202 225 255
202 225 255
202 225 255
202 225 255
202 225 255
202 225 255
202 225 255
202 225 255
203 225 255
203 225 255
203 225 255
203 225 255
203 225 255
203 225 255
203 225 255
203 225 255
203 226 255
203 226 255
203 226 255
203 226 255
203 226 255
203 226 255
203 226 255
204 226 255
204 226 255
204 226 255
204 226 255
204 226 255
204 226 255
204 226 255
204 226 255
204 226 255
204 226 255
204 226 255
204 226 255
204 226 255
204 226 255
204 226 255
204 226 255
205 226 255
205 226 255
205 226 255
205 226 255
205 226 255
205 226 255
205 226 255
205 227 255
205 227 255
205 227 255
205 227 255
205 227 255
205 227 255
205 227 255
205 227 255
205 227 255
205 227 255
206 227 255
206 227 255
206 227 255
206 227 255
206 227 255
206 227 255
206 227 255
206 227 255
206 227 255
206 227 255
206 227 255
206 227 255
206 227 255
206 227 255
206 227 255
206 227 255
206 227 255
206 227 255
206 227 255
207 227 255
207 227 255
207 227 255
207 227 255
207 227 255
207 228 255
207 228 255
207 228 255
207 228 255
207 228 255
207 228 255
207 228 255
207 228 255
207 228 255
207 228 255
207 228 255
207 228 255
207 228 255
207 228 255
207 228 255
207 228 255
207 228 255
207 228 255
207 228 255
207 227 255
207 227 255
207 227 255
207 227 255
207 227 255
206 227 255
206 227 255
206 227 255
206 227 255
206 227 255
206 227 255
206 227 255
206 227 255
206 227 255
206 227 255
206 227 255
206 227 255
206 227 255
206 227 255
206 227 255
206 227 255
206 227 255
206 227 255
205 227 255
205 227 255
205 227 255
205 227 255
205 227 255
205 227 255
205 227 255
205 227 255
205 227 255
205 227 255
205 227 255
205 226 255
205 226 255
205 226 255
205 226 255
205 226 255
205 226 255
204 226 255
204 226 255
204 226 255
204 226 255
204 226 255
204 226 255
204 226 255
204 226 255
204 226 255
204 226 255
204 226 255
204 226 255
204 226 255
204 226 255
204 226 255
204 226 255
204 226 255
203 226 255
203 226 255
203 226 255
203 226 255
203 226 255
203 226 255
203 225 255
203 225 255
203 225 255
203 225 255
203 225 255
203 225 255
203 225 255
203 225 255
203 225 255
202 225 255
202 225 255
202 225 255
202 225 255
202 225 255
202 225 255
202 225 255
202 225 255
202 225 255
202 225 255
202 225 255
202 225 255
202 225 255
202 225 255
202 225 255
201 225 255
201 225 255
201 225 255
201 225 255
201 224 255
201 224 255
201 224 255
201 224 255
201 224 255
201 224 255
201 224 255
201 224 255
201 224 255
201 224 255
201 224 255
200 224 255
200 224 255
200 224 255
200 224 255
200 224 255
200 224 255
200 224 255
200 224 255
200 224 255
200 224 255
200 224 255
200 224 255
200 224 255
200 224 255
200 224 255
199 224 255
199 224 255
199 223 255
199 223 255
199 223 255
199 223 255
199 223 255
199 223 255
199 223 255
199 223 255
199 223 255
199 223 255
199 223 255
199 223 255
199 223 255
199 223 255
199 223 255
198 223 255
198 223 255
198 223 255
198 223 255
198 223 255
198 223 255
198 223 255
198 223 255
198 223 255
198 223 255
198 223 255
198 223 255
198 223 255
198 223 255
198 223 255
198 223 255
198 223 255
198 223 255
198 223 255
198 223 255
197 223 255
197 222 255
197 222 255
197 222 255
197 222 255
197 222 255
197 222 255
197 222 255
197 222 255
197 222 255
197 222 255
197 222 255
197 222 255
197 222 255
197 222 255
197 222 255
197 222 255
197 222 255
197 222 255
197 222 255
197 222 255
197 222 255
197 222 255
197 222 255
197 222 255
197 222 255
197 222 255
197 222 255
197 222 255
197 222 255
197 222 255
197 222 255
197 222 255
197 222 255
197 222 255
197 222 255
197 222 255
197 222 255
197 222 255
197 222 255
197 222 255
197 222 255
197 222 255
197 222 255
197 222 255
197 222 255
197 222 255
197 222 255
197 222 255
197 222 255
197 222 255
197 222 255
197 222 255
197 222 255
197 222 255
197 222 255
197 222 255
197 222 255
197 222 255
197 222 255
197 222 255
197 222 255
197 222 255
197 222 255
197 222 255
197 222 255
197 222 255
197 222 255
197 222 255
197 223 255
198 223 255
198 223 255
198 223 255
198 223 255
198 223 255
198 223 255
198 223 255
198 223 255
198 223 255
198 223 255
198 223 255
198 223 255
198 223 255
198 223 255
198 223 255
198 223 255
198 223 255
198 223 255
198 223 255
198 223 255
199 223 255
199 223 255
199 223 255
199 223 255
199 223 255
199 223 255
199 223 255
199 223 255
199 223 255
199 223 255
199 223 255
199 223 255
199 223 255
199 223 255
199 223 255
199 224 255
199 224 255
200 224 255
200 224 255
200 224 255
200 224 255
200 224 255
200 224 255
200 224 255
200 224 255
200 224 255
200 224 255
200 224 255
200 224 255
200 224 255
200 224 255
200 224 255
201 224 255
201 224 255
201 224 255
201 224 255
201 224 255
201 224 255
201 224 255
201 224 255
201 224 255
201 224 255
201 224 255
201 225 255
201 225 255
201 225 255
201 225 255
202 225 255
202 225 255
202 225 255
202 225 255
202 225 255
202 225 255
202 225 255
202 225 255
202 225 255
202 225 255
202 225 255
202 225 255
202 225 255
202 225 255
202 225 255
203 225 255
203 225 255
203 225 255
203 225 255
203 225 255
203 225 255
203 225 255
203 225 255
203 225 255
203 226 255
203 226 255
203 226 255
203 226 255
203 226 255
203 226 255
204 226 255
204 226 255
204 226 255
204 226 255
204 226 255
204 226 255
204 226 255
204 226 255
204 226 255
204 226 255
204 226 255
204 226 255
204 226 255
204 226 255
204 226 255
204 226 255
205 226 255
205 226 255
205 226 255
205 226 255
205 226 255
205 226 255
205 226 255
205 227 255
205 227 255
205 227 255
205 227 255
205 227 255
205 227 255
205 227 255
205 227 255
205 227 255
205 227 255
205 227 255
206 227 255
206 227 255
206 227 255
206 227 255
206 227 255
206 227 255
206 227 255
206 227 255
206 227 255
206 227 255
206 227 255
206 227 255
206 227 255
206 227 255
206 227 255
206 227 255
206 227 255
206 227 255
207 227 255
207 227 255
207 227 255
207 227 255
207 227 255
207 228 255
207 228 255
207 228 255
207 228 255
207 228 255
207 228 255
207 228 255
207 228 255
207 228 255
207 228 255
207 228 255
207 228 255
207 228 255
207 228 255
207 228 255
207 228 255
207 228 255
207 228 255
207 228 255
207 228 255
207 228 255
207 228 255
207 228 255
207 228 255
207 228 255
207 227 255
207 227 255
207 227 255
207 227 255
207 227 255
206 227 255
206 227 255
206 227 255
206 227 255
206 227 255
206 227 255
206 227 255
206 227 255
206 227 255
206 227 255
206 227 255
206 227 255
206 227 255
206 227 255
206 227 255
206 227 255
206 227 255
206 227 255
205 227 255
205 227 255
205 227 255
205 227 255
205 227 255
205 227 255
205 227 255
205 227 255
205 227 255
205 227 255
205 226 255
205 226 255
205 226 255
205 226 255
205 226 255
205 226 255
205 226 255
204 226 255
204 226 255
204 226 255
204 226 255
204 226 255
204 226 255
204 226 255
204 226 255
204 226 255
204 226 255
204 226 255
204 226 255
204 226 255
204 226 255
204 226 255
204 226 255
203 226 255
203 226 255
203 226 255
203 226 255
203 226 255
203 226 255
203 226 255
203 225 255
203 225 255
203 225 255
203 225 255
203 225 255
203 225 255
203 225 255
203 225 255
202 225 255
202 225 255
202 225 255
202 225 255
202 225 255
202 225 255
202 225 255
202 225 255
202 225 255
202 225 255
202 225 255
202 225 255
202 225 255
202 225 255
202 225 255
201 225 255
201 225 255
201 225 255
201 225 255
201 225 255
201 224 255
201 224 255
201 224 255
201 224 255
201 224 255
201 224 255
201 224 255
201 224 255
201 224 255
201 224 255
200 224 255
200 224 255
200 224 255
200 224 255
200 224 255
200 224 255
200 224 255
200 224 255
200 224 255
200 224 255
200 224 255
200 224 255
200 224 255
200 224 255
200 224 255
200 224 255
199 224 255
199 224 255
199 223 255
199 223 255
199 223 255
199 223 255
199 223 255
199 223 255
199 223 255
199 223 255
199 223 255
199 223 255
199 223 255
199 223 255
199 223 255
199 223 255
199 223 255
198 223 255
198 223 255
198 223 255
198 223 255
198 223 255
198 223 255
198 223 255
198 223 255
198 223 255
198 223 255
198 223 255
198 223 255
198 223 255
198 223 255
198 223 255
198 223 255
198 223 255
198 223 255
198 223 255
198 223 255
198 223 255
198 223 255
197 223 255
197 222 255
197 222 255
197 222 255
197 222 255
197 222 255
197 222 255
197 222 255
197 222 255
197 222 255
197 222 255
197 222 255
197 222 255
197 222 255
197 222 255
197 222 255
197 222 255
197 222 255
197 222 255
197 222 255
197 222 255
197 222 255
197 222 255
197 222 255
197 222 255
197 222 255
197 222 255
197 222 255
197 222 255
197 222 255
197 222 255
197 222 255
197 222 255
197 222 255
197 222 255
197 222 255
197 222 255
197 222 255
197 222 255
197 222 255
197 222 255
197 222 255
197 222 255
197 222 255
197 222 255
197 222 255
197 222 255
197 222 255
197 222 255
197 222 255
197 222 255
197 222 255
197 222 255
197 222 255
197 222 255
197 222 255
197 222 255
197 222 255
197 222 255
197 223 255
198 223 255
198 223 255
198 223 255
198 223 255
198 223 255
198 223 255
198 223 255
198 223 255
198 223 255
198 223 255
198 223 255
198 223 255
198 223 255
198 223 255
198 223 255
198 223 255
198 223 255
198 223 255
198 223 255
198 223 255
198 223 255
198 223 255
199 223 255
199 223 255
199 223 255
199 223 255
199 223 255
199 223 255
199 223 255
199 223 255
199 223 255
199 223 255
199 223 255
199 223 255
199 223 255
199 223 255
199 223 255
199 224 255
199 224 255
200 224 255
200 224 255
200 224 255
200 224 255
200 224 255
200 224 255
200 224 255
200 224 255
200 224 255
200 224 255
200 224 255
200 224 255
200 224 255
200 224 255
200 224 255
200 224 255
201 224 255
201 224 255
201 224 255
201 224 255
201 224 255
201 224 255
201 224 255
201 224 255
201 224 255
201 224 255
201 225 255
201 225 255
201 225 255
201 225 255
201 225 255
202 225 255
202 225 255
202 225 255
202 225 255
202 225 255
202 225 255
202 225 255
202 225 255
202 225 255
202 225 255
202 225 255
202 225 255
202 225 255
202 225 255
203 225 255
203 225 255
203 225 255
203 225 255
203 225 255
203 225 255
203 225 255
203 225 255
203 225 255
203 226 255
203 226 255
203 226 255
203 226 255
203 226 255
203 226 255
203 226 255
204 226 255
204 226 255
204 226 255
204 226 255
204 226 255
204 226 255
204 226 255
204 226 255
204 226 255
204 226 255
204 226 255
204 226 255
204 226 255
204 226 255
204 226 255
204 226 255
205 226 255
205 226 255
205 226 255
205 226 255
205 226 255
205 226 255
205 226 255
205 227 255
205 227 255
205 227 255
205 227 255
205 227 255
205 227 255
205 227 255
205 227 255
205 227 255
205 227 255
206 227 255
206 227 255
206 227 255
206 227 255
206 227 255
206 227 255
206 227 255
206 227 255
206 227 255
206 227 255
206 227 255
206 227 255
206 227 255
206 227 255
206 227 255
206 227 255
206 227 255
206 227 255
207 227 255
207 227 255
207 227 255
207 227 255
207 227 255
207 228 255
207 228 255
207 228 255
207 228 255
207 228 255
207 228 255
207 228 255
207 228 255
207 228 255
207 228 255
207 228 255
207 228 255
207 228 255
207 228 255
208 228 255
207 228 255
207 228 255
207 228 255
207 228 255
207 228 255
207 228 255
207 228 255
207 228 255
207 228 255
207 228 255
207 228 255
207 228 255
207 228 255
207 228 255
207 228 255
207 228 255
207 227 255
207 227 255
207 227 255
207 227 255
206 227 255
206 227 255
206 227 255
206 227 255
206 227 255
206 227 255
206 227 255
206 227 255
206 227 255
206 227 255
206 227 255
206 227 255
206 227 255
206 227 255
206 227 255
206 227 255
206 227 255
206 227 255
206 227 255
205 227 255
205 227 255
205 227 255
205 227 255
205 227 255
205 227 255
205 227 255
205 227 255
205 227 255
205 227 255
205 226 255
205 226 255
205 226 255
205 226 255
205 226 255
205 226 255
205 226 255
204 226 255
204 226 255
204 226 255
204 226 255
204 226 255
204 226 255
204 226 255
204 226 255
204 226 255
204 226 255
204 226 255
204 226 255
204 226 255
204 226 255
204 226 255
204 226 255
203 226 255
203 226 255
203 226 255
203 226 255
203 226 255
203 226 255
203 225 255
203 225 255
203 225 255
203 225 255
203 225 255
203 225 255
203 225 255
203 225 255
203 225 255
202 225 255
202 225 255
202 225 255
202 225 255
202 225 255
202 225 255
202 225 255
202 225 255
202 225 255
202 225 255
202 225 255
202 225 255
202 225 255
202 225 255
202 225 255
201 225 255
201 225 255
201 225 255
201 225 255
201 224 255
201 224 255
201 224 255
201 224 255
201 224 255
201 224 255
201 224 255
201 224 255
201 224 255
201 224 255
201 224 255
200 224 255
200 224 255
200 224 255
200 224 255
200 224 255
200 224 255
200 224 255
200 224 255
200 224 255
200 224 255
200 224 255
200 224 255
200 224 255
200 224 255
200 224 255
200 224 255
199 224 255
199 224 255
199 223 255
199 223 255
199 223 255
199 223 255
199 223 255
199 223 255
199 223 255
199 223 255
199 223 255
199 223 255
199 223 255
199 223 255
199 223 255
199 223 255
199 223 255
198 223 255
198 223 255
198 223 255
198 223 255
198 223 255
198 223 255
198 223 255
198 223 255
198 223 255
198 223 255
198 223 255
198 223 255
198 223 255
198 223 255
198 223 255
198 223 255
198 223 255
198 223 255
198 223 255
198 223 255
198 223 255
198 223 255
198 223 255
198 223 255
197 223 255
197 223 255
197 222 255
197 222 255
197 222 255
197 222 255
197 222 255
197 222 255
197 222 255
197 222 255
197 222 255
197 222 255
197 222 255
197 222 255
197 222 255
197 222 255
197 222 255
197 222 255
197 222 255
197 222 255
197 222 255
197 222 255
197 222 255
197 222 255
197 222 255
197 222 255
197 222 255
197 222 255
197 222 255
197 222 255
197 222 255
197 222 255
197 222 255
197 222 255
197 222 255
197 222 255
197 222 255
197 222 255
197 222 255
197 222 255
197 222 255
197 222 255
197 222 255
197 222 255
197 222 255
197 222 255
197 222 255
197 222 255
197 223 255
197 223 255
198 223 255
198 223 255
198 223 255
198 223 255
198 223 255
198 223 255
198 223 255
198 223 255
198 223 255
198 223 255
198 223 255
198 223 255
198 223 255
198 223 255
198 223 255
198 223 255
198 223 255
198 223 255
198 223 255
198 223 255
198 223 255
198 223 255
198 223 255
198 223 255
199 223 255
199 223 255
199 223 255
199 223 255
199 223 255
199 223 255
199 223 255
199 223 255
199 223 255
199 223 255
199 223 255
199 223 255
199 223 255
199 223 255
199 223 255
199 224 255
199 224 255
199 224 255
200 224 255
200 224 255
200 224 255
200 224 255
200 224 255
200 224 255
200 224 255
200 224 255
200 224 255
200 224 255
200 224 255
200 224 255
200 224 255
200 224 255
200 224 255
201 224 255
201 224 255
201 224 255
201 224 255
201 224 255
201 224 255
201 224 255
201 224 255
201 224 255
201 224 255
201 224 255
201 225 255
201 225 255
201 225 255
201 225 255
202 225 255
202 225 255
202 225 255
202 225 255
202 225 255
202 225 255
202 225 255
202 225 255
202 225 255
202 225 255
202 225 255
202 225 255
202 225 255
202 225 255
202 225 255
203 225 255
203 225 255
203 225 255
203 225 255
203 225 255
203 225 255
203 225 255
203 225 255
203 225 255
203 226 255
203 226 255
203 226 255
203 226 255
203 226 255
203 226 255
204 226 255
204 226 255
204 226 255
204 226 255
204 226 255
204 226 255
204 226 255
204 226 255
204 226 255
204 226 255
204 226 255
204 226 255
204 226 255
204 226 255
204 226 255
204 226 255
205 226 255
205 226 255
205 226 255
205 226 255
205 226 255
205 226 255
205 226 255
205 227 255
205 227 255
205 227 255
205 227 255
205 227 255
205 227 255
205 227 255
205 227 255
205 227 255
205 227 255
206 227 255
206 227 255
206 227 255
206 227 255
206 227 255
206 227 255
206 227 255
206 227 255
206 227 255
206 227 255
206 227 255
206 227 255
206 227 255
206 227 255
206 227 255
206 227 255
206 227 255
206 227 255
206 227 255
207 227 255
207 227 255
207 227 255
207 227 255
207 228 255
207 228 255
207 228 255
207 228 255
207 228 255
207 228 255
207 228 255
207 228 255
207 228 255
207 228 255
207 228 255
207 228 255
207 228 255
207 228 255
207 228 255
207 228 255
208 228 255
208 228 255
208 228 255
208 228 255
208 228 255
207 228 255
207 228 255
207 228 255
207 228 255
207 228 255
207 228 255
207 228 255
207 228 255
207 228 255
207 228 255
207 228 255
207 228 255
207 228 255
207 228 255
207 228 255
207 227 255
207 227 255
207 227 255
207 227 255
207 227 255
206 227 255
206 227 255
206 227 255
206 227 255
206 227 255
206 227 255
206 227 255
206 227 255
206 227 255
206 227 255
206 227 255
206 227 255
206 227 255
206 227 255
206 227 255
206 227 255
206 227 255
206 227 255
205 227 255
205 227 255
205 227 255
205 227 255
205 227 255
205 227 255
205 227 255
205 227 255
205 227 255
205 227 255
205 227 255
205 226 255
205 226 255
205 226 255
205 226 255
205 226 255
205 226 255
204 226 255
204 226 255
204 226 255
204 226 255
204 226 255
204 226 255
204 226 255
204 226 255
204 226 255
204 226 255
204 226 255
204 226 255
204 226 255
204 226 255
204 226 255
204 226 255
203 226 255
203 226 255
203 226 255
203 226 255
203 226 255
203 226 255
203 226 255
203 225 255
203 225 255
203 225 255
203 225 255
203 225 255
203 225 255
203 225 255
203 225 255
203 225 255
202 225 255
202 225 255
202 225 255
202 225 255
202 225 255
202 225 255
202 225 255
202 225 255
202 225 255
202 225 255
202 225 255
202 225 255
202 225 255
202 225 255
201 225 255
201 225 255
201 225 255
201 225 255
201 225 255
201 224 255
201 224 255
201 224 255
201 224 255
201 224 255
201 224 255
201 224 255
201 224 255
201 224 255
201 224 255
201 224 255
200 224 255
200 224 255
200 224 255
200 224 255
200 224 255
200 224 255
200 224 255
200 224 255
200 224 255
200 224 255
200 224 255
200 224 255
200 224 255
200 224 255
200 224 255
200 224 255
199 224 255
199 224 255
199 223 255
199 223 255
199 223 255
199 223 255
199 223 255
199 223 255
199 223 255
199 223 255
199 223 255
199 223 255
199 223 255
199 223 255
199 223 255
199 223 255
199 223 255
199 223 255
198 223 255
198 223 255
198 223 255
198 223 255
198 223 255
198 223 255
198 223 255
198 223 255
198 223 255
198 223 255
198 223 255
198 223 255
198 223 255
198 223 255
198 223 255
198 223 255
198 223 255
198 223 255
198 223 255
198 223 255
198 223 255
198 223 255
198 223 255
198 223 255
198 223 255
198 223 255
198 223 255
198 223 255
197 223 255
197 222 255
197 222 255
197 222 255
197 222 255
197 222 255
197 222 255
197 222 255
197 222 255
197 222 255
197 222 255
197 222 255
197 222 255
197 222 255
197 222 255
197 222 255
197 222 255
197 222 255
197 222 255
197 222 255
197 222 255
197 222 255
197 222 255
197 222 255
197 222 255
197 222 255
197 222 255
197 222 255
197 222 255
197 222 255
197 222 255
197 222 255
197 222 255
197 223 255
198 223 255
198 223 255
198 223 255
198 223 255
198 223 255
198 223 255
198 223 255
198 223 255
198 223 255
198 223 255
198 223 255
198 223 255
198 223 255
198 223 255
198 223 255
198 223 255
198 223 255
198 223 255
198 223 255
198 223 255
198 223 255
198 223 255
198 223 255
198 223 255
198 223 255
198 223 255
198 223 255
198 223 255
199 223 255
199 223 255
199 223 255
199 223 255
199 223 255
199 223 255
199 223 255
199 223 255
199 223 255
199 223 255
199 223 255
199 223 255
199 223 255
199 223 255
199 223 255
199 223 255
199 224 255
199 224 255
200 224 255
200 224 255
200 224 255
200 224 255
200 224 255
200 224 255
200 224 255
200 224 255
200 224 255
200 224 255
200 224 255
200 224 255
200 224 255
200 224 255
200 224 255
200 224 255
201 224 255
201 224 255
201 224 255
201 224 255
201 224 255
201 224 255
201 224 255
201 224 255
201 224 255
201 224 255
201 224 255
201 225 255
201 225 255
201 225 255
201 225 255
201 225 255
202 225 255
202 225 255
202 225 255
202 225 255
202 225 255
202 225 255
202 225 255
202 225 255
202 225 255
202 225 255
202 225 255
202 225 255
202 225 255
202 225 255
203 225 255
203 225 255
203 225 255
203 225 255
203 225 255
203 225 255
203 225 255
203 225 255
203 225 255
203 226 255
203 226 255
203 226 255
203 226 255
203 226 255
203 226 255
203 226 255
204 226 255
204 226 255
204 226 255
204 226 255
204 226 255
204 226 255
204 226 255
204 226 255
204 226 255
204 226 255
204 226 255
204 226 255
204 226 255
204 226 255
204 226 255
204 226 255
205 226 255
205 226 255
205 226 255
205 226 255
205 226 255
205 226 255
205 227 255
205 227 255
205 227 255
205 227 255
205 227 255
205 227 255
205 227 255
205 227 255
205 227 255
205 227 255
205 227 255
206 227 255
206 227 255
206 227 255
206 227 255
206 227 255
206 227 255
206 227 255
206 227 255
206 227 255
206 227 255
206 227 255
206 227 255
206 227 255
206 227 255
206 227 255
206 227 255
206 227 255
206 227 255
207 227 255
207 227 255
207 227 255
207 227 255
207 228 255
207 228 255
207 228 255
207 228 255
207 228 255
207 228 255
207 228 255
207 228 255
207 228 255
207 228 255
207 228 255
207 228 255
207 228 255
207 228 255
207 228 255
207 228 255
208 228 255
208 228 255
208 228 255
208 228 255
208 228 255
208 228 255
208 228 255
208 228 255
208 228 255
208 228 255
208 228 255
207 228 255
207 228 255
207 228 255
207 228 255
207 228 255
207 228 255
207 228 255
207 228 255
207 228 255
207 228 255
207 228 255
207 228 255
207 228 255
207 228 255
207 228 255
207 227 255
207 227 255
207 227 255
207 227 255
207 227 255
206 227 255
206 227 255
206 227 255
206 227 255
206 227 255
206 227 255
206 227 255
206 227 255
206 227 255
206 227 255
206 227 255
206 227 255
206 227 255
206 227 255
206 227 255
206 227 255
206 227 255
206 227 255
205 227 255
205 227 255
205 227 255
205 227 255
205 227 255
205 227 255
205 227 255
205 227 255
205 227 255
205 227 255
205 226 255
205 226 255
205 226 255
205 226 255
205 226 255
205 226 255
205 226 255
204 226 255
204 226 255
204 226 255
204 226 255
204 226 255
204 226 255
204 226 255
204 226 255
204 226 255
204 226 255
204 226 255
204 226 255
204 226 255
204 226 255
204 226 255
204 226 255
203 226 255
203 226 255
203 226 255
203 226 255
203 226 255
203 226 255
203 226 255
203 225 255
203 225 255
203 225 255
203 225 255
203 225 255
203 225 255
203 225 255
203 225 255
202 225 255
202 225 255
202 225 255
202 225 255
202 225 255
202 225 255
202 225 255
202 225 255
202 225 255
202 225 255
202 225 255
202 225 255
202 225 255
202 225 255
202 225 255
201 225 255
201 225 255
201 225 255
201 225 255
201 225 255
201 224 255
201 224 255
201 224 255
201 224 255
201 224 255
201 224 255
201 224 255
201 224 255
201 224 255
201 224 255
200 224 255
200 224 255
200 224 255
200 224 255
200 224 255
200 224 255
200 224 255
200 224 255
200 224 255
200 224 255
200 224 255
200 224 255
200 224 255
200 224 255
200 224 255
200 224 255
199 224 255
199 224 255
199 224 255
199 223 255
199 223 255
199 223 255
199 223 255
199 223 255
199 223 255
199 223 255
199 223 255
199 223 255
199 223 255
199 223 255
199 223 255
199 223 255
199 223 255
199 223 255
199 223 255
199 223 255
198 223 255
198 223 255
198 223 255
198 223 255
198 223 255
198 223 255
198 223 255
198 223 255
198 223 255
198 223 255
198 223 255
198 223 255
198 223 255
198 223 255
198 223 255
198 223 255
198 223 255
198 223 255
198 223 255
198 223 255
198 223 255
198 223 255
198 223 255
198 223 255
198 223 255
198 223 255
198 223 255
198 223 255
198 223 255
198 223 255
198 223 255
198 223 255
198 223 255
198 223 255
198 223 255
198 223 255
198 223 255
198 223 255
198 223 255
197 223 255
198 223 255
197 223 255
197 223 255
198 223 255
198 223 255
198 223 255
198 223 255
198 223 255
198 223 255
198 223 255
198 223 255
198 223 255
198 223 255
198 223 255
198 223 255
198 223 255
198 223 255
198 223 255
198 223 255
198 223 255
198 223 255
198 223 255
198 223 255
198 223 255
198 223 255
198 223 255
198 223 255
198 223 255
198 223 255
198 223 255
198 223 255
198 223 255
198 223 255
198 223 255
198 223 255
198 223 255
198 223 255
198 223 255
198 223 255
198 223 255
198 223 255
198 223 255
199 223 255
199 223 255
199 223 255
199 223 255
199 223 255
199 223 255
199 223 255
199 223 255
199 223 255
199 223 255
199 223 255
199 223 255
199 223 255
199 223 255
199 223 255
199 223 255
199 223 255
199 224 255
199 224 255
200 224 255
200 224 255
200 224 255
200 224 255
200 224 255
200 224 255
200 224 255
200 224 255
200 224 255
200 224 255
200 224 255
200 224 255
200 224 255
200 224 255
200 224 255
200 224 255
200 224 255
201 224 255
201 224 255
201 224 255
201 224 255
201 224 255
201 224 255
201 224 255
201 224 255
201 224 255
201 224 255
201 225 255
201 225 255
201 225 255
201 225 255
201 225 255
202 225 255
202 225 255
202 225 255
202 225 255
202 225 255
202 225 255
202 225 255
202 225 255
202 225 255
202 225 255
202 225 255
202 225 255
202 225 255
202 225 255
202 225 255
203 225 255
203 225 255
203 225 255
203 225 255
203 225 255
203 225 255
203 225 255
203 225 255
203 226 255
203 226 255
203 226 255
203 226 255
203 226 255
203 226 255
203 226 255
204 226 255
204 226 255
204 226 255
204 226 255
204 226 255
204 226 255
204 226 255
204 226 255
204 226 255
204 226 255
204 226 255
204 226 255
204 226 255
204 226 255
204 226 255
204 226 255
205 226 255
205 226 255
205 226 255
205 226 255
205 226 255
205 226 255
205 226 255
205 227 255
205 227 255
205 227 255
205 227 255
205 227 255
205 227 255
205 227 255
205 227 255
205 227 255
205 227 255
206 227 255
206 227 255
206 227 255
206 227 255
206 227 255
206 227 255
206 227 255
206 227 255
206 227 255
206 227 255
206 227 255
206 227 255
206 227 255
206 227 255
206 227 255
206 227 255
206 227 255
206 227 255
207 227 255
207 227 255
207 227 255
207 227 255
207 227 255
207 228 255
207 228 255
207 228 255
207 228 255
207 228 255
207 228 255
207 228 255
207 228 255
207 228 255
207 228 255
207 228 255
207 228 255
207 228 255
207 228 255
207 228 255
208 228 255
208 228 255
208 228 255
208 228 255
208 228 255
208 228 255
208 228 255
208 228 255
208 228 255
208 228 255
208 228 255
208 228 255
208 228 255
208 228 255
208 228 255
208 228 255
208 228 255
207 228 255
207 228 255
207 228 255
207 228 255
207 228 255
207 228 255
207 228 255
207 228 255
207 228 255
207 228 255
207 228 255
207 228 255
207 228 255
207 228 255
207 228 255
207 227 255
207 227 255
207 227 255
207 227 255
207 227 255
206 227 255
206 227 255
206 227 255
206 227 255
206 227 255
206 227 255
206 227 255
206 227 255
206 227 255
206 227 255
206 227 255
206 227 255
206 227 255
206 227 255
206 227 255
206 227 255
206 227 255
206 227 255
205 227 255
205 227 255
205 227 255
205 227 255
205 227 255
205 227 255
205 227 255
205 227 255
205 227 255
205 227 255
205 226 255
205 226 255
205 226 255
205 226 255
205 226 255
205 226 255
205 226 255
204 226 255
204 226 255
204 226 255
204 226 255
204 226 255
204 226 255
204 226 255
204 226 255
204 226 255
204 226 255
204 226 255
204 226 255
204 226 255
204 226 255
204 226 255
204 226 255
203 226 255
203 226 255
203 226 255
203 226 255
203 226 255
203 226 255
203 225 255
203 225 255
203 225 255
203 225 255
203 225 255
203 225 255
203 225 255
203 225 255
203 225 255
202 225 255
202 225 255
202 225 255
202 225 255
202 225 255
202 225 255
202 225 255
202 225 255
202 225 255
202 225 255
202 225 255
202 225 255
202 225 255
202 225 255
202 225 255
201 225 255
201 225 255
201 225 255
201 225 255
201 224 255
201 224 255
201 224 255
201 224 255
201 224 255
201 224 255
201 224 255
201 224 255
201 224 255
201 224 255
201 224 255
201 224 255
200 224 255
200 224 255
200 224 255
200 224 255
200 224 255
200 224 255
200 224 255
200 224 255
200 224 255
200 224 255
200 224 255
200 224 255
200 224 255
200 224 255
200 224 255
200 224 255
199 224 255
199 224 255
199 224 255
199 223 255
199 223 255
199 223 255
199 223 255
199 223 255
199 223 255
199 223 255
199 223 255
199 223 255
199 223 255
199 223 255
199 223 255
199 223 255
199 223 255
199 223 255
199 223 255
199 223 255
198 223 255
198 223 255
198 223 255
198 223 255
198 223 255
198 223 255
198 223 255
198 223 255
198 223 255
198 223 255
198 223 255
198 223 255
198 223 255
198 223 255
198 223 255
198 223 255
198 223 255
198 223 255
198 223 255
198 223 255
198 223 255
198 223 255
198 223 255
198 223 255
198 223 255
198 223 255
198 223 255
198 223 255
198 223 255
198 223 255
198 223 255
198 223 255
198 223 255
198 223 255
198 223 255
198 223 255
198 223 255
198 223 255
198 223 255
198 223 255
198 223 255
198 223 255
198 223 255
198 223 255
198 223 255
198 223 255
198 223 255
198 223 255
198 223 255
198 223 255
198 223 255
198 223 255
198 223 255
198 223 255
198 223 255
198 223 255
198 223 255
198 223 255
198 223 255
198 223 255
198 223 255
198 223 255
198 223 255
198 223 255
198 223 255
198 223 255
198 223 255
198 223 255
198 223 255
198 223 255
198 223 255
198 223 255
198 223 255
198 223 255
199 223 255
199 223 255
199 223 255
199 223 255
199 223 255
199 223 255
199 223 255
199 223 255
199 223 255
199 223 255
199 223 255
199 223 255
199 223 255
199 223 255
199 223 255
199 223 255
199 223 255
199 224 255
199 224 255
199 224 255
200 224 255
200 224 255
200 224 255
200 224 255
200 224 255
200 224 255
200 224 255
200 224 255
200 224 255
200 224 255
200 224 255
200 224 255
200 224 255
200 224 255
200 224 255
200 224 255
200 224 255
201 224 255
201 224 255
201 224 255
201 224 255
201 224 255
201 224 255
201 224 255
201 224 255
201 224 255
201 224 255
201 224 255
201 225 255
201 225 255
201 225 255
201 225 255
202 225 255
202 225 255
202 225 255
202 225 255
202 225 255
202 225 255
202 225 255
202 225 255
202 225 255
202 225 255
202 225 255
202 225 255
202 225 255
202 225 255
202 225 255
203 225 255
203 225 255
203 225 255
203 225 255
203 225 255
203 225 255
203 225 255
203 225 255
203 225 255
203 226 255
203 226 255
203 226 255
203 226 255
203 226 255
203 226 255
204 226 255
204 226 255
204 226 255
204 226 255
204 226 255
204 226 255
204 226 255
204 226 255
204 226 255
204 226 255
204 226 255
204 226 255
204 226 255
204 226 255
204 226 255
204 226 255
205 226 255
205 226 255
205 226 255
205 226 255
205 226 255
205 226 255
205 226 255
205 227 255
205 227 255
205 227 255
205 227 255
205 227 255
205 227 255
205 227 255
205 227 255
205 227 255
205 227 255
206 227 255
206 227 255
206 227 255
206 227 255
206 227 255
206 227 255
206 227 255
206 227 255
206 227 255
206 227 255
206 227 255
206 227 255
206 227 255
206 227 255
206 227 255
206 227 255
206 227 255
206 227 255
207 227 255
207 227 255
207 227 255
207 227 255
207 227 255
207 228 255
207 228 255
207 228 255
207 228 255
207 228 255
207 228 255
207 228 255
207 228 255
207 228 255
207 228 255
207 228 255
207 228 255
207 228 255
207 228 255
207 228 255
208 228 255
208 228 255
208 228 255
208 228 255
208 228 255
208 228 255
208 228 255
208 228 255
208 228 255
208 228 255
208 228 255
208 228 255
208 228 255
208 228 255
208 228 255
208 228 255
208 228 255
208 228 255
208 228 255
208 228 255
208 228 255
208 228 255
208 228 255
207 228 255
207 228 255
207 228 255
207 228 255
207 228 255
207 228 255
207 228 255
207 228 255
207 228 255
207 228 255
207 228 255
207 228 255
207 228 255
207 228 255
207 228 255
207 227 255
207 227 255
207 227 255
207 227 255
207 227 255
206 227 255
206 227 255
206 227 255
206 227 255
206 227 255
206 227 255
206 227 255
206 227 255
206 227 255
206 227 255
206 227 255
206 227 255
206 227 255
206 227 255
206 227 255
206 227 255
206 227 255
206 227 255
205 227 255
205 227 255
205 227 255
205 227 255
205 227 255
205 227 255
205 227 255
205 227 255
205 227 255
205 227 255
205 226 255
205 226 255
205 226 255
205 226 255
205 226 255
205 226 255
204 226 255
204 226 255
204 226 255
204 226 255
204 226 255
204 226 255
204 226 255
204 226 255
204 226 255
204 226 255
204 226 255
204 226 255
204 226 255
204 226 255
204 226 255
204 226 255
203 226 255
203 226 255
203 226 255
203 226 255
203 226 255
203 226 255
203 226 255
203 225 255
203 225 255
203 225 255
203 225 255
203 225 255
203 225 255
203 225 255
203 225 255
202 225 255
202 225 255
202 225 255
202 225 255
202 225 255
202 225 255
202 225 255
202 225 255
202 225 255
202 225 255
202 225 255
202 225 255
202 225 255
202 225 255
202 225 255
202 225 255
201 225 255
201 225 255
201 225 255
201 225 255
201 224 255
201 224 255
201 224 255
201 224 255
201 224 255
201 224 255
201 224 255
201 224 255
201 224 255
201 224 255
201 224 255
200 224 255
200 224 255
200 224 255
200 224 255
200 224 255
200 224 255
200 224 255
200 224 255
200 224 255
200 224 255
200 224 255
200 224 255
200 224 255
200 224 255
200 224 255
200 224 255
200 224 255
199 224 255
199 224 255
199 224 255
199 223 255
199 223 255
199 223 255
199 223 255
199 223 255
199 223 255
199 223 255
199 223 255
199 223 255
199 223 255
199 223 255
199 223 255
199 223 255
199 223 255
199 223 255
199 223 255
199 223 255
199 223 255
198 223 255
198 223 255
198 223 255
198 223 255
198 223 255
198 223 255
198 223 255
198 223 255
198 223 255
198 223 255
198 223 255
198 223 255
198 223 255
198 223 255
198 223 255
198 223 255
198 223 255
198 223 255
198 223 255
198 223 255
198 223 255
198 223 255
198 223 255
198 223 255
198 223 255
198 223 255
198 223 255
198 223 255
198 223 255
198 223 255
198 223 255
198 223 255
198 223 255
198 223 255
198 223 255
198 223 255
198 223 255
198 223 255
198 223 255
198 223 255
198 223 255
198 223 255
198 223 255
198 223 255
198 223 255
198 223 255
198 223 255
198 223 255
198 223 255
198 223 255
198 223 255
198 223 255
198 223 255
198 223 255
198 223 255
198 223 255
198 223 255
198 223 255
198 223 255
198 223 255
198 223 255
198 223 255
198 223 255
198 223 255
198 223 255
199 223 255
199 223 255
199 223 255
199 223 255
199 223 255
199 223 255
199 223 255
199 223 255
199 223 255
199 223 255
199 223 255
199 223 255
199 223 255
199 223 255
199 223 255
199 223 255
199 223 255
199 223 255
199 223 255
199 224 255
199 224 255
199 224 255
200 224 255
200 224 255
200 224 255
200 224 255
200 224 255
200 224 255
200 224 255
200 224 255
200 224 255
200 224 255
200 224 255
200 224 255
200 224 255
200 224 255
200 224 255
200 224 255
200 224 255
201 224 255
201 224 255
201 224 255
201 224 255
201 224 255
201 224 255
201 224 255
201 224 255
201 224 255
201 224 255
201 224 255
201 225 255
201 225 255
201 225 255
201 225 255
202 225 255
202 225 255
202 225 255
202 225 255
202 225 255
202 225 255
202 225 255
202 225 255
202 225 255
202 225 255
202 225 255
202 225 255
202 225 255
202 225 255
202 225 255
202 225 255
203 225 255
203 225 255
203 225 255
203 225 255
203 225 255
203 225 255
203 225 255
203 225 255
203 226 255
203 226 255
203 226 255
203 226 255
203 226 255
203 226 255
203 226 255
204 226 255
204 226 255
204 226 255
204 226 255
204 226 255
204 226 255
204 226 255
204 226 255
204 226 255
204 226 255
204 226 255
204 226 255
204 226 255
204 226 255
204 226 255
204 226 255
205 226 255
205 226 255
205 226 255
205 226 255
205 226 255
205 226 255
205 227 255
205 227 255
205 227 255
205 227 255
205 227 255
205 227 255
205 227 255
205 227 255
205 227 255
205 227 255
206 227 255
206 227 255
206 227 255
206 227 255
206 227 255
206 227 255
206 227 255
206 227 255
206 227 255
206 227 255
206 227 255
206 227 255
206 227 255
206 227 255
206 227 255
206 227 255
206 227 255
206 227 255
207 227 255
207 227 255
207 227 255
207 227 255
207 227 255
207 228 255
207 228 255
207 228 255
207 228 255
207 228 255
207 228 255
207 228 255
207 228 255
207 228 255
207 228 255
207 228 255
207 228 255
207 228 255
207 228 255
207 228 255
208 228 255
208 228 255
208 228 255
208 228 255
208 228 255
208 228 255
208 228 255
208 228 255
208 228 255
208 228 255
208 228 255
208 228 255
208 228 255
208 228 255
208 228 255
208 228 255
208 228 255
208 228 255
208 228 255
208 228 255
208 228 255
208 228 255
208 228 255
208 228 255
208 228 255
208 228 255
208 228 255
208 228 255
208 228 255
207 228 255
207 228 255
207 228 255
207 228 255
207 228 255
207 228 255
207 228 255
207 228 255
207 228 255
207 228 255
207 228 255
207 228 255
207 228 255
207 228 255
207 228 255
207 227 255
207 227 255
207 227 255
207 227 255
207 227 255
206 227 255
206 227 255
206 227 255
206 227 255
206 227 255
206 227 255
206 227 255
206 227 255
206 227 255
206 227 255
206 227 255
206 227 255
206 227 255
206 227 255
206 227 255
206 227 255
206 227 255
206 227 255
205 227 255
205 227 255
205 227 255
205 227 255
205 227 255
205 227 255
205 227 255
205 227 255
205 227 255
205 227 255
205 226 255
205 226 255
205 226 255
205 226 255
205 226 255
205 226 255
204 226 255
204 226 255
204 226 255
204 226 255
204 226 255
204 226 255
204 226 255
204 226 255
204 226 255
204 226 255
204 226 255
204 226 255
204 226 255
204 226 255
204 226 255
204 226 255
203 226 255
203 226 255
203 226 255
203 226 255
203 226 255
203 226 255
203 226 255
203 225 255
203 225 255
203 225 255
203 225 255
203 225 255
203 225 255
203 225 255
203 225 255
202 225 255
202 225 255
202 225 255
202 225 255
202 225 255
202 225 255
202 225 255
202 225 255
202 225 255
202 225 255
202 225 255
202 225 255
202 225 255
202 225 255
202 225 255
201 225 255
201 225 255
201 225 255
201 225 255
201 225 255
201 224 255
201 224 255
201 224 255
201 224 255
201 224 255
201 224 255
201 224 255
201 224 255
201 224 255
201 224 255
201 224 255
200 224 255
200 224 255
200 224 255
200 224 255
200 224 255
200 224 255
200 224 255
200 224 255
200 224 255
200 224 255
200 224 255
200 224 255
200 224 255
200 224 255
200 224 255
200 224 255
200 224 255
200 224 255
199 224 255
199 224 255
199 224 255
199 223 255
199 223 255
199 223 255
199 223 255
199 223 255
199 223 255
199 223 255
199 223 255
199 223 255
199 223 255
199 223 255
199 223 255
199 223 255
199 223 255
199 223 255
199 223 255
199 223 255
199 223 255
199 223 255
199 223 255
198 223 255
198 223 255
198 223 255
198 223 255
198 223 255
198 223 255
198 223 255
198 223 255
198 223 255
198 223 255
198 223 255
198 223 255
198 223 255
198 223 255
198 223 255
198 223 255
198 223 255
198 223 255
198 223 255
198 223 255
198 223 255
198 223 255
198 223 255
198 223 255
198 223 255
198 223 255
198 223 255
198 223 255
198 223 255
198 223 255
198 223 255
198 223 255
198 223 255
198 223 255
198 223 255
198 223 255
198 223 255
198 223 255
198 223 255
198 223 255
198 223 255
198 223 255
198 223 255
198 223 255
198 223 255
198 223 255
198 223 255
198 223 255
198 223 255
198 223 255
198 223 255
198 223 255
198 223 255
198 223 255
199 223 255
199 223 255
199 223 255
199 223 255
199 223 255
199 223 255
199 223 255
199 223 255
199 223 255
199 223 255
199 223 255
199 223 255
199 223 255
199 223 255
199 223 255
199 223 255
199 223 255
199 223 255
199 223 255
199 223 255
199 224 255
199 224 255
199 224 255
200 224 255
200 224 255
200 224 255
200 224 255
200 224 255
200 224 255
200 224 255
200 224 255
200 224 255
200 224 255
200 224 255
200 224 255
200 224 255
200 224 255
200 224 255
200 224 255
200 224 255
200 224 255
201 224 255
201 224 255
201 224 255
201 224 255
201 224 255
201 224 255
201 224 255
201 224 255
201 224 255
201 224 255
201 224 255
201 225 255
201 225 255
201 225 255
201 225 255
201 225 255
202 225 255
202 225 255
202 225 255
202 225 255
202 225 255
202 225 255
202 225 255
202 225 255
202 225 255
202 225 255
202 225 255
202 225 255
202 225 255
202 225 255
202 225 255
203 225 255
203 225 255
203 225 255
203 225 255
203 225 255
203 225 255
203 225 255
203 225 255
203 226 255
203 226 255
203 226 255
203 226 255
203 226 255
203 226 255
203 226 255
204 226 255
204 226 255
204 226 255
204 226 255
204 226 255
204 226 255
204 226 255
204 226 255
204 226 255
204 226 255
204 226 255
204 226 255
204 226 255
204 226 255
204 226 255
204 226 255
205 226 255
205 226 255
205 226 255
205 226 255
205 226 255
205 226 255
205 226 255
205 227 255
205 227 255
205 227 255
205 227 255
205 227 255
205 227 255
205 227 255
205 227 255
205 227 255
206 227 255
206 227 255
206 227 255
206 227 255
206 227 255
206 227 255
206 227 255
206 227 255
206 227 255
206 227 255
206 227 255
206 227 255
206 227 255
206 227 255
206 227 255
206 227 255
206 227 255
206 227 255
207 227 255
207 227 255
207 227 255
207 227 255
207 227 255
207 228 255
207 228 255
207 228 255
207 228 255
207 228 255
207 228 255
207 228 255
207 228 255
207 228 255
207 228 255
207 228 255
207 228 255
207 228 255
207 228 255
207 228 255
208 228 255
208 228 255
208 228 255
208 228 255
208 228 255
208 228 255
208 228 255
208 228 255
208 228 255
208 228 255
208 228 255
208 228 255
208 228 255
208 228 255
208 228 255
208 228 255
208 228 255
208 228 255
208 228 255
208 228 255
208 228 255
208 228 255
208 228 255
208 228 255
208 228 255
208 228 255
208 228 255
208 228 255
208 228 255
208 228 255
208 228 255
208 228 255
208 228 255
208 228 255
208 228 255
207 228 255
207 228 255
207 228 255
207 228 255
207 228 255
207 228 255
207 228 255
207 228 255
207 228 255
207 228 255
207 228 255
207 228 255
207 228 255
207 228 255
207 228 255
207 227 255
207 227 255
207 227 255
207 227 255
207 227 255
206 227 255
206 227 255
206 227 255
206 227 255
206 227 255
206 227 255
206 227 255
206 227 255
206 227 255
206 227 255
206 227 255
206 227 255
206 227 255
206 227 255
206 227 255
206 227 255
206 227 255
206 227 255
205 227 255
205 227 255
205 227 255
205 227 255
205 227 255
205 227 255
205 227 255
205 227 255
205 227 255
205 226 255
205 226 255
205 226 255
205 226 255
205 226 255
205 226 255
205 226 255
204 226 255
204 226 255
204 226 255
204 226 255
204 226 255
204 226 255
204 226 255
204 226 255
204 226 255
204 226 255
204 226 255
204 226 255
204 226 255
204 226 255
204 226 255
204 226 255
203 226 255
203 226 255
203 226 255
203 226 255
203 226 255
203 226 255
203 225 255
203 225 255
203 225 255
203 225 255
203 225 255
203 225 255
203 225 255
203 225 255
203 225 255
202 225 255
202 225 255
202 225 255
202 225 255
202 225 255
202 225 255
202 225 255
202 225 255
202 225 255
202 225 255
202 225 255
202 225 255
202 225 255
202 225 255
202 225 255
201 225 255
201 225 255
201 225 255
201 225 255
201 225 255
201 224 255
201 224 255
201 224 255
201 224 255
201 224 255
201 224 255
201 224 255
201 224 255
201 224 255
201 224 255
201 224 255
200 224 255
200 224 255
200 224 255
200 224 255
200 224 255
200 224 255
200 224 255
200 224 255
200 224 255
200 224 255
200 224 255
200 224 255
200 224 255
200 224 255
200 224 255
200 224 255
200 224 255
200 224 255
200 224 255
199 224 255
199 224 255
199 224 255
199 223 255
199 223 255
199 223 255
199 223 255
199 223 255
199 223 255
199 223 255
199 223 255
199 223 255
199 223 255
199 223 255
199 223 255
199 223 255
199 223 255
199 223 255
199 223 255
199 223 255
199 223 255
199 223 255
199 223 255
199 223 255
199 223 255
199 223 255
198 223 255
198 223 255
198 223 255
198 223 255
198 223 255
198 223 255
198 223 255
198 223 255
198 223 255
198 223 255
198 223 255
198 223 255
198 223 255
198 223 255
198 223 255
198 223 255
198 223 255
198 223 255
198 223 255
198 223 255
198 223 255
198 223 255
198 223 255
198 223 255
198 223 255
198 223 255
198 223 255
198 223 255
198 223 255
198 223 255
198 223 255
198 223 255
198 223 255
198 223 255
198 223 255
198 223 255
198 223 255
198 223 255
198 223 255
198 223 255
199 223 255
199 223 255
199 223 255
199 223 255
199 223 255
199 223 255
199 223 255
199 223 255
199 223 255
199 223 255
199 223 255
199 223 255
199 223 255
199 223 255
199 223 255
199 223 255
199 223 255
199 223 255
199 223 255
199 223 255
199 223 255
199 223 255
199 223 255
199 224 255
199 224 255
199 224 255
200 224 255
200 224 255
200 224 255
200 224 255
200 224 255
200 224 255
200 224 255
200 224 255
200 224 255
200 224 255
200 224 255
200 224 255
200 224 255
200 224 255
200 224 255
200 224 255
200 224 255
200 224 255
200 224 255
201 224 255
201 224 255
201 224 255
201 224 255
201 224 255
201 224 255
201 224 255
201 224 255
201 224 255
201 224 255
201 224 255
201 225 255
201 225 255
201 225 255
201 225 255
201 225 255
202 225 255
202 225 255
202 225 255
202 225 255
202 225 255
202 225 255
202 225 255
202 225 255
202 225 255
202 225 255
202 225 255
202 225 255
202 225 255
202 225 255
202 225 255
203 225 255
203 225 255
203 225 255
203 225 255
203 225 255
203 225 255
203 225 255
203 225 255
203 225 255
203 226 255
203 226 255
203 226 255
203 226 255
203 226 255
203 226 255
204 226 255
204 226 255
204 226 255
204 226 255
204 226 255
204 226 255
204 226 255
204 226 255
204 226 255
204 226 255
204 226 255
204 226 255
204 226 255
204 226 255
204 226 255
204 226 255
205 226 255
205 226 255
205 226 255
205 226 255
205 226 255
205 226 255
205 226 255
205 227 255
205 227 255
205 227 255
205 227 255
205 227 255
205 227 255
205 227 255
205 227 255
205 227 255
205 227 255
206 227 255
206 227 255
206 227 255
206 227 255
206 227 255
206 227 255
206 227 255
206 227 255
206 227 255
206 227 255
206 227 255
206 227 255
206 227 255
206 227 255
206 227 255
206 227 255
206 227 255
207 227 255
207 227 255
207 227 255
207 227 255
207 227 255
207 228 255
207 228 255
207 228 255
207 228 255
207 228 255
207 228 255
207 228 255
207 228 255
207 228 255
207 228 255
207 228 255
207 228 255
207 228 255
207 228 255
207 228 255
208 228 255
208 228 255
208 228 255
208 228 255
208 228 255
208 228 255
208 228 255
208 228 255
208 228 255
208 228 255
208 228 255
208 228 255
208 228 255
208 228 255
208 228 255
208 228 255
208 228 255
208 228 255
208 228 255
209 228 255
208 228 255
208 228 255
208 228 255
208 228 255
208 228 255
208 228 255
208 228 255
208 228 255
208 228 255
208 228 255
208 228 255
208 228 255
208 228 255
208 228 255
208 228 255
208 228 255
208 228 255
208 228 255
208 228 255
208 228 255
208 228 255
207 228 255
207 228 255
207 228 255
207 228 255
207 228 255
207 228 255
207 228 255
207 228 255
207 228 255
207 228 255
207 228 255
207 228 255
207 228 255
207 228 255
207 228 255
207 227 255
207 227 255
207 227 255
207 227 255
206 227 255
206 227 255
206 227 255
206 227 255
206 227 255
206 227 255
206 227 255
206 227 255
206 227 255
206 227 255
206 227 255
206 227 255
206 227 255
206 227 255
206 227 255
206 227 255
206 227 255
206 227 255
205 227 255
205 227 255
205 227 255
205 227 255
205 227 255
205 227 255
205 227 255
205 227 255
205 227 255
205 227 255
205 226 255
205 226 255
205 226 255
205 226 255
205 226 255
205 226 255
205 226 255
204 226 255
204 226 255
204 226 255
204 226 255
204 226 255
204 226 255
204 226 255
204 226 255
204 226 255
204 226 255
204 226 255
204 226 255
204 226 255
204 226 255
204 226 255
203 226 255
203 226 255
203 226 255
203 226 255
203 226 255
203 226 255
203 226 255
203 225 255
203 225 255
203 225 255
203 225 255
203 225 255
203 225 255
203 225 255
203 225 255
203 225 255
202 225 255
202 225 255
202 225 255
202 225 255
202 225 255
202 225 255
202 225 255
202 225 255
202 225 255
202 225 255
202 225 255
202 225 255
202 225 255
202 225 255
202 225 255
201 225 255
201 225 255
201 225 255
201 225 255
201 225 255
201 224 255
201 224 255
201 224 255
201 224 255
201 224 255
201 224 255
201 224 255
201 224 255
201 224 255
201 224 255
201 224 255
201 224 255
200 224 255
200 224 255
200 224 255
200 224 255
200 224 255
200 224 255
200 224 255
200 224 255
200 224 255
200 224 255
200 224 255
200 224 255
200 224 255
200 224 255
200 224 255
200 224 255
200 224 255
200 224 255
199 224 255
199 224 255
199 224 255
199 224 255
199 223 255
199 223 255
199 223 255
199 223 255
199 223 255
199 223 255
199 223 255
199 223 255
199 223 255
199 223 255
199 223 255
199 223 255
199 223 255
199 223 255
199 223 255
199 223 255
199 223 255
199 223 255
199 223 255
199 223 255
199 223 255
199 223 255
199 223 255
199 223 255
199 223 255
199 223 255
199 223 255
199 223 255
199 223 255
198 223 255
198 223 255
198 223 255
198 223 255
198 223 255
198 223 255
198 223 255
198 223 255
198 223 255
198 223 255
198 223 255
198 223 255
198 223 255
198 223 255
198 223 255
198 223 255
198 223 255
198 223 255
198 223 255
198 223 255
199 223 255
199 223 255
199 223 255
199 223 255
199 223 255
199 223 255
199 223 255
199 223 255
199 223 255
199 223 255
199 223 255
199 223 255
199 223 255
199 223 255
199 223 255
199 223 255
199 223 255
199 223 255
199 223 255
199 223 255
199 223 255
199 223 255
199 223 255
199 223 255
199 223 255
199 223 255
199 223 255
199 223 255
199 223 255
199 224 255
199 224 255
199 224 255
200 224 255
200 224 255
200 224 255
200 224 255
200 224 255
200 224 255
200 224 255
200 224 255
200 224 255
200 224 255
200 224 255
200 224 255
200 224 255
200 224 255
200 224 255
200 224 255
200 224 255
200 224 255
200 224 255
201 224 255
201 224 255
201 224 255
201 224 255
201 224 255
201 224 255
201 224 255
201 224 255
201 224 255
201 224 255
201 224 255
201 224 255
201 225 255
201 225 255
201 225 255
201 225 255
201 225 255
202 225 255
202 225 255
202 225 255
202 225 255
202 225 255
202 225 255
202 225 255
202 225 255
202 225 255
202 225 255
202 225 255
202 225 255
202 225 255
202 225 255
202 225 255
203 225 255
203 225 255
203 225 255
203 225 255
203 225 255
203 225 255
203 225 255
203 225 255
203 225 255
203 226 255
203 226 255
203 226 255
203 226 255
203 226 255
203 226 255
203 226 255
204 226 255
204 226 255
204 226 255
204 226 255
204 226 255
204 226 255
204 226 255
204 226 255
204 226 255
204 226 255
204 226 255
204 226 255
204 226 255
204 226 255
204 226 255
205 226 255
205 226 255
205 226 255
205 226 255
205 226 255
205 226 255
205 226 255
205 227 255
205 227 255
205 227 255
205 227 255
205 227 255
205 227 255
205 227 255
205 227 255
205 227 255
205 227 255
206 227 255
206 227 255
206 227 255
206 227 255
206 227 255
206 227 255
206 227 255
206 227 255
206 227 255
206 227 255
206 227 255
206 227 255
206 227 255
206 227 255
206 227 255
206 227 255
206 227 255
206 227 255
207 227 255
207 227 255
207 227 255
207 227 255
207 228 255
207 228 255
207 228 255
207 228 255
207 228 255
207 228 255
207 228 255
207 228 255
207 228 255
207 228 255
207 228 255
207 228 255
207 228 255
207 228 255
207 228 255
208 228 255
208 228 255
208 228 255
208 228 255
208 228 255
208 228 255
208 228 255
208 228 255
208 228 255
208 228 255
208 228 255
208 228 255
208 228 255
208 228 255
208 228 255
208 228 255
208 228 255
208 228 255
208 228 255
208 228 255
208 228 255
209 228 255
209 229 255
209 229 255
209 228 255
209 228 255
208 228 255
208 228 255
208 228 255
208 228 255
208 228 255
208 228 255
208 228 255
208 228 255
208 228 255
208 228 255
208 228 255
208 228 255
208 228 255
208 228 255
208 228 255
208 228 255
208 228 255
208 228 255
208 228 255
208 228 255
208 228 255
207 228 255
207 228 255
207 228 255
207 228 255
207 228 255
207 228 255
207 228 255
207 228 255
207 228 255
207 228 255
207 228 255
207 228 255
207 228 255
207 228 255
207 228 255
207 227 255
207 227 255
207 227 255
207 227 255
207 227 255
206 227 255
206 227 255
206 227 255
206 227 255
206 227 255
206 227 255
206 227 255
206 227 255
206 227 255
206 227 255
206 227 255
206 227 255
206 227 255
206 227 255
206 227 255
206 227 255
206 227 255
205 227 255
205 227 255
205 227 255
205 227 255
205 227 255
205 227 255
205 227 255
205 227 255
205 227 255
205 227 255
205 226 255
205 226 255
205 226 255
205 226 255
205 226 255
205 226 255
204 226 255
204 226 255
204 226 255
204 226 255
204 226 255
204 226 255
204 226 255
204 226 255
204 226 255
204 226 255
204 226 255
204 226 255
204 226 255
204 226 255
204 226 255
204 226 255
203 226 255
203 226 255
203 226 255
203 226 255
203 226 255
203 226 255
203 226 255
203 225 255
203 225 255
203 225 255
203 225 255
203 225 255
203 225 255
203 225 255
203 225 255
203 225 255
202 225 255
202 225 255
202 225 255
202 225 255
202 225 255
202 225 255
202 225 255
202 225 255
202 225 255
202 225 255
202 225 255
202 225 255
202 225 255
202 225 255
202 225 255
201 225 255
201 225 255
201 225 255
201 225 255
201 225 255
201 224 255
201 224 255
201 224 255
201 224 255
201 224 255
201 224 255
201 224 255
201 224 255
201 224 255
201 224 255
201 224 255
201 224 255
200 224 255
200 224 255
200 224 255
200 224 255
200 224 255
200 224 255
200 224 255
200 224 255
200 224 255
200 224 255
200 224 255
200 224 255
200 224 255
200 224 255
200 224 255
200 224 255
200 224 255
200 224 255
200 224 255
200 224 255
199 224 255
199 224 255
199 224 255
199 224 255
199 223 255
199 223 255
199 223 255
199 223 255
199 223 255
199 223 255
199 223 255
199 223 255
199 223 255
199 223 255
199 223 255
199 223 255
199 223 255
199 223 255
199 223 255
199 223 255
199 223 255
199 223 255
199 223 255
199 223 255
199 223 255
199 223 255
199 223 255
199 223 255
199 223 255
199 223 255
199 223 255
199 223 255
199 223 255
199 223 255
199 223 255
199 223 255
199 223 255
199 223 255
199 223 255
199 223 255
199 223 255
199 223 255
199 223 255
199 223 255
199 223 255
199 223 255
199 223 255
199 223 255
199 223 255
199 223 255
199 223 255
199 223 255
199 223 255
199 223 255
199 223 255
199 223 255
199 223 255
199 223 255
199 223 255
199 223 255
199 223 255
199 223 255
199 223 255
199 223 255
199 223 255
199 223 255
199 223 255
199 223 255
199 223 255
199 223 255
199 223 255
199 223 255
199 224 255
199 224 255
199 224 255
199 224 255
200 224 255
200 224 255
200 224 255
200 224 255
200 224 255
200 224 255
200 224 255
200 224 255
200 224 255
200 224 255
200 224 255
200 224 255
200 224 255
200 224 255
200 224 255
200 224 255
200 224 255
200 224 255
200 224 255
200 224 255
201 224 255
201 224 255
201 224 255
201 224 255
201 224 255
201 224 255
201 224 255
201 224 255
201 224 255
201 224 255
201 224 255
201 224 255
201 225 255
201 225 255
201 225 255
201 225 255
201 225 255
202 225 255
202 225 255
202 225 255
202 225 255
202 225 255
202 225 255
202 225 255
202 225 255
202 225 255
202 225 255
202 225 255
202 225 255
202 225 255
202 225 255
202 225 255
203 225 255
203 225 255
203 225 255
203 225 255
203 225 255
203 225 255
203 225 255
203 225 255
203 225 255
203 226 255
203 226 255
203 226 255
203 226 255
203 226 255
203 226 255
203 226 255
204 226 255
204 226 255
204 226 255
204 226 255
204 226 255
204 226 255
204 226 255
204 226 255
204 226 255
204 226 255
204 226 255
204 226 255
204 226 255
204 226 255
204 226 255
205 226 255
205 226 255
205 226 255
205 226 255
205 226 255
205 226 255
205 226 255
205 227 255
205 227 255
205 227 255
205 227 255
205 227 255
205 227 255
205 227 255
205 227 255
205 227 255
205 227 255
206 227 255
206 227 255
206 227 255
206 227 255
206 227 255
206 227 255
206 227 255
206 227 255
206 227 255
206 227 255
206 227 255
206 227 255
206 227 255
206 227 255
206 227 255
206 227 255
206 227 255
206 227 255
207 227 255
207 227 255
207 227 255
207 227 255
207 228 255
207 228 255
207 228 255
207 228 255
207 228 255
207 228 255
207 228 255
207 228 255
207 228 255
207 228 255
207 228 255
207 228 255
207 228 255
207 228 255
207 228 255
208 228 255
208 228 255
208 228 255
208 228 255
208 228 255
208 228 255
208 228 255
208 228 255
208 228 255
208 228 255
208 228 255
208 228 255
208 228 255
208 228 255
208 228 255
208 228 255
208 228 255
208 228 255
208 228 255
208 228 255
208 228 255
209 228 255
209 229 255
209 229 255
209 229 255
209 229 255
209 229 255
209 229 255
209 229 255
209 229 255
209 229 255
209 228 255
208 228 255
208 228 255
208 228 255
208 228 255
208 228 255
208 228 255
208 228 255
208 228 255
208 228 255
208 228 255
208 228 255
208 228 255
208 228 255
208 228 255
208 228 255
208 228 255
208 228 255
208 228 255
208 228 255
208 228 255
208 228 255
208 228 255
207 228 255
207 228 255
207 228 255
207 228 255
207 228 255
207 228 255
207 228 255
207 228 255
207 228 255
207 228 255
207 228 255
207 228 255
207 228 255
207 228 255
207 227 255
207 227 255
207 227 255
207 227 255
206 227 255
206 227 255
206 227 255
206 227 255
206 227 255
206 227 255
206 227 255
206 227 255
206 227 255
206 227 255
206 227 255
206 227 255
206 227 255
206 227 255
206 227 255
206 227 255
206 227 255
206 227 255
205 227 255
205 227 255
205 227 255
205 227 255
205 227 255
205 227 255
205 227 255
205 227 255
205 227 255
205 227 255
205 226 255
205 226 255
205 226 255
205 226 255
205 226 255
205 226 255
204 226 255
204 226 255
204 226 255
204 226 255
204 226 255
204 226 255
204 226 255
204 226 255
204 226 255
204 226 255
204 226 255
204 226 255
204 226 255
204 226 255
204 226 255
204 226 255
203 226 255
203 226 255
203 226 255
203 226 255
203 226 255
203 226 255
203 226 255
203 225 255
203 225 255
203 225 255
203 225 255
203 225 255
203 225 255
203 225 255
203 225 255
202 225 255
202 225 255
202 225 255
202 225 255
202 225 255
202 225 255
202 225 255
202 225 255
202 225 255
202 225 255
202 225 255
202 225 255
202 225 255
202 225 255
202 225 255
202 225 255
201 225 255
201 225 255
201 225 255
201 225 255
201 225 255
201 224 255
201 224 255
201 224 255
201 224 255
201 224 255
201 224 255
201 224 255
201 224 255
201 224 255
201 224 255
201 224 255
201 224 255
200 224 255
200 224 255
200 224 255
200 224 255
200 224 255
200 224 255
200 224 255
200 224 255
200 224 255
200 224 255
200 224 255
200 224 255
200 224 255
200 224 255
200 224 255
200 224 255
200 224 255
200 224 255
200 224 255
200 224 255
200 224 255
200 224 255
199 224 255
199 224 255
199 224 255
199 224 255
199 223 255
199 223 255
199 223 255
199 223 255
199 223 255
199 223 255
199 223 255
199 223 255
199 223 255
199 223 255
199 223 255
199 223 255
199 223 255
199 223 255
199 223 255
199 223 255
199 223 255
199 223 255
199 223 255
199 223 255
199 223 255
199 223 255
199 223 255
199 223 255
199 223 255
199 223 255
199 223 255
199 223 255
199 223 255
199 223 255
199 223 255
199 223 255
199 223 255
199 223 255
199 223 255
199 223 255
199 223 255
199 223 255
199 223 255
199 223 255
199 223 255
199 223 255
199 223 255
199 223 255
199 223 255
199 223 255
199 223 255
199 223 255
199 223 255
199 223 255
199 223 255
199 223 255
199 223 255
199 223 255
199 223 255
199 223 255
199 223 255
199 223 255
199 224 255
199 224 255
199 224 255
199 224 255
200 224 255
200 224 255
200 224 255
200 224 255
200 224 255
200 224 255
200 224 255
200 224 255
200 224 255
200 224 255
200 224 255
200 224 255
200 224 255
200 224 255
200 224 255
200 224 255
200 224 255
200 224 255
200 224 255
200 224 255
200 224 255
201 224 255
201 224 255
201 224 255
201 224 255
201 224 255
201 224 255
201 224 255
201 224 255
201 224 255
201 224 255
201 224 255
201 224 255
201 224 255
201 225 255
201 225 255
201 225 255
201 225 255
201 225 255
202 225 255
202 225 255
202 225 255
202 225 255
202 225 255
202 225 255
202 225 255
202 225 255
202 225 255
202 225 255
202 225 255
202 225 255
202 225 255
202 225 255
202 225 255
203 225 255
203 225 255
203 225 255
203 225 255
203 225 255
203 225 255
203 225 255
203 225 255
203 225 255
203 226 255
203 226 255
203 226 255
203 226 255
203 226 255
203 226 255
203 226 255
204 226 255
204 226 255
204 226 255
204 226 255
204 226 255
204 226 255
204 226 255
204 226 255
204 226 255
204 226 255
204 226 255
204 226 255
204 226 255
204 226 255
204 226 255
204 226 255
205 226 255
205 226 255
205 226 255
205 226 255
205 226 255
205 226 255
205 227 255
205 227 255
205 227 255
205 227 255
205 227 255
205 227 255
205 227 255
205 227 255
205 227 255
205 227 255
206 227 255
206 227 255
206 227 255
206 227 255
206 227 255
206 227 255
206 227 255
206 227 255
206 227 255
206 227 255
206 227 255
206 227 255
206 227 255
206 227 255
206 227 255
206 227 255
206 227 255
207 227 255
207 227 255
207 227 255
207 227 255
207 227 255
207 228 255
207 228 255
207 228 255
207 228 255
207 228 255
207 228 255
207 228 255
207 228 255
207 228 255
207 228 255
207 228 255
207 228 255
207 228 255
207 228 255
208 228 255
208 228 255
208 228 255
208 228 255
208 228 255
208 228 255
208 228 255
208 228 255
208 228 255
208 228 255
208 228 255
208 228 255
208 228 255
208 228 255
208 228 255
208 228 255
208 228 255
208 228 255
208 228 255
208 228 255
208 228 255
208 228 255
209 228 255
209 229 255
209 229 255
209 229 255
209 229 255
209 229 255
209 229 255
209 229 255
209 229 255
209 229 255
209 229 255
209 229 255
209 229 255
209 229 255
209 229 255
209 229 255
209 228 255
209 228 255
208 228 255
208 228 255
208 228 255
208 228 255
208 228 255
208 228 255
208 228 255
208 228 255
208 228 255
208 228 255
208 228 255
208 228 255
208 228 255
208 228 255
208 228 255
208 228 255
208 228 255
208 228 255
208 228 255
208 228 255
208 228 255
207 228 255
207 228 255
207 228 255
207 228 255
207 228 255
207 228 255
207 228 255
207 228 255
207 228 255
207 228 255
207 228 255
207 228 255
207 228 255
207 228 255
207 227 255
207 227 255
207 227 255
207 227 255
207 227 255
206 227 255
206 227 255
206 227 255
206 227 255
206 227 255
206 227 255
206 227 255
206 227 255
206 227 255
206 227 255
206 227 255
206 227 255
206 227 255
206 227 255
206 227 255
206 227 255
206 227 255
205 227 255
205 227 255
205 227 255
205 227 255
205 227 255
205 227 255
205 227 255
205 227 255
205 227 255
205 227 255
205 226 255
205 226 255
205 226 255
205 226 255
205 226 255
205 226 255
204 226 255
204 226 255
204 226 255
204 226 255
204 226 255
204 226 255
204 226 255
204 226 255
204 226 255
204 226 255
204 226 255
204 226 255
204 226 255
204 226 255
204 226 255
204 226 255
203 226 255
203 226 255
203 226 255
203 226 255
203 226 255
203 226 255
203 226 255
203 225 255
203 225 255
203 225 255
203 225 255
203 225 255
203 225 255
203 225 255
203 225 255
202 225 255
202 225 255
202 225 255
202 225 255
202 225 255
202 225 255
202 225 255
202 225 255
202 225 255
202 225 255
202 225 255
202 225 255
202 225 255
202 225 255
202 225 255
202 225 255
201 225 255
201 225 255
201 225 255
201 225 255
201 225 255
201 224 255
201 224 255
201 224 255
201 224 255
201 224 255
201 224 255
201 224 255
201 224 255
201 224 255
201 224 255
201 224 255
201 224 255
201 224 255
200 224 255
200 224 255
200 224 255
200 224 255
200 224 255
200 224 255
200 224 255
200 224 255
200 224 255
200 224 255
200 224 255
200 224 255
200 224 255
200 224 255
200 224 255
200 224 255
200 224 255
200 224 255
200 224 255
200 224 255
200 224 255
200 224 255
200 224 255
200 224 255
199 224 255
199 224 255
199 224 255
199 224 255
199 224 255
199 223 255
199 223 255
199 223 255
199 223 255
199 223 255
199 223 255
199 223 255
199 223 255
199 223 255
199 223 255
199 223 255
199 223 255
199 223 255
199 223 255
199 223 255
199 223 255
199 223 255
199 223 255
199 223 255
199 223 255
199 223 255
199 223 255
199 223 255
199 223 255
199 223 255
199 223 255
199 223 255
199 223 255
199 223 255
199 223 255
199 223 255
199 223 255
199 223 255
199 223 255
199 223 255
199 223 255
199 223 255
199 223 255
199 223 255
199 223 255
199 223 255
199 223 255
199 223 255
199 223 255
199 224 255
199 224 255
199 224 255
199 224 255
199 224 255
199 224 255
200 224 255
200 224 255
200 224 255
200 224 255
200 224 255
200 224 255
200 224 255
200 224 255
200 224 255
200 224 255
200 224 255
200 224 255
200 224 255
200 224 255
200 224 255
200 224 255
200 224 255
200 224 255
200 224 255
200 224 255
200 224 255
200 224 255
200 224 255
201 224 255
201 224 255
201 224 255
201 224 255
201 224 255
201 224 255
201 224 255
201 224 255
201 224 255
201 224 255
201 224 255
201 224 255
201 224 255
201 225 255
201 225 255
201 225 255
201 225 255
202 225 255
202 225 255
202 225 255
202 225 255
202 225 255
202 225 255
202 225 255
202 225 255
202 225 255
202 225 255
202 225 255
202 225 255
202 225 255
202 225 255
202 225 255
202 225 255
203 225 255
203 225 255
203 225 255
203 225 255
203 225 255
203 225 255
203 225 255
203 225 255
203 225 255
203 226 255
203 226 255
203 226 255
203 226 255
203 226 255
203 226 255
203 226 255
204 226 255
204 226 255
204 226 255
204 226 255
204 226 255
204 226 255
204 226 255
204 226 255
204 226 255
204 226 255
204 226 255
204 226 255
204 226 255
204 226 255
204 226 255
204 226 255
205 226 255
205 226 255
205 226 255
205 226 255
205 226 255
205 226 255
205 227 255
205 227 255
205 227 255
205 227 255
205 227 255
205 227 255
205 227 255
205 227 255
205 227 255
205 227 255
206 227 255
206 227 255
206 227 255
206 227 255
206 227 255
206 227 255
206 227 255
206 227 255
206 227 255
206 227 255
206 227 255
206 227 255
206 227 255
206 227 255
206 227 255
206 227 255
206 227 255
206 227 255
207 227 255
207 227 255
207 227 255
207 227 255
207 228 255
207 228 255
207 228 255
207 228 255
207 228 255
207 228 255
207 228 255
207 228 255
207 228 255
207 228 255
207 228 255
207 228 255
207 228 255
207 228 255
208 228 255
208 228 255
208 228 255
208 228 255
208 228 255
208 228 255
208 228 255
208 228 255
208 228 255
208 228 255
208 228 255
208 228 255
208 228 255
208 228 255
208 228 255
208 228 255
208 228 255
208 228 255
208 228 255
208 228 255
208 228 255
209 228 255
209 228 255
209 229 255
209 229 255
209 229 255
209 229 255
209 229 255
209 229 255
209 229 255
209 229 255
209 229 255
209 229 255
209 229 255
209 229 255
209 229 255
209 229 255
209 229 255
209 229 255
209 229 255
209 229 255
209 229 255
209 229 255
209 229 255
209 229 255
209 228 255
208 228 255
208 228 255
208 228 255
208 228 255
208 228 255
208 228 255
208 228 255
208 228 255
208 228 255
208 228 255
208 228 255
208 228 255
208 228 255
208 228 255
208 228 255
208 228 255
208 228 255
208 228 255
208 228 255
208 228 255
208 228 255
207 228 255
207 228 255
207 228 255
207 228 255
207 228 255
207 228 255
207 228 255
207 228 255
207 228 255
207 228 255
207 228 255
207 228 255
207 228 255
207 228 255
207 227 255
207 227 255
207 227 255
207 227 255
206 227 255
206 227 255
206 227 255
206 227 255
206 227 255
206 227 255
206 227 255
206 227 255
206 227 255
206 227 255
206 227 255
206 227 255
206 227 255
206 227 255
206 227 255
206 227 255
206 227 255
206 227 255
205 227 255
205 227 255
205 227 255
205 227 255
205 227 255
205 227 255
205 227 255
205 227 255
205 227 255
205 226 255
205 226 255
205 226 255
205 226 255
205 226 255
205 226 255
205 226 255
204 226 255
204 226 255
204 226 255
204 226 255
204 226 255
204 226 255
204 226 255
204 226 255
204 226 255
204 226 255
204 226 255
204 226 255
204 226 255
204 226 255
204 226 255
204 226 255
203 226 255
203 226 255
203 226 255
203 226 255
203 226 255
203 226 255
203 226 255
203 225 255
203 225 255
203 225 255
203 225 255
203 225 255
203 225 255
203 225 255
203 225 255
202 225 255
202 225 255
202 225 255
202 225 255
202 225 255
202 225 255
202 225 255
202 225 255
202 225 255
202 225 255
202 225 255
202 225 255
202 225 255
202 225 255
202 225 255
202 225 255
202 225 255
201 225 255
201 225 255
201 225 255
201 225 255
201 225 255
201 224 255
201 224 255
201 224 255
201 224 255
201 224 255
201 224 255
201 224 255
201 224 255
201 224 255
201 224 255
201 224 255
201 224 255
201 224 255
200 224 255
200 224 255
200 224 255
200 224 255
200 224 255
200 224 255
200 224 255
200 224 255
200 224 255
200 224 255
200 224 255
200 224 255
200 224 255
200 224 255
200 224 255
200 224 255
200 224 255
200 224 255
200 224 255
200 224 255
200 224 255
200 224 255
200 224 255
200 224 255
200 224 255
200 224 255
200 224 255
199 224 255
199 224 255
199 224 255
199 224 255
199 224 255
199 224 255
199 224 255
199 223 255
199 223 255
199 223 255
199 223 255
199 223 255
199 223 255
199 223 255
199 223 255
199 223 255
199 223 255
199 223 255
199 223 255
199 223 255
199 223 255
199 223 255
199 223 255
199 223 255
199 223 255
199 223 255
199 223 255
199 223 255
199 223 255
199 223 255
199 223 255
199 223 255
199 224 255
199 224 255
199 224 255
199 224 255
199 224 255
199 224 255
199 224 255
199 224 255
200 224 255
200 224 255
200 224 255
200 224 255
200 224 255
200 224 255
200 224 255
200 224 255
200 224 255
200 224 255
200 224 255
200 224 255
200 224 255
200 224 255
200 224 255
200 224 255
200 224 255
200 224 255
200 224 255
200 224 255
200 224 255
200 224 255
200 224 255
200 224 255
200 224 255
200 224 255
200 224 255
201 224 255
201 224 255
201 224 255
201 224 255
201 224 255
201 224 255
201 224 255
201 224 255
201 224 255
201 224 255
201 224 255
201 224 255
201 224 255
201 225 255
201 225 255
201 225 255
201 225 255
201 225 255
202 225 255
202 225 255
202 225 255
202 225 255
202 225 255
202 225 255
202 225 255
202 225 255
202 225 255
202 225 255
202 225 255
202 225 255
202 225 255
202 225 255
202 225 255
202 225 255
203 225 255
203 225 255
203 225 255
203 225 255
203 225 255
203 225 255
203 225 255
203 225 255
203 225 255
203 226 255
203 226 255
203 226 255
203 226 255
203 226 255
203 226 255
203 226 255
204 226 255
204 226 255
204 226 255
204 226 255
204 226 255
204 226 255
204 226 255
204 226 255
204 226 255
204 226 255
204 226 255
204 226 255
204 226 255
204 226 255
204 226 255
204 226 255
205 226 255
205 226 255
205 226 255
205 226 255
205 226 255
205 226 255
205 226 255
205 227 255
205 227 255
205 227 255
205 227 255
205 227 255
205 227 255
205 227 255
205 227 255
205 227 255
206 227 255
206 227 255
206 227 255
206 227 255
206 227 255
206 227 255
206 227 255
206 227 255
206 227 255
206 227 255
206 227 255
206 227 255
206 227 255
206 227 255
206 227 255
206 227 255
206 227 255
206 227 255
207 227 255
207 227 255
207 227 255
207 227 255
207 228 255
207 228 255
207 228 255
207 228 255
207 228 255
207 228 255
207 228 255
207 228 255
207 228 255
207 228 255
207 228 255
207 228 255
207 228 255
207 228 255
208 228 255
208 228 255
208 228 255
208 228 255
208 228 255
208 228 255
208 228 255
208 228 255
208 228 255
208 228 255
208 228 255
208 228 255
208 228 255
208 228 255
208 228 255
208 228 255
208 228 255
208 228 255
208 228 255
208 228 255
208 228 255
209 228 255
209 228 255
209 229 255
209 229 255
209 229 255
209 229 255
209 229 255
209 229 255
209 229 255
209 229 255
209 229 255
209 229 255
209 229 255
209 229 255
209 229 255
209 229 255
209 229 255
209 229 255
209 229 255
209 229 255
209 229 255
209 229 255
209 229 255
209 229 255
209 229 255
209 229 255
209 229 255
209 229 255
209 229 255
209 229 255
209 228 255
208 228 255
208 228 255
208 228 255
208 228 255
208 228 255
208 228 255
208 228 255
208 228 255
208 228 255
208 228 255
208 228 255
208 228 255
208 228 255
208 228 255
208 228 255
208 228 255
208 228 255
208 228 255
208 228 255
208 228 255
208 228 255
207 228 255
207 228 255
207 228 255
207 228 255
207 228 255
207 228 255
207 228 255
207 228 255
207 228 255
207 228 255
207 228 255
207 228 255
207 228 255
207 228 255
207 227 255
207 227 255
207 227 255
207 227 255
207 227 255
206 227 255
206 227 255
206 227 255
206 227 255
206 227 255
206 227 255
206 227 255
206 227 255
206 227 255
206 227 255
206 227 255
206 227 255
206 227 255
206 227 255
206 227 255
206 227 255
206 227 255
205 227 255
205 227 255
205 227 255
205 227 255
205 227 255
205 227 255
205 227 255
205 227 255
205 227 255
205 227 255
205 226 255
205 226 255
205 226 255
205 226 255
205 226 255
205 226 255
204 226 255
204 226 255
204 226 255
204 226 255
204 226 255
204 226 255
204 226 255
204 226 255
204 226 255
204 226 255
204 226 255
204 226 255
204 226 255
204 226 255
204 226 255
204 226 255
203 226 255
203 226 255
203 226 255
203 226 255
203 226 255
203 226 255
203 226 255
203 225 255
203 225 255
203 225 255
203 225 255
203 225 255
203 225 255
203 225 255
203 225 255
203 225 255
202 225 255
202 225 255
202 225 255
202 225 255
202 225 255
202 225 255
202 225 255
202 225 255
202 225 255
202 225 255
202 225 255
202 225 255
202 225 255
202 225 255
202 225 255
202 225 255
201 225 255
201 225 255
201 225 255
201 225 255
201 225 255
201 224 255
201 224 255
201 224 255
201 224 255
201 224 255
201 224 255
201 224 255
201 224 255
201 224 255
201 224 255
201 224 255
201 224 255
201 224 255
201 224 255
201 224 255
200 224 255
200 224 255
200 224 255
200 224 255
200 224 255
200 224 255
200 224 255
200 224 255
200 224 255
200 224 255
200 224 255
200 224 255
200 224 255
200 224 255
200 224 255
200 224 255
200 224 255
200 224 255
200 224 255
200 224 255
200 224 255
200 224 255
200 224 255
200 224 255
200 224 255
200 224 255
200 224 255
200 224 255
200 224 255
200 224 255
200 224 255
200 224 255
200 224 255
200 224 255
199 224 255
199 224 255
199 224 255
199 224 255
199 224 255
199 224 255
199 224 255
199 224 255
199 224 255
199 224 255
199 224 255
199 224 255
199 224 255
199 224 255
199 224 255
199 224 255
199 224 255
200 224 255
200 224 255
200 224 255
200 224 255
200 224 255
200 224 255
200 224 255
200 224 255
200 224 255
200 224 255
200 224 255
200 224 255
200 224 255
200 224 255
200 224 255
200 224 255
200 224 255
200 224 255
200 224 255
200 224 255
200 224 255
200 224 255
200 224 255
200 224 255
200 224 255
200 224 255
200 224 255
200 224 255
200 224 255
200 224 255
200 224 255
200 224 255
200 224 255
201 224 255
201 224 255
201 224 255
201 224 255
201 224 255
201 224 255
201 224 255
201 224 255
201 224 255
201 224 255
201 224 255
201 224 255
201 224 255
201 224 255
201 224 255
201 225 255
201 225 255
201 225 255
201 225 255
201 225 255
202 225 255
202 225 255
202 225 255
202 225 255
202 225 255
202 225 255
202 225 255
202 225 255
202 225 255
202 225 255
202 225 255
202 225 255
202 225 255
202 225 255
202 225 255
202 225 255
202 225 255
203 225 255
203 225 255
203 225 255
203 225 255
203 225 255
203 225 255
203 225 255
203 225 255
203 226 255
203 226 255
203 226 255
203 226 255
203 226 255
203 226 255
203 226 255
204 226 255
204 226 255
204 226 255
204 226 255
204 226 255
204 226 255
204 226 255
204 226 255
204 226 255
204 226 255
204 226 255
204 226 255
204 226 255
204 226 255
204 226 255
204 226 255
205 226 255
205 226 255
205 226 255
205 226 255
205 226 255
205 226 255
205 227 255
205 227 255
205 227 255
205 227 255
205 227 255
205 227 255
205 227 255
205 227 255
205 227 255
205 227 255
206 227 255
206 227 255
206 227 255
206 227 255
206 227 255
206 227 255
206 227 255
206 227 255
206 227 255
206 227 255
206 227 255
206 227 255
206 227 255
206 227 255
206 227 255
206 227 255
206 227 255
207 227 255
207 227 255
207 227 255
207 227 255
207 227 255
207 228 255
207 228 255
207 228 255
207 228 255
207 228 255
207 228 255
207 228 255
207 228 255
207 228 255
207 228 255
207 228 255
207 228 255
207 228 255
207 228 255
208 228 255
208 228 255
208 228 255
208 228 255
208 228 255
208 228 255
208 228 255
208 228 255
208 228 255
208 228 255
208 228 255
208 228 255
208 228 255
208 228 255
208 228 255
208 228 255
208 228 255
208 228 255
208 228 255
208 228 255
208 228 255
209 228 255
209 229 255
209 229 255
209 229 255
209 229 255
209 229 255
209 229 255
209 229 255
209 229 255
209 229 255
209 229 255
209 229 255
209 229 255
209 229 255
209 229 255
209 229 255
209 229 255
209 229 255
209 229 255
209 229 255
209 229 255
209 229 255
209 229 255
209 229 255
209 229 255
209 229 255
209 229 255
209 229 255
209 229 255
209 229 255
209 229 255
209 229 255
209 229 255
209 229 255
209 229 255
209 229 255
209 228 255
209 228 255
208 228 255
208 228 255
208 228 255
208 228 255
208 228 255
208 228 255
208 228 255
208 228 255
208 228 255
208 228 255
208 228 255
208 228 255
208 228 255
208 228 255
208 228 255
208 228 255
208 228 255
208 228 255
208 228 255
208 228 255
207 228 255
207 228 255
207 228 255
207 228 255
207 228 255
207 228 255
207 228 255
207 228 255
207 228 255
207 228 255
207 228 255
207 228 255
207 228 255
207 228 255
207 227 255
207 227 255
207 227 255
207 227 255
207 227 255
206 227 255
206 227 255
206 227 255
206 227 255
206 227 255
206 227 255
206 227 255
206 227 255
206 227 255
206 227 255
206 227 255
206 227 255
206 227 255
206 227 255
206 227 255
206 227 255
206 227 255
205 227 255
205 227 255
205 227 255
205 227 255
205 227 255
205 227 255
205 227 255
205 227 255
205 227 255
205 226 255
205 226 255
205 226 255
205 226 255
205 226 255
205 226 255
205 226 255
204 226 255
204 226 255
204 226 255
204 226 255
204 226 255
204 226 255
204 226 255
204 226 255
204 226 255
204 226 255
204 226 255
204 226 255
204 226 255
204 226 255
204 226 255
204 226 255
203 226 255
203 226 255
203 226 255
203 226 255
203 226 255
203 226 255
203 226 255
203 225 255
203 225 255
203 225 255
203 225 255
203 225 255
203 225 255
203 225 255
203 225 255
203 225 255
202 225 255
202 225 255
202 225 255
202 225 255
202 225 255
202 225 255
202 225 255
202 225 255
202 225 255
202 225 255
202 225 255
202 225 255
202 225 255
202 225 255
202 225 255
202 225 255
202 225 255
201 225 255
201 225 255
201 225 255
201 225 255
201 225 255
201 224 255
201 224 255
201 224 255
201 224 255
201 224 255
201 224 255
201 224 255
201 224 255
201 224 255
201 224 255
201 224 255
201 224 255
201 224 255
201 224 255
201 224 255
200 224 255
200 224 255
200 224 255
200 224 255
200 224 255
200 224 255
200 224 255
200 224 255
200 224 255
200 224 255
200 224 255
200 224 255
200 224 255
200 224 255
200 224 255
200 224 255
200 224 255
200 224 255
200 224 255
200 224 255
200 224 255
200 224 255
200 224 255
200 224 255
200 224 255
200 224 255
200 224 255
200 224 255
200 224 255
200 224 255
200 224 255
200 224 255
200 224 255
200 224 255
200 224 255
200 224 255
200 224 255
200 224 255
200 224 255
200 224 255
200 224 255
200 224 255
200 224 255
200 224 255
200 224 255
200 224 255
200 224 255
200 224 255
200 224 255
200 224 255
200 224 255
200 224 255
200 224 255
200 224 255
200 224 255
200 224 255
200 224 255
200 224 255
200 224 255
200 224 255
200 224 255
200 224 255
200 224 255
200 224 255
200 224 255
200 224 255
200 224 255
200 224 255
200 224 255
200 224 255
200 224 255
200 224 255
200 224 255
200 224 255
200 224 255
200 224 255
201 224 255
201 224 255
201 224 255
201 224 255
201 224 255
201 224 255
201 224 255
201 224 255
201 224 255
201 224 255
201 224 255
201 224 255
201 224 255
201 224 255
201 224 255
201 225 255
201 225 255
201 225 255
201 225 255
201 225 255
202 225 255
202 225 255
202 225 255
202 225 255
202 225 255
202 225 255
202 225 255
202 225 255
202 225 255
202 225 255
202 225 255
202 225 255
202 225 255
202 225 255
202 225 255
202 225 255
202 225 255
203 225 255
203 225 255
203 225 255
203 225 255
203 225 255
203 225 255
203 225 255
203 225 255
203 225 255
203 226 255
203 226 255
203 226 255
203 226 255
203 226 255
203 226 255
203 226 255
204 226 255
204 226 255
204 226 255
204 226 255
204 226 255
204 226 255
204 226 255
204 226 255
204 226 255
204 226 255
204 226 255
204 226 255
204 226 255
204 226 255
204 226 255
204 226 255
205 226 255
205 226 255
205 226 255
205 226 255
205 226 255
205 226 255
205 227 255
205 227 255
205 227 255
205 227 255
205 227 255
205 227 255
205 227 255
205 227 255
205 227 255
205 227 255
206 227 255
206 227 255
206 227 255
206 227 255
206 227 255
206 227 255
206 227 255
206 227 255
206 227 255
206 227 255
206 227 255
206 227 255
206 227 255
206 227 255
206 227 255
206 227 255
206 227 255
207 227 255
207 227 255
207 227 255
207 227 255
207 227 255
207 228 255
207 228 255
207 228 255
207 228 255
207 228 255
207 228 255
207 228 255
207 228 255
207 228 255
207 228 255
207 228 255
207 228 255
207 228 255
207 228 255
208 228 255
208 228 255
208 228 255
208 228 255
208 228 255
208 228 255
208 228 255
208 228 255
208 228 255
208 228 255
208 228 255
208 228 255
208 228 255
208 228 255
208 228 255
208 228 255
208 228 255
208 228 255
208 228 255
208 228 255
209 228 255
209 228 255
209 229 255
209 229 255
209 229 255
209 229 255
209 229 255
209 229 255
209 229 255
209 229 255
209 229 255
209 229 255
209 229 255
209 229 255
209 229 255
209 229 255
209 229 255
209 229 255
209 229 255
209 229 255
209 229 255
210 229 255
209 229 255
209 229 255
209 229 255
209 229 255
209 229 255
209 229 255
209 229 255
209 229 255
209 229 255
209 229 255
209 229 255
209 229 255
209 229 255
209 229 255
209 229 255
209 229 255
209 229 255
209 229 255
209 229 255
209 229 255
209 229 255
209 229 255
209 228 255
208 228 255
208 228 255
208 228 255
208 228 255
208 228 255
208 228 255
208 228 255
208 228 255
208 228 255
208 228 255
208 228 255
208 228 255
208 228 255
208 228 255
208 228 255
208 228 255
208 228 255
208 228 255
208 228 255
208 228 255
207 228 255
207 228 255
207 228 255
207 228 255
207 228 255
207 228 255
207 228 255
207 228 255
207 228 255
207 228 255
207 228 255
207 228 255
207 228 255
207 228 255
207 227 255
207 227 255
207 227 255
207 227 255
207 227 255
206 227 255
206 227 255
206 227 255
206 227 255
206 227 255
206 227 255
206 227 255
206 227 255
206 227 255
206 227 255
206 227 255
206 227 255
206 227 255
206 227 255
206 227 255
206 227 255
206 227 255
205 227 255
205 227 255
205 227 255
205 227 255
205 227 255
205 227 255
205 227 255
205 227 255
205 227 255
205 226 255
205 226 255
205 226 255
205 226 255
205 226 255
205 226 255
205 226 255
204 226 255
204 226 255
204 226 255
204 226 255
204 226 255
204 226 255
204 226 255
204 226 255
204 226 255
204 226 255
204 226 255
204 226 255
204 226 255
204 226 255
204 226 255
204 226 255
203 226 255
203 226 255
203 226 255
203 226 255
203 226 255
203 226 255
203 226 255
203 225 255
203 225 255
203 225 255
203 225 255
203 225 255
203 225 255
203 225 255
203 225 255
203 225 255
202 225 255
202 225 255
202 225 255
202 225 255
202 225 255
202 225 255
202 225 255
202 225 255
202 225 255
202 225 255
202 225 255
202 225 255
202 225 255
202 225 255
202 225 255
202 225 255
202 225 255
202 225 255
201 225 255
201 225 255
201 225 255
201 225 255
201 225 255
201 224 255
201 224 255
201 224 255
201 224 255
201 224 255
201 224 255
201 224 255
201 224 255
201 224 255
201 224 255
201 224 255
201 224 255
201 224 255
201 224 255
201 224 255
201 224 255
201 224 255
200 224 255
200 224 255
200 224 255
200 224 255
200 224 255
200 224 255
200 224 255
200 224 255
200 224 255
200 224 255
200 224 255
200 224 255
200 224 255
200 224 255
200 224 255
200 224 255
200 224 255
200 224 255
200 224 255
200 224 255
200 224 255
200 224 255
200 224 255
200 224 255
200 224 255
200 224 255
200 224 255
200 224 255
200 224 255
200 224 255
200 224 255
200 224 255
200 224 255
200 224 255
200 224 255
200 224 255
200 224 255
200 224 255
200 224 255
200 224 255
200 224 255
200 224 255
200 224 255
200 224 255
200 224 255
200 224 255
200 224 255
200 224 255
200 224 255
200 224 255
200 224 255
200 224 255
200 224 255
200 224 255
200 224 255
200 224 255
200 224 255
200 224 255
200 224 255
200 224 255
200 224 255
200 224 255
200 224 255
200 224 255
200 224 255
201 224 255
201 224 255
201 224 255
201 224 255
201 224 255
201 224 255
201 224 255
201 224 255
201 224 255
201 224 255
201 224 255
201 224 255
201 224 255
201 224 255
201 224 255
201 224 255
201 225 255
201 225 255
201 225 255
201 225 255
201 225 255
201 225 255
202 225 255
202 225 255
202 225 255
202 225 255
202 225 255
202 225 255
202 225 255
202 225 255
202 225 255
202 225 255
202 225 255
202 225 255
202 225 255
202 225 255
202 225 255
202 225 255
202 225 255
203 225 255
203 225 255
203 225 255
203 225 255
203 225 255
203 225 255
203 225 255
203 225 255
203 225 255
203 226 255
203 226 255
203 226 255
203 226 255
203 226 255
203 226 255
203 226 255
204 226 255
204 226 255
204 226 255
204 226 255
204 226 255
204 226 255
204 226 255
204 226 255
204 226 255
204 226 255
204 226 255
204 226 255
204 226 255
204 226 255
204 226 255
204 226 255
205 226 255
205 226 255
205 226 255
205 226 255
205 226 255
205 226 255
205 227 255
205 227 255
205 227 255
205 227 255
205 227 255
205 227 255
205 227 255
205 227 255
205 227 255
205 227 255
206 227 255
206 227 255
206 227 255
206 227 255
206 227 255
206 227 255
206 227 255
206 227 255
206 227 255
206 227 255
206 227 255
206 227 255
206 227 255
206 227 255
206 227 255
206 227 255
206 227 255
207 227 255
207 227 255
207 227 255
207 227 255
207 227 255
207 228 255
207 228 255
207 228 255
207 228 255
207 228 255
207 228 255
207 228 255
207 228 255
207 228 255
207 228 255
207 228 255
207 228 255
207 228 255
207 228 255
208 228 255
208 228 255
208 228 255
208 228 255
208 228 255
208 228 255
208 228 255
208 228 255
208 228 255
208 228 255
208 228 255
208 228 255
208 228 255
208 228 255
208 228 255
208 228 255
208 228 255
208 228 255
208 228 255
208 228 255
209 228 255
209 228 255
209 229 255
209 229 255
209 229 255
209 229 255
209 229 255
209 229 255
209 229 255
209 229 255
209 229 255
209 229 255
209 229 255
209 229 255
209 229 255
209 229 255
209 229 255
209 229 255
209 229 255
209 229 255
209 229 255
209 229 255
209 229 255
210 229 255
210 229 255
210 229 255
210 229 255
210 229 255
210 229 255
209 229 255
209 229 255
209 229 255
209 229 255
209 229 255
209 229 255
209 229 255
209 229 255
209 229 255
209 229 255
209 229 255
209 229 255
209 229 255
209 229 255
209 229 255
209 229 255
209 229 255
209 229 255
209 229 255
209 229 255
209 229 255
209 228 255
208 228 255
208 228 255
208 228 255
208 228 255
208 228 255
208 228 255
208 228 255
208 228 255
208 228 255
208 228 255
208 228 255
208 228 255
208 228 255
208 228 255
208 228 255
208 228 255
208 228 255
208 228 255
208 228 255
208 228 255
207 228 255
207 228 255
207 228 255
207 228 255
207 228 255
207 228 255
207 228 255
207 228 255
207 228 255
207 228 255
207 228 255
207 228 255
207 228 255
207 228 255
207 227 255
207 227 255
207 227 255
207 227 255
207 227 255
206 227 255
206 227 255
206 227 255
206 227 255
206 227 255
206 227 255
206 227 255
206 227 255
206 227 255
206 227 255
206 227 255
206 227 255
206 227 255
206 227 255
206 227 255
206 227 255
206 227 255
205 227 255
205 227 255
205 227 255
205 227 255
205 227 255
205 227 255
205 227 255
205 227 255
205 227 255
205 226 255
205 226 255
205 226 255
205 226 255
205 226 255
205 226 255
205 226 255
204 226 255
204 226 255
204 226 255
204 226 255
204 226 255
204 226 255
204 226 255
204 226 255
204 226 255
204 226 255
204 226 255
204 226 255
204 226 255
204 226 255
204 226 255
204 226 255
203 226 255
203 226 255
203 226 255
203 226 255
203 226 255
203 226 255
203 226 255
203 225 255
203 225 255
203 225 255
203 225 255
203 225 255
203 225 255
203 225 255
203 225 255
203 225 255
203 225 255
202 225 255
202 225 255
202 225 255
202 225 255
202 225 255
202 225 255
202 225 255
202 225 255
202 225 255
202 225 255
202 225 255
202 225 255
202 225 255
202 225 255
202 225 255
202 225 255
202 225 255
202 225 255
201 225 255
201 225 255
201 225 255
201 225 255
201 225 255
201 225 255
201 224 255
201 224 255
201 224 255
201 224 255
201 224 255
201 224 255
201 224 255
201 224 255
201 224 255
201 224 255
201 224 255
201 224 255
201 224 255
201 224 255
201 224 255
201 224 255
201 224 255
201 224 255
200 224 255
200 224 255
200 224 255
200 224 255
200 224 255
200 224 255
200 224 255
200 224 255
200 224 255
200 224 255
200 224 255
200 224 255
200 224 255
200 224 255
200 224 255
200 224 255
200 224 255
200 224 255
200 224 255
200 224 255
200 224 255
200 224 255
200 224 255
200 224 255
200 224 255
200 224 255
200 224 255
200 224 255
200 224 255
200 224 255
200 224 255
200 224 255
200 224 255
200 224 255
200 224 255
200 224 255
200 224 255
200 224 255
200 224 255
200 224 255
200 224 255
200 224 255
200 224 255
200 224 255
200 224 255
200 224 255
200 224 255
200 224 255
200 224 255
200 224 255
200 224 255
200 224 255
200 224 255
201 224 255
201 224 255
201 224 255
201 224 255
201 224 255
201 224 255
201 224 255
201 224 255
201 224 255
201 224 255
201 224 255
201 224 255
201 224 255
201 224 255
201 224 255
201 224 255
201 224 255
201 225 255
201 225 255
201 225 255
201 225 255
201 225 255
201 225 255
202 225 255
202 225 255
202 225 255
202 225 255
202 225 255
202 225 255
202 225 255
202 225 255
202 225 255
202 225 255
202 225 255
202 225 255
202 225 255
202 225 255
202 225 255
202 225 255
202 225 255
202 225 255
203 225 255
203 225 255
203 225 255
203 225 255
203 225 255
203 225 255
203 225 255
203 225 255
203 225 255
203 225 255
203 226 255
203 226 255
203 226 255
203 226 255
203 226 255
203 226 255
203 226 255
204 226 255
204 226 255
204 226 255
204 226 255
204 226 255
204 226 255
204 226 255
204 226 255
204 226 255
204 226 255
204 226 255
204 226 255
204 226 255
204 226 255
204 226 255
204 226 255
205 226 255
205 226 255
205 226 255
205 226 255
205 226 255
205 226 255
205 227 255
205 227 255
205 227 255
205 227 255
205 227 255
205 227 255
205 227 255
205 227 255
205 227 255
205 227 255
206 227 255
206 227 255
206 227 255
206 227 255
206 227 255
206 227 255
206 227 255
206 227 255
206 227 255
206 227 255
206 227 255
206 227 255
206 227 255
206 227 255
206 227 255
206 227 255
206 227 255
207 227 255
207 227 255
207 227 255
207 227 255
207 227 255
207 228 255
207 228 255
207 228 255
207 228 255
207 228 255
207 228 255
207 228 255
207 228 255
207 228 255
207 228 255
207 228 255
207 228 255
207 228 255
207 228 255
208 228 255
208 228 255
208 228 255
208 228 255
208 228 255
208 228 255
208 228 255
208 228 255
208 228 255
208 228 255
208 228 255
208 228 255
208 228 255
208 228 255
208 228 255
208 228 255
208 228 255
208 228 255
208 228 255
208 228 255
209 228 255
209 229 255
209 229 255
209 229 255
209 229 255
209 229 255
209 229 255
209 229 255
209 229 255
209 229 255
209 229 255
209 229 255
209 229 255
209 229 255
209 229 255
209 229 255
209 229 255
209 229 255
209 229 255
209 229 255
209 229 255
209 229 255
210 229 255
210 229 255
210 229 255
210 229 255
210 229 255
210 229 255
210 229 255
210 229 255
210 229 255
210 229 255
210 229 255
210 229 255
210 229 255
209 229 255
209 229 255
209 229 255
209 229 255
209 229 255
209 229 255
209 229 255
209 229 255
209 229 255
209 229 255
209 229 255
209 229 255
209 229 255
209 229 255
209 229 255
209 229 255
209 229 255
209 229 255
209 229 255
209 229 255
209 229 255
209 228 255
209 228 255
208 228 255
208 228 255
208 228 255
208 228 255
208 228 255
208 228 255
208 228 255
208 228 255
208 228 255
208 228 255
208 228 255
208 228 255
208 228 255
208 228 255
208 228 255
208 228 255
208 228 255
208 228 255
208 228 255
208 228 255
207 228 255
207 228 255
207 228 255
207 228 255
207 228 255
207 228 255
207 228 255
207 228 255
207 228 255
207 228 255
207 228 255
207 228 255
207 228 255
207 228 255
207 227 255
207 227 255
207 227 255
207 227 255
206 227 255
206 227 255
206 227 255
206 227 255
206 227 255
206 227 255
206 227 255
206 227 255
206 227 255
206 227 255
206 227 255
206 227 255
206 227 255
206 227 255
206 227 255
206 227 255
206 227 255
205 227 255
205 227 255
205 227 255
205 227 255
205 227 255
205 227 255
205 227 255
205 227 255
205 227 255
205 227 255
205 226 255
205 226 255
205 226 255
205 226 255
205 226 255
205 226 255
204 226 255
204 226 255
204 226 255
204 226 255
204 226 255
204 226 255
204 226 255
204 226 255
204 226 255
204 226 255
204 226 255
204 226 255
204 226 255
204 226 255
204 226 255
204 226 255
203 226 255
203 226 255
203 226 255
203 226 255
203 226 255
203 226 255
203 226 255
203 225 255
203 225 255
203 225 255
203 225 255
203 225 255
203 225 255
203 225 255
203 225 255
203 225 255
203 225 255
202 225 255
202 225 255
202 225 255
202 225 255
202 225 255
202 225 255
202 225 255
202 225 255
202 225 255
202 225 255
202 225 255
202 225 255
202 225 255
202 225 255
202 225 255
202 225 255
202 225 255
202 225 255
202 225 255
201 225 255
201 225 255
201 225 255
201 225 255
201 225 255
201 225 255
201 224 255
201 224 255
201 224 255
201 224 255
201 224 255
201 224 255
201 224 255
201 224 255
201 224 255
201 224 255
201 224 255
201 224 255
201 224 255
201 224 255
201 224 255
201 224 255
201 224 255
201 224 255
201 224 255
201 224 255
201 224 255
201 224 255
200 224 255
200 224 255
200 224 255
200 224 255
200 224 255
200 224 255
200 224 255
200 224 255
200 224 255
200 224 255
200 224 255
200 224 255
200 224 255
200 224 255
200 224 255
200 224 255
200 224 255
200 224 255
200 224 255
200 224 255
200 224 255
200 224 255
200 224 255
200 224 255
200 224 255
200 224 255
200 224 255
200 224 255
200 224 255
200 224 255
200 224 255
200 224 255
200 224 255
200 224 255
200 224 255
200 224 255
201 224 255
201 224 255
201 224 255
201 224 255
201 224 255
201 224 255
201 224 255
201 224 255
201 224 255
201 224 255
201 224 255
201 224 255
201 224 255
201 224 255
201 224 255
201 224 255
201 224 255
201 224 255
201 224 255
201 224 255
201 224 255
201 224 255
201 225 255
201 225 255
201 225 255
201 225 255
201 225 255
201 225 255
202 225 255
202 225 255
202 225 255
202 225 255
202 225 255
202 225 255
202 225 255
202 225 255
202 225 255
202 225 255
202 225 255
202 225 255
202 225 255
202 225 255
202 225 255
202 225 255
202 225 255
202 225 255
202 225 255
203 225 255
203 225 255
203 225 255
203 225 255
203 225 255
203 225 255
203 225 255
203 225 255
203 225 255
203 226 255
203 226 255
203 226 255
203 226 255
203 226 255
203 226 255
203 226 255
204 226 255
204 226 255
204 226 255
204 226 255
204 226 255
204 226 255
204 226 255
204 226 255
204 226 255
204 226 255
204 226 255
204 226 255
204 226 255
204 226 255
204 226 255
204 226 255
204 226 255
205 226 255
205 226 255
205 226 255
205 226 255
205 226 255
205 226 255
205 227 255
205 227 255
205 227 255
205 227 255
205 227 255
205 227 255
205 227 255
205 227 255
205 227 255
205 227 255
206 227 255
206 227 255
206 227 255
206 227 255
206 227 255
206 227 255
206 227 255
206 227 255
206 227 255
206 227 255
206 227 255
206 227 255
206 227 255
206 227 255
206 227 255
206 227 255
206 227 255
207 227 255
207 227 255
207 227 255
207 227 255
207 228 255
207 228 255
207 228 255
207 228 255
207 228 255
207 228 255
207 228 255
207 228 255
207 228 255
207 228 255
207 228 255
207 228 255
207 228 255
207 228 255
208 228 255
208 228 255
208 228 255
208 228 255
208 228 255
208 228 255
208 228 255
208 228 255
208 228 255
208 228 255
208 228 255
208 228 255
208 228 255
208 228 255
208 228 255
208 228 255
208 228 255
208 228 255
208 228 255
208 228 255
209 228 255
209 228 255
209 229 255
209 229 255
209 229 255
209 229 255
209 229 255
209 229 255
209 229 255
209 229 255
209 229 255
209 229 255
209 229 255
209 229 255
209 229 255
209 229 255
209 229 255
209 229 255
209 229 255
209 229 255
209 229 255
209 229 255
209 229 255
210 229 255
210 229 255
210 229 255
210 229 255
210 229 255
210 229 255
210 229 255
210 229 255
210 229 255
210 229 255
210 229 255
210 229 255
210 229 255
210 229 255
210 229 255
210 229 255
210 229 255
210 229 255
210 229 255
210 229 255
209 229 255
209 229 255
209 229 255
209 229 255
209 229 255
209 229 255
209 229 255
209 229 255
209 229 255
209 229 255
209 229 255
209 229 255
209 229 255
209 229 255
209 229 255
209 229 255
209 229 255
209 229 255
209 229 255
209 229 255
209 229 255
209 228 255
208 228 255
208 228 255
208 228 255
208 228 255
208 228 255
208 228 255
208 228 255
208 228 255
208 228 255
208 228 255
208 228 255
208 228 255
208 228 255
208 228 255
208 228 255
208 228 255
208 228 255
208 228 255
208 228 255
208 228 255
207 228 255
207 228 255
207 228 255
207 228 255
207 228 255
207 228 255
207 228 255
207 228 255
207 228 255
207 228 255
207 228 255
207 228 255
207 228 255
207 228 255
207 227 255
207 227 255
207 227 255
207 227 255
206 227 255
206 227 255
206 227 255
206 227 255
206 227 255
206 227 255
206 227 255
206 227 255
206 227 255
206 227 255
206 227 255
206 227 255
206 227 255
206 227 255
206 227 255
206 227 255
206 227 255
205 227 255
205 227 255
205 227 255
205 227 255
205 227 255
205 227 255
205 227 255
205 227 255
205 227 255
205 227 255
205 226 255
205 226 255
205 226 255
205 226 255
205 226 255
205 226 255
204 226 255
204 226 255
204 226 255
204 226 255
204 226 255
204 226 255
204 226 255
204 226 255
204 226 255
204 226 255
204 226 255
204 226 255
204 226 255
204 226 255
204 226 255
204 226 255
204 226 255
203 226 255
203 226 255
203 226 255
203 226 255
203 226 255
203 226 255
203 226 255
203 225 255
203 225 255
203 225 255
203 225 255
203 225 255
203 225 255
203 225 255
203 225 255
203 225 255
203 225 255
202 225 255
202 225 255
202 225 255
202 225 255
202 225 255
202 225 255
202 225 255
202 225 255
202 225 255
202 225 255
202 225 255
202 225 255
202 225 255
202 225 255
202 225 255
202 225 255
202 225 255
202 225 255
202 225 255
201 225 255
201 225 255
201 225 255
201 225 255
201 225 255
201 225 255
201 225 255
201 225 255
201 224 255
201 224 255
201 224 255
201 224 255
201 224 255
201 224 255
201 224 255
201 224 255
201 224 255
201 224 255
201 224 255
201 224 255
201 224 255
201 224 255
201 224 255
201 224 255
201 224 255
201 224 255
201 224 255
201 224 255
201 224 255
201 224 255
201 224 255
201 224 255
201 224 255
201 224 255
201 224 255
201 224 255
201 224 255
201 224 255
201 224 255
201 224 255
201 224 255
201 224 255
201 224 255
201 224 255
201 224 255
201 224 255
201 224 255
201 224 255
201 224 255
201 224 255
201 224 255
201 224 255
201 224 255
201 224 255
201 224 255
201 224 255
201 224 255
201 224 255
201 224 255
201 224 255
201 224 255
201 224 255
201 224 255
201 224 255
201 224 255
201 224 255
201 224 255
201 224 255
201 224 255
201 224 255
201 224 255
201 224 255
201 224 255
201 224 255
201 224 255
201 224 255
201 224 255
201 225 255
201 225 255
201 225 255
201 225 255
201 225 255
201 225 255
202 225 255
202 225 255
202 225 255
202 225 255
202 225 255
202 225 255
202 225 255
202 225 255
202 225 255
202 225 255
202 225 255
202 225 255
202 225 255
202 225 255
202 225 255
202 225 255
202 225 255
202 225 255
202 225 255
202 225 255
202 225 255
203 225 255
203 225 255
203 225 255
203 225 255
203 225 255
203 225 255
203 225 255
203 225 255
203 225 255
203 226 255
203 226 255
203 226 255
203 226 255
203 226 255
203 226 255
203 226 255
204 226 255
204 226 255
204 226 255
204 226 255
204 226 255
204 226 255
204 226 255
204 226 255
204 226 255
204 226 255
204 226 255
204 226 255
204 226 255
204 226 255
204 226 255
204 226 255
205 226 255
205 226 255
205 226 255
205 226 255
205 226 255
205 226 255
205 226 255
205 227 255
205 227 255
205 227 255
205 227 255
205 227 255
205 227 255
205 227 255
205 227 255
205 227 255
205 227 255
206 227 255
206 227 255
206 227 255
206 227 255
206 227 255
206 227 255
206 227 255
206 227 255
206 227 255
206 227 255
206 227 255
206 227 255
206 227 255
206 227 255
206 227 255
206 227 255
206 227 255
207 227 255
207 227 255
207 227 255
207 227 255
207 228 255
207 228 255
207 228 255
207 228 255
207 228 255
207 228 255
207 228 255
207 228 255
207 228 255
207 228 255
207 228 255
207 228 255
207 228 255
207 228 255
208 228 255
208 228 255
208 228 255
208 228 255
208 228 255
208 228 255
208 228 255
208 228 255
208 228 255
208 228 255
208 228 255
208 228 255
208 228 255
208 228 255
208 228 255
208 228 255
208 228 255
208 228 255
208 228 255
208 228 255
209 228 255
209 229 255
209 229 255
209 229 255
209 229 255
209 229 255
209 229 255
209 229 255
209 229 255
209 229 255
209 229 255
209 229 255
209 229 255
209 229 255
209 229 255
209 229 255
209 229 255
209 229 255
209 229 255
209 229 255
209 229 255
209 229 255
210 229 255
210 229 255
210 229 255
210 229 255
210 229 255
210 229 255
210 229 255
210 229 255
210 229 255
210 229 255
210 229 255
210 229 255
210 229 255
210 229 255
210 229 255
210 229 255
210 229 255
210 229 255
210 229 255
210 229 255
210 229 255
210 229 255
210 229 255
210 229 255
210 229 255
210 229 255
210 229 255
210 229 255
209 229 255
209 229 255
209 229 255
209 229 255
209 229 255
209 229 255
209 229 255
209 229 255
209 229 255
209 229 255
209 229 255
209 229 255
209 229 255
209 229 255
209 229 255
209 229 255
209 229 255
209 229 255
209 229 255
209 229 255
209 228 255
209 228 255
208 228 255
208 228 255
208 228 255
208 228 255
208 228 255
208 228 255
208 228 255
208 228 255
208 228 255
208 228 255
208 228 255
208 228 255
208 228 255
208 228 255
208 228 255
208 228 255
208 228 255
208 228 255
208 228 255
207 228 255
207 228 255
207 228 255
207 228 255
207 228 255
207 228 255
207 228 255
207 228 255
207 228 255
207 228 255
207 228 255
207 228 255
207 228 255
207 228 255
207 227 255
207 227 255
207 227 255
207 227 255
206 227 255
206 227 255
206 227 255
206 227 255
206 227 255
206 227 255
206 227 255
206 227 255
206 227 255
206 227 255
206 227 255
206 227 255
206 227 255
206 227 255
206 227 255
206 227 255
206 227 255
205 227 255
205 227 255
205 227 255
205 227 255
205 227 255
205 227 255
205 227 255
205 227 255
205 227 255
205 227 255
205 226 255
205 226 255
205 226 255
205 226 255
205 226 255
205 226 255
205 226 255
204 226 255
204 226 255
204 226 255
204 226 255
204 226 255
204 226 255
204 226 255
204 226 255
204 226 255
204 226 255
204 226 255
204 226 255
204 226 255
204 226 255
204 226 255
204 226 255
203 226 255
203 226 255
203 226 255
203 226 255
203 226 255
203 226 255
203 226 255
203 226 255
203 225 255
203 225 255
203 225 255
203 225 255
203 225 255
203 225 255
203 225 255
203 225 255
203 225 255
203 225 255
202 225 255
202 225 255
202 225 255
202 225 255
202 225 255
202 225 255
202 225 255
202 225 255
202 225 255
202 225 255
202 225 255
202 225 255
202 225 255
202 225 255
202 225 255
202 225 255
202 225 255
202 225 255
202 225 255
202 225 255
202 225 255
201 225 255
201 225 255
201 225 255
201 225 255
201 225 255
201 225 255
201 225 255
201 225 255
201 224 255
201 224 255
201 224 255
201 224 255
201 224 255
201 224 255
201 224 255
201 224 255
201 224 255
201 224 255
201 224 255
201 224 255
201 224 255
201 224 255
201 224 255
201 224 255
201 224 255
201 224 255
201 224 255
201 224 255
201 224 255
201 224 255
201 224 255
201 224 255
201 224 255
201 224 255
201 224 255
201 224 255
201 224 255
201 224 255
201 224 255
201 224 255
201 224 255
201 224 255
201 224 255
201 224 255
201 224 255
201 224 255
201 224 255
201 224 255
201 224 255
201 224 255
201 224 255
201 224 255
201 224 255
201 224 255
201 224 255
201 224 255
201 224 255
201 224 255
201 224 255
201 224 255
201 224 255
201 224 255
201 224 255
201 224 255
201 225 255
201 225 255
201 225 255
201 225 255
201 225 255
201 225 255
201 225 255
201 225 255
202 225 255
202 225 255
202 225 255
202 225 255
202 225 255
202 225 255
202 225 255
202 225 255
202 225 255
202 225 255
202 225 255
202 225 255
202 225 255
202 225 255
202 225 255
202 225 255
202 225 255
202 225 255
202 225 255
202 225 255
202 225 255
203 225 255
203 225 255
203 225 255
203 225 255
203 225 255
203 225 255
203 225 255
203 225 255
203 225 255
203 225 255
203 226 255
203 226 255
203 226 255
203 226 255
203 226 255
203 226 255
203 226 255
203 226 255
204 226 255
204 226 255
204 226 255
204 226 255
204 226 255
204 226 255
204 226 255
204 226 255
204 226 255
204 226 255
204 226 255
204 226 255
204 226 255
204 226 255
204 226 255
204 226 255
205 226 255
205 226 255
205 226 255
205 226 255
205 226 255
205 226 255
205 226 255
205 227 255
205 227 255
205 227 255
205 227 255
205 227 255
205 227 255
205 227 255
205 227 255
205 227 255
205 227 255
206 227 255
206 227 255
206 227 255
206 227 255
206 227 255
206 227 255
206 227 255
206 227 255
206 227 255
206 227 255
206 227 255
206 227 255
206 227 255
206 227 255
206 227 255
206 227 255
206 227 255
207 227 255
207 227 255
207 227 255
207 227 255
207 228 255
207 228 255
207 228 255
207 228 255
207 228 255
207 228 255
207 228 255
207 228 255
207 228 255
207 228 255
207 228 255
207 228 255
207 228 255
207 228 255
208 228 255
208 228 255
208 228 255
208 228 255
208 228 255
208 228 255
208 228 255
208 228 255
208 228 255
208 228 255
208 228 255
208 228 255
208 228 255
208 228 255
208 228 255
208 228 255
208 228 255
208 228 255
208 228 255
209 228 255
209 228 255
209 229 255
209 229 255
209 229 255
209 229 255
209 229 255
209 229 255
209 229 255
209 229 255
209 229 255
209 229 255
209 229 255
209 229 255
209 229 255
209 229 255
209 229 255
209 229 255
209 229 255
209 229 255
209 229 255
209 229 255
210 229 255
210 229 255
210 229 255
210 229 255
210 229 255
210 229 255
210 229 255
210 229 255
210 229 255
210 229 255
210 229 255
210 229 255
210 229 255
210 229 255
210 229 255
210 229 255
210 229 255
210 229 255
210 229 255
210 229 255
210 229 255
210 229 255
210 229 255
210 229 255
210 229 255
210 229 255
210 229 255
210 229 255
210 229 255
210 229 255
210 229 255
210 229 255
210 229 255
210 229 255
210 229 255
209 229 255
209 229 255
209 229 255
209 229 255
209 229 255
209 229 255
209 229 255
209 229 255
209 229 255
209 229 255
209 229 255
209 229 255
209 229 255
209 229 255
209 229 255
209 229 255
209 229 255
209 229 255
209 229 255
209 229 255
209 229 255
209 228 255
208 228 255
208 228 255
208 228 255
208 228 255
208 228 255
208 228 255
208 228 255
208 228 255
208 228 255
208 228 255
208 228 255
208 228 255
208 228 255
208 228 255
208 228 255
208 228 255
208 228 255
208 228 255
208 228 255
208 228 255
207 228 255
207 228 255
207 228 255
207 228 255
207 228 255
207 228 255
207 228 255
207 228 255
207 228 255
207 228 255
207 228 255
207 228 255
207 228 255
207 227 255
207 227 255
207 227 255
207 227 255
206 227 255
206 227 255
206 227 255
206 227 255
206 227 255
206 227 255
206 227 255
206 227 255
206 227 255
206 227 255
206 227 255
206 227 255
206 227 255
206 227 255
206 227 255
206 227 255
206 227 255
206 227 255
205 227 255
205 227 255
205 227 255
205 227 255
205 227 255
205 227 255
205 227 255
205 227 255
205 227 255
205 226 255
205 226 255
205 226 255
205 226 255
205 226 255
205 226 255
205 226 255
204 226 255
204 226 255
204 226 255
204 226 255
204 226 255
204 226 255
204 226 255
204 226 255
204 226 255
204 226 255
204 226 255
204 226 255
204 226 255
204 226 255
204 226 255
204 226 255
204 226 255
203 226 255
203 226 255
203 226 255
203 226 255
203 226 255
203 226 255
203 226 255
203 225 255
203 225 255
203 225 255
203 225 255
203 225 255
203 225 255
203 225 255
203 225 255
203 225 255
203 225 255
203 225 255
202 225 255
202 225 255
202 225 255
202 225 255
202 225 255
202 225 255
202 225 255
202 225 255
202 225 255
202 225 255
202 225 255
202 225 255
202 225 255
202 225 255
202 225 255
202 225 255
202 225 255
202 225 255
202 225 255
202 225 255
202 225 255
202 225 255
202 225 255
201 225 255
201 225 255
201 225 255
201 225 255
201 225 255
201 225 255
201 225 255
201 225 255
201 225 255
201 225 255
201 224 255
201 224 255
201 224 255
201 224 255
201 224 255
201 224 255
201 224 255
201 224 255
201 224 255
201 224 255
201 224 255
201 224 255
201 224 255
201 224 255
201 224 255
201 224 255
201 224 255
201 224 255
201 224 255
201 224 255
201 224 255
201 224 255
201 224 255
201 224 255
201 224 255
201 224 255
201 224 255
201 224 255
201 224 255
201 224 255
201 224 255
201 224 255
201 224 255
201 224 255
201 224 255
201 224 255
201 224 255
201 224 255
201 224 255
201 224 255
201 225 255
201 225 255
201 225 255
201 225 255
201 225 255
201 225 255
201 225 255
201 225 255
201 225 255
201 225 255
202 225 255
202 225 255
202 225 255
202 225 255
202 225 255
202 225 255
202 225 255
202 225 255
202 225 255
202 225 255
202 225 255
202 225 255
202 225 255
202 225 255
202 225 255
202 225 255
202 225 255
202 225 255
202 225 255
202 225 255
202 225 255
202 225 255
202 225 255
203 225 255
203 225 255
203 225 255
203 225 255
203 225 255
203 225 255
203 225 255
203 225 255
203 225 255
203 225 255
203 225 255
203 226 255
203 226 255
203 226 255
203 226 255
203 226 255
203 226 255
203 226 255
204 226 255
204 226 255
204 226 255
204 226 255
204 226 255
204 226 255
204 226 255
204 226 255
204 226 255
204 226 255
204 226 255
204 226 255
204 226 255
204 226 255
204 226 255
204 226 255
204 226 255
205 226 255
205 226 255
205 226 255
205 226 255
205 226 255
205 226 255
205 226 255
205 227 255
205 227 255
205 227 255
205 227 255
205 227 255
205 227 255
205 227 255
205 227 255
205 227 255
206 227 255
206 227 255
206 227 255
206 227 255
206 227 255
206 227 255
206 227 255
206 227 255
206 227 255
206 227 255
206 227 255
206 227 255
206 227 255
206 227 255
206 227 255
206 227 255
206 227 255
207 227 255
207 227 255
207 227 255
207 227 255
207 227 255
207 228 255
207 228 255
207 228 255
207 228 255
207 228 255
207 228 255
207 228 255
207 228 255
207 228 255
207 228 255
207 228 255
207 228 255
207 228 255
207 228 255
208 228 255
208 228 255
208 228 255
208 228 255
208 228 255
208 228 255
208 228 255
208 228 255
208 228 255
208 228 255
208 228 255
208 228 255
208 228 255
208 228 255
208 228 255
208 228 255
208 228 255
208 228 255
208 228 255
209 228 255
209 228 255
209 229 255
209 229 255
209 229 255
209 229 255
209 229 255
209 229 255
209 229 255
209 229 255
209 229 255
209 229 255
209 229 255
209 229 255
209 229 255
209 229 255
209 229 255
209 229 255
209 229 255
209 229 255
209 229 255
209 229 255
210 229 255
210 229 255
210 229 255
210 229 255
210 229 255
210 229 255
210 229 255
210 229 255
210 229 255
210 229 255
210 229 255
210 229 255
210 229 255
210 229 255
210 229 255
210 229 255
210 229 255
210 229 255
210 229 255
210 230 255
210 229 255
210 229 255
210 229 255
210 229 255
210 229 255
210 229 255
210 229 255
210 229 255
210 229 255
210 229 255
210 229 255
210 229 255
210 229 255
210 229 255
210 229 255
210 229 255
210 229 255
210 229 255
210 229 255
210 229 255
210 229 255
210 229 255
209 229 255
209 229 255
209 229 255
209 229 255
209 229 255
209 229 255
209 229 255
209 229 255
209 229 255
209 229 255
209 229 255
209 229 255
209 229 255
209 229 255
209 229 255
209 229 255
209 229 255
209 229 255
209 229 255
209 229 255
209 228 255
209 228 255
208 228 255
208 228 255
208 228 255
208 228 255
208 228 255
208 228 255
208 228 255
208 228 255
208 228 255
208 228 255
208 228 255
208 228 255
208 228 255
208 228 255
208 228 255
208 228 255
208 228 255
208 228 255
208 228 255
207 228 255
207 228 255
207 228 255
207 228 255
207 228 255
207 228 255
207 228 255
207 228 255
207 228 255
207 228 255
207 228 255
207 228 255
207 228 255
207 228 255
207 227 255
207 227 255
207 227 255
207 227 255
206 227 255
206 227 255
206 227 255
206 227 255
206 227 255
206 227 255
206 227 255
206 227 255
206 227 255
206 227 255
206 227 255
206 227 255
206 227 255
206 227 255
206 227 255
206 227 255
206 227 255
205 227 255
205 227 255
205 227 255
205 227 255
205 227 255
205 227 255
205 227 255
205 227 255
205 227 255
205 227 255
205 226 255
205 226 255
205 226 255
205 226 255
205 226 255
205 226 255
204 226 255
204 226 255
204 226 255
204 226 255
204 226 255
204 226 255
204 226 255
204 226 255
204 226 255
204 226 255
204 226 255
204 226 255
204 226 255
204 226 255
204 226 255
204 226 255
204 226 255
203 226 255
203 226 255
203 226 255
203 226 255
203 226 255
203 226 255
203 226 255
203 226 255
203 225 255
203 225 255
203 225 255
203 225 255
203 225 255
203 225 255
203 225 255
203 225 255
203 225 255
203 225 255
203 225 255
202 225 255
202 225 255
202 225 255
202 225 255
202 225 255
202 225 255
202 225 255
202 225 255
202 225 255
202 225 255
202 225 255
202 225 255
202 225 255
202 225 255
202 225 255
202 225 255
202 225 255
202 225 255
202 225 255
202 225 255
202 225 255
202 225 255
202 225 255
202 225 255
202 225 255
202 225 255
201 225 255
201 225 255
201 225 255
201 225 255
201 225 255
201 225 255
201 225 255
201 225 255
201 225 255
201 225 255
201 225 255
201 225 255
201 225 255
201 225 255
201 225 255
201 225 255
201 225 255
201 225 255
201 224 255
201 224 255
201 225 255
201 224 255
201 224 255
201 224 255
201 224 255
201 224 255
201 224 255
201 224 255
201 224 255
201 225 255
201 225 255
201 225 255
201 225 255
201 225 255
201 225 255
201 225 255
201 225 255
201 225 255
201 225 255
201 225 255
201 225 255
201 225 255
201 225 255
201 225 255
201 225 255
201 225 255
202 225 255
202 225 255
202 225 255
202 225 255
202 225 255
202 225 255
202 225 255
202 225 255
202 225 255
202 225 255
202 225 255
202 225 255
202 225 255
202 225 255
202 225 255
202 225 255
202 225 255
202 225 255
202 225 255
202 225 255
202 225 255
202 225 255
202 225 255
202 225 255
202 225 255
202 225 255
203 225 255
203 225 255
203 225 255
203 225 255
203 225 255
203 225 255
203 225 255
203 225 255
203 225 255
203 225 255
203 225 255
203 226 255
203 226 255
203 226 255
203 226 255
203 226 255
203 226 255
203 226 255
203 226 255
204 226 255
204 226 255
204 226 255
204 226 255
204 226 255
204 226 255
204 226 255
204 226 255
204 226 255
204 226 255
204 226 255
204 226 255
204 226 255
204 226 255
204 226 255
204 226 255
204 226 255
205 226 255
205 226 255
205 226 255
205 226 255
205 226 255
205 226 255
205 226 255
205 227 255
205 227 255
205 227 255
205 227 255
205 227 255
205 227 255
205 227 255
205 227 255
205 227 255
206 227 255
206 227 255
206 227 255
206 227 255
206 227 255
206 227 255
206 227 255
206 227 255
206 227 255
206 227 255
206 227 255
206 227 255
206 227 255
206 227 255
206 227 255
206 227 255
206 227 255
207 227 255
207 227 255
207 227 255
207 227 255
207 228 255
207 228 255
207 228 255
207 228 255
207 228 255
207 228 255
207 228 255
207 228 255
207 228 255
207 228 255
207 228 255
207 228 255
207 228 255
207 228 255
208 228 255
208 228 255
208 228 255
208 228 255
208 228 255
208 228 255
208 228 255
208 228 255
208 228 255
208 228 255
208 228 255
208 228 255
208 228 255
208 228 255
208 228 255
208 228 255
208 228 255
208 228 255
208 228 255
208 228 255
209 228 255
209 229 255
209 229 255
209 229 255
209 229 255
209 229 255
209 229 255
209 229 255
209 229 255
209 229 255
209 229 255
209 229 255
209 229 255
209 229 255
209 229 255
209 229 255
209 229 255
209 229 255
209 229 255
209 229 255
209 229 255
210 229 255
210 229 255
210 229 255
210 229 255
210 229 255
210 229 255
210 229 255
210 229 255
210 229 255
210 229 255
210 229 255
210 229 255
210 229 255
210 229 255
210 229 255
210 229 255
210 229 255
210 229 255
210 229 255
210 229 255
210 229 255
210 229 255
210 230 255
211 230 255
211 230 255
210 230 255
210 230 255
210 230 255
210 229 255
210 229 255
210 229 255
210 229 255
210 229 255
210 229 255
210 229 255
210 229 255
210 229 255
210 229 255
210 229 255
210 229 255
210 229 255
210 229 255
210 229 255
210 229 255
210 229 255
210 229 255
210 229 255
210 229 255
210 229 255
210 229 255
209 229 255
209 229 255
209 229 255
209 229 255
209 229 255
209 229 255
209 229 255
209 229 255
209 229 255
209 229 255
209 229 255
209 229 255
209 229 255
209 229 255
209 229 255
209 229 255
209 229 255
209 229 255
209 229 255
209 228 255
209 228 255
208 228 255
208 228 255
208 228 255
208 228 255
208 228 255
208 228 255
208 228 255
208 228 255
208 228 255
208 228 255
208 228 255
208 228 255
208 228 255
208 228 255
208 228 255
208 228 255
208 228 255
208 228 255
208 228 255
207 228 255
207 228 255
207 228 255
207 228 255
207 228 255
207 228 255
207 228 255
207 228 255
207 228 255
207 228 255
207 228 255
207 228 255
207 228 255
207 228 255
207 227 255
207 227 255
207 227 255
207 227 255
206 227 255
206 227 255
206 227 255
206 227 255
206 227 255
206 227 255
206 227 255
206 227 255
206 227 255
206 227 255
206 227 255
206 227 255
206 227 255
206 227 255
206 227 255
206 227 255
206 227 255
205 227 255
205 227 255
205 227 255
205 227 255
205 227 255
205 227 255
205 227 255
205 227 255
205 227 255
205 227 255
205 226 255
205 226 255
205 226 255
205 226 255
205 226 255
205 226 255
205 226 255
204 226 255
204 226 255
204 226 255
204 226 255
204 226 255
204 226 255
204 226 255
204 226 255
204 226 255
204 226 255
204 226 255
204 226 255
204 226 255
204 226 255
204 226 255
204 226 255
204 226 255
203 226 255
203 226 255
203 226 255
203 226 255
203 226 255
203 226 255
203 226 255
203 226 255
203 225 255
203 225 255
203 225 255
203 225 255
203 225 255
203 225 255
203 225 255
203 225 255
203 225 255
203 225 255
203 225 255
203 225 255
202 225 255
202 225 255
202 225 255
202 225 255
202 225 255
202 225 255
202 225 255
202 225 255
202 225 255
202 225 255
202 225 255
202 225 255
202 225 255
202 225 255
202 225 255
202 225 255
202 225 255
202 225 255
202 225 255
202 225 255
202 225 255
202 225 255
202 225 255
202 225 255
202 225 255
202 225 255
202 225 255
202 225 255
202 225 255
202 225 255
202 225 255
202 225 255
201 225 255
201 225 255
201 225 255
201 225 255
201 225 255
201 225 255
201 225 255
201 225 255
201 225 255
201 225 255
201 225 255
201 225 255
201 225 255
201 225 255
201 225 255
201 225 255
201 225 255
201 225 255
201 225 255
201 225 255
201 225 255
201 225 255
201 225 255
201 225 255
202 225 255
202 225 255
202 225 255
202 225 255
202 225 255
202 225 255
202 225 255
202 225 255
202 225 255
202 225 255
202 225 255
202 225 255
202 225 255
202 225 255
202 225 255
202 225 255
202 225 255
202 225 255
202 225 255
202 225 255
202 225 255
202 225 255
202 225 255
202 225 255
202 225 255
202 225 255
202 225 255
202 225 255
202 225 255
202 225 255
202 225 255
202 225 255
203 225 255
203 225 255
203 225 255
203 225 255
203 225 255
203 225 255
203 225 255
203 225 255
203 225 255
203 225 255
203 225 255
203 225 255
203 226 255
203 226 255
203 226 255
203 226 255
203 226 255
203 226 255
203 226 255
203 226 255
204 226 255
204 226 255
204 226 255
204 226 255
204 226 255
204 226 255
204 226 255
204 226 255
204 226 255
204 226 255
204 226 255
204 226 255
204 226 255
204 226 255
204 226 255
204 226 255
204 226 255
205 226 255
205 226 255
205 226 255
205 226 255
205 226 255
205 226 255
205 226 255
205 227 255
205 227 255
205 227 255
205 227 255
205 227 255
205 227 255
205 227 255
205 227 255
205 227 255
205 227 255
206 227 255
206 227 255
206 227 255
206 227 255
206 227 255
206 227 255
206 227 255
206 227 255
206 227 255
206 227 255
206 227 255
206 227 255
206 227 255
206 227 255
206 227 255
206 227 255
206 227 255
207 227 255
207 227 255
207 227 255
207 227 255
207 228 255
207 228 255
207 228 255
207 228 255
207 228 255
207 228 255
207 228 255
207 228 255
207 228 255
207 228 255
207 228 255
207 228 255
207 228 255
207 228 255
208 228 255
208 228 255
208 228 255
208 228 255
208 228 255
208 228 255
208 228 255
208 228 255
208 228 255
208 228 255
208 228 255
208 228 255
208 228 255
208 228 255
208 228 255
208 228 255
208 228 255
208 228 255
208 228 255
209 228 255
209 229 255
209 229 255
209 229 255
209 229 255
209 229 255
209 229 255
209 229 255
209 229 255
209 229 255
209 229 255
209 229 255
209 229 255
209 229 255
209 229 255
209 229 255
209 229 255
209 229 255
209 229 255
209 229 255
209 229 255
210 229 255
210 229 255
210 229 255
210 229 255
210 229 255
210 229 255
210 229 255
210 229 255
210 229 255
210 229 255
210 229 255
210 229 255
210 229 255
210 229 255
210 229 255
210 229 255
210 229 255
210 229 255
210 229 255
210 229 255
210 229 255
210 229 255
210 230 255
210 230 255
211 230 255
211 230 255
211 230 255
211 230 255
211 230 255
211 230 255
211 230 255
211 230 255
211 230 255
210 230 255
210 230 255
210 230 255
210 229 255
210 229 255
210 229 255
210 229 255
210 229 255
210 229 255
210 229 255
210 229 255
210 229 255
210 229 255
210 229 255
210 229 255
210 229 255
210 229 255
210 229 255
210 229 255
210 229 255
210 229 255
210 229 255
210 229 255
210 229 255
209 229 255
209 229 255
209 229 255
209 229 255
209 229 255
209 229 255
209 229 255
209 229 255
209 229 255
209 229 255
209 229 255
209 229 255
209 229 255
209 229 255
209 229 255
209 229 255
209 229 255
209 229 255
209 229 255
209 229 255
209 228 255
208 228 255
208 228 255
208 228 255
208 228 255
208 228 255
208 228 255
208 228 255
208 228 255
208 228 255
208 228 255
208 228 255
208 228 255
208 228 255
208 228 255
208 228 255
208 228 255
208 228 255
208 228 255
208 228 255
208 228 255
207 228 255
207 228 255
207 228 255
207 228 255
207 228 255
207 228 255
207 228 255
207 228 255
207 228 255
207 228 255
207 228 255
207 228 255
207 228 255
207 227 255
207 227 255
207 227 255
207 227 255
206 227 255
206 227 255
206 227 255
206 227 255
206 227 255
206 227 255
206 227 255
206 227 255
206 227 255
206 227 255
206 227 255
206 227 255
206 227 255
206 227 255
206 227 255
206 227 255
206 227 255
206 227 255
205 227 255
205 227 255
205 227 255
205 227 255
205 227 255
205 227 255
205 227 255
205 227 255
205 227 255
205 226 255
205 226 255
205 226 255
205 226 255
205 226 255
205 226 255
205 226 255
205 226 255
204 226 255
204 226 255
204 226 255
204 226 255
204 226 255
204 226 255
204 226 255
204 226 255
204 226 255
204 226 255
204 226 255
204 226 255
204 226 255
204 226 255
204 226 255
204 226 255
204 226 255
203 226 255
203 226 255
203 226 255
203 226 255
203 226 255
203 226 255
203 226 255
203 226 255
203 226 255
203 225 255
203 225 255
203 225 255
203 225 255
203 225 255
203 225 255
203 225 255
203 225 255
203 225 255
203 225 255
203 225 255
203 225 255
202 225 255
202 225 255
202 225 255
202 225 255
202 225 255
202 225 255
202 225 255
202 225 255
202 225 255
202 225 255
202 225 255
202 225 255
202 225 255
202 225 255
202 225 255
202 225 255
202 225 255
202 225 255
202 225 255
202 225 255
202 225 255
202 225 255
202 225 255
202 225 255
202 225 255
202 225 255
202 225 255
202 225 255
202 225 255
202 225 255
202 225 255
202 225 255
202 225 255
202 225 255
202 225 255
202 225 255
202 225 255
202 225 255
202 225 255
202 225 255
202 225 255
202 225 255
202 225 255
202 225 255
202 225 255
202 225 255
202 225 255
202 225 255
202 225 255
202 225 255
202 225 255
202 225 255
202 225 255
202 225 255
202 225 255
202 225 255
202 225 255
202 225 255
202 225 255
202 225 255
202 225 255
202 225 255
202 225 255
202 225 255
202 225 255
202 225 255
202 225 255
202 225 255
202 225 255
202 225 255
202 225 255
202 225 255
202 225 255
202 225 255
202 225 255
202 225 255
202 225 255
202 225 255
203 225 255
203 225 255
203 225 255
203 225 255
203 225 255
203 225 255
203 225 255
203 225 255
203 225 255
203 225 255
203 225 255
203 225 255
203 226 255
203 226 255
203 226 255
203 226 255
203 226 255
203 226 255
203 226 255
203 226 255
203 226 255
204 226 255
204 226 255
204 226 255
204 226 255
204 226 255
204 226 255
204 226 255
204 226 255
204 226 255
204 226 255
204 226 255
204 226 255
204 226 255
204 226 255
204 226 255
204 226 255
204 226 255
205 226 255
205 226 255
205 226 255
205 226 255
205 226 255
205 226 255
205 226 255
205 227 255
205 227 255
205 227 255
205 227 255
205 227 255
205 227 255
205 227 255
205 227 255
205 227 255
205 227 255
206 227 255
206 227 255
206 227 255
206 227 255
206 227 255
206 227 255
206 227 255
206 227 255
206 227 255
206 227 255
206 227 255
206 227 255
206 227 255
206 227 255
206 227 255
206 227 255
206 227 255
207 227 255
207 227 255
207 227 255
207 227 255
207 227 255
207 228 255
207 228 255
207 228 255
207 228 255
207 228 255
207 228 255
207 228 255
207 228 255
207 228 255
207 228 255
207 228 255
207 228 255
207 228 255
208 228 255
208 228 255
208 228 255
208 228 255
208 228 255
208 228 255
208 228 255
208 228 255
208 228 255
208 228 255
208 228 255
208 228 255
208 228 255
208 228 255
208 228 255
208 228 255
208 228 255
208 228 255
208 228 255
209 228 255
209 228 255
209 229 255
209 229 255
209 229 255
209 229 255
209 229 255
209 229 255
209 229 255
209 229 255
209 229 255
209 229 255
209 229 255
209 229 255
209 229 255
209 229 255
209 229 255
209 229 255
209 229 255
209 229 255
209 229 255
209 229 255
210 229 255
210 229 255
210 229 255
210 229 255
210 229 255
210 229 255
210 229 255
210 229 255
210 229 255
210 229 255
210 229 255
210 229 255
210 229 255
210 229 255
210 229 255
210 229 255
210 229 255
210 229 255
210 229 255
210 229 255
210 229 255
210 230 255
210 230 255
210 230 255
211 230 255
211 230 255
211 230 255
211 230 255
211 230 255
211 230 255
211 230 255
211 230 255
211 230 255
211 230 255
211 230 255
211 230 255
211 230 255
211 230 255
211 230 255
211 230 255
210 230 255
210 230 255
210 230 255
210 229 255
210 229 255
210 229 255
210 229 255
210 229 255
210 229 255
210 229 255
210 229 255
210 229 255
210 229 255
210 229 255
210 229 255
210 229 255
210 229 255
210 229 255
210 229 255
210 229 255
210 229 255
210 229 255
210 229 255
210 229 255
209 229 255
209 229 255
209 229 255
209 229 255
209 228 253
204 224 236
205 225 242
203 223 234
198 219 215
196 217 201
198 219 209
190 211 177
195 216 196
195 216 196
195 216 199
196 217 198
192 213 194
192 213 177
196 217 198
192 213 189
194 215 191
198 219 209
200 221 218
198 219 211
205 225 242
203 224 236
204 224 241
207 227 252
208 228 255
208 228 255
208 228 255
208 228 255
208 228 255
208 228 255
208 228 255
208 228 255
208 228 255
208 228 255
208 228 255
208 228 255
207 228 255
207 228 255
207 228 255
207 228 255
207 228 255
207 228 255
207 228 255
207 228 255
207 228 255
207 228 255
207 228 255
207 228 255
207 228 255
207 228 255
207 227 255
207 227 255
207 227 255
207 227 255
206 227 255
206 227 255
206 227 255
206 227 255
206 227 255
206 227 255
206 227 255
206 227 255
206 227 255
206 227 255
206 227 255
206 227 255
206 227 255
206 227 255
206 227 255
206 227 255
206 227 255
205 227 255
205 227 255
205 227 255
205 227 255
205 227 255
205 227 255
205 227 255
205 227 255
205 227 255
205 227 255
205 226 255
205 226 255
205 226 255
205 226 255
205 226 255
205 226 255
205 226 255
204 226 255
204 226 255
204 226 255
204 226 255
204 226 255
204 226 255
204 226 255
204 226 255
204 226 255
204 226 255
204 226 255
204 226 255
204 226 255
204 226 255
204 226 255
204 226 255
204 226 255
204 226 255
203 226 255
203 226 255
203 226 255
203 226 255
203 226 255
203 226 255
203 226 255
203 226 255
203 226 255
203 225 255
203 225 255
203 225 255
203 225 255
203 225 255
203 225 255
203 225 255
203 225 255
203 225 255
203 225 255
203 225 255
203 225 255
203 225 255
203 225 255
202 225 255
202 225 255
202 225 255
202 225 255
202 225 255
202 225 255
202 225 255
202 225 255
202 225 255
202 225 255
202 225 255
202 225 255
202 225 255
202 225 255
202 225 255
202 225 255
202 225 255
202 225 255
202 225 255
202 225 255
202 225 255
202 225 255
202 225 255
202 225 255
202 225 255
202 225 255
202 225 255
202 225 255
202 225 255
202 225 255
202 225 255
202 225 255
202 225 255
202 225 255
202 225 255
202 225 255
202 225 255
202 225 255
202 225 255
202 225 255
202 225 255
202 225 255
202 225 255
202 225 255
202 225 255
202 225 255
202 225 255
202 225 255
202 225 255
202 225 255
202 225 255
202 225 255
202 225 255
202 225 255
202 225 255
202 225 255
202 225 255
202 225 255
202 225 255
202 225 255
202 225 255
202 225 255
202 225 255
202 225 255
202 225 255
202 225 255
203 225 255
203 225 255
203 225 255
203 225 255
203 225 255
203 225 255
203 225 255
203 225 255
203 225 255
203 225 255
203 225 255
203 225 255
203 225 255
203 226 255
203 226 255
203 226 255
203 226 255
203 226 255
203 226 255
203 226 255
203 226 255
203 226 255
203 226 255
204 226 255
204 226 255
204 226 255
204 226 255
204 226 255
204 226 255
204 226 255
204 226 255
204 226 255
204 226 255
204 226 255
204 226 255
204 226 255
204 226 255
204 226 255
204 226 255
204 226 255
204 226 255
205 226 255
205 226 255
205 226 255
205 226 255
205 226 255
205 226 255
205 226 255
205 227 255
205 227 255
205 227 255
205 227 255
205 227 255
205 227 255
205 227 255
205 227 255
205 227 255
205 227 255
206 227 255
206 227 255
206 227 255
206 227 255
206 227 255
206 227 255
206 227 255
206 227 255
206 227 255
206 227 255
206 227 255
206 227 255
206 227 255
206 227 255
206 227 255
206 227 255
206 227 255
207 227 255
207 227 255
207 227 255
207 227 255
207 228 255
207 228 255
207 228 255
207 228 255
207 228 255
207 228 255
207 228 255
207 228 255
207 228 255
207 228 255
207 228 255
207 228 255
207 228 255
207 228 255
208 228 255
208 228 255
208 228 255
208 228 255
208 228 255
208 228 255
208 228 255
208 228 255
208 228 255
208 228 255
208 228 255
208 228 255
207 227 254
205 224 248
202 220 242
201 218 240
187 202 218
191 207 225
187 201 216
186 200 212
179 191 199
182 195 204
179 190 195
175 186 192
180 191 195
187 199 207
178 188 190
186 198 206
180 191 198
183 197 211
192 207 223
190 206 223
197 213 230
202 219 240
205 223 248
206 225 252
209 229 255
209 229 255
209 229 255
209 229 255
210 229 255
210 229 255
210 229 255
210 229 255
210 229 255
210 229 255
210 229 255
210 229 255
210 229 255
210 229 255
210 229 255
210 229 255
210 229 255
210 229 255
210 229 255
210 229 255
210 229 255
210 229 255
210 229 255
210 229 255
210 229 255
210 230 255
210 230 255
210 230 255
211 230 255
211 230 255
211 230 255
211 230 255
211 230 255
211 230 255
211 230 255
211 230 255
211 230 255
211 230 255
211 230 255
211 230 255
211 230 255
211 230 255
211 230 255
211 230 255
211 230 255
211 230 255
211 230 255
211 230 255
211 230 255
211 230 255
211 230 255
211 230 255
210 230 255
210 230 255
210 230 255
210 229 255
210 229 255
210 229 255
210 229 255
210 229 255
210 229 255
210 229 255
210 229 255
210 229 255
210 229 255
210 229 255
210 229 255
209 228 252
202 222 226
200 220 215
195 216 198
191 212 175
185 207 157
184 206 140
177 200 99
177 200 67
176 199 25
172 195 0
173 197 0
172 195 0
174 196 0
172 195 0
175 198 0
174 197 0
173 196 0
173 196 0
175 198 0
171 194 0
172 195 0
172 196 0
175 198 0
174 197 0
173 196 0
173 197 0
172 194 0
173 196 0
170 193 0
176 199 0
172 195 0
177 199 36
174 198 36
180 202 111
182 204 125
186 208 155
192 213 177
197 218 206
197 218 207
201 222 226
207 227 252
208 228 255
208 228 255
208 228 255
208 228 255
208 228 255
208 228 255
208 228 255
207 228 255
207 228 255
207 228 255
207 228 255
207 228 255
207 228 255
207 228 255
207 228 255
207 228 255
207 228 255
207 228 255
207 228 255
207 228 255
207 227 255
207 227 255
207 227 255
207 227 255
206 227 255
206 227 255
206 227 255
206 227 255
206 227 255
206 227 255
206 227 255
206 227 255
206 227 255
206 227 255
206 227 255
206 227 255
206 227 255
206 227 255
206 227 255
206 227 255
206 227 255
206 227 255
205 227 255
205 227 255
205 227 255
205 227 255
205 227 255
205 227 255
205 227 255
205 227 255
205 227 255
205 227 255
205 226 255
205 226 255
205 226 255
205 226 255
205 226 255
205 226 255
205 226 255
204 226 255
204 226 255
204 226 255
204 226 255
204 226 255
204 226 255
204 226 255
204 226 255
204 226 255
204 226 255
204 226 255
204 226 255
204 226 255
204 226 255
204 226 255
204 226 255
204 226 255
204 226 255
204 226 255
203 226 255
203 226 255
203 226 255
203 226 255
203 226 255
203 226 255
203 226 255
203 226 255
203 226 255
203 226 255
203 225 255
203 225 255
203 225 255
203 225 255
203 225 255
203 225 255
203 225 255
203 225 255
203 225 255
203 225 255
203 225 255
203 225 255
203 225 255
203 225 255
203 225 255
202 225 255
202 225 255
202 225 255
202 225 255
202 225 255
202 225 255
202 225 255
202 225 255
202 225 255
202 225 255
202 225 255
202 225 255
202 225 255
202 225 255
202 225 255
202 225 255
202 225 255
202 225 255
202 225 255
202 225 255
202 225 255
202 225 255
202 225 255
202 225 255
202 225 255
202 225 255
202 225 255
202 225 255
202 225 255
202 225 255
202 225 255
202 225 255
202 225 255
202 225 255
202 225 255
202 225 255
202 225 255
202 225 255
202 225 255
202 225 255
202 225 255
202 225 255
202 225 255
202 225 255
202 225 255
202 225 255
202 225 255
202 225 255
202 225 255
202 225 255
202 225 255
202 225 255
203 225 255
203 225 255
203 225 255
203 225 255
203 225 255
203 225 255
203 225 255
203 225 255
203 225 255
203 225 255
203 225 255
203 225 255
203 225 255
203 225 255
203 225 255
203 226 255
203 226 255
203 226 255
203 226 255
203 226 255
203 226 255
203 226 255
203 226 255
203 226 255
203 226 255
204 226 255
204 226 255
204 226 255
204 226 255
204 226 255
204 226 255
204 226 255
204 226 255
204 226 255
204 226 255
204 226 255
204 226 255
204 226 255
204 226 255
204 226 255
204 226 255
204 226 255
204 226 255
204 226 255
205 226 255
205 226 255
205 226 255
205 226 255
205 226 255
205 226 255
205 226 255
205 227 255
205 227 255
205 227 255
205 227 255
205 227 255
205 227 255
205 227 255
205 227 255
205 227 255
205 227 255
206 227 255
206 227 255
206 227 255
206 227 255
206 227 255
206 227 255
206 227 255
206 227 255
206 227 255
206 227 255
206 227 255
206 227 255
206 227 255
206 227 255
206 227 255
206 227 255
206 227 255
207 227 255
207 227 255
207 227 255
207 227 255
207 227 255
207 228 255
207 228 255
207 228 255
207 228 255
207 228 255
207 228 255
207 228 255
207 228 255
207 228 255
207 228 255
207 228 255
207 228 255
207 228 255
207 228 255
208 228 255
208 228 255
208 228 255
208 228 255
208 228 255
208 228 255
203 222 247
195 212 234
192 207 222
180 193 203
164 172 169
167 175 171
153 159 150
152 156 143
141 142 112
141 139 93
131 128 85
144 140 93
138 135 90
138 135 90
136 133 88
135 133 88
143 140 93
142 139 93
151 148 98
134 131 87
139 137 91
136 134 89
137 134 89
146 143 95
140 137 90
142 139 93
147 143 95
138 134 89
132 129 86
141 137 90
138 134 89
134 130 86
132 128 84
144 143 110
163 162 130
165 169 154
173 181 179
167 175 175
179 190 197
186 200 212
197 212 228
207 225 250
210 229 255
210 229 255
210 229 255
210 229 255
210 229 255
210 229 255
210 229 255
210 229 255
210 229 255
210 229 255
210 229 255
210 229 255
210 230 255
210 230 255
210 230 255
211 230 255
211 230 255
211 230 255
211 230 255
211 230 255
211 230 255
211 230 255
211 230 255
211 230 255
211 230 255
211 230 255
211 230 255
211 230 255
211 230 255
211 230 255
211 230 255
211 230 255
211 230 255
211 230 255
211 230 255
211 230 255
211 230 255
211 230 255
211 230 255
211 230 255
211 230 255
211 230 255
211 230 255
211 230 255
211 230 255
211 230 255
211 230 255
210 230 255
210 230 255
210 230 255
210 229 255
210 229 255
206 225 237
202 222 226
194 215 186
188 209 165
176 199 114
178 200 76
174 197 0
173 196 0
172 197 0
174 197 0
175 198 0
174 197 0
174 198 0
172 196 0
173 197 0
174 197 0
174 198 0
172 195 0
174 197 0
172 196 0
172 196 0
173 197 0
174 197 0
174 197 0
174 197 0
172 195 0
174 197 0
173 197 0
174 198 0
174 197 0
172 196 0
171 194 0
173 196 0
174 197 0
175 198 0
173 197 0
175 198 0
175 198 0
173 196 0
175 198 0
175 198 0
174 197 0
175 198 0
172 196 0
175 198 0
174 197 0
173 196 0
174 197 0
178 200 67
181 203 117
185 207 144
193 215 189
199 220 218
205 225 242
208 228 255
208 228 255
208 228 255
208 228 255
207 228 255
207 228 255
207 228 255
207 228 255
207 228 255
207 228 255
207 228 255
207 228 255
207 228 255
207 228 255
207 228 255
207 228 255
207 228 255
207 228 255
207 227 255
207 227 255
207 227 255
207 227 255
206 227 255
206 227 255
206 227 255
206 227 255
206 227 255
206 227 255
206 227 255
206 227 255
206 227 255
206 227 255
206 227 255
206 227 255
206 227 255
206 227 255
206 227 255
206 227 255
206 227 255
205 227 255
205 227 255
205 227 255
205 227 255
205 227 255
205 227 255
205 227 255
205 227 255
205 227 255
205 227 255
205 227 255
205 226 255
205 226 255
205 226 255
205 226 255
205 226 255
205 226 255
205 226 255
204 226 255
204 226 255
204 226 255
204 226 255
204 226 255
204 226 255
204 226 255
204 226 255
204 226 255
204 226 255
204 226 255
204 226 255
204 226 255
204 226 255
204 226 255
204 226 255
204 226 255
204 226 255
204 226 255
204 226 255
203 226 255
203 226 255
203 226 255
203 226 255
203 226 255
203 226 255
203 226 255
203 226 255
203 226 255
203 226 255
203 225 255
203 225 255
203 225 255
203 225 255
203 225 255
203 225 255
203 225 255
203 225 255
203 225 255
203 225 255
203 225 255
203 225 255
203 225 255
203 225 255
203 225 255
203 225 255
203 225 255
203 225 255
203 225 255
203 225 255
202 225 255
202 225 255
202 225 255
202 225 255
202 225 255
202 225 255
202 225 255
202 225 255
202 225 255
202 225 255
202 225 255
202 225 255
202 225 255
202 225 255
202 225 255
202 225 255
202 225 255
202 225 255
202 225 255
202 225 255
202 225 255
202 225 255
202 225 255
202 225 255
202 225 255
202 225 255
202 225 255
202 225 255
202 225 255
202 225 255
202 225 255
202 225 255
203 225 255
203 225 255
203 225 255
203 225 255
203 225 255
203 225 255
203 225 255
203 225 255
203 225 255
203 225 255
203 225 255
203 225 255
203 225 255
203 225 255
203 225 255
203 225 255
203 225 255
203 225 255
203 225 255
203 225 255
203 226 255
203 226 255
203 226 255
203 226 255
203 226 255
203 226 255
203 226 255
203 226 255
203 226 255
203 226 255
204 226 255
204 226 255
204 226 255
204 226 255
204 226 255
204 226 255
204 226 255
204 226 255
204 226 255
204 226 255
204 226 255
204 226 255
204 226 255
204 226 255
204 226 255
204 226 255
204 226 255
204 226 255
204 226 255
204 226 255
205 226 255
205 226 255
205 226 255
205 226 255
205 226 255
205 226 255
205 226 255
205 227 255
205 227 255
205 227 255
205 227 255
205 227 255
205 227 255
205 227 255
205 227 255
205 227 255
205 227 255
205 227 255
206 227 255
206 227 255
206 227 255
206 227 255
206 227 255
206 227 255
206 227 255
206 227 255
206 227 255
206 227 255
206 227 255
206 227 255
206 227 255
206 227 255
206 227 255
206 227 255
206 227 255
207 227 255
207 227 255
207 227 255
207 227 255
207 228 255
207 228 255
207 228 255
207 228 255
207 228 255
207 228 255
207 228 255
207 228 255
207 228 255
207 228 255
207 228 255
207 228 255
207 228 255
207 228 255
208 228 255
208 228 255
208 228 255
208 228 255
199 217 240
184 199 216
169 179 181
169 178 178
157 164 155
138 138 109
144 141 96
137 134 90
133 130 87
146 144 96
138 136 90
133 131 87
143 140 93
137 135 90
151 149 99
138 136 91
143 142 95
139 137 92
151 149 99
135 133 89
136 134 90
145 143 96
139 136 91
146 145 97
151 148 99
152 150 101
151 149 99
146 144 96
143 141 94
148 146 97
147 145 97
141 139 93
149 146 97
151 148 99
147 144 95
143 140 93
145 142 95
149 146 97
140 137 91
142 138 92
138 134 89
150 146 97
137 134 89
141 137 90
142 139 92
136 132 87
149 144 95
133 129 84
153 152 119
160 162 142
174 180 171
179 189 193
190 203 214
203 220 242
210 229 255
210 229 255
210 230 255
210 230 255
210 230 255
211 230 255
211 230 255
211 230 255
211 230 255
211 230 255
211 230 255
211 230 255
211 230 255
211 230 255
211 230 255
211 230 255
211 230 255
211 230 255
211 230 255
211 230 255
211 230 255
211 230 255
211 230 255
211 230 255
211 230 255
211 230 255
211 230 255
211 230 255
211 230 255
211 230 255
211 230 255
211 230 255
211 230 255
211 230 255
211 230 255
211 230 255
211 230 255
211 230 255
211 230 255
211 230 255
211 230 255
208 227 245
200 220 215
189 211 165
185 207 128
176 200 88
175 198 0
171 194 0
172 195 0
169 192 0
174 196 0
171 195 0
172 195 0
174 197 0
172 195 0
171 194 0
171 194 0
171 194 0
172 196 0
174 197 0
172 196 0
175 198 0
174 197 0
172 196 0
176 198 0
175 198 0
174 197 0
174 197 0
172 196 0
173 196 0
169 192 0
173 197 0
174 197 0
175 198 0
171 194 0
172 196 0
172 196 0
174 198 0
173 196 0
174 197 0
174 197 0
173 197 0
174 197 0
175 198 0
172 196 0
174 198 0
174 197 0
173 196 0
174 197 0
172 196 0
173 196 0
174 197 0
175 197 0
174 197 0
173 197 0
175 198 0
175 198 0
173 197 0
173 196 0
174 197 0
177 200 76
184 206 130
190 212 173
197 219 209
206 226 245
208 228 255
208 228 255
208 228 255
207 228 255
207 228 255
207 228 255
207 228 255
207 228 255
207 228 255
207 228 255
207 228 255
207 228 255
207 228 255
207 228 255
207 228 255
207 228 255
207 227 255
207 227 255
207 227 255
207 227 255
207 227 255
206 227 255
206 227 255
206 227 255
206 227 255
206 227 255
206 227 255
206 227 255
206 227 255
206 227 255
206 227 255
206 227 255
206 227 255
206 227 255
206 227 255
206 227 255
206 227 255
206 227 255
205 227 255
205 227 255
205 227 255
205 227 255
205 227 255
205 227 255
205 227 255
205 227 255
205 227 255
205 227 255
205 227 255
205 226 255
205 226 255
205 226 255
205 226 255
205 226 255
205 226 255
205 226 255
204 226 255
204 226 255
204 226 255
204 226 255
204 226 255
204 226 255
204 226 255
204 226 255
204 226 255
204 226 255
204 226 255
204 226 255
204 226 255
204 226 255
204 226 255
204 226 255
204 226 255
204 226 255
204 226 255
204 226 255
204 226 255
203 226 255
203 226 255
203 226 255
203 226 255
203 226 255
203 226 255
203 226 255
203 226 255
203 226 255
203 226 255
203 226 255
203 226 255
203 226 255
203 225 255
203 225 255
203 225 255
203 225 255
203 225 255
203 225 255
203 225 255
203 225 255
203 225 255
203 225 255
203 225 255
203 225 255
203 225 255
203 225 255
203 225 255
203 225 255
203 225 255
203 225 255
203 225 255
203 225 255
203 225 255
203 225 255
203 225 255
203 225 255
203 225 255
203 225 255
203 225 255
203 225 255
203 225 255
203 225 255
203 225 255
203 225 255
203 225 255
203 225 255
203 225 255
203 225 255
203 225 255
203 225 255
203 225 255
203 225 255
203 225 255
203 225 255
203 225 255
203 225 255
203 225 255
203 225 255
203 225 255
203 225 255
203 225 255
203 225 255
203 225 255
203 225 255
203 225 255
203 225 255
203 225 255
203 225 255
203 225 255
203 226 255
203 226 255
203 226 255
203 226 255
203 226 255
203 226 255
203 226 255
203 226 255
203 226 255
203 226 255
203 226 255
203 226 255
204 226 255
204 226 255
204 226 255
204 226 255
204 226 255
204 226 255
204 226 255
204 226 255
204 226 255
204 226 255
204 226 255
204 226 255
204 226 255
204 226 255
204 226 255
204 226 255
204 226 255
204 226 255
204 226 255
204 226 255
204 226 255
205 226 255
205 226 255
205 226 255
205 226 255
205 226 255
205 226 255
205 226 255
205 227 255
205 227 255
205 227 255
205 227 255
205 227 255
205 227 255
205 227 255
205 227 255
205 227 255
205 227 255
205 227 255
206 227 255
206 227 255
206 227 255
206 227 255
206 227 255
206 227 255
206 227 255
206 227 255
206 227 255
206 227 255
206 227 255
206 227 255
206 227 255
206 227 255
206 227 255
206 227 255
206 227 255
207 227 255
207 227 255
207 227 255
207 227 255
207 228 255
207 228 255
207 228 255
207 228 255
207 228 255
207 228 255
207 228 255
207 228 255
207 228 255
207 228 255
207 228 255
207 228 255
207 228 255
207 228 255
208 228 255
208 228 255
208 228 255
201 220 245
189 204 220
171 179 175
160 165 153
137 139 115
139 137 91
130 128 85
138 136 91
151 149 99
141 139 93
152 150 101
145 143 95
143 141 95
146 144 97
141 140 94
149 148 99
144 143 96
153 151 101
149 148 100
149 148 99
151 150 101
148 146 98
143 143 96
154 152 102
147 145 97
149 147 98
155 154 103
160 159 107
150 148 99
156 155 104
155 153 103
151 149 99
147 145 97
155 153 102
150 148 99
144 142 95
154 152 102
148 146 97
154 152 101
152 150 100
145 144 96
148 145 97
151 149 99
150 147 98
149 146 97
149 147 98
148 145 96
155 151 100
149 146 97
140 137 91
141 137 91
142 139 93
147 143 95
145 141 93
138 134 89
146 141 93
143 139 92
149 144 95
143 138 90
135 136 112
154 156 137
167 177 183
187 200 213
207 225 249
211 230 255
211 230 255
211 230 255
211 230 255
211 230 255
211 230 255
211 230 255
211 230 255
211 230 255
211 230 255
211 230 255
211 230 255
211 230 255
211 230 255
211 230 255
211 230 255
211 230 255
211 230 255
211 230 255
211 230 255
211 230 255
211 230 255
211 230 255
211 230 255
211 230 255
211 230 255
211 230 255
211 230 255
211 230 255
211 230 255
211 230 255
211 230 255
206 225 237
196 216 189
183 205 147
177 200 92
171 194 25
169 193 0
172 196 0
169 193 0
174 198 0
170 194 0
174 197 0
173 197 0
171 195 0
172 195 0
174 197 0
173 196 0
174 198 0
172 196 0
175 198 0
173 197 0
171 194 0
175 198 0
173 196 0
174 197 0
175 198 0
172 196 0
174 197 0
172 195 0
175 198 0
174 197 0
176 198 0
173 196 0
176 199 0
173 197 0
176 198 0
175 197 0
174 197 0
172 195 0
177 199 0
173 197 0
172 196 0
174 197 0
172 195 0
173 196 0
172 196 0
175 198 0
176 199 0
171 196 0
174 197 0
174 197 0
175 198 0
174 198 0
174 197 0
173 197 0
174 197 0
171 195 0
172 196 0
174 197 0
174 197 0
173 196 0
176 199 0
175 198 0
171 195 0
173 196 0
173 197 0
171 195 0
174 197 0
175 197 0
178 200 92
187 209 153
195 216 193
204 224 238
208 228 255
208 228 255
208 228 255
207 228 255
207 228 255
207 228 255
207 228 255
207 228 255
207 228 255
207 228 255
207 228 255
207 228 255
207 228 255
207 228 255
207 228 255
207 228 255
207 227 255
207 227 255
207 227 255
207 227 255
206 227 255
206 227 255
206 227 255
206 227 255
206 227 255
206 227 255
206 227 255
206 227 255
206 227 255
206 227 255
206 227 255
206 227 255
206 227 255
206 227 255
206 227 255
206 227 255
206 227 255
206 227 255
205 227 255
205 227 255
205 227 255
205 227 255
205 227 255
205 227 255
205 227 255
205 227 255
205 227 255
205 227 255
205 227 255
205 226 255
205 226 255
205 226 255
205 226 255
205 226 255
205 226 255
205 226 255
205 226 255
204 226 255
204 226 255
204 226 255
204 226 255
204 226 255
204 226 255
204 226 255
204 226 255
204 226 255
204 226 255
204 226 255
204 226 255
204 226 255
204 226 255
204 226 255
204 226 255
204 226 255
204 226 255
204 226 255
204 226 255
204 226 255
204 226 255
203 226 255
203 226 255
203 226 255
203 226 255
203 226 255
203 226 255
203 226 255
203 226 255
203 226 255
203 226 255
203 226 255
203 226 255
203 226 255
203 226 255
203 226 255
203 225 255
203 225 255
203 225 255
203 225 255
203 225 255
203 225 255
203 225 255
203 225 255
203 225 255
203 225 255
203 225 255
203 225 255
203 225 255
203 225 255
203 225 255
203 225 255
203 225 255
203 225 255
203 225 255
203 225 255
203 225 255
203 225 255
203 225 255
203 225 255
203 225 255
203 225 255
203 225 255
203 225 255
203 225 255
203 225 255
203 225 255
203 225 255
203 225 255
203 225 255
203 225 255
203 225 255
203 225 255
203 225 255
203 225 255
203 225 255
203 226 255
203 226 255
203 226 255
203 226 255
203 226 255
203 226 255
203 226 255
203 226 255
203 226 255
203 226 255
203 226 255
203 226 255
203 226 255
203 226 255
203 226 255
204 226 255
204 226 255
204 226 255
204 226 255
204 226 255
204 226 255
204 226 255
204 226 255
204 226 255
204 226 255
204 226 255
204 226 255
204 226 255
204 226 255
204 226 255
204 226 255
204 226 255
204 226 255
204 226 255
204 226 255
204 226 255
204 226 255
204 226 255
205 226 255
205 226 255
205 226 255
205 226 255
205 226 255
205 226 255
205 226 255
205 227 255
205 227 255
205 227 255
205 227 255
205 227 255
205 227 255
205 227 255
205 227 255
205 227 255
205 227 255
205 227 255
206 227 255
206 227 255
206 227 255
206 227 255
206 227 255
206 227 255
206 227 255
206 227 255
206 227 255
206 227 255
206 227 255
206 227 255
206 227 255
206 227 255
206 227 255
206 227 255
206 227 255
207 227 255
207 227 255
207 227 255
207 227 255
207 227 255
207 228 255
207 228 255
207 228 255
207 228 255
207 228 255
207 228 255
207 228 255
207 228 255
207 228 255
207 228 255
207 228 255
207 228 255
207 228 255
208 228 255
208 228 255
208 228 255
197 215 238
184 198 208
170 180 180
142 143 113
140 138 92
143 141 94
137 134 90
137 136 91
152 150 101
146 145 97
146 145 97
149 148 99
153 152 102
147 145 97
153 153 103
149 149 100
147 146 98
152 151 101
147 146 99
144 144 97
152 151 102
148 148 99
144 144 97
152 151 101
151 150 101
150 149 101
151 150 101
154 153 103
150 150 101
150 149 101
155 154 104
154 153 103
145 145 97
157 155 104
144 143 96
163 161 108
154 153 103
153 152 102
154 153 103
158 156 104
157 155 104
155 153 103
153 151 101
153 151 101
155 153 103
156 154 103
155 152 101
148 145 96
144 142 95
152 149 99
150 147 98
161 157 104
147 144 96
155 152 101
146 143 95
144 141 93
138 135 90
156 152 101
142 139 92
153 149 98
144 140 92
148 144 95
144 140 93
141 137 90
147 142 93
139 134 88
142 137 90
146 141 95
152 153 128
170 178 180
181 191 199
196 211 228
211 230 255
211 230 255
211 230 255
211 230 255
211 230 255
211 230 255
211 230 255
211 230 255
211 230 255
211 230 255
211 230 255
211 230 255
211 230 255
211 230 255
212 230 255
212 230 255
212 230 255
212 230 255
211 230 255
211 230 255
211 230 255
211 230 255
211 230 255
211 230 255
210 228 248
194 214 194
190 211 161
179 201 80
173 196 0
174 197 0
170 194 0
173 195 0
174 197 0
169 193 0
172 195 0
171 195 0
175 198 0
175 198 0
173 196 0
172 196 0
174 197 0
173 196 0
174 198 0
174 198 0
172 196 0
174 197 0
174 197 0
171 194 0
174 198 0
173 197 0
171 195 0
173 197 0
174 197 0
172 195 0
174 197 0
171 194 0
175 197 0
174 197 0
175 198 0
174 197 0
175 198 0
173 197 0
173 196 0
173 196 0
172 195 0
174 198 0
173 197 0
175 198 0
174 197 0
174 197 0
175 198 0
172 196 0
174 197 0
173 196 0
173 197 0
175 198 0
174 198 0
171 195 0
174 198 0
173 197 0
173 196 0
172 195 0
173 197 0
173 197 0
174 197 0
174 197 0
174 197 0
175 198 0
173 197 0
173 197 0
174 197 0
177 199 0
175 197 0
173 197 0
174 198 0
174 197 0
173 196 0
175 198 0
177 199 0
176 199 0
177 200 76
190 211 167
196 217 203
205 225 242
208 228 255
208 228 255
207 228 255
207 228 255
207 228 255
207 228 255
207 228 255
207 228 255
207 228 255
207 228 255
207 228 255
207 228 255
207 228 255
207 228 255
207 228 255
207 228 255
207 227 255
207 227 255
207 227 255
207 227 255
206 227 255
206 227 255
206 227 255
206 227 255
206 227 255
206 227 255
206 227 255
206 227 255
206 227 255
206 227 255
206 227 255
206 227 255
206 227 255
206 227 255
206 227 255
206 227 255
206 227 255
206 227 255
205 227 255
205 227 255
205 227 255
205 227 255
205 227 255
205 227 255
205 227 255
205 227 255
205 227 255
205 227 255
205 227 255
205 226 255
205 226 255
205 226 255
205 226 255
205 226 255
205 226 255
205 226 255
205 226 255
204 226 255
204 226 255
204 226 255
204 226 255
204 226 255
204 226 255
204 226 255
204 226 255
204 226 255
204 226 255
204 226 255
204 226 255
204 226 255
204 226 255
204 226 255
204 226 255
204 226 255
204 226 255
204 226 255
204 226 255
204 226 255
204 226 255
204 226 255
204 226 255
204 226 255
204 226 255
203 226 255
203 226 255
203 226 255
203 226 255
203 226 255
203 226 255
203 226 255
203 226 255
203 226 255
203 226 255
203 226 255
203 226 255
203 226 255
203 226 255
203 226 255
203 226 255
203 226 255
203 226 255
203 226 255
203 226 255
203 226 255
203 226 255
203 226 255
203 226 255
203 226 255
203 226 255
203 226 255
203 226 255
203 226 255
203 226 255
203 226 255
203 226 255
203 226 255
203 226 255
203 226 255
203 226 255
203 226 255
203 226 255
203 226 255
203 226 255
203 226 255
203 226 255
203 226 255
203 226 255
203 226 255
203 226 255
203 226 255
203 226 255
203 226 255
203 226 255
203 226 255
203 226 255
203 226 255
203 226 255
203 226 255
204 226 255
204 226 255
204 226 255
204 226 255
204 226 255
204 226 255
204 226 255
204 226 255
204 226 255
204 226 255
204 226 255
204 226 255
204 226 255
204 226 255
204 226 255
204 226 255
204 226 255
204 226 255
204 226 255
204 226 255
204 226 255
204 226 255
204 226 255
204 226 255
205 226 255
205 226 255
205 226 255
205 226 255
205 226 255
205 226 255
205 226 255
205 226 255
205 226 255
205 227 255
205 227 255
205 227 255
205 227 255
205 227 255
205 227 255
205 227 255
205 227 255
205 227 255
205 227 255
205 227 255
206 227 255
206 227 255
206 227 255
206 227 255
206 227 255
206 227 255
206 227 255
206 227 255
206 227 255
206 227 255
206 227 255
206 227 255
206 227 255
206 227 255
206 227 255
206 227 255
206 227 255
206 227 255
207 227 255
207 227 255
207 227 255
207 227 255
207 228 255
207 228 255
207 228 255
207 228 255
207 228 255
207 228 255
207 228 255
207 228 255
207 228 255
207 228 255
207 228 255
207 228 255
207 228 255
207 228 255
208 228 255
208 228 255
201 220 244
182 195 207
171 180 180
147 148 115
134 132 88
144 142 95
138 136 91
146 144 97
155 154 103
133 132 89
154 153 103
143 143 96
139 139 93
150 150 101
150 149 101
148 147 99
149 148 100
152 151 102
151 150 101
151 150 101
149 149 100
151 150 101
155 155 105
152 151 102
152 151 102
158 158 106
155 154 104
151 151 102
156 156 105
151 150 101
154 154 104
151 150 101
148 148 99
157 156 105
154 153 103
160 159 107
147 146 98
155 154 103
157 155 104
157 157 106
156 155 104
157 156 105
153 152 102
156 155 104
157 155 104
152 150 101
157 155 104
157 155 104
147 144 96
155 153 103
153 151 101
157 154 103
159 157 105
158 156 104
154 151 100
162 159 106
151 149 99
156 153 101
154 151 101
156 154 103
144 141 94
156 153 102
158 155 103
155 152 101
151 148 98
147 143 95
153 149 99
147 144 95
141 137 90
150 145 95
148 144 95
148 144 95
151 146 96
136 132 87
131 126 83
122 119 78
141 141 115
169 174 164
186 200 215
205 222 244
211 230 255
211 230 255
211 230 255
211 230 255
211 230 255
211 230 255
212 230 255
212 230 255
212 230 255
212 230 255
212 230 255
212 230 255
212 230 255
212 230 255
212 230 255
212 230 255
212 230 255
205 224 224
192 213 175
179 202 125
171 194 25
175 197 0
171 195 0
173 197 0
175 198 0
174 197 0
174 197 0
170 194 0
173 197 0
171 194 0
171 194 0
174 198 0
170 194 0
171 194 0
174 198 0
172 196 0
173 197 0
173 197 0
173 196 0
172 195 0
173 196 0
173 196 0
176 199 0
173 197 0
175 198 0
171 195 0
171 195 0
173 197 0
172 196 0
172 196 0
174 198 0
174 197 0
172 195 0
173 196 0
176 198 0
173 197 0
173 197 0
174 198 0
171 195 0
174 197 0
174 197 0
175 197 0
175 198 0
172 196 0
174 197 0
172 195 0
174 197 0
173 196 0
173 195 0
170 194 0
175 198 0
173 197 0
173 196 0
172 196 0
173 196 0
173 197 0
173 197 0
174 197 0
173 196 0
173 197 0
174 197 0
174 198 0
174 198 0
173 197 0
173 197 0
175 198 0
172 196 0
173 197 0
174 197 0
174 197 0
175 198 0
171 195 0
176 199 0
174 196 0
173 195 0
175 198 0
173 196 0
174 198 0
175 197 0
174 197 25
184 206 130
191 213 175
201 222 230
207 227 253
208 228 255
208 228 255
207 228 255
207 228 255
207 228 255
207 228 255
207 228 255
207 228 255
207 228 255
207 228 255
207 228 255
207 228 255
207 228 255
207 228 255
207 228 255
207 228 255
207 227 255
207 227 255
207 227 255
207 227 255
206 227 255
206 227 255
206 227 255
206 227 255
206 227 255
206 227 255
206 227 255
206 227 255
206 227 255
206 227 255
206 227 255
206 227 255
206 227 255
206 227 255
206 227 255
206 227 255
206 227 255
206 227 255
205 227 255
205 227 255
205 227 255
205 227 255
205 227 255
205 227 255
205 227 255
205 227 255
205 227 255
205 227 255
205 227 255
205 227 255
205 226 255
205 226 255
205 226 255
205 226 255
205 226 255
205 226 255
205 226 255
205 226 255
204 226 255
204 226 255
204 226 255
204 226 255
204 226 255
204 226 255
204 226 255
204 226 255
204 226 255
204 226 255
204 226 255
204 226 255
204 226 255
204 226 255
204 226 255
204 226 255
204 226 255
204 226 255
204 226 255
204 226 255
204 226 255
204 226 255
204 226 255
204 226 255
204 226 255
204 226 255
204 226 255
204 226 255
204 226 255
204 226 255
203 226 255
203 226 255
203 226 255
203 226 255
203 226 255
203 226 255
203 226 255
203 226 255
203 226 255
203 226 255
203 226 255
203 226 255
203 226 255
203 226 255
203 226 255
203 226 255
203 226 255
203 226 255
203 226 255
203 226 255
203 226 255
203 226 255
203 226 255
203 226 255
203 226 255
203 226 255
203 226 255
203 226 255
203 226 255
203 226 255
203 226 255
203 226 255
203 226 255
203 226 255
203 226 255
203 226 255
204 226 255
204 226 255
204 226 255
204 226 255
204 226 255
204 226 255
204 226 255
204 226 255
204 226 255
204 226 255
204 226 255
204 226 255
204 226 255
204 226 255
204 226 255
204 226 255
204 226 255
204 226 255
204 226 255
204 226 255
204 226 255
204 226 255
204 226 255
204 226 255
204 226 255
204 226 255
204 226 255
204 226 255
204 226 255
205 226 255
205 226 255
205 226 255
205 226 255
205 226 255
205 226 255
205 226 255
205 226 255
205 226 255
205 227 255
205 227 255
205 227 255
205 227 255
205 227 255
205 227 255
205 227 255
205 227 255
205 227 255
205 227 255
205 227 255
205 227 255
206 227 255
206 227 255
206 227 255
206 227 255
206 227 255
206 227 255
206 227 255
206 227 255
206 227 255
206 227 255
206 227 255
206 227 255
206 227 255
206 227 255
206 227 255
206 227 255
206 227 255
206 227 255
207 227 255
207 227 255
207 227 255
207 227 255
207 228 255
207 228 255
207 228 255
207 228 255
207 228 255
207 228 255
207 228 255
207 228 255
207 228 255
207 228 255
207 228 255
207 228 255
207 228 255
207 228 255
208 228 255
208 228 255
207 227 254
196 213 232
179 191 198
162 167 150
140 138 94
143 141 94
135 134 90
149 148 99
143 143 96
150 149 100
149 148 100
154 153 103
153 152 103
148 147 99
147 147 99
153 153 103
152 152 103
157 157 106
154 154 104
155 154 104
153 153 103
153 152 103
154 154 104
154 154 104
148 148 101
145 145 99
151 151 102
158 158 107
160 160 108
157 157 106
157 157 106
161 160 108
155 155 104
155 155 105
160 160 108
161 160 108
157 157 106
160 159 107
158 157 106
159 159 107
165 164 110
159 158 106
159 158 106
158 158 106
150 150 101
154 152 102
159 157 106
163 162 109
163 161 108
161 159 106
159 158 106
155 154 103
154 153 103
158 157 105
158 156 104
156 154 103
151 149 99
155 153 102
156 154 103
158 156 104
158 155 104
155 152 101
160 157 104
163 160 106
155 151 100
158 155 103
154 151 100
157 154 102
158 154 102
154 150 99
153 149 99
156 152 101
157 153 101
148 144 95
157 153 101
149 145 95
153 149 98
146 142 93
148 144 95
142 138 90
137 132 87
142 136 89
131 127 83
145 140 94
160 163 147
177 187 193
200 216 234
212 230 255
212 230 255
212 230 255
212 230 255
212 230 255
212 230 255
212 230 255
212 230 255
212 230 255
212 230 255
212 230 254
206 225 237
192 213 177
181 203 102
175 198 0
171 195 0
173 196 0
172 196 0
173 196 0
175 197 0
173 196 0
172 195 0
171 194 0
172 195 0
173 196 0
171 195 0
174 198 0
174 197 0
171 196 0
174 197 0
173 197 0
172 195 0
173 196 0
174 197 0
173 197 0
172 196 0
175 198 0
173 196 0
174 197 0
171 194 0
173 197 0
173 197 0
171 195 0
175 198 0
173 197 0
174 198 0
174 197 0
173 197 0
174 197 0
171 195 0
173 196 0
173 197 0
174 197 0
174 197 0
172 195 0
172 195 0
175 198 0
174 197 0
173 197 0
174 197 0
174 197 0
172 196 0
173 196 0
175 198 0
173 197 0
172 196 0
173 197 0
176 198 0
174 197 0
173 197 0
175 198 0
172 195 0
175 197 0
174 197 0
173 197 0
175 198 0
173 196 0
173 197 0
175 198 0
173 197 0
171 195 0
173 196 0
174 197 0
174 198 0
173 196 0
175 198 0
173 197 0
174 197 0
175 198 0
173 197 0
174 197 0
175 198 0
173 197 0
172 196 0
173 197 0
174 197 0
174 196 0
175 198 0
172 196 0
172 196 0
179 202 99
186 207 144
200 221 220
207 228 254
208 228 255
208 228 255
208 228 255
207 228 255
207 228 255
207 228 255
207 228 255
207 228 255
207 228 255
207 228 255
207 228 255
207 228 255
207 228 255
207 228 255
207 228 255
207 228 255
207 228 255
207 227 255
207 227 255
207 227 255
207 227 255
206 227 255
206 227 255
206 227 255
206 227 255
206 227 255
206 227 255
206 227 255
206 227 255
206 227 255
206 227 255
206 227 255
206 227 255
206 227 255
206 227 255
206 227 255
206 227 255
206 227 255
206 227 255
206 227 255
205 227 255
205 227 255
205 227 255
205 227 255
205 227 255
205 227 255
205 227 255
205 227 255
205 227 255
205 227 255
205 227 255
205 227 255
205 226 255
205 226 255
205 226 255
205 226 255
205 226 255
205 226 255
205 226 255
205 226 255
205 226 255
204 226 255
204 226 255
204 226 255
204 226 255
204 226 255
204 226 255
204 226 255
204 226 255
204 226 255
204 226 255
204 226 255
204 226 255
204 226 255
204 226 255
204 226 255
204 226 255
204 226 255
204 226 255
204 226 255
204 226 255
204 226 255
204 226 255
204 226 255
204 226 255
204 226 255
204 226 255
204 226 255
204 226 255
204 226 255
204 226 255
204 226 255
204 226 255
204 226 255
204 226 255
204 226 255
204 226 255
204 226 255
204 226 255
204 226 255
204 226 255
204 226 255
204 226 255
204 226 255
204 226 255
204 226 255
204 226 255
204 226 255
204 226 255
204 226 255
204 226 255
204 226 255
204 226 255
204 226 255
204 226 255
204 226 255
204 226 255
204 226 255
204 226 255
204 226 255
204 226 255
204 226 255
204 226 255
204 226 255
204 226 255
204 226 255
204 226 255
204 226 255
204 226 255
204 226 255
204 226 255
204 226 255
204 226 255
204 226 255
204 226 255
204 226 255
204 226 255
204 226 255
204 226 255
204 226 255
204 226 255
204 226 255
204 226 255
204 226 255
204 226 255
205 226 255
205 226 255
205 226 255
205 226 255
205 226 255
205 226 255
205 226 255
205 226 255
205 226 255
205 227 255
205 227 255
205 227 255
205 227 255
205 227 255
205 227 255
205 227 255
205 227 255
205 227 255
205 227 255
205 227 255
205 227 255
206 227 255
206 227 255
206 227 255
206 227 255
206 227 255
206 227 255
206 227 255
206 227 255
206 227 255
206 227 255
206 227 255
206 227 255
206 227 255
206 227 255
206 227 255
206 227 255
206 227 255
206 227 255
206 227 255
207 227 255
207 227 255
207 227 255
207 227 255
207 228 255
207 228 255
207 228 255
207 228 255
207 228 255
207 228 255
207 228 255
207 228 255
207 228 255
207 228 255
207 228 255
207 228 255
207 228 255
207 228 255
208 228 255
208 228 255
208 228 255
206 226 253
190 205 221
175 188 200
144 146 124
136 134 89
144 142 95
145 144 97
150 149 100
150 149 101
151 151 101
152 151 102
146 145 98
146 145 98
153 153 103
153 153 103
152 152 103
152 152 103
152 152 103
149 150 101
152 152 103
159 159 108
149 150 101
153 153 104
158 159 108
150 150 102
155 155 105
161 161 109
158 159 108
159 160 108
155 156 106
163 163 110
156 156 106
157 157 106
161 161 109
161 161 109
160 160 108
158 157 106
162 162 109
164 164 111
157 156 106
163 162 109
161 161 109
167 166 112
163 162 109
158 157 106
162 161 108
160 160 108
159 159 107
162 161 109
159 158 106
157 156 105
160 159 107
162 161 108
161 159 107
160 158 106
160 158 106
157 155 104
157 156 104
157 154 103
163 161 108
163 161 108
156 153 103
158 156 104
159 157 105
156 154 103
156 153 103
165 162 108
154 150 100
161 158 105
161 158 105
153 150 100
156 153 101
159 156 103
151 148 98
156 153 101
153 149 99
160 156 103
149 145 96
158 154 102
156 152 100
149 145 95
151 146 96
150 145 95
153 149 98
147 142 93
150 145 96
154 149 98
144 138 90
146 140 92
136 131 85
149 150 126
182 191 194
194 207 223
212 230 255
212 230 255
212 230 255
212 230 255
212 230 255
206 225 236
196 216 188
178 200 95
174 198 0
174 197 0
172 196 0
169 192 0
173 196 0
173 197 0
175 198 0
170 193 0
171 195 0
173 196 0
174 197 0
171 195 0
172 195 0
173 196 0
174 197 0
173 196 0
174 197 0
175 198 0
174 197 0
174 196 0
175 198 0
172 196 0
175 198 0
170 194 0
173 197 0
174 197 0
175 198 0
173 196 0
176 198 0
175 198 0
175 198 0
171 195 0
173 197 0
174 197 0
172 196 0
175 198 0
173 197 0
174 198 0
172 195 0
172 195 0
171 195 0
174 197 0
175 198 0
173 196 0
171 195 0
174 197 0
175 198 0
175 197 0
175 198 0
172 195 0
174 197 0
174 197 0
174 198 0
173 196 0
173 197 0
173 197 0
174 198 0
175 198 0
173 197 0
175 198 0
174 197 0
172 196 0
176 199 0
174 197 0
175 198 0
173 196 0
170 194 0
172 196 0
174 197 0
173 197 0
172 195 0
173 197 0
171 195 0
172 195 0
171 195 0
172 196 0
173 196 0
176 198 0
175 198 0
173 197 0
175 197 0
174 197 0
174 198 0
175 198 0
172 196 0
176 199 0
172 195 0
176 198 0
176 199 0
174 198 0
175 198 0
175 198 0
182 204 99
193 214 184
207 227 250
208 228 255
208 228 255
208 228 255
208 228 255
208 228 255
207 228 255
207 228 255
207 228 255
207 228 255
207 228 255
207 228 255
207 228 255
207 228 255
207 228 255
207 228 255
207 228 255
207 228 255
207 228 255
207 228 255
207 227 255
207 227 255
207 227 255
207 227 255
206 227 255
206 227 255
206 227 255
206 227 255
206 227 255
206 227 255
206 227 255
206 227 255
206 227 255
206 227 255
206 227 255
206 227 255
206 227 255
206 227 255
206 227 255
206 227 255
206 227 255
206 227 255
206 227 255
206 227 255
205 227 255
205 227 255
205 227 255
205 227 255
205 227 255
205 227 255
205 227 255
205 227 255
205 227 255
205 227 255
205 227 255
205 227 255
205 226 255
205 226 255
205 226 255
205 226 255
205 226 255
205 226 255
205 226 255
205 226 255
205 226 255
205 226 255
205 226 255
204 226 255
204 226 255
204 226 255
204 226 255
204 226 255
204 226 255
204 226 255
204 226 255
204 226 255
204 226 255
204 226 255
204 226 255
204 226 255
204 226 255
204 226 255
204 226 255
204 226 255
204 226 255
204 226 255
204 226 255
204 226 255
204 226 255
204 226 255
204 226 255
204 226 255
204 226 255
204 226 255
204 226 255
204 226 255
204 226 255
204 226 255
204 226 255
204 226 255
204 226 255
204 226 255
204 226 255
204 226 255
204 226 255
204 226 255
204 226 255
204 226 255
204 226 255
204 226 255
204 226 255
204 226 255
204 226 255
204 226 255
204 226 255
204 226 255
204 226 255
204 226 255
204 226 255
204 226 255
204 226 255
204 226 255
204 226 255
204 226 255
204 226 255
204 226 255
204 226 255
204 226 255
204 226 255
204 226 255
204 226 255
204 226 255
204 226 255
204 226 255
204 226 255
204 226 255
204 226 255
204 226 255
205 226 255
205 226 255
205 226 255
205 226 255
205 226 255
205 226 255
205 226 255
205 226 255
205 226 255
205 226 255
205 227 255
205 227 255
205 227 255
205 227 255
205 227 255
205 227 255
205 227 255
205 227 255
205 227 255
205 227 255
205 227 255
205 227 255
206 227 255
206 227 255
206 227 255
206 227 255
206 227 255
206 227 255
206 227 255
206 227 255
206 227 255
206 227 255
206 227 255
206 227 255
206 227 255
206 227 255
206 227 255
206 227 255
206 227 255
206 227 255
206 227 255
206 227 255
207 227 255
207 227 255
207 227 255
207 227 255
207 228 255
207 228 255
207 228 255
207 228 255
207 228 255
207 228 255
207 228 255
207 228 255
207 228 255
207 228 255
207 228 255
207 228 255
207 228 255
207 228 255
208 228 255
208 228 255
208 228 255
208 228 255
208 228 255
194 210 227
168 179 182
147 148 118
135 133 89
138 136 91
143 142 95
144 143 96
139 138 93
146 145 98
148 147 99
141 141 95
158 158 106
151 151 102
147 146 99
148 147 99
156 156 105
159 160 108
156 157 106
155 155 105
152 152 103
161 161 109
160 160 109
160 160 108
158 158 108
162 163 110
155 155 105
161 161 109
161 162 110
155 156 106
159 160 108
156 157 106
160 161 109
160 161 109
162 163 110
163 164 111
161 161 109
159 160 108
164 164 111
158 158 107
162 162 110
158 159 108
163 163 110
164 164 110
157 157 106
160 160 108
164 164 111
164 164 110
158 158 106
164 164 110
168 168 113
167 167 112
160 159 107
164 163 110
166 165 111
166 165 110
165 164 110
165 163 109
159 157 106
166 165 111
162 160 108
169 168 112
162 160 107
158 157 105
157 155 104
159 158 106
162 160 107
165 162 108
163 160 107
161 159 106
159 157 104
156 154 103
162 158 105
165 162 108
163 160 107
160 157 104
155 151 100
153 150 100
153 149 99
152 149 99
148 145 96
161 157 104
160 155 102
151 147 97
145 142 94
162 157 103
135 131 86
158 153 100
153 148 97
147 142 93
141 136 90
144 139 91
147 142 93
139 133 87
148 142 93
141 136 89
152 150 120
179 188 192
203 220 241
212 230 255
186 207 130
167 191 0
171 195 0
172 194 0
172 195 0
174 197 0
175 198 0
172 195 0
171 195 0
172 196 0
171 195 0
171 195 0
173 197 0
171 195 0
174 198 0
173 196 0
174 197 0
173 197 0
171 195 0
171 195 0
173 197 0
174 197 0
172 196 0
174 197 0
174 198 0
174 197 0
173 197 0
176 199 0
173 197 0
174 198 0
174 198 0
173 196 0
172 196 0
173 197 0
171 194 0
174 197 0
173 197 0
175 198 0
173 197 0
173 196 0
174 197 0
172 195 0
173 197 0
174 197 0
173 197 0
175 198 0
173 197 0
170 194 0
172 196 0
172 196 0
173 196 0
172 196 0
174 197 0
173 197 0
173 197 0
171 195 0
175 198 0
171 195 0
173 196 0
173 196 0
173 197 0
174 198 0
173 197 0
171 196 0
173 196 0
174 198 0
174 198 0
173 197 0
175 198 0
172 196 0
174 197 0
172 196 0
173 197 0
174 197 0
174 198 0
172 197 0
172 196 0
172 195 0
174 197 0
172 196 0
175 198 0
173 197 0
172 196 0
171 195 0
175 198 0
172 196 0
173 196 0
172 196 0
174 198 0
174 198 0
173 195 0
176 198 0
172 196 0
175 198 0
172 195 0
175 197 0
174 197 0
173 196 0
175 198 0
184 207 137
193 214 184
206 227 249
208 228 255
208 228 255
208 228 255
208 228 255
208 228 255
208 228 255
207 228 255
207 228 255
207 228 255
207 228 255
207 228 255
207 228 255
207 228 255
207 228 255
207 228 255
207 228 255
207 228 255
207 228 255
207 228 255
207 228 255
207 227 255
207 227 255
207 227 255
207 227 255
207 227 255
206 227 255
206 227 255
206 227 255
206 227 255
206 227 255
206 227 255
206 227 255
206 227 255
206 227 255
206 227 255
206 227 255
206 227 255
206 227 255
206 227 255
206 227 255
206 227 255
206 227 255
206 227 255
206 227 255
206 227 255
205 227 255
205 227 255
205 227 255
205 227 255
205 227 255
205 227 255
205 227 255
205 227 255
205 227 255
205 227 255
205 227 255
205 227 255
205 227 255
205 226 255
205 226 255
205 226 255
205 226 255
205 226 255
205 226 255
205 226 255
205 226 255
205 226 255
205 226 255
205 226 255
205 226 255
204 226 255
204 226 255
204 226 255
204 226 255
204 226 255
204 226 255
204 226 255
204 226 255
204 226 255
204 226 255
204 226 255
204 226 255
204 226 255
204 226 255
204 226 255
204 226 255
204 226 255
204 226 255
204 226 255
204 226 255
204 226 255
204 226 255
204 226 255
204 226 255
204 226 255
204 226 255
204 226 255
204 226 255
204 226 255
204 226 255
204 226 255
204 226 255
204 226 255
204 226 255
204 226 255
204 226 255
204 226 255
204 226 255
204 226 255
204 226 255
204 226 255
204 226 255
204 226 255
204 226 255
204 226 255
204 226 255
204 226 255
204 226 255
204 226 255
204 226 255
204 226 255
204 226 255
204 226 255
204 226 255
204 226 255
204 226 255
205 226 255
205 226 255
205 226 255
205 226 255
205 226 255
205 226 255
205 226 255
205 226 255
205 226 255
205 226 255
205 226 255
205 226 255
205 227 255
205 227 255
205 227 255
205 227 255
205 227 255
205 227 255
205 227 255
205 227 255
205 227 255
205 227 255
205 227 255
205 227 255
205 227 255
205 227 255
206 227 255
206 227 255
206 227 255
206 227 255
206 227 255
206 227 255
206 227 255
206 227 255
206 227 255
206 227 255
206 227 255
206 227 255
206 227 255
206 227 255
206 227 255
206 227 255
206 227 255
206 227 255
206 227 255
207 227 255
207 227 255
207 227 255
207 227 255
207 227 255
207 228 255
207 228 255
207 228 255
207 228 255
207 228 255
207 228 255
207 228 255
207 228 255
207 228 255
207 228 255
207 228 255
207 228 255
207 228 255
207 228 255
208 228 255
208 228 255
208 228 255
208 228 255
208 228 255
208 228 255
205 224 250
183 196 205
157 160 141
148 146 97
140 138 93
148 146 98
141 141 95
149 148 99
151 151 102
155 155 104
148 147 99
145 145 98
152 152 103
153 153 104
156 157 106
155 156 106
155 155 105
161 161 109
158 159 108
156 157 106
158 159 108
158 158 108
161 162 110
159 159 108
159 159 108
160 161 109
161 162 110
158 159 108
160 160 109
159 160 109
164 165 112
165 165 112
160 160 109
163 164 111
157 158 108
164 164 111
163 163 110
165 165 112
160 160 109
164 164 111
166 166 113
166 166 112
165 165 112
166 166 112
165 165 112
166 166 112
166 165 112
164 164 111
164 164 110
165 165 112
163 163 110
162 161 109
163 162 109
159 159 107
166 166 112
162 161 109
162 162 109
162 161 109
163 162 109
161 160 108
166 165 111
165 163 109
162 161 108
163 162 109
161 160 107
165 162 108
169 167 112
170 167 112
168 166 111
160 158 106
163 161 108
165 162 108
166 163 108
156 154 103
164 162 108
160 157 105
159 157 105
166 163 108
157 154 103
161 157 104
159 155 103
159 156 103
163 159 105
161 157 104
159 156 104
159 155 103
156 152 100
149 145 96
158 153 101
148 144 95
155 151 99
151 147 97
158 154 101
154 149 97
152 146 96
144 138 90
154 148 97
146 141 92
144 138 90
139 134 87
138 132 86
150 152 138
172 196 0
172 196 0
171 195 0
175 198 0
172 195 0
174 197 0
174 197 0
171 195 0
174 197 0
176 198 0
172 195 0
173 197 0
174 197 0
172 196 0
174 197 0
173 196 0
175 198 0
173 197 0
174 197 0
171 194 0
174 198 0
172 196 0
176 198 0
173 196 0
173 197 0
175 198 0
175 197 0
169 193 0
172 196 0
172 196 0
174 197 0
175 198 0
173 197 0
171 195 0
174 197 0
173 197 0
173 196 0
174 197 0
174 197 0
174 197 0
173 196 0
174 197 0
173 196 0
172 196 0
173 197 0
174 197 0
174 197 0
173 196 0
173 196 0
173 197 0
174 197 0
175 197 0
174 197 0
170 195 0
174 198 0
174 197 0
174 197 0
174 197 0
173 196 0
175 198 0
173 197 0
174 197 0
174 198 0
175 198 0
173 197 0
172 196 0
173 197 0
171 195 0
174 197 0
172 196 0
174 197 0
173 196 0
173 197 0
171 195 0
172 195 0
173 197 0
173 197 0
174 198 0
173 196 0
173 197 0
174 197 0
174 197 0
172 196 0
171 195 0
173 196 0
174 197 0
172 195 0
174 198 0
174 197 0
171 195 0
172 195 0
174 197 0
173 196 0
174 198 0
175 198 0
174 198 0
172 195 0
175 198 0
175 198 0
173 197 0
176 198 0
177 199 62
191 212 175
203 223 231
208 228 255
208 228 255
208 228 255
208 228 255
208 228 255
208 228 255
208 228 255
208 228 255
207 228 255
207 228 255
207 228 255
207 228 255
207 228 255
207 228 255
207 228 255
207 228 255
207 228 255
207 228 255
207 228 255
207 228 255
207 228 255
207 228 255
207 227 255
207 227 255
207 227 255
207 227 255
207 227 255
206 227 255
206 227 255
206 227 255
206 227 255
206 227 255
206 227 255
206 227 255
206 227 255
206 227 255
206 227 255
206 227 255
206 227 255
206 227 255
206 227 255
206 227 255
206 227 255
206 227 255
206 227 255
206 227 255
206 227 255
206 227 255
205 227 255
205 227 255
205 227 255
205 227 255
205 227 255
205 227 255
205 227 255
205 227 255
205 227 255
205 227 255
205 227 255
205 227 255
205 227 255
205 227 255
205 227 255
205 226 255
205 226 255
205 226 255
205 226 255
205 226 255
205 226 255
205 226 255
205 226 255
205 226 255
205 226 255
205 226 255
205 226 255
205 226 255
205 226 255
205 226 255
205 226 255
204 226 255
204 226 255
204 226 255
204 226 255
204 226 255
204 226 255
204 226 255
204 226 255
204 226 255
204 226 255
204 226 255
204 226 255
204 226 255
204 226 255
204 226 255
204 226 255
204 226 255
204 226 255
204 226 255
204 226 255
204 226 255
204 226 255
204 226 255
204 226 255
204 226 255
204 226 255
204 226 255
204 226 255
204 226 255
204 226 255
204 226 255
204 226 255
204 226 255
204 226 255
204 226 255
205 226 255
205 226 255
205 226 255
205 226 255
205 226 255
205 226 255
205 226 255
205 226 255
205 226 255
205 226 255
205 226 255
205 226 255
205 226 255
205 226 255
205 226 255
205 227 255
205 227 255
205 227 255
205 227 255
205 227 255
205 227 255
205 227 255
205 227 255
205 227 255
205 227 255
205 227 255
205 227 255
205 227 255
205 227 255
205 227 255
206 227 255
206 227 255
206 227 255
206 227 255
206 227 255
206 227 255
206 227 255
206 227 255
206 227 255
206 227 255
206 227 255
206 227 255
206 227 255
206 227 255
206 227 255
206 227 255
206 227 255
206 227 255
206 227 255
206 227 255
206 227 255
207 227 255
207 227 255
207 227 255
207 227 255
207 227 255
207 228 255
207 228 255
207 228 255
207 228 255
207 228 255
207 228 255
207 228 255
207 228 255
207 228 255
207 228 255
207 228 255
207 228 255
207 228 255
207 228 255
208 228 255
208 228 255
208 228 255
208 228 255
208 228 255
208 228 255
208 228 255
208 228 255
194 210 228
166 175 173
143 143 110
140 138 93
134 132 89
150 148 99
149 148 99
151 150 101
155 155 105
148 148 100
161 161 109
161 162 109
151 151 103
156 156 105
158 158 107
160 160 109
151 152 103
155 156 106
161 161 109
160 161 109
154 155 106
162 163 111
162 163 111
156 156 106
161 162 110
163 164 112
162 163 110
162 163 111
162 163 111
163 164 111
163 164 112
162 163 111
162 163 111
164 166 113
165 166 113
163 164 111
165 166 113
166 167 113
165 165 112
164 165 112
168 168 114
167 167 113
167 167 113
166 167 113
166 167 113
169 169 114
167 167 113
165 165 112
168 168 113
168 168 113
167 166 112
167 166 112
168 167 113
165 165 111
166 166 112
168 167 113
167 166 112
165 165 111
167 166 112
168 167 112
167 165 111
167 166 112
164 163 110
168 166 111
167 165 110
165 164 110
168 165 110
166 165 110
163 162 108
165 163 109
167 165 110
166 164 109
158 156 104
165 162 108
164 162 108
162 159 106
164 161 107
159 155 103
167 163 109
164 161 108
162 160 107
168 164 109
169 165 109
164 160 106
163 159 106
163 159 105
165 161 107
160 156 103
158 154 101
160 156 103
156 152 100
161 156 103
155 150 99
155 151 99
151 146 96
153 149 99
157 153 101
149 144 95
149 144 95
146 141 93
149 144 94
154 149 98
152 145 95
140 134 87
171 195 0
173 196 0
175 198 0
173 197 0
170 193 0
172 195 0
171 195 0
174 197 0
172 196 0
176 198 0
175 198 0
174 198 0
173 197 0
174 197 0
173 197 0
174 197 0
175 198 0
172 196 0
174 197 0
174 197 0
172 197 0
175 198 0
173 197 0
173 196 0
171 195 0
175 198 0
174 197 0
172 196 0
175 197 0
173 196 0
173 197 0
173 197 0
174 198 0
174 198 0
174 197 0
173 196 0
174 198 0
172 196 0
173 197 0
174 197 0
174 197 0
174 197 0
174 198 0
174 197 0
173 197 0
175 198 0
175 198 0
173 197 0
174 198 0
174 197 0
175 198 0
174 198 0
174 198 0
174 197 0
174 197 0
174 197 0
174 197 0
175 198 0
171 195 0
172 196 0
175 198 0
172 196 0
175 198 0
171 195 0
177 199 0
174 198 0
173 196 0
174 197 0
173 197 0
175 198 0
174 197 0
174 197 0
176 198 0
174 197 0
175 198 0
173 197 0
172 196 0
173 197 0
173 197 0
174 198 0
173 197 0
173 197 0
176 198 0
174 197 0
174 198 0
175 198 0
172 195 0
173 197 0
174 198 0
172 196 0
173 197 0
176 199 0
173 197 0
175 198 0
177 199 0
174 197 0
174 197 0
173 197 0
173 196 0
174 197 0
172 196 0
173 197 0
176 198 0
176 199 0
185 207 142
198 219 214
208 228 254
208 228 255
208 228 255
208 228 255
208 228 255
208 228 255
208 228 255
208 228 255
208 228 255
208 228 255
207 228 255
207 228 255
207 228 255
207 228 255
207 228 255
207 228 255
207 228 255
207 228 255
207 228 255
207 228 255
207 228 255
207 228 255
207 228 255
207 228 255
207 228 255
207 227 255
207 227 255
207 227 255
207 227 255
207 227 255
206 227 255
206 227 255
206 227 255
206 227 255
206 227 255
206 227 255
206 227 255
206 227 255
206 227 255
206 227 255
206 227 255
206 227 255
206 227 255
206 227 255
206 227 255
206 227 255
206 227 255
206 227 255
206 227 255
206 227 255
206 227 255
206 227 255
205 227 255
205 227 255
205 227 255
205 227 255
205 227 255
205 227 255
205 227 255
205 227 255
205 227 255
205 227 255
205 227 255
205 227 255
205 227 255
205 227 255
205 227 255
205 227 255
205 227 255
205 227 255
205 226 255
205 226 255
205 226 255
205 226 255
205 226 255
205 226 255
205 226 255
205 226 255
205 226 255
205 226 255
205 226 255
205 226 255
205 226 255
205 226 255
205 226 255
205 226 255
205 226 255
205 226 255
205 226 255
205 226 255
205 226 255
205 226 255
205 226 255
205 226 255
205 226 255
205 226 255
205 226 255
205 226 255
205 226 255
205 226 255
205 226 255
205 226 255
205 226 255
205 226 255
205 226 255
205 226 255
205 226 255
205 226 255
205 226 255
205 226 255
205 226 255
205 226 255
205 226 255
205 226 255
205 226 255
205 226 255
205 226 255
205 226 255
205 227 255
205 227 255
205 227 255
205 227 255
205 227 255
205 227 255
205 227 255
205 227 255
205 227 255
205 227 255
205 227 255
205 227 255
205 227 255
205 227 255
205 227 255
205 227 255
205 227 255
205 227 255
206 227 255
206 227 255
206 227 255
206 227 255
206 227 255
206 227 255
206 227 255
206 227 255
206 227 255
206 227 255
206 227 255
206 227 255
206 227 255
206 227 255
206 227 255
206 227 255
206 227 255
206 227 255
206 227 255
206 227 255
206 227 255
206 227 255
207 227 255
207 227 255
207 227 255
207 227 255
207 227 255
207 228 255
207 228 255
207 228 255
207 228 255
207 228 255
207 228 255
207 228 255
207 228 255
207 228 255
207 228 255
207 228 255
207 228 255
207 228 255
207 228 255
207 228 255
208 228 255
208 228 255
208 228 255
208 228 255
208 228 255
208 228 255
208 228 255
208 228 255
208 228 255
208 227 253
180 192 200
156 160 145
136 134 89
143 141 94
151 149 100
139 139 93
147 146 99
153 153 103
152 151 102
156 156 105
148 148 100
158 159 108
158 159 108
153 153 103
158 159 108
154 155 106
155 156 106
158 160 109
161 162 110
159 161 109
158 159 108
159 160 109
164 165 112
158 160 109
161 162 110
166 167 113
162 163 111
164 165 112
166 168 114
163 164 112
165 167 113
163 165 112
165 167 113
166 167 113
166 167 113
166 167 114
167 168 114
167 168 114
167 168 114
167 167 113
167 168 114
166 168 114
168 168 114
165 166 113
167 168 114
168 168 114
168 168 114
167 167 113
167 167 113
169 169 114
168 168 114
166 167 113
168 168 114
168 168 113
169 169 114
168 168 114
169 169 114
168 167 113
169 168 113
169 169 113
170 169 113
170 169 113
168 167 112
166 166 112
171 169 113
168 167 112
168 167 112
169 167 112
168 167 112
165 164 110
164 162 109
170 167 112
167 165 110
171 168 112
169 166 111
166 164 109
163 160 107
164 162 108
169 166 110
167 164 109
160 157 104
164 160 106
168 164 109
164 160 106
163 160 106
166 162 107
161 158 105
158 155 103
161 157 104
160 157 105
161 158 104
160 157 104
162 157 104
161 157 104
161 156 103
153 149 98
157 152 100
155 150 98
154 149 98
154 149 98
153 148 97
147 141 93
151 146 95
151 145 95
153 147 96
151 146 95
170 194 0
174 197 0
172 195 0
172 196 0
174 197 0
173 196 0
176 198 0
173 196 0
170 194 0
173 196 0
173 197 0
173 196 0
173 197 0
174 197 0
175 198 0
173 197 0
174 197 0
173 196 0
174 197 0
173 197 0
174 197 0
173 197 0
176 199 0
173 197 0
176 198 0
172 196 0
175 198 0
174 197 0
174 197 0
172 196 0
173 197 0
173 196 0
174 198 0
176 199 0
175 198 0
173 197 0
175 198 0
174 198 0
174 198 0
174 197 0
175 198 0
174 198 0
175 198 0
174 197 0
175 198 0
172 196 0
174 198 0
174 197 0
174 197 0
171 195 0
175 198 0
175 198 0
175 198 0
174 197 0
174 198 0
174 198 0
174 197 0
176 198 0
170 194 0
175 198 0
173 196 0
172 196 0
176 199 0
174 198 0
174 197 0
173 196 0
175 198 0
174 197 0
174 197 0
172 196 0
174 197 0
175 198 0
174 197 0
176 199 0
173 197 0
175 198 0
175 198 0
174 197 0
175 198 0
174 197 0
173 197 0
174 197 0
174 197 0
173 197 0
172 196 0
174 197 0
176 198 0
175 198 0
174 197 0
173 196 0
175 198 0
173 196 0
174 197 0
174 197 0
173 196 0
174 197 0
173 197 0
173 197 0
174 197 0
175 198 0
174 197 0
174 197 0
173 197 0
171 195 0
174 197 0
175 198 0
180 203 95
191 212 171
206 226 246
208 228 255
208 228 255
208 228 255
208 228 255
208 228 255
208 228 255
208 228 255
208 228 255
208 228 255
208 228 255
208 228 255
208 228 255
207 228 255
207 228 255
207 228 255
207 228 255
207 228 255
207 228 255
207 228 255
207 228 255
207 228 255
207 228 255
207 228 255
207 228 255
207 228 255
207 228 255
207 227 255
207 227 255
207 227 255
207 227 255
207 227 255
207 227 255
206 227 255
206 227 255
206 227 255
206 227 255
206 227 255
206 227 255
206 227 255
206 227 255
206 227 255
206 227 255
206 227 255
206 227 255
206 227 255
206 227 255
206 227 255
206 227 255
206 227 255
206 227 255
206 227 255
206 227 255
206 227 255
206 227 255
206 227 255
206 227 255
205 227 255
205 227 255
205 227 255
205 227 255
205 227 255
205 227 255
205 227 255
205 227 255
205 227 255
205 227 255
205 227 255
205 227 255
205 227 255
205 227 255
205 227 255
205 227 255
205 227 255
205 227 255
205 227 255
205 227 255
205 227 255
205 227 255
205 227 255
205 227 255
205 227 255
205 226 255
205 227 255
205 226 255
205 226 255
205 226 255
205 226 255
205 226 255
205 226 255
205 226 255
205 226 255
205 226 255
205 226 255
205 226 255
205 226 255
205 226 255
205 226 255
205 226 255
205 226 255
205 226 255
205 226 255
205 226 255
205 227 255
205 227 255
205 227 255
205 227 255
205 227 255
205 227 255
205 227 255
205 227 255
205 227 255
205 227 255
205 227 255
205 227 255
205 227 255
205 227 255
205 227 255
205 227 255
205 227 255
205 227 255
205 227 255
205 227 255
205 227 255
205 227 255
205 227 255
205 227 255
206 227 255
206 227 255
206 227 255
206 227 255
206 227 255
206 227 255
206 227 255
206 227 255
206 227 255
206 227 255
206 227 255
206 227 255
206 227 255
206 227 255
206 227 255
206 227 255
206 227 255
206 227 255
206 227 255
206 227 255
206 227 255
206 227 255
206 227 255
206 227 255
207 227 255
207 227 255
207 227 255
207 227 255
207 227 255
207 228 255
207 228 255
207 228 255
207 228 255
207 228 255
207 228 255
207 228 255
207 228 255
207 228 255
207 228 255
207 228 255
207 228 255
207 228 255
207 228 255
207 228 255
208 228 255
208 228 255
208 228 255
208 228 255
208 228 255
208 228 255
208 228 255
208 228 255
208 228 255
208 228 255
208 228 255
208 228 255
206 225 251
178 190 195
140 138 103
132 130 87
148 146 98
138 136 91
151 150 101
147 147 99
153 152 102
154 154 104
149 149 101
151 151 103
157 158 107
155 156 106
162 162 110
157 158 107
159 160 109
159 160 109
158 159 108
162 163 111
162 163 111
158 160 109
163 164 112
164 166 113
163 165 112
165 167 113
164 166 113
164 166 113
166 168 114
165 167 113
166 168 114
166 167 114
166 167 114
165 167 113
166 167 114
166 167 114
166 167 114
166 167 114
167 168 114
167 168 114
166 168 114
166 167 114
166 168 114
167 168 114
167 168 114
167 168 114
168 168 114
167 168 114
168 168 114
167 168 114
168 168 114
167 168 114
168 168 114
168 168 114
169 169 114
169 169 114
169 169 114
171 169 114
169 169 114
170 169 114
170 169 114
170 169 114
169 169 114
169 169 114
170 169 114
169 168 113
171 170 114
169 168 113
170 169 114
172 170 114
169 167 112
170 169 113
170 168 112
173 170 113
170 168 112
169 167 112
170 168 112
168 165 110
169 166 110
172 169 113
167 165 110
165 163 109
168 165 110
170 167 111
164 161 108
172 168 112
169 165 110
166 163 108
171 167 110
161 158 105
167 163 108
157 153 101
166 162 107
164 161 108
153 149 99
164 160 106
161 157 104
156 151 100
155 151 99
168 163 108
163 158 104
159 154 101
157 151 99
158 153 101
160 154 101
157 151 99
155 149 98
149 143 94
156 150 98
172 196 0
176 199 0
173 196 0
174 198 0
173 197 0
174 198 0
174 197 0
173 197 0
173 197 0
175 198 0
173 196 0
173 197 0
174 197 0
171 195 0
173 197 0
174 197 0
173 196 0
173 197 0
175 198 0
175 198 0
173 197 0
175 197 0
173 197 0
175 198 0
174 198 0
175 198 0
176 199 0
173 197 0
174 197 0
174 197 0
175 198 0
175 198 0
173 197 0
172 196 0
174 197 0
174 197 0
174 198 0
173 197 0
173 197 0
175 198 0
173 197 0
172 196 0
173 196 0
172 196 0
173 197 0
173 197 0
172 196 0
173 196 0
173 197 0
173 196 0
175 198 0
175 198 0
173 196 0
174 198 0
176 199 0
175 198 0
174 197 0
173 196 0
174 197 0
173 197 0
174 197 0
171 195 0
175 198 0
174 198 0
173 197 0
174 198 0
173 197 0
173 197 0
174 197 0
175 198 0
173 197 0
173 197 0
175 198 0
174 198 0
173 196 0
174 197 0
173 197 0
173 197 0
174 198 0
173 197 0
175 198 0
174 198 0
173 197 0
174 197 0
174 197 0
173 197 0
174 197 0
174 198 0
175 198 0
173 197 0
175 198 0
174 197 0
175 198 0
173 196 0
174 197 0
175 198 0
176 198 0
174 197 0
175 198 0
174 197 0
173 197 0
173 196 0
176 198 0
175 198 0
172 196 0
174 197 0
173 197 0
174 197 0
176 199 62
191 213 173
207 227 252
208 228 255
208 228 255
208 228 255
208 228 255
208 228 255
208 228 255
208 228 255
208 228 255
208 228 255
208 228 255
208 228 255
208 228 255
208 228 255
208 228 255
207 228 255
207 228 255
207 228 255
207 228 255
207 228 255
207 228 255
207 228 255
207 228 255
207 228 255
207 228 255
207 228 255
207 228 255
207 228 255
207 228 255
207 228 255
207 228 255
207 227 255
207 227 255
207 227 255
207 227 255
207 227 255
206 227 255
206 227 255
206 227 255
206 227 255
206 227 255
206 227 255
206 227 255
206 227 255
206 227 255
206 227 255
206 227 255
206 227 255
206 227 255
206 227 255
206 227 255
206 227 255
206 227 255
206 227 255
206 227 255
206 227 255
206 227 255
206 227 255
206 227 255
206 227 255
206 227 255
206 227 255
206 227 255
205 227 255
205 227 255
205 227 255
205 227 255
205 227 255
205 227 255
205 227 255
205 227 255
205 227 255
205 227 255
205 227 255
205 227 255
205 227 255
205 227 255
205 227 255
205 227 255
205 227 255
205 227 255
205 227 255
205 227 255
205 227 255
205 227 255
205 227 255
205 227 255
204 226 255
200 222 252
198 220 251
202 224 254
201 223 253
204 226 255
205 227 255
205 227 255
205 227 255
205 227 255
205 227 255
205 227 255
205 227 255
205 227 255
205 227 255
205 227 255
205 227 255
205 227 255
205 227 255
205 227 255
205 227 255
205 227 255
205 227 255
205 227 255
205 227 255
205 227 255
205 227 255
205 227 255
205 227 255
205 227 255
206 227 255
206 227 255
206 227 255
206 227 255
206 227 255
206 227 255
206 227 255
206 227 255
206 227 255
206 227 255
206 227 255
206 227 255
206 227 255
206 227 255
206 227 255
206 227 255
206 227 255
206 227 255
206 227 255
206 227 255
206 227 255
206 227 255
206 227 255
206 227 255
206 227 255
206 227 255
206 227 255
207 227 255
207 227 255
207 227 255
207 227 255
207 227 255
207 228 255
207 228 255
207 228 255
207 228 255
207 228 255
207 228 255
207 228 255
207 228 255
207 228 255
207 228 255
207 228 255
207 228 255
207 228 255
207 228 255
207 228 255
207 228 255
208 228 255
208 228 255
208 228 255
208 228 255
208 228 255
208 228 255
208 228 255
208 228 255
208 228 255
208 228 255
208 228 255
208 228 255
208 228 255
208 228 255
203 222 246
174 186 195
148 148 116
142 139 93
144 142 95
151 150 101
156 155 104
148 147 99
149 148 100
150 149 101
158 157 106
155 156 106
158 158 107
158 159 108
161 162 110
154 155 106
161 162 110
162 163 110
161 162 110
158 160 109
165 166 113
164 165 112
164 166 113
163 165 112
162 163 111
166 167 114
165 167 114
166 167 114
166 167 114
166 167 114
165 167 114
166 167 114
166 167 114
165 167 114
165 167 114
166 167 114
166 167 114
166 167 114
165 167 114
166 167 114
166 168 114
167 168 114
167 168 114
166 168 114
167 168 114
167 168 114
166 168 114
167 168 114
167 168 114
167 168 114
167 168 114
167 168 114
167 168 114
168 168 114
168 168 114
168 168 114
168 168 114
169 169 114
169 169 114
168 169 114
169 169 114
169 169 114
169 169 114
171 170 114
170 169 114
170 169 114
171 170 114
170 169 114
171 170 114
171 170 114
171 170 114
171 170 114
171 170 114
171 170 114
172 170 114
170 168 112
170 168 112
171 168 112
167 166 111
170 167 112
171 168 112
167 165 110
169 166 111
173 170 113
173 169 112
165 162 108
173 170 113
169 165 110
169 166 110
169 166 110
171 167 110
168 164 109
165 162 108
160 156 103
164 160 106
165 161 106
168 163 108
162 158 104
163 158 104
153 149 98
157 153 101
161 157 103
170 164 108
164 159 104
163 157 103
158 152 100
163 158 104
153 148 97
157 151 99
148 143 94
150 145 95
173 197 0
175 198 0
172 196 0
173 196 0
174 198 0
171 195 0
173 196 0
175 198 0
173 195 0
173 197 0
173 196 0
175 198 0
175 198 0
175 197 0
174 198 0
172 195 0
174 197 0
176 198 0
174 198 0
173 197 0
175 198 0
176 198 0
173 197 0
173 197 0
174 198 0
174 198 0
173 196 0
172 195 0
173 197 0
173 197 0
172 197 0
174 197 0
173 196 0
174 198 0
174 198 0
174 198 0
174 197 0
174 198 0
174 197 0
174 197 0
171 195 0
172 196 0
175 198 0
174 197 0
175 197 0
174 198 0
175 198 0
175 198 0
172 197 0
173 197 0
173 196 0
172 196 0
175 197 0
174 198 0
173 197 0
172 196 0
175 198 0
172 196 0
175 198 0
175 198 0
176 198 0
175 198 0
174 197 0
173 197 0
174 197 0
174 198 0
173 197 0
173 197 0
173 197 0
171 194 0
175 198 0
174 197 0
174 198 0
174 197 0
175 198 0
176 198 0
173 197 0
176 198 0
172 195 0
173 197 0
172 197 0
174 197 0
175 197 0
174 198 0
175 198 0
175 198 0
175 198 0
174 197 0
175 198 0
174 198 0
172 196 0
173 196 0
174 198 0
174 198 0
174 197 0
173 197 0
177 199 0
175 198 0
174 198 0
175 198 0
173 197 0
173 197 0
174 197 0
175 198 0
173 196 0
176 199 0
174 198 0
174 197 0
174 197 0
175 198 0
177 200 62
194 216 189
206 226 244
208 228 255
208 228 255
208 228 255
208 228 255
208 228 255
208 228 255
208 228 255
208 228 255
208 228 255
208 228 255
208 228 255
208 228 255
208 228 255
208 228 255
208 228 255
208 228 255
208 228 255
207 228 255
207 228 255
207 228 255
207 228 255
207 228 255
207 228 255
207 228 255
207 228 255
207 228 255
207 228 255
207 228 255
207 228 255
207 228 255
207 228 255
207 228 255
207 228 255
207 227 255
207 227 255
207 227 255
207 227 255
207 227 255
207 227 255
206 227 255
206 227 255
206 227 255
206 227 255
206 227 255
206 227 255
206 227 255
206 227 255
206 227 255
206 227 255
206 227 255
206 227 255
206 227 255
206 227 255
206 227 255
206 227 255
206 227 255
206 227 255
206 227 255
206 227 255
206 227 255
206 227 255
206 227 255
206 227 255
206 227 255
206 227 255
206 227 255
206 227 255
206 227 255
206 227 255
206 227 255
206 227 255
206 227 255
206 227 255
205 227 255
205 227 255
205 227 255
203 224 254
191 213 245
176 198 232
146 170 218
122 148 201
122 148 204
96 125 192
74 107 181
65 101 179
62 99 179
62 99 176
61 98 174
61 98 173
62 99 179
73 107 181
98 126 187
112 139 197
134 159 211
147 170 217
159 182 223
189 211 244
203 224 254
205 227 255
205 227 255
205 227 255
205 227 255
206 227 255
206 227 255
206 227 255
206 227 255
206 227 255
206 227 255
206 227 255
206 227 255
206 227 255
206 227 255
206 227 255
206 227 255
206 227 255
206 227 255
206 227 255
206 227 255
206 227 255
206 227 255
206 227 255
206 227 255
206 227 255
206 227 255
206 227 255
206 227 255
206 227 255
206 227 255
206 227 255
206 227 255
206 227 255
206 227 255
206 227 255
206 227 255
206 227 255
207 227 255
207 227 255
207 227 255
207 227 255
207 227 255
207 227 255
207 228 255
207 228 255
207 228 255
207 228 255
207 228 255
207 228 255
207 228 255
207 228 255
207 228 255
207 228 255
207 228 255
207 228 255
207 228 255
207 228 255
207 228 255
207 228 255
208 228 255
208 228 255
208 228 255
208 228 255
208 228 255
208 228 255
208 228 255
208 228 255
208 228 255
208 228 255
208 228 255
208 228 255
208 228 255
208 228 255
208 228 255
208 228 255
208 228 255
208 228 255
174 185 192
151 148 103
146 143 95
142 141 95
152 151 101
146 145 97
149 148 100
155 154 104
156 156 106
158 159 108
152 152 103
162 162 110
160 161 109
157 157 106
159 159 108
162 163 110
163 164 111
161 162 110
161 162 110
164 166 113
165 166 113
164 165 113
165 166 113
166 167 114
165 167 114
165 167 114
165 167 114
165 167 114
165 167 114
165 167 114
165 167 114
165 167 114
165 167 114
166 167 114
165 167 114
165 167 114
165 167 114
166 167 114
166 167 114
166 167 114
166 168 114
166 167 114
167 168 114
166 167 114
167 168 114
166 168 114
166 167 114
166 168 114
167 168 114
167 168 114
167 168 114
167 168 114
167 168 114
166 168 114
168 168 114
168 168 114
169 169 114
168 168 114
168 168 114
168 168 114
169 169 114
169 169 114
169 169 114
171 170 114
169 169 114
169 169 114
170 169 114
170 169 114
170 169 114
171 170 114
171 170 114
172 170 114
172 170 114
171 170 114
173 170 114
173 170 114
172 170 113
172 170 114
174 171 114
172 170 113
172 169 113
170 168 112
173 170 113
171 168 112
172 169 113
164 162 108
173 170 113
170 167 111
170 167 111
169 165 110
171 168 112
172 168 112
167 163 108
168 164 109
170 165 109
169 164 109
167 163 108
168 164 109
168 164 109
162 158 104
162 157 104
160 157 104
167 163 108
162 159 105
164 159 104
160 156 103
162 158 104
156 151 99
159 153 101
154 149 98
161 155 101
150 145 95
173 197 0
172 196 0
175 198 0
172 197 0
172 196 0
172 195 0
174 196 0
172 196 0
174 198 0
174 197 0
173 196 0
173 196 0
175 197 0
175 198 0
174 198 0
174 197 0
173 196 0
174 197 0
172 196 0
174 197 0
174 197 0
173 196 0
173 196 0
174 197 0
173 196 0
172 197 0
175 197 0
173 197 0
174 197 0
173 197 0
175 198 0
173 196 0
174 197 0
174 198 0
174 198 0
174 198 0
175 198 0
174 197 0
173 197 0
174 197 0
174 197 0
174 198 0
174 198 0
172 196 0
172 196 0
174 197 0
174 198 0
175 198 0
175 198 0
175 198 0
174 198 0
174 197 0
175 198 0
174 198 0
176 199 0
175 198 0
174 197 0
175 198 0
174 197 0
173 197 0
174 197 0
174 198 0
173 197 0
175 198 0
175 198 0
174 197 0
175 198 0
174 198 0
172 196 0
176 198 0
173 197 0
174 198 0
175 198 0
173 197 0
174 197 0
174 197 0
176 198 0
173 196 0
176 199 0
175 198 0
173 196 0
173 197 0
174 197 0
174 197 0
173 197 0
174 197 0
173 196 0
173 196 0
174 197 0
173 197 0
173 196 0
173 197 0
175 198 0
172 196 0
173 197 0
174 198 0
176 198 0
175 198 0
174 198 0
173 197 0
174 198 0
173 196 0
173 197 0
175 198 0
174 197 0
172 196 0
174 198 0
174 197 0
174 198 0
174 198 0
175 198 0
175 198 0
178 200 72
195 216 196
208 228 254
208 228 255
208 228 255
208 228 255
208 228 255
208 228 255
208 228 255
208 228 255
208 228 255
208 228 255
208 228 255
208 228 255
208 228 255
208 228 255
208 228 255
208 228 255
208 228 255
208 228 255
208 228 255
208 228 255
208 228 255
207 228 255
207 228 255
207 228 255
207 228 255
207 228 255
207 228 255
207 228 255
207 228 255
207 228 255
207 228 255
207 228 255
207 228 255
207 228 255
207 228 255
207 228 255
207 228 255
207 228 255
207 227 255
207 227 255
207 227 255
207 227 255
207 227 255
207 227 255
206 227 255
206 227 255
206 227 255
206 227 255
206 227 255
206 227 255
206 227 255
206 227 255
206 227 255
206 227 255
206 227 255
206 227 255
206 227 255
206 227 255
206 227 255
206 227 255
206 227 255
206 227 255
206 227 255
206 227 255
206 227 255
206 227 255
206 227 255
206 227 255
206 227 255
206 227 255
206 227 255
202 223 253
180 201 238
143 167 214
124 150 205
70 105 181
62 99 176
63 99 178
62 99 178
62 99 179
62 99 175
62 99 177
62 99 176
62 99 175
62 98 175
62 99 174
61 98 177
62 99 179
62 99 176
62 99 177
63 100 178
62 98 175
61 98 175
61 98 174
62 99 177
62 99 178
76 109 181
109 136 198
153 176 221
186 208 242
206 227 255
206 227 255
206 227 255
206 227 255
206 227 255
206 227 255
206 227 255
206 227 255
206 227 255
206 227 255
206 227 255
206 227 255
206 227 255
206 227 255
206 227 255
206 227 255
206 227 255
206 227 255
206 227 255
206 227 255
206 227 255
206 227 255
206 227 255
206 227 255
206 227 255
206 227 255
206 227 255
206 227 255
207 227 255
207 227 255
207 227 255
207 227 255
207 227 255
207 227 255
207 228 255
207 228 255
207 228 255
207 228 255
207 228 255
207 228 255
207 228 255
207 228 255
207 228 255
207 228 255
207 228 255
207 228 255
207 228 255
207 228 255
207 228 255
207 228 255
207 228 255
208 228 255
208 228 255
208 228 255
208 228 255
208 228 255
208 228 255
208 228 255
208 228 255
208 228 255
208 228 255
208 228 255
208 228 255
208 228 255
208 228 255
208 228 255
208 228 255
208 228 255
208 228 255
208 228 255
208 228 255
208 228 254
185 198 208
148 148 114
130 128 85
148 146 98
148 146 98
152 150 101
151 150 101
153 152 103
149 149 101
154 154 104
156 156 106
159 160 108
158 158 108
160 161 109
162 163 110
159 160 109
161 163 110
160 161 109
164 165 112
164 165 112
166 167 114
166 167 114
165 167 114
166 167 114
165 167 114
165 167 114
165 167 114
165 167 114
165 167 114
165 167 114
165 167 114
165 167 114
165 167 114
165 167 114
165 167 114
165 167 114
165 167 114
165 167 114
166 167 114
165 167 114
165 167 114
165 167 114
166 167 114
166 167 114
166 167 114
166 167 114
166 167 114
166 168 114
166 167 114
167 168 114
167 168 114
167 168 114
167 168 114
167 168 114
168 168 114
167 168 114
167 168 114
168 168 114
168 168 114
168 168 114
168 168 114
168 168 114
169 169 114
169 169 114
170 169 114
168 169 114
169 169 114
171 169 114
170 169 114
171 169 114
171 170 114
171 170 114
172 170 114
170 169 114
172 170 114
172 170 114
172 170 114
172 170 114
172 170 114
173 170 114
173 171 114
173 170 114
173 171 114
173 170 113
173 170 113
173 170 114
173 170 113
172 169 112
172 168 112
172 169 113
172 168 112
168 164 109
174 170 113
171 167 111
171 167 111
168 165 109
173 169 112
173 168 111
168 164 108
167 163 108
170 165 109
168 164 109
169 164 108
169 164 108
164 159 104
163 158 104
170 164 108
167 161 106
161 157 103
162 156 103
158 154 101
165 159 104
166 159 104
160 154 101
172 196 0
170 194 0
173 196 0
173 197 0
172 196 0
173 197 0
172 196 0
173 196 0
175 198 0
174 197 0
175 198 0
174 197 0
175 198 0
175 198 0
173 196 0
174 198 0
174 197 0
175 198 0
174 198 0
175 198 0
175 198 0
173 197 0
174 197 0
177 199 0
175 198 0
174 197 0
175 198 0
174 198 0
175 198 0
174 197 0
174 198 0
175 198 0
174 198 0
175 198 0
174 197 0
175 198 0
175 198 0
174 198 0
173 196 0
174 197 0
174 198 0
174 198 0
174 198 0
174 197 0
172 196 0
174 197 0
174 198 0
173 197 0
173 197 0
173 197 0
174 197 0
174 198 0
176 199 0
172 196 0
172 195 0
176 199 0
175 198 0
175 198 0
174 197 0
175 198 0
175 198 0
174 197 0
173 197 0
174 197 0
175 198 0
176 199 0
174 197 0
176 199 0
176 199 0
173 197 0
172 197 0
176 199 0
174 197 0
175 198 0
174 198 0
173 196 0
174 197 0
173 197 0
175 198 0
173 197 0
177 199 0
173 197 0
175 198 0
175 197 0
173 197 0
171 195 0
175 198 0
173 197 0
173 197 0
175 198 0
175 198 0
175 198 0
175 198 0
172 196 0
174 198 0
173 196 0
172 196 0
174 198 0
175 197 0
175 198 0
173 196 0
174 198 0
174 197 0
174 197 0
174 198 0
176 198 0
175 198 0
174 197 0
173 196 0
176 198 0
175 198 0
175 198 0
176 198 0
174 198 0
182 204 111
201 221 217
209 229 255
209 229 255
209 228 255
208 228 255
208 228 255
208 228 255
208 228 255
208 228 255
208 228 255
208 228 255
208 228 255
208 228 255
208 228 255
208 228 255
208 228 255
208 228 255
208 228 255
208 228 255
208 228 255
208 228 255
208 228 255
208 228 255
208 228 255
208 228 255
208 228 255
207 228 255
207 228 255
207 228 255
207 228 255
207 228 255
207 228 255
207 228 255
207 228 255
207 228 255
207 228 255
207 228 255
207 228 255
207 228 255
207 228 255
207 228 255
207 228 255
207 228 255
207 228 255
207 227 255
207 227 255
207 227 255
207 227 255
207 227 255
207 227 255
207 227 255
206 227 255
206 227 255
206 227 255
206 227 255
206 227 255
206 227 255
206 227 255
206 227 255
206 227 255
206 227 255
206 227 255
206 227 255
206 227 255
206 227 255
206 227 255
206 227 255
204 225 254
168 190 229
124 149 203
73 106 181
63 100 177
62 99 177
62 99 174
62 99 174
62 99 176
62 99 169
62 99 172
62 99 172
62 99 176
62 99 174
61 98 164
62 99 176
62 99 175
63 99 175
62 99 173
63 100 177
63 99 177
62 99 172
63 99 178
62 99 174
61 97 164
62 99 178
63 99 176
62 99 174
63 99 175
62 99 177
62 99 175
63 99 175
81 113 182
116 142 199
170 192 230
203 224 254
206 227 255
206 227 255
206 227 255
206 227 255
206 227 255
206 227 255
206 227 255
206 227 255
206 227 255
206 227 255
206 227 255
206 227 255
206 227 255
206 227 255
206 227 255
206 227 255
207 227 255
207 227 255
207 227 255
207 227 255
207 227 255
207 227 255
207 227 255
207 228 255
207 228 255
207 228 255
207 228 255
207 228 255
207 228 255
207 228 255
207 228 255
207 228 255
207 228 255
207 228 255
207 228 255
207 228 255
207 228 255
207 228 255
207 228 255
207 228 255
207 228 255
207 228 255
208 228 255
208 228 255
208 228 255
208 228 255
208 228 255
208 228 255
208 228 255
208 228 255
208 228 255
208 228 255
208 228 255
208 228 255
208 228 255
208 228 255
208 228 255
208 228 255
208 228 255
208 228 255
208 228 255
208 228 255
209 228 255
209 228 255
209 229 255
209 229 255
184 198 212
158 163 149
139 137 91
147 146 97
151 150 101
154 152 102
155 154 104
152 152 103
156 157 106
155 155 104
161 161 109
163 163 110
163 163 110
161 162 110
163 164 111
166 167 113
162 163 111
165 166 113
164 165 112
164 166 113
165 167 113
166 167 114
166 167 114
165 167 114
165 167 114
165 167 114
165 167 114
165 167 114
165 167 114
165 167 114
165 167 114
165 167 114
165 167 114
165 167 114
165 167 114
165 167 114
165 167 114
165 167 114
165 167 114
165 167 114
166 167 114
165 167 114
165 167 114
166 167 114
166 167 114
166 167 114
166 167 114
166 167 114
166 168 114
167 168 114
166 168 114
166 167 114
167 168 114
167 168 114
167 168 114
167 168 114
168 168 114
167 168 114
167 168 114
168 168 114
169 169 114
169 169 114
169 169 114
169 169 114
169 169 114
169 169 114
169 169 114
170 169 114
170 169 114
171 170 114
170 169 114
170 169 114
172 170 114
169 169 114
171 170 114
171 170 114
172 170 114
172 170 114
174 171 114
172 170 114
172 170 114
172 170 114
171 170 114
173 171 114
174 171 114
175 171 114
174 171 114
173 170 114
175 172 114
172 170 113
173 170 113
173 170 113
172 168 111
173 170 113
172 168 111
173 170 113
173 169 112
171 167 111
170 166 110
171 167 110
166 162 108
167 163 108
168 163 108
168 164 108
169 164 109
172 168 111
171 165 109
164 159 104
158 153 101
163 158 104
162 157 103
162 156 102
165 160 105
164 158 104
162 158 104
158 152 99
174 197 0
174 198 0
175 198 0
174 197 0
173 197 0
175 198 0
174 197 0
171 195 0
175 197 0
175 197 0
174 198 0
174 197 0
171 195 0
175 198 0
174 197 0
172 196 0
173 196 0
174 198 0
176 198 0
173 197 0
174 197 0
175 198 0
173 197 0
174 197 0
175 198 0
174 197 0
174 198 0
174 197 0
175 198 0
174 197 0
173 197 0
174 198 0
176 199 0
174 197 0
174 197 0
174 197 0
174 198 0
174 197 0
174 197 0
174 197 0
174 197 0
173 197 0
173 196 0
175 198 0
174 197 0
172 196 0
173 197 0
175 198 0
174 198 0
176 199 0
173 196 0
177 199 0
175 198 0
173 196 0
176 199 0
173 197 0
174 197 0
175 198 0
173 197 0
175 198 0
176 198 0
174 198 0
173 197 0
173 197 0
174 197 0
173 196 0
172 196 0
173 197 0
174 198 0
173 197 0
174 197 0
173 197 0
174 197 0
174 198 0
174 197 0
173 197 0
174 197 0
175 198 0
174 198 0
174 197 0
174 197 0
176 199 0
174 197 0
173 197 0
174 197 0
173 197 0
174 197 0
174 198 0
175 197 0
174 197 0
174 198 0
174 197 0
173 197 0
174 197 0
175 198 0
174 197 0
175 198 0
175 198 0
174 197 0
174 198 0
174 197 0
173 196 0
174 197 0
175 198 0
171 195 0
173 197 0
174 197 0
172 196 0
175 198 0
174 197 0
173 197 0
174 198 0
174 197 0
174 197 0
174 197 0
175 198 0
185 206 133
204 224 234
209 229 255
209 229 255
209 229 255
209 229 255
209 229 255
209 228 255
209 228 255
208 228 255
208 228 255
208 228 255
208 228 255
208 228 255
208 228 255
208 228 255
208 228 255
208 228 255
208 228 255
208 228 255
208 228 255
208 228 255
208 228 255
208 228 255
208 228 255
208 228 255
208 228 255
208 228 255
208 228 255
208 228 255
207 228 255
207 228 255
207 228 255
207 228 255
207 228 255
207 228 255
207 228 255
207 228 255
207 228 255
207 228 255
207 228 255
207 228 255
207 228 255
207 228 255
207 228 255
207 228 255
207 228 255
207 228 255
207 228 255
207 228 255
207 228 255
207 227 255
207 227 255
207 227 255
207 227 255
207 227 255
207 227 255
207 227 255
207 227 255
206 227 255
206 227 255
206 227 255
206 227 255
206 227 255
183 205 239
132 156 206
79 111 183
63 99 173
61 98 175
61 98 175
62 99 171
63 99 175
62 99 174
62 99 174
62 98 171
62 99 174
62 99 172
62 99 174
62 99 173
62 99 175
62 99 175
62 99 176
62 99 174
62 98 172
62 99 174
62 98 171
63 99 174
63 99 172
62 99 174
62 99 170
62 99 172
62 98 170
62 99 177
61 98 171
62 99 175
62 98 170
62 99 176
63 100 175
61 98 175
63 99 175
62 98 174
74 107 177
123 148 202
179 201 238
206 227 255
206 227 255
206 227 255
206 227 255
207 227 255
207 227 255
207 227 255
207 227 255
207 227 255
207 227 255
207 227 255
207 227 255
207 227 255
207 228 255
207 228 255
207 228 255
207 228 255
207 228 255
207 228 255
207 228 255
207 228 255
207 228 255
207 228 255
207 228 255
207 228 255
207 228 255
207 228 255
207 228 255
207 228 255
207 228 255
207 228 255
207 228 255
207 228 255
207 228 255
208 228 255
208 228 255
208 228 255
208 228 255
208 228 255
208 228 255
208 228 255
208 228 255
208 228 255
208 228 255
208 228 255
208 228 255
208 228 255
208 228 255
208 228 255
208 228 255
208 228 255
208 228 255
208 228 255
208 228 255
208 228 255
208 228 255
209 228 255
209 229 255
209 229 255
209 229 255
209 229 255
209 229 255
201 219 242
151 156 147
141 137 91
147 145 97
157 155 103
154 153 103
153 152 102
156 155 104
151 150 101
154 154 104
158 158 107
159 159 108
159 160 109
159 159 108
163 164 111
162 163 111
165 165 112
164 165 112
165 167 113
166 167 114
165 166 113
166 167 114
165 167 114
165 167 114
165 167 114
165 167 114
165 167 114
165 167 114
165 167 114
165 167 114
165 167 114
165 167 114
165 167 114
165 167 114
165 167 114
165 167 114
165 167 114
165 167 114
165 167 114
165 167 114
165 167 114
165 167 114
166 167 114
165 167 114
165 167 114
166 168 114
166 167 114
165 167 114
166 167 114
166 168 114
167 168 114
166 168 114
167 168 114
167 168 114
167 168 114
167 168 114
168 168 114
167 168 114
167 168 114
167 168 114
167 168 114
168 168 114
169 169 114
168 168 114
170 169 114
168 168 114
169 169 114
169 169 114
170 169 114
169 169 114
169 169 114
169 169 114
171 170 114
171 169 114
170 169 114
171 170 114
171 170 114
172 170 114
172 170 114
172 170 114
173 171 114
172 170 114
171 170 114
172 170 114
174 171 114
173 171 114
174 171 114
172 170 114
173 171 114
174 171 114
173 170 114
174 171 114
175 172 114
174 171 113
174 171 113
175 171 114
170 167 112
175 171 113
173 169 112
176 172 114
168 163 108
174 169 112
175 171 113
170 166 110
172 168 110
169 164 109
169 165 109
171 167 111
173 167 110
171 165 109
165 160 105
169 164 108
162 157 103
164 159 104
165 160 105
165 160 105
163 157 103
163 157 103
174 197 0
173 197 0
173 197 0
173 197 0
173 197 0
176 199 0
175 198 0
175 198 0
173 197 0
175 198 0
174 198 0
175 197 0
173 196 0
174 198 0
173 196 0
173 197 0
174 197 0
174 197 0
176 199 0
173 196 0
172 197 0
173 197 0
174 197 0
175 198 0
173 197 0
176 198 0
174 197 0
175 198 0
172 196 0
174 198 0
173 197 0
173 196 0
175 198 0
174 198 0
176 198 0
174 197 0
172 196 0
173 197 0
174 197 0
173 196 0
176 198 0
171 195 0
173 197 0
174 198 0
174 197 0
173 197 0
174 197 0
175 198 0
173 197 0
174 197 0
175 198 0
174 197 0
175 198 0
174 197 0
174 197 0
175 198 0
174 198 0
174 198 0
173 196 0
174 197 0
174 198 0
173 197 0
173 197 0
174 197 0
173 197 0
171 194 0
173 197 0
174 198 0
174 197 0
173 197 0
173 197 0
174 197 0
172 196 0
175 198 0
174 197 0
174 198 0
174 197 0
173 196 0
174 197 0
172 196 0
174 197 0
175 198 0
173 197 0
173 197 0
174 197 0
174 198 0
174 198 0
174 197 0
174 197 0
173 197 0
176 199 0
172 196 0
174 198 0
176 198 0
175 198 0
174 197 0
174 198 0
173 197 0
173 197 0
175 198 0
174 197 0
174 198 0
174 197 0
173 197 0
174 197 0
177 199 0
173 197 0
173 197 0
176 198 0
173 197 0
173 197 0
174 197 0
173 196 0
175 198 0
176 199 0
174 198 0
174 198 0
175 198 36
192 214 179
209 229 255
209 229 255
209 229 255
209 229 255
209 229 255
209 229 255
209 229 255
209 229 255
209 229 255
209 228 255
209 228 255
208 228 255
208 228 255
208 228 255
208 228 255
208 228 255
208 228 255
208 228 255
208 228 255
208 228 255
208 228 255
208 228 255
208 228 255
208 228 255
208 228 255
208 228 255
208 228 255
208 228 255
208 228 255
208 228 255
208 228 255
208 228 255
208 228 255
208 228 255
207 228 255
207 228 255
207 228 255
207 228 255
207 228 255
207 228 255
207 228 255
207 228 255
207 228 255
207 228 255
207 228 255
207 228 255
207 228 255
207 228 255
207 228 255
207 228 255
207 228 255
207 228 255
207 228 255
207 228 255
207 228 255
207 228 255
207 228 255
207 227 255
204 225 254
173 195 232
106 133 191
63 99 178
62 99 177
62 98 171
62 99 174
62 99 178
62 99 168
62 99 172
62 99 173
62 98 168
63 99 173
63 99 171
62 98 169
63 99 171
62 99 171
62 99 174
61 98 173
62 98 170
62 99 170
62 99 171
62 99 173
61 98 167
62 99 173
62 98 174
62 99 172
63 99 173
63 99 172
63 99 174
62 99 173
62 99 171
62 98 169
62 98 172
62 98 171
62 98 172
62 99 172
61 98 171
63 100 180
62 99 175
61 98 170
62 98 172
61 98 174
93 122 186
173 194 232
204 225 254
207 227 255
207 228 255
207 228 255
207 228 255
207 228 255
207 228 255
207 228 255
207 228 255
207 228 255
207 228 255
207 228 255
207 228 255
207 228 255
207 228 255
207 228 255
207 228 255
207 228 255
207 228 255
207 228 255
207 228 255
207 228 255
207 228 255
207 228 255
207 228 255
207 228 255
208 228 255
208 228 255
208 228 255
208 228 255
208 228 255
208 228 255
208 228 255
208 228 255
208 228 255
208 228 255
208 228 255
208 228 255
208 228 255
208 228 255
208 228 255
208 228 255
208 228 255
208 228 255
208 228 255
208 228 255
208 228 255
208 228 255
209 228 255
209 228 255
209 229 255
209 229 255
209 229 255
209 229 255
209 229 255
209 229 255
209 229 255
209 229 255
207 227 252
181 194 204
137 135 96
152 150 100
155 153 102
150 149 100
150 149 101
164 163 109
153 153 103
158 158 106
163 162 109
159 159 108
161 161 109
164 165 112
166 166 113
167 167 113
165 166 113
167 168 114
166 168 114
166 168 114
166 167 114
165 167 114
166 167 114
165 167 114
165 167 114
166 167 114
165 167 114
165 167 114
165 167 114
165 167 114
165 167 114
165 167 114
165 167 114
165 167 114
164 167 114
165 167 114
165 167 114
165 167 114
165 167 114
165 167 114
166 167 114
165 167 114
165 167 114
165 167 114
165 167 114
166 167 114
165 167 114
166 167 114
166 167 114
166 167 114
166 167 114
167 168 114
166 168 114
167 168 114
166 168 114
167 168 114
167 168 114
167 168 114
168 168 114
168 168 114
167 168 114
168 168 114
168 168 114
167 168 114
168 169 114
169 169 114
168 168 114
169 169 114
170 169 114
170 169 114
169 169 114
170 169 114
171 169 114
171 170 114
171 170 114
171 170 114
170 169 114
172 170 114
170 169 114
171 170 114
171 170 114
173 171 114
174 171 114
172 170 114
172 170 114
171 170 114
171 170 114
172 170 114
174 171 114
173 171 114
173 171 114
174 171 114
175 171 114
175 171 114
174 171 114
177 172 114
175 172 114
176 172 114
175 171 113
176 172 114
174 170 113
174 170 113
176 171 113
171 167 110
175 171 113
171 168 112
171 166 110
172 167 110
167 163 108
173 168 110
169 165 109
168 164 108
170 165 109
171 165 109
172 166 109
172 166 109
169 163 107
164 159 104
172 166 109
164 159 104
174 197 0
175 198 0
174 197 0
174 197 0
174 198 0
174 197 0
172 196 0
175 198 0
174 198 0
173 197 0
175 198 0
173 196 0
173 197 0
172 196 0
174 198 0
175 198 0
173 197 0
173 196 0
175 198 0
173 197 0
174 197 0
175 198 0
174 197 0
175 198 0
174 198 0
174 198 0
175 198 0
176 198 0
175 198 0
174 198 0
175 198 0
173 197 0
175 198 0
177 199 0
175 197 0
175 198 0
174 198 0
173 197 0
173 197 0
176 199 0
174 197 0
175 198 0
174 197 0
174 197 0
175 198 0
174 197 0
175 197 0
175 198 0
174 198 0
173 197 0
173 196 0
172 196 0
174 198 0
175 197 0
176 198 0
174 198 0
174 197 0
174 198 0
175 198 0
176 198 0
174 198 0
175 198 0
174 197 0
173 196 0
174 198 0
175 198 0
175 198 0
173 197 0
173 197 0
175 198 0
175 198 0
174 198 0
172 197 0
172 197 0
173 197 0
174 197 0
174 197 0
174 197 0
175 198 0
174 198 0
174 197 0
174 198 0
174 198 0
174 197 0
175 198 0
176 199 0
173 197 0
174 197 0
175 198 0
175 198 0
173 196 0
173 197 0
173 197 0
174 197 0
173 197 0
176 198 0
172 196 0
176 199 0
175 198 0
173 197 0
174 198 0
174 198 0
175 198 0
176 198 0
172 196 0
173 197 0
174 197 0
174 197 0
176 198 0
173 197 0
174 198 0
173 196 0
174 197 0
175 198 0
174 198 0
175 197 0
173 197 0
174 197 0
173 196 0
179 202 105
203 224 233
209 229 255
209 229 255
209 229 255
209 229 255
209 229 255
209 229 255
209 229 255
209 229 255
209 229 255
209 229 255
209 229 255
209 229 255
209 229 255
209 228 255
208 228 255
208 228 255
208 228 255
208 228 255
208 228 255
208 228 255
208 228 255
208 228 255
208 228 255
208 228 255
208 228 255
208 228 255
208 228 255
208 228 255
208 228 255
208 228 255
208 228 255
208 228 255
208 228 255
208 228 255
208 228 255
208 228 255
208 228 255
208 228 255
208 228 255
207 228 255
207 228 255
207 228 255
207 228 255
207 228 255
207 228 255
207 228 255
207 228 255
207 228 255
207 228 255
207 228 255
207 228 255
207 228 255
207 228 255
207 228 255
205 226 254
162 185 224
98 126 188
62 98 172
61 98 174
61 98 164
61 98 173
62 99 174
63 99 169
62 99 170
62 98 171
61 98 171
63 99 175
62 98 168
61 98 166
61 98 170
62 99 172
62 99 172
61 98 168
62 98 171
63 99 166
62 98 171
62 98 164
63 99 168
62 99 171
62 98 167
62 99 170
61 98 168
63 99 171
62 99 174
62 98 172
63 99 175
62 98 167
63 99 171
63 99 175
62 99 171
62 99 173
62 99 172
61 98 172
62 99 174
62 98 172
62 98 170
62 98 170
61 98 168
62 98 170
62 98 170
62 99 174
94 123 186
163 185 227
207 228 255
207 228 255
207 228 255
207 228 255
207 228 255
207 228 255
207 228 255
207 228 255
207 228 255
207 228 255
207 228 255
207 228 255
207 228 255
207 228 255
207 228 255
207 228 255
208 228 255
208 228 255
208 228 255
208 228 255
208 228 255
208 228 255
208 228 255
208 228 255
208 228 255
208 228 255
208 228 255
208 228 255
208 228 255
208 228 255
208 228 255
208 228 255
208 228 255
208 228 255
208 228 255
208 228 255
208 228 255
208 228 255
208 228 255
208 228 255
208 228 255
209 228 255
209 229 255
209 229 255
209 229 255
209 229 255
209 229 255
209 229 255
209 229 255
209 229 255
209 229 255
209 229 255
209 229 255
209 229 255
209 229 255
196 211 227
141 142 116
139 136 90
149 146 97
149 147 98
155 153 103
148 146 98
154 154 104
157 157 106
157 158 107
161 161 109
165 165 112
164 165 112
164 165 112
163 164 111
166 167 113
165 166 113
166 168 114
166 167 114
166 167 114
166 167 114
165 167 114
166 167 114
166 167 114
165 167 114
165 167 114
165 167 114
165 167 114
165 167 114
165 167 114
165 167 114
164 167 114
165 167 114
165 167 114
165 167 114
165 167 114
165 167 114
165 167 114
165 167 114
165 167 114
165 167 114
165 167 114
165 167 114
166 167 114
166 167 114
166 167 114
165 167 114
166 167 114
166 167 114
166 168 114
166 167 114
166 167 114
166 168 114
167 168 114
167 168 114
166 168 114
168 168 114
167 168 114
168 168 114
168 168 114
167 168 114
168 169 114
168 168 114
168 168 114
169 169 114
169 169 114
169 169 114
169 169 114
169 169 114
171 170 114
170 169 114
169 169 114
170 169 114
171 170 114
170 169 114
171 170 114
171 170 114
171 170 114
171 170 114
172 170 114
172 170 114
173 170 114
171 170 114
173 170 114
173 171 114
172 170 114
172 170 114
172 170 114
173 171 114
173 170 114
174 171 114
174 171 114
175 171 114
176 172 114
174 171 114
173 171 114
175 171 114
175 172 114
176 172 114
176 172 114
176 172 114
177 172 114
175 172 114
176 172 114
178 173 114
175 170 112
173 168 111
173 168 111
176 171 113
177 171 113
174 169 112
174 169 112
174 168 110
169 164 108
173 168 110
172 167 110
169 164 108
173 167 109
170 164 108
173 167 109
173 166 109
174 197 0
174 197 0
175 198 0
176 198 0
175 198 0
175 198 0
175 198 0
175 198 0
175 198 0
173 196 0
173 197 0
174 198 0
174 198 0
174 197 0
174 197 0
172 196 0
172 196 0
173 197 0
174 198 0
173 197 0
175 198 0
175 198 0
176 198 0
175 198 0
174 197 0
173 197 0
176 198 0
175 198 0
173 196 0
172 196 0
173 197 0
174 198 0
175 197 0
172 196 0
172 196 0
175 198 0
173 197 0
174 197 0
176 199 0
174 198 0
174 198 0
173 196 0
175 198 0
175 198 0
174 197 0
174 198 0
174 198 0
173 196 0
173 197 0
173 197 0
174 197 0
175 198 0
174 197 0
175 198 0
173 196 0
174 198 0
174 198 0
175 197 0
174 198 0
176 198 0
174 197 0
173 197 0
175 198 0
174 197 0
174 197 0
174 197 0
174 197 0
175 198 0
174 197 0
172 196 0
174 198 0
174 198 0
174 197 0
174 197 0
175 198 0
175 198 0
175 198 0
173 197 0
175 198 0
174 198 0
175 198 0
172 196 0
173 197 0
174 197 0
173 196 0
174 198 0
174 198 0
175 198 0
174 198 0
174 198 0
174 197 0
173 197 0
173 197 0
176 199 0
174 198 0
176 199 0
173 196 0
175 198 0
173 197 0
171 195 0
174 198 0
173 197 0
174 198 0
174 198 0
172 196 0
175 198 0
173 197 0
174 197 0
176 199 0
174 197 0
175 198 0
175 198 0
173 196 0
172 196 0
175 198 0
174 198 0
175 198 0
175 198 0
174 197 0
175 198 0
175 199 36
194 215 182
208 228 252
209 229 255
209 229 255
209 229 255
209 229 255
209 229 255
209 229 255
209 229 255
209 229 255
209 229 255
209 229 255
209 229 255
209 229 255
209 229 255
209 229 255
209 229 255
209 229 255
209 228 255
209 228 255
208 228 255
208 228 255
208 228 255
208 228 255
208 228 255
208 228 255
208 228 255
208 228 255
208 228 255
208 228 255
208 228 255
208 228 255
208 228 255
208 228 255
208 228 255
208 228 255
208 228 255
208 228 255
208 228 255
208 228 255
208 228 255
208 228 255
208 228 255
208 228 255
208 228 255
208 228 255
208 228 255
207 228 255
207 228 255
207 228 255
207 228 255
207 228 255
207 228 255
177 198 233
100 127 185
61 98 171
61 98 166
61 98 172
62 99 172
62 99 173
62 99 175
61 98 169
62 98 167
62 99 172
61 98 166
61 98 168
63 99 168
62 99 170
61 98 169
61 97 163
62 99 169
62 98 164
62 98 165
62 99 175
62 99 170
62 98 164
62 98 170
62 99 170
62 98 169
61 98 168
63 99 170
62 99 172
62 98 170
62 98 170
63 99 174
62 98 167
62 98 168
62 98 170
62 98 170
62 99 172
63 99 177
62 98 166
61 98 170
62 99 173
62 99 173
62 98 168
62 98 173
62 98 173
63 99 173
63 99 175
63 98 171
62 99 173
61 97 172
110 136 192
178 199 235
207 228 255
207 228 255
207 228 255
207 228 255
207 228 255
207 228 255
208 228 255
208 228 255
208 228 255
208 228 255
208 228 255
208 228 255
208 228 255
208 228 255
208 228 255
208 228 255
208 228 255
208 228 255
208 228 255
208 228 255
208 228 255
208 228 255
208 228 255
208 228 255
208 228 255
208 228 255
208 228 255
208 228 255
208 228 255
208 228 255
208 228 255
208 228 255
208 228 255
209 228 255
209 229 255
209 229 255
209 229 255
209 229 255
209 229 255
209 229 255
209 229 255
209 229 255
209 229 255
209 229 255
209 229 255
209 229 255
209 229 255
209 229 255
209 229 255
209 229 255
209 229 255
208 227 252
173 183 189
136 134 93
144 141 93
158 155 103
155 153 102
155 154 104
154 153 103
158 157 106
157 156 105
161 160 108
160 160 108
161 161 109
166 167 113
167 167 113
167 167 113
167 168 114
167 168 114
166 167 114
165 167 114
166 167 114
165 167 114
166 168 114
165 167 114
166 167 114
165 167 114
165 167 114
165 167 114
165 167 114
165 167 114
165 167 114
164 167 114
165 167 114
165 167 114
165 167 114
165 167 114
165 167 114
165 167 114
165 167 114
165 167 114
165 167 114
165 167 114
165 167 114
165 167 114
166 167 114
165 167 114
166 167 114
166 167 114
166 167 114
166 167 114
166 168 114
166 167 114
166 168 114
166 168 114
167 168 114
167 168 114
167 168 114
168 168 114
167 168 114
168 168 114
168 168 114
168 168 114
168 168 114
169 169 114
169 169 114
169 169 114
168 169 114
169 169 114
169 169 114
169 169 114
169 169 114
171 170 114
170 169 114
170 169 114
170 169 114
170 169 114
170 169 114
171 170 114
171 169 114
170 169 114
172 170 114
172 170 114
172 170 114
172 170 114
173 170 114
172 170 114
174 171 114
172 170 114
174 171 114
173 170 114
174 171 114
174 171 114
174 171 114
174 171 114
174 171 114
174 171 114
176 172 114
176 172 114
174 171 114
176 172 114
176 172 114
175 172 114
176 172 114
175 171 114
176 172 114
176 172 114
177 173 114
177 173 114
175 170 112
176 171 113
176 170 112
174 169 112
174 169 112
171 166 109
174 168 110
171 165 109
174 168 110
174 168 110
168 162 106
166 161 106
172 167 109
172 166 109
169 163 108
173 197 0
173 196 0
172 196 0
174 198 0
174 197 0
173 196 0
176 198 0
172 197 0
174 197 0
176 198 0
174 198 0
172 196 0
175 198 0
173 197 0
174 197 0
176 199 0
173 197 0
174 197 0
176 198 0
171 195 0
173 197 0
173 197 0
175 198 0
174 197 0
174 197 0
173 196 0
174 198 0
174 197 0
176 199 0
172 196 0
173 196 0
174 197 0
174 198 0
174 198 0
173 196 0
173 197 0
174 197 0
175 198 0
174 197 0
174 198 0
175 198 0
175 198 0
174 197 0
173 197 0
174 198 0
173 197 0
172 197 0
173 197 0
174 197 0
175 198 0
173 196 0
175 198 0
174 197 0
173 197 0
175 198 0
174 198 0
174 198 0
176 198 0
172 196 0
173 197 0
174 197 0
175 198 0
174 198 0
174 198 0
175 198 0
175 198 0
176 199 0
175 198 0
172 196 0
174 197 0
174 197 0
175 198 0
173 197 0
174 198 0
174 197 0
175 198 0
174 198 0
173 197 0
174 197 0
173 197 0
175 198 0
173 197 0
175 198 0
174 198 0
174 197 0
175 198 0
175 198 0
175 198 0
175 198 0
174 198 0
173 197 0
172 196 0
175 198 0
175 198 0
174 198 0
175 198 0
174 198 0
172 196 0
174 197 0
173 196 0
173 197 0
175 198 0
174 197 0
175 198 0
175 198 0
173 197 0
175 198 0
174 198 0
175 198 0
173 196 0
175 198 0
175 198 0
174 198 0
173 197 0
171 195 0
173 197 0
174 197 0
173 197 0
172 196 0
174 197 0
175 198 0
175 198 0
181 204 111
204 224 231
209 229 255
209 229 255
209 229 255
209 229 255
209 229 255
209 229 255
209 229 255
209 229 255
209 229 255
209 229 255
209 229 255
209 229 255
209 229 255
209 229 255
209 229 255
209 229 255
209 229 255
209 229 255
209 229 255
209 229 255
209 229 255
209 229 255
209 228 255
208 228 255
208 228 255
208 228 255
208 228 255
208 228 255
208 228 255
208 228 255
208 228 255
208 228 255
208 228 255
208 228 255
208 228 255
208 228 255
208 228 255
208 228 255
208 228 255
208 228 255
208 228 255
208 228 255
208 228 255
208 228 255
208 228 255
208 228 255
208 228 255
208 228 255
189 209 240
126 151 199
62 99 173
62 99 168
61 98 167
62 99 173
62 98 171
62 99 171
62 98 165
61 98 170
62 98 167
63 100 173
62 99 170
61 98 166
61 98 168
62 98 165
61 98 163
62 98 167
62 98 166
62 99 170
62 98 164
62 98 162
63 99 171
63 100 176
63 99 172
62 99 171
61 98 173
62 99 172
62 97 155
62 98 164
61 97 158
63 99 172
62 99 172
62 99 170
62 98 171
61 98 168
61 98 166
62 98 171
62 99 171
62 99 173
61 98 165
62 98 171
62 98 169
62 98 166
62 98 166
62 98 167
62 98 166
62 98 170
62 99 173
63 99 171
61 97 171
62 98 176
62 98 174
62 98 173
115 140 192
188 209 242
208 228 255
208 228 255
208 228 255
208 228 255
208 228 255
208 228 255
208 228 255
208 228 255
208 228 255
208 228 255
208 228 255
208 228 255
208 228 255
208 228 255
208 228 255
208 228 255
208 228 255
208 228 255
208 228 255
208 228 255
208 228 255
208 228 255
208 228 255
208 228 255
208 228 255
209 228 255
209 228 255
209 229 255
209 229 255
209 229 255
209 229 255
209 229 255
209 229 255
209 229 255
209 229 255
209 229 255
209 229 255
209 229 255
209 229 255
209 229 255
209 229 255
209 229 255
209 229 255
209 229 255
209 229 255
209 229 255
209 229 255
209 229 255
200 216 233
160 163 147
139 136 90
143 141 94
149 146 97
156 154 103
155 154 103
156 155 104
159 158 106
159 158 106
160 159 108
161 161 109
163 163 110
165 166 113
167 168 114
165 166 113
167 168 114
167 168 114
166 168 114
166 168 114
166 167 114
166 167 114
165 167 114
165 167 114
165 167 114
165 167 114
165 167 114
165 167 114
165 167 114
165 167 114
165 167 114
165 167 114
165 167 114
165 167 114
165 167 114
165 167 114
165 167 114
165 167 114
165 167 114
165 167 114
165 167 114
165 167 114
165 167 114
165 167 114
166 167 114
166 167 114
166 167 114
166 168 114
165 167 114
167 168 114
166 168 114
167 168 114
167 168 114
167 168 114
167 168 114
167 168 114
167 168 114
168 168 114
167 168 114
167 168 114
167 168 114
168 168 114
168 168 114
168 169 114
167 168 114
169 169 114
169 169 114
169 169 114
169 169 114
169 169 114
171 169 114
170 169 114
170 169 114
170 169 114
170 169 114
170 169 114
171 170 114
171 170 114
172 170 114
172 170 114
171 170 114
172 170 114
173 171 114
171 170 114
172 170 114
171 170 114
173 171 114
173 171 114
172 170 114
172 170 114
173 171 114
173 170 114
173 171 114
174 171 114
174 171 114
175 172 114
176 172 114
176 172 114
176 172 114
174 171 114
176 172 114
176 172 114
176 172 114
177 172 114
177 172 114
176 172 114
177 172 114
178 173 114
177 172 114
178 173 114
175 170 112
178 173 114
176 172 113
178 173 113
175 169 112
172 167 110
174 168 110
174 168 110
177 171 112
172 167 109
172 166 109
175 169 110
175 168 110
174 168 110
173 197 0
175 198 0
174 197 0
174 197 0
175 198 0
173 197 0
173 197 0
175 198 0
172 196 0
175 198 0
173 197 0
175 198 0
174 198 0
173 197 0
175 198 0
174 197 0
174 197 0
173 197 0
173 197 0
172 196 0
175 198 0
173 197 0
175 198 0
173 197 0
174 197 0
174 197 0
174 197 0
174 198 0
174 197 0
176 198 0
174 197 0
174 197 0
175 198 0
176 198 0
173 197 0
173 196 0
173 197 0
174 197 0
175 198 0
174 198 0
174 198 0
174 198 0
174 198 0
175 198 0
173 197 0
172 196 0
175 198 0
174 197 0
172 195 0
173 197 0
174 197 0
173 197 0
174 197 0
176 198 0
173 197 0
175 198 0
175 198 0
175 198 0
173 197 0
174 198 0
173 197 0
172 197 0
174 197 0
173 197 0
174 197 0
175 198 0
175 198 0
175 198 0
172 196 0
174 198 0
173 197 0
173 197 0
174 197 0
176 199 0
172 196 0
174 198 0
173 197 0
175 198 0
174 198 0
174 197 0
172 196 0
174 197 0
172 196 0
172 197 0
173 197 0
175 198 0
174 197 0
173 197 0
174 198 0
174 198 0
175 198 0
173 197 0
171 195 0
174 197 0
173 197 0
175 198 0
174 198 0
174 198 0
172 196 0
173 196 0
175 198 0
174 197 0
176 198 0
174 197 0
173 197 0
174 198 0
174 198 0
173 197 0
175 198 0
175 198 0
175 198 0
174 198 0
174 198 0
176 198 0
174 197 0
175 198 0
173 197 0
175 198 0
175 198 0
174 197 0
173 197 0
175 198 0
174 198 0
177 199 44
195 216 191
210 229 255
210 229 255
210 229 255
210 229 255
210 229 255
209 229 255
209 229 255
209 229 255
209 229 255
209 229 255
209 229 255
209 229 255
209 229 255
209 229 255
209 229 255
209 229 255
209 229 255
209 229 255
209 229 255
209 229 255
209 229 255
209 229 255
209 229 255
209 229 255
209 229 255
209 229 255
209 229 255
209 228 255
209 228 255
209 228 255
208 228 255
208 228 255
208 228 255
208 228 255
208 228 255
208 228 255
208 228 255
208 228 255
208 228 255
208 228 255
208 228 255
208 228 255
208 228 255
208 228 255
208 228 255
207 227 255
166 187 226
80 112 175
62 99 167
62 99 169
62 99 170
62 98 165
63 99 168
63 99 176
62 99 171
61 98 168
62 99 168
61 98 163
62 98 168
62 99 170
61 98 167
63 99 171
62 99 168
62 99 173
61 97 163
62 99 168
62 98 169
62 98 167
62 99 170
62 98 160
62 98 167
63 99 175
63 99 171
61 97 161
62 99 168
61 97 163
62 98 166
62 98 166
61 98 168
62 98 167
62 99 170
61 98 164
62 99 171
62 99 176
62 98 167
62 98 164
61 98 168
62 99 171
62 98 170
62 99 173
61 98 167
61 97 168
62 98 166
62 98 170
62 98 170
61 97 167
62 98 167
63 99 175
62 98 172
62 98 169
62 98 167
61 98 170
68 102 177
164 186 224
204 224 253
208 228 255
208 228 255
208 228 255
208 228 255
208 228 255
208 228 255
208 228 255
208 228 255
208 228 255
208 228 255
208 228 255
208 228 255
208 228 255
208 228 255
208 228 255
208 228 255
209 228 255
209 229 255
209 229 255
209 229 255
209 229 255
209 229 255
209 229 255
209 229 255
209 229 255
209 229 255
209 229 255
209 229 255
209 229 255
209 229 255
209 229 255
209 229 255
209 229 255
209 229 255
209 229 255
209 229 255
209 229 255
209 229 255
209 229 255
209 229 255
210 229 255
210 229 255
210 229 255
210 229 255
210 229 255
188 200 209
140 137 95
143 140 93
151 148 99
157 155 103
164 162 109
158 156 105
161 160 108
158 157 106
159 158 106
164 163 110
165 165 111
165 165 112
166 166 113
167 167 113
167 168 114
167 168 114
167 168 114
166 168 114
167 168 114
166 167 114
167 168 114
166 167 114
166 167 114
165 167 114
166 167 114
165 167 114
165 167 114
165 167 114
165 167 114
165 167 114
165 167 114
165 167 114
165 167 114
165 167 114
165 167 114
165 167 114
166 167 114
165 167 114
166 167 114
166 167 114
165 167 114
166 167 114
165 167 114
165 167 114
166 167 114
165 167 114
166 168 114
166 167 114
166 168 114
166 168 114
167 168 114
166 167 114
167 168 114
168 168 114
167 168 114
167 168 114
167 168 114
168 168 114
168 168 114
169 169 114
168 168 114
169 169 114
168 168 114
169 169 114
168 168 114
168 168 114
170 169 114
170 169 114
169 169 114
169 169 114
170 169 114
171 170 114
171 170 114
171 169 114
170 169 114
171 170 114
171 170 114
171 170 114
170 169 114
171 170 114
172 170 114
172 170 114
172 170 114
172 170 114
172 170 114
171 170 114
172 170 114
172 170 114
173 170 114
173 171 114
175 171 114
173 171 114
174 171 114
174 171 114
175 171 114
173 171 114
174 171 114
176 172 114
175 172 114
175 172 114
176 172 114
177 172 114
176 172 114
175 172 114
177 172 114
177 172 114
176 172 114
176 172 114
177 172 114
177 173 114
178 173 114
177 172 114
179 173 114
174 170 112
175 170 112
176 170 112
174 169 111
174 168 110
178 172 112
174 168 110
173 167 110
171 166 109
175 168 110
172 165 108
174 198 0
173 197 0
174 198 0
175 198 0
172 196 0
173 197 0
174 197 0
175 198 0
174 197 0
174 197 0
171 195 0
173 197 0
175 198 0
174 197 0
174 197 0
172 196 0
171 196 0
173 197 0
174 197 0
173 197 0
174 198 0
173 197 0
174 197 0
175 198 0
173 197 0
175 198 0
173 197 0
174 198 0
175 198 0
175 198 0
174 198 0
175 198 0
176 198 0
174 197 0
173 197 0
173 197 0
174 198 0
174 198 0
173 197 0
174 198 0
176 199 0
172 196 0
175 198 0
172 196 0
174 198 0
175 198 0
175 198 0
174 197 0
175 198 0
174 197 0
175 198 0
174 197 0
175 198 0
173 197 0
174 198 0
174 198 0
176 199 0
175 198 0
175 198 0
174 197 0
174 197 0
174 197 0
173 197 0
174 197 0
173 197 0
174 197 0
173 197 0
174 198 0
173 197 0
175 198 0
175 198 0
175 198 0
175 198 0
174 197 0
175 198 0
174 198 0
174 197 0
174 197 0
176 199 0
175 198 0
175 198 0
174 198 0
174 197 0
174 197 0
175 198 0
175 198 0
173 197 0
175 198 0
175 198 0
176 198 0
175 198 0
174 198 0
175 198 0
172 196 0
174 197 0
174 197 0
173 197 0
175 198 0
174 197 0
174 197 0
176 199 0
173 197 0
174 197 0
174 198 0
174 197 0
173 197 0
175 198 0
175 198 0
173 196 0
175 198 0
172 196 0
174 198 0
174 197 0
175 198 0
175 198 0
174 197 0
173 197 0
176 198 0
176 199 0
174 197 0
174 198 0
174 197 0
174 197 0
176 199 0
175 198 0
189 210 157
209 229 253
210 229 255
210 229 255
210 229 255
210 229 255
210 229 255
210 229 255
210 229 255
210 229 255
210 229 255
209 229 255
209 229 255
209 229 255
209 229 255
209 229 255
209 229 255
209 229 255
209 229 255
209 229 255
209 229 255
209 229 255
209 229 255
209 229 255
209 229 255
209 229 255
209 229 255
209 229 255
209 229 255
209 229 255
209 229 255
209 229 255
209 229 255
209 229 255
209 229 255
209 229 255
209 228 255
209 228 255
208 228 255
208 228 255
208 228 255
208 228 255
208 228 255
208 228 255
193 214 245
106 133 188
62 99 170
62 98 169
62 99 170
62 98 163
62 98 165
63 99 170
62 99 169
62 98 163
62 99 171
61 97 162
61 98 167
62 98 168
62 98 163
62 98 161
63 99 168
61 97 157
62 98 166
61 97 160
62 99 169
62 99 169
62 98 163
62 99 169
62 99 168
63 99 169
62 98 165
63 100 174
62 99 170
62 99 170
61 98 169
62 98 168
61 96 159
63 99 171
62 99 168
62 98 163
63 99 167
62 98 166
63 99 171
61 97 160
62 98 165
62 98 169
62 98 170
62 98 170
62 98 165
61 97 164
61 98 166
62 98 165
62 97 163
61 97 163
62 98 168
61 98 167
63 99 174
62 98 169
61 97 170
61 97 165
62 98 170
61 97 162
62 98 171
62 97 170
102 128 187
201 222 250
208 228 255
208 228 255
208 228 255
208 228 255
208 228 255
208 228 255
209 228 255
209 228 255
209 229 255
209 229 255
209 229 255
209 229 255
209 229 255
209 229 255
209 229 255
209 229 255
209 229 255
209 229 255
209 229 255
209 229 255
209 229 255
209 229 255
209 229 255
209 229 255
209 229 255
209 229 255
209 229 255
209 229 255
209 229 255
209 229 255
209 229 255
209 229 255
209 229 255
210 229 255
210 229 255
210 229 255
210 229 255
210 229 255
210 229 255
210 229 255
210 229 255
210 229 255
207 226 251
167 175 173
137 133 87
147 143 95
154 152 101
158 156 104
162 160 107
166 164 110
160 159 108
161 160 108
164 163 110
163 163 110
164 164 110
168 168 113
168 168 114
167 168 114
168 168 114
167 168 114
168 168 114
167 168 114
167 168 114
166 167 114
166 168 114
165 167 114
166 167 114
166 167 114
166 167 114
166 167 114
166 167 114
166 167 114
166 167 114
166 167 114
166 167 114
165 167 114
165 167 114
166 167 114
165 167 114
165 167 114
165 167 114
165 167 114
166 168 114
166 167 114
166 167 114
166 167 114
166 167 114
166 167 114
166 167 114
167 168 114
167 168 114
166 168 114
166 168 114
167 168 114
166 168 114
167 168 114
167 168 114
168 168 114
167 168 114
168 168 114
168 168 114
168 168 114
168 168 114
168 168 114
168 168 114
169 169 114
169 169 114
169 169 114
169 169 114
169 169 114
169 169 114
169 169 114
170 169 114
170 169 114
169 169 114
170 169 114
171 170 114
170 169 114
170 169 114
170 169 114
171 169 114
172 170 114
172 170 114
173 170 114
172 170 114
172 170 114
173 171 114
173 171 114
174 171 114
172 170 114
174 171 114
172 170 114
174 171 114
173 171 114
174 171 114
174 171 114
175 172 114
175 172 114
174 171 114
174 171 114
176 172 114
176 172 114
175 172 114
176 172 114
176 172 114
176 172 114
177 172 114
177 172 114
177 172 114
177 172 114
178 173 114
177 173 114
178 173 114
177 172 114
178 173 114
179 174 114
179 173 114
179 174 114
178 173 114
176 171 112
180 173 113
177 172 113
176 170 112
175 169 111
180 174 114
174 168 110
180 173 113
172 165 108
179 173 113
173 197 0
174 198 0
173 197 0
174 197 0
172 195 0
173 197 0
174 198 0
173 197 0
174 198 0
174 197 0
175 198 0
173 197 0
175 198 0
174 198 0
174 197 0
173 197 0
175 198 0
173 197 0
172 195 0
173 197 0
177 199 0
173 197 0
174 198 0
176 198 0
173 197 0
174 198 0
174 197 0
175 198 0
173 197 0
172 196 0
174 198 0
175 198 0
173 196 0
174 198 0
176 199 0
175 198 0
173 197 0
175 198 0
174 197 0
171 195 0
173 197 0
173 197 0
173 197 0
175 198 0
172 195 0
172 195 0
172 196 0
175 198 0
173 197 0
173 197 0
174 198 0
174 198 0
174 198 0
174 197 0
174 198 0
175 198 0
175 198 0
173 197 0
175 198 0
174 197 0
172 196 0
174 198 0
173 197 0
175 198 0
174 198 0
175 198 0
175 198 0
176 198 0
174 197 0
174 198 0
174 197 0
175 198 0
176 199 0
173 197 0
175 198 0
174 198 0
173 197 0
176 198 0
174 198 0
175 198 0
174 197 0
175 198 0
173 197 0
176 198 0
174 197 0
175 198 0
174 198 0
175 198 0
174 197 0
175 198 0
173 197 0
174 197 0
174 198 0
173 197 0
173 197 0
176 198 0
175 198 0
175 198 0
176 199 0
175 198 0
174 198 0
175 198 0
176 198 0
174 198 0
174 197 0
173 196 0
174 198 0
174 198 0
173 196 0
174 197 0
175 198 0
173 196 0
174 198 0
174 197 0
175 198 0
174 197 0
175 197 0
174 197 0
172 197 0
174 198 0
174 198 0
173 197 0
174 197 0
174 198 0
175 198 0
175 198 0
179 202 92
206 226 240
210 229 255
210 229 255
210 229 255
210 229 255
210 229 255
210 229 255
210 229 255
210 229 255
210 229 255
210 229 255
210 229 255
210 229 255
210 229 255
210 229 255
209 229 255
209 229 255
209 229 255
209 229 255
209 229 255
209 229 255
209 229 255
209 229 255
209 229 255
209 229 255
209 229 255
209 229 255
209 229 255
209 229 255
209 229 255
209 229 255
209 229 255
209 229 255
209 229 255
209 229 255
209 229 255
209 229 255
209 229 255
209 229 255
209 229 255
209 229 255
171 192 228
76 109 173
62 98 165
62 98 170
61 98 167
61 98 164
62 99 167
61 98 164
61 97 165
63 99 170
62 98 169
62 99 172
62 99 168
61 98 162
62 98 159
62 98 171
62 98 159
62 98 160
62 98 164
62 98 162
62 98 166
62 98 162
61 98 165
62 98 166
63 99 164
62 98 164
62 99 168
61 98 167
63 99 169
61 97 163
62 99 168
62 98 165
62 98 168
61 97 157
62 98 163
62 99 167
62 99 166
62 99 170
62 98 164
62 99 170
62 98 170
61 97 160
63 99 161
62 98 167
62 97 164
62 98 168
62 98 162
61 98 169
62 99 166
62 98 170
62 98 169
62 98 173
62 98 169
61 97 163
62 99 170
61 97 159
62 98 167
62 99 172
61 97 162
62 97 168
62 97 165
62 98 172
68 102 172
181 201 234
209 229 255
209 229 255
209 229 255
209 229 255
209 229 255
209 229 255
209 229 255
209 229 255
209 229 255
209 229 255
209 229 255
209 229 255
209 229 255
209 229 255
209 229 255
209 229 255
209 229 255
209 229 255
209 229 255
209 229 255
209 229 255
209 229 255
209 229 255
209 229 255
209 229 255
209 229 255
210 229 255
210 229 255
210 229 255
210 229 255
210 229 255
210 229 255
210 229 255
210 229 255
210 229 255
210 229 255
210 229 255
210 229 255
210 229 255
210 229 255
206 224 247
163 166 147
147 144 96
152 150 100
148 145 97
157 154 103
158 156 104
160 159 106
163 161 108
165 163 109
165 164 110
168 167 112
169 169 114
170 169 114
169 169 114
168 168 114
168 169 114
168 168 114
167 168 114
168 168 114
166 168 114
167 168 114
167 168 114
166 167 114
166 168 114
167 168 114
166 168 114
166 167 114
166 167 114
166 167 114
165 167 114
166 167 114
166 167 114
166 167 114
166 168 114
165 167 114
166 167 114
166 167 114
166 167 114
166 167 114
166 167 114
166 167 114
166 168 114
166 168 114
166 167 114
166 167 114
166 167 114
167 168 114
167 168 114
167 168 114
167 168 114
167 168 114
167 168 114
167 168 114
167 168 114
167 168 114
168 168 114
168 168 114
168 168 114
168 168 114
168 168 114
168 168 114
169 169 114
169 169 114
169 169 114
168 168 114
170 169 114
169 169 114
170 169 114
170 169 114
170 169 114
171 169 114
170 169 114
171 170 114
171 170 114
170 169 114
172 170 114
170 169 114
172 170 114
171 170 114
172 170 114
172 170 114
172 170 114
173 171 114
173 171 114
172 170 114
173 171 114
173 170 114
173 171 114
172 170 114
173 171 114
173 170 114
173 170 114
174 171 114
175 171 114
175 171 114
177 172 114
175 172 114
174 171 114
176 172 114
175 171 114
176 172 114
175 171 114
176 172 114
177 172 114
176 172 114
177 172 114
177 173 114
179 174 114
177 172 114
178 173 114
179 173 114
178 173 114
178 173 114
179 173 114
180 174 114
179 173 114
179 173 114
181 174 114
178 173 114
178 172 113
178 172 113
178 172 113
179 172 113
178 171 112
180 173 113
178 171 112
174 167 109
172 196 0
175 198 0
175 198 0
172 195 0
175 198 0
176 198 0
174 198 0
174 197 0
173 197 0
172 196 0
173 197 0
175 198 0
174 198 0
173 197 0
172 196 0
175 198 0
174 198 0
175 198 0
172 197 0
174 197 0
174 197 0
173 196 0
175 198 0
174 197 0
173 197 0
175 198 0
172 196 0
175 198 0
175 198 0
172 196 0
175 198 0
174 197 0
173 197 0
175 198 0
175 198 0
175 198 0
173 197 0
172 196 0
177 199 0
176 199 0
173 197 0
175 198 0
175 198 0
174 197 0
171 196 0
173 197 0
173 197 0
173 197 0
175 198 0
175 198 0
175 198 0
173 197 0
174 198 0
174 197 0
174 198 0
173 197 0
174 198 0
174 198 0
174 198 0
174 198 0
173 197 0
176 198 0
175 198 0
174 197 0
175 198 0
174 197 0
175 198 0
173 196 0
174 198 0
175 198 0
173 197 0
175 198 0
175 198 0
174 197 0
175 198 0
176 198 0
175 198 0
174 198 0
173 196 0
173 197 0
176 198 0
175 198 0
175 198 0
173 197 0
174 198 0
174 198 0
175 198 0
175 198 0
173 197 0
173 197 0
174 198 0
175 198 0
173 197 0
173 197 0
173 197 0
174 197 0
173 196 0
174 197 0
176 199 0
173 197 0
175 198 0
173 197 0
174 198 0
173 197 0
175 198 0
173 197 0
174 197 0
174 197 0
174 197 0
173 197 0
174 197 0
173 197 0
174 198 0
175 198 0
174 197 0
173 196 0
175 198 0
174 198 0
174 197 0
172 197 0
173 196 0
173 196 0
174 197 0
174 197 0
174 198 0
175 198 0
175 198 0
177 200 72
205 224 233
210 229 255
210 229 255
210 229 255
210 229 255
210 229 255
210 229 255
210 229 255
210 229 255
210 229 255
210 229 255
210 229 255
210 229 255
210 229 255
210 229 255
210 229 255
210 229 255
210 229 255
210 229 255
210 229 255
210 229 255
209 229 255
209 229 255
209 229 255
209 229 255
209 229 255
209 229 255
209 229 255
209 229 255
209 229 255
209 229 255
209 229 255
209 229 255
209 229 255
209 229 255
209 229 255
209 229 255
209 229 255
208 228 255
147 170 211
64 100 169
61 98 167
62 98 165
62 98 168
62 99 171
62 98 165
62 99 169
62 99 167
62 99 168
61 98 166
62 98 161
62 98 162
62 98 166
61 98 168
62 98 164
61 98 166
62 98 165
62 99 172
62 99 171
62 99 173
62 99 168
62 98 163
62 98 161
61 98 165
62 99 166
61 97 160
62 98 162
62 99 168
62 98 163
63 99 168
62 98 164
62 98 170
62 98 164
61 97 164
62 98 165
62 99 163
63 99 170
62 98 168
61 98 164
62 99 167
61 97 167
61 97 160
63 99 169
63 99 167
62 98 167
62 98 167
62 98 166
62 99 165
61 97 166
62 99 169
62 97 162
61 97 164
62 98 166
62 97 162
62 99 169
61 97 163
61 97 166
61 97 164
62 97 158
62 98 168
62 97 167
62 97 162
61 97 167
61 96 162
158 179 218
208 228 255
209 229 255
209 229 255
209 229 255
209 229 255
209 229 255
209 229 255
209 229 255
209 229 255
209 229 255
209 229 255
209 229 255
209 229 255
209 229 255
209 229 255
209 229 255
209 229 255
209 229 255
210 229 255
210 229 255
210 229 255
210 229 255
210 229 255
210 229 255
210 229 255
210 229 255
210 229 255
210 229 255
210 229 255
210 229 255
210 229 255
210 229 255
210 229 255
210 229 255
210 229 255
210 229 255
210 229 255
210 229 255
192 206 221
150 147 107
142 139 93
152 149 99
153 151 101
161 159 106
157 156 104
164 162 108
164 163 109
166 165 111
168 167 112
168 167 112
167 167 112
169 169 114
169 169 114
168 168 114
169 169 114
168 168 114
168 168 114
167 168 114
167 168 114
167 168 114
166 168 114
166 167 114
167 168 114
166 168 114
165 167 114
166 167 114
166 167 114
166 167 114
166 167 114
166 167 114
167 168 114
166 167 114
167 168 114
167 168 114
166 168 114
166 168 114
166 168 114
167 168 114
166 167 114
166 167 114
167 168 114
167 168 114
166 168 114
167 168 114
167 168 114
166 168 114
166 168 114
168 168 114
167 168 114
168 168 114
167 168 114
168 168 114
168 168 114
169 169 114
168 168 114
168 168 114
167 168 114
169 169 114
168 168 114
168 169 114
169 169 114
169 169 114
169 169 114
170 169 114
169 169 114
170 169 114
170 169 114
169 169 114
170 169 114
171 169 114
171 170 114
170 169 114
171 170 114
172 170 114
171 170 114
173 171 114
171 170 114
171 170 114
172 170 114
172 170 114
172 170 114
172 170 114
174 171 114
172 170 114
173 171 114
173 171 114
172 170 114
174 171 114
175 171 114
173 171 114
173 171 114
174 171 114
174 171 114
175 172 114
175 172 114
176 172 114
175 171 114
176 172 114
175 172 114
175 171 114
176 172 114
177 172 114
175 171 114
176 172 114
177 172 114
178 173 114
176 172 114
177 172 114
178 173 114
178 173 114
178 173 114
177 172 114
178 173 114
180 174 114
179 173 114
178 173 114
180 174 114
179 173 114
181 174 114
179 174 114
180 174 114
179 173 114
179 173 113
175 169 110
181 174 113
176 169 111
174 167 109
174 197 0
172 196 0
175 198 0
173 197 0
173 197 0
174 198 0
175 198 0
172 197 0
177 199 0
174 197 0
174 197 0
173 197 0
174 197 0
176 198 0
173 197 0
173 197 0
174 197 0
174 197 0
174 198 0
175 198 0
174 197 0
175 198 0
175 198 0
173 196 0
174 198 0
175 198 0
176 198 0
175 198 0
174 198 0
174 198 0
176 199 0
174 197 0
174 197 0
174 198 0
174 197 0
174 197 0
176 198 0
175 198 0
175 198 0
175 198 0
174 198 0
175 198 0
172 196 0
175 198 0
175 198 0
175 198 0
175 198 0
173 197 0
173 196 0
174 198 0
174 198 0
175 198 0
174 197 0
174 197 0
173 197 0
174 198 0
174 198 0
175 198 0
174 198 0
176 199 0
175 198 0
173 197 0
174 197 0
174 197 0
176 199 0
175 198 0
175 198 0
175 198 0
172 196 0
174 197 0
173 197 0
175 198 0
174 198 0
175 198 0
176 199 0
174 198 0
172 196 0
173 197 0
175 198 0
172 197 0
174 197 0
175 198 0
172 196 0
176 198 0
173 197 0
175 198 0
173 197 0
172 196 0
173 197 0
175 198 0
174 197 0
174 197 0
174 197 0
176 199 0
175 197 0
174 198 0
174 198 0
175 198 0
174 197 0
175 198 0
174 198 0
175 198 0
174 197 0
174 198 0
175 198 0
175 198 0
174 198 0
174 198 0
176 199 0
173 196 0
174 198 0
174 198 0
174 198 0
175 198 0
175 198 0
172 196 0
175 198 0
174 198 0
175 198 0
173 197 0
174 197 0
174 197 0
173 197 0
173 197 0
175 198 0
173 197 0
173 197 0
174 197 0
176 199 44
200 220 209
210 230 255
210 230 255
210 230 255
210 229 255
210 229 255
210 229 255
210 229 255
210 229 255
210 229 255
210 229 255
210 229 255
210 229 255
210 229 255
210 229 255
210 229 255
210 229 255
210 229 255
210 229 255
210 229 255
210 229 255
210 229 255
210 229 255
210 229 255
210 229 255
210 229 255
210 229 255
210 229 255
209 229 255
209 229 255
209 229 255
209 229 255
209 229 255
209 229 255
209 229 255
209 229 255
205 225 252
121 145 192
61 98 167
62 98 165
62 98 161
61 97 159
63 99 171
62 99 165
62 98 170
61 97 153
62 98 163
61 98 170
62 98 162
61 97 156
62 98 164
62 98 161
62 98 161
61 97 163
61 97 160
62 98 166
62 98 168
62 98 165
62 98 159
62 98 165
62 98 166
61 96 155
63 99 168
61 98 165
62 98 164
62 98 162
64 100 175
62 98 164
62 98 162
61 98 167
62 98 166
62 98 161
60 96 151
62 98 164
61 97 161
62 98 158
61 97 159
61 97 165
62 98 169
62 98 165
62 98 161
62 98 169
62 99 167
62 98 164
63 99 165
62 98 165
62 98 164
62 98 165
61 97 163
61 97 165
62 98 164
62 98 170
61 97 161
61 96 156
61 96 160
61 96 160
62 97 163
62 98 168
62 98 169
61 97 165
62 97 162
61 97 163
62 98 166
61 96 166
117 141 192
207 227 254
209 229 255
209 229 255
209 229 255
209 229 255
209 229 255
209 229 255
209 229 255
209 229 255
210 229 255
210 229 255
210 229 255
210 229 255
210 229 255
210 229 255
210 229 255
210 229 255
210 229 255
210 229 255
210 229 255
210 229 255
210 229 255
210 229 255
210 229 255
210 229 255
210 229 255
210 229 255
210 229 255
210 229 255
210 229 255
210 229 255
210 229 255
210 229 255
210 230 255
210 230 255
210 230 255
189 201 211
144 140 94
147 143 95
150 147 97
153 150 100
162 159 106
159 156 104
164 162 109
162 161 108
164 163 110
167 166 112
165 165 111
169 168 113
169 169 114
169 169 114
169 169 114
168 168 114
168 168 114
168 168 114
167 168 114
168 168 114
167 168 114
168 168 114
167 168 114
166 168 114
167 168 114
167 168 114
166 168 114
166 168 114
166 168 114
167 168 114
166 167 114
167 168 114
167 168 114
166 168 114
167 168 114
167 168 114
167 168 114
166 168 114
166 168 114
166 168 114
166 168 114
167 168 114
167 168 114
168 168 114
167 168 114
167 168 114
167 168 114
167 168 114
168 168 114
168 168 114
167 168 114
169 169 114
168 168 114
167 168 114
168 168 114
168 168 114
168 168 114
168 169 114
168 169 114
168 168 114
170 169 114
170 169 114
169 169 114
169 169 114
169 169 114
169 169 114
170 169 114
170 169 114
170 169 114
170 169 114
170 169 114
171 170 114
171 169 114
172 170 114
171 170 114
172 170 114
170 169 114
172 170 114
173 171 114
171 170 114
173 170 114
172 170 114
173 170 114
171 170 114
173 170 114
173 170 114
175 171 114
174 171 114
173 171 114
175 172 114
174 171 114
176 172 114
173 171 114
174 171 114
176 172 114
175 172 114
176 172 114
175 171 114
175 172 114
174 171 114
175 172 114
178 173 114
177 172 114
177 172 114
176 172 114
176 172 114
178 173 114
178 173 114
178 173 114
178 173 114
179 173 114
177 172 114
179 173 114
178 173 114
178 173 114
180 174 114
179 173 114
180 174 114
180 174 114
179 173 114
180 174 114
180 174 114
180 174 114
180 174 114
180 173 113
176 170 112
181 173 113
179 172 113
179 172 112
174 197 0
173 196 0
174 198 0
175 198 0
174 197 0
174 197 0
175 198 0
175 198 0
174 197 0
173 197 0
174 198 0
175 198 0
172 195 0
174 197 0
174 198 0
174 198 0
172 196 0
174 198 0
173 197 0
175 198 0
173 197 0
173 197 0
175 198 0
174 198 0
174 198 0
175 198 0
174 197 0
175 198 0
174 198 0
174 198 0
174 198 0
175 198 0
175 198 0
175 198 0
174 197 0
174 198 0
173 197 0
174 198 0
174 198 0
173 197 0
175 198 0
172 196 0
174 198 0
175 198 0
175 198 0
174 197 0
174 197 0
175 198 0
174 198 0
173 197 0
173 197 0
173 197 0
172 197 0
173 197 0
175 198 0
173 197 0
175 198 0
176 198 0
174 198 0
175 197 0
175 198 0
175 198 0
176 199 0
174 197 0
173 197 0
174 198 0
175 198 0
174 197 0
174 198 0
174 197 0
173 197 0
174 197 0
175 197 0
175 198 0
175 198 0
173 197 0
174 198 0
175 198 0
175 198 0
174 197 0
173 197 0
175 198 0
174 198 0
174 197 0
176 198 0
174 197 0
174 198 0
175 198 0
174 197 0
175 198 0
173 197 0
174 198 0
174 198 0
173 197 0
173 197 0
174 198 0
174 197 0
175 198 0
177 199 0
173 197 0
175 198 0
174 197 0
174 197 0
176 199 0
172 196 0
173 197 0
175 198 0
173 197 0
173 197 0
174 198 0
175 198 0
174 198 0
172 197 0
175 198 0
174 197 0
176 199 0
175 198 0
175 198 0
176 199 0
174 198 0
175 198 0
176 199 0
174 197 0
176 198 0
176 198 0
174 197 0
175 198 0
175 198 0
176 198 0
174 197 0
194 214 177
211 230 255
211 230 255
211 230 255
211 230 255
211 230 255
211 230 255
210 230 255
210 230 255
210 230 255
210 229 255
210 229 255
210 229 255
210 229 255
210 229 255
210 229 255
210 229 255
210 229 255
210 229 255
210 229 255
210 229 255
210 229 255
210 229 255
210 229 255
210 229 255
210 229 255
210 229 255
210 229 255
210 229 255
210 229 255
210 229 255
210 229 255
210 229 255
210 229 255
196 216 244
108 134 182
61 97 158
62 98 166
62 98 162
61 96 154
61 97 158
61 97 161
62 98 168
61 97 161
62 98 163
62 99 168
62 98 160
61 97 157
61 97 156
60 96 159
62 99 171
61 97 160
62 98 159
62 98 165
62 98 161
62 99 163
61 98 164
62 98 166
62 98 161
63 99 168
62 99 171
63 99 164
62 98 161
63 99 167
63 99 166
63 99 169
62 98 165
63 99 166
62 98 161
62 98 164
62 98 163
61 97 156
62 98 160
61 97 159
62 98 162
61 97 160
62 98 161
62 97 164
62 98 158
61 97 161
62 98 162
63 98 166
61 97 159
61 98 164
62 98 166
62 98 166
61 97 162
62 98 167
61 97 161
62 99 171
61 97 164
63 99 169
63 99 168
61 97 164
62 98 166
60 95 155
62 97 161
62 97 165
61 96 161
60 95 155
62 98 167
62 98 168
60 96 161
60 96 164
110 135 184
203 222 250
210 229 255
210 229 255
210 229 255
210 229 255
210 229 255
210 229 255
210 229 255
210 229 255
210 229 255
210 229 255
210 229 255
210 229 255
210 229 255
210 229 255
210 229 255
210 229 255
210 229 255
210 229 255
210 229 255
210 229 255
210 229 255
210 229 255
210 229 255
210 229 255
210 230 255
210 230 255
210 230 255
211 230 255
211 230 255
211 230 255
211 230 255
211 230 255
211 230 255
185 198 208
150 145 95
147 143 95
159 156 103
157 155 103
157 155 103
164 161 108
166 163 109
163 162 109
165 164 110
168 167 112
170 168 113
170 169 114
169 169 114
169 169 114
169 169 114
169 169 114
167 168 114
168 169 114
168 168 114
168 168 114
167 168 114
167 168 114
167 168 114
166 168 114
167 168 114
167 168 114
166 167 114
167 168 114
167 168 114
166 168 114
167 168 114
168 168 114
166 168 114
167 168 114
166 167 114
166 168 114
167 168 114
167 168 114
167 168 114
167 168 114
167 168 114
167 168 114
167 168 114
167 168 114
168 168 114
167 168 114
168 168 114
167 168 114
168 168 114
167 168 114
167 168 114
168 168 114
168 168 114
169 169 114
169 169 114
169 169 114
169 169 114
168 168 114
170 169 114
170 169 114
170 169 114
169 169 114
169 169 114
169 169 114
171 170 114
169 169 114
169 169 114
170 169 114
171 170 114
169 169 114
171 170 114
172 170 114
172 170 114
170 169 114
172 170 114
171 170 114
172 170 114
173 171 114
172 170 114
171 170 114
172 170 114
173 171 114
172 170 114
174 171 114
174 171 114
173 171 114
174 171 114
173 171 114
173 171 114
173 170 114
175 171 114
175 172 114
174 171 114
173 171 114
174 171 114
174 171 114
175 172 114
175 172 114
177 172 114
175 172 114
177 172 114
176 172 114
177 172 114
176 172 114
177 172 114
178 173 114
177 173 114
178 173 114
178 173 114
177 173 114
176 172 114
177 172 114
178 173 114
179 173 114
180 174 114
178 173 114
180 174 114
179 173 114
180 174 114
179 174 114
180 174 114
180 174 114
181 174 114
181 174 114
182 175 114
181 174 114
180 173 113
180 173 113
181 174 114
178 171 112
175 198 0
174 198 0
174 197 0
174 198 0
174 197 0
174 198 0
173 197 0
172 196 0
174 198 0
175 198 0
175 198 0
174 197 0
174 198 0
173 197 0
175 198 0
174 198 0
174 198 0
174 197 0
173 197 0
177 199 0
174 198 0
175 198 0
173 197 0
174 197 0
173 197 0
174 198 0
176 199 0
174 198 0
174 198 0
172 196 0
173 197 0
175 198 0
174 197 0
175 198 0
174 198 0
173 197 0
174 197 0
175 198 0
173 197 0
174 197 0
175 198 0
176 198 0
175 198 0
175 198 0
172 196 0
174 198 0
174 197 0
175 198 0
173 197 0
174 197 0
174 197 0
175 198 0
173 197 0
175 198 0
176 199 0
175 198 0
175 198 0
174 198 0
174 198 0
175 198 0
173 197 0
175 198 0
173 197 0
174 198 0
175 198 0
174 197 0
174 197 0
174 198 0
175 198 0
174 198 0
173 197 0
175 198 0
174 198 0
174 197 0
173 197 0
175 198 0
174 198 0
175 198 0
174 198 0
174 198 0
175 198 0
173 197 0
174 198 0
173 197 0
174 198 0
173 197 0
175 198 0
173 197 0
175 198 0
175 198 0
172 196 0
174 198 0
174 198 0
176 198 0
173 197 0
174 198 0
176 199 0
174 197 0
173 197 0
174 198 0
174 197 0
175 198 0
173 197 0
174 197 0
175 197 0
174 198 0
175 198 0
175 198 0
174 197 0
174 197 0
176 198 0
173 197 0
176 199 0
173 197 0
173 197 0
174 197 0
176 199 0
174 197 0
174 198 0
173 197 0
174 198 0
174 197 0
172 196 0
173 197 0
174 197 0
174 198 0
172 196 0
172 196 0
173 197 0
174 197 0
173 197 0
195 215 182
211 230 255
211 230 255
211 230 255
211 230 255
211 230 255
211 230 255
211 230 255
211 230 255
211 230 255
211 230 255
211 230 255
211 230 255
211 230 255
210 230 255
210 230 255
210 229 255
210 229 255
210 229 255
210 229 255
210 229 255
210 229 255
210 229 255
210 229 255
210 229 255
210 229 255
210 229 255
210 229 255
210 229 255
210 229 255
210 229 255
210 229 255
197 217 247
112 138 191
62 98 167
61 97 163
61 97 160
61 97 161
61 97 157
62 99 167
61 97 152
61 97 158
62 98 162
61 97 154
62 98 163
61 97 161
62 98 161
62 98 161
62 99 163
62 98 162
62 98 161
61 97 159
62 99 165
62 98 164
62 98 162
62 98 167
62 98 164
62 99 169
62 98 168
61 98 164
62 98 164
62 98 162
63 99 163
62 98 163
61 97 156
62 98 163
62 99 165
62 98 162
62 98 163
62 98 164
62 98 163
62 99 168
62 98 165
62 98 167
62 99 168
62 98 161
61 97 156
63 99 170
61 97 159
61 97 163
63 99 167
63 99 168
62 99 165
61 97 161
62 98 161
62 97 162
62 97 167
62 98 163
62 98 162
61 97 160
62 98 164
62 97 162
63 99 169
61 96 155
62 98 167
62 98 162
61 97 167
63 99 170
61 96 159
61 96 164
62 98 167
61 96 162
61 97 163
61 95 159
110 135 188
197 217 247
210 229 255
210 229 255
210 229 255
210 229 255
210 229 255
210 229 255
210 229 255
210 229 255
210 229 255
210 229 255
210 229 255
210 229 255
210 229 255
210 229 255
210 229 255
210 230 255
210 230 255
210 230 255
210 230 255
211 230 255
211 230 255
211 230 255
211 230 255
211 230 255
211 230 255
211 230 255
211 230 255
211 230 255
211 230 255
211 230 255
211 230 255
170 180 186
147 142 93
147 143 95
159 156 103
157 154 103
166 163 109
161 158 106
168 165 110
167 165 110
167 165 110
171 169 113
170 169 113
170 169 114
170 169 114
170 169 114
170 169 114
169 169 114
169 169 114
168 169 114
169 169 114
169 169 114
169 169 114
168 168 114
168 168 114
168 168 114
167 168 114
167 168 114
167 168 114
167 168 114
168 168 114
167 168 114
168 168 114
167 168 114
168 168 114
167 168 114
167 168 114
167 168 114
167 168 114
168 168 114
168 168 114
167 168 114
167 168 114
168 168 114
168 168 114
168 168 114
167 168 114
167 168 114
168 168 114
167 168 114
169 169 114
168 168 114
167 168 114
168 168 114
168 168 114
168 168 114
169 169 114
169 169 114
169 169 114
171 170 114
169 169 114
170 169 114
170 169 114
170 169 114
170 169 114
170 169 114
171 170 114
170 169 114
171 169 114
171 169 114
172 170 114
172 170 114
172 170 114
171 170 114
171 170 114
172 170 114
172 170 114
173 171 114
172 170 114
173 170 114
172 170 114
173 171 114
173 171 114
173 171 114
174 171 114
173 171 114
174 171 114
174 171 114
173 171 114
174 171 114
175 171 114
174 171 114
174 171 114
174 171 114
174 171 114
174 171 114
176 172 114
176 172 114
176 172 114
177 172 114
176 172 114
178 173 114
176 172 114
178 173 114
177 172 114
177 173 114
176 172 114
177 172 114
178 173 114
178 173 114
178 173 114
179 173 114
178 173 114
176 172 114
178 173 114
178 173 114
180 174 114
179 173 114
180 174 114
179 173 114
180 174 114
179 173 114
181 174 114
181 174 114
180 174 114
180 174 114
180 174 114
182 175 114
182 175 114
181 174 114
182 175 114
180 173 113
180 173 113
175 198 0
174 197 0
175 198 0
174 197 0
174 198 0
174 197 0
175 198 0
175 198 0
173 197 0
173 197 0
176 199 0
174 198 0
172 196 0
176 199 0
174 198 0
174 197 0
174 198 0
173 197 0
176 198 0
176 199 0
174 198 0
175 198 0
174 198 0
175 198 0
174 197 0
176 199 0
175 198 0
174 198 0
173 197 0
175 198 0
176 198 0
174 197 0
174 197 0
173 197 0
175 198 0
172 197 0
175 198 0
173 197 0
175 198 0
174 198 0
172 196 0
174 198 0
174 197 0
174 198 0
175 198 0
174 197 0
173 197 0
173 197 0
174 198 0
173 197 0
173 197 0
174 197 0
174 197 0
175 198 0
174 197 0
175 198 0
173 197 0
175 198 0
174 197 0
174 198 0
174 197 0
173 197 0
173 197 0
175 198 0
174 198 0
175 198 0
174 198 0
174 197 0
174 198 0
174 197 0
174 197 0
175 198 0
174 197 0
175 198 0
175 198 0
173 197 0
175 198 0
174 198 0
175 198 0
174 197 0
173 197 0
176 199 0
173 197 0
174 197 0
174 197 0
175 198 0
173 197 0
174 197 0
174 198 0
174 198 0
174 198 0
174 197 0
174 198 0
175 198 0
175 198 0
175 198 0
175 198 0
174 198 0
174 198 0
173 197 0
174 198 0
175 198 0
175 198 0
174 198 0
173 197 0
176 199 0
174 197 0
174 197 0
175 198 0
176 199 0
173 197 0
172 196 0
172 197 0
173 197 0
174 197 0
176 198 0
174 197 0
175 198 0
173 196 0
173 197 0
175 198 0
175 198 0
173 196 0
173 197 0
173 197 0
174 198 0
174 198 0
172 197 0
174 197 0
173 197 0
172 196 0
175 198 0
191 211 165
211 230 255
211 230 255
211 230 255
211 230 255
211 230 255
211 230 255
211 230 255
211 230 255
211 230 255
211 230 255
211 230 255
211 230 255
211 230 255
211 230 255
211 230 255
211 230 255
211 230 255
211 230 255
211 230 255
210 230 255
210 230 255
210 230 255
210 229 255
210 229 255
210 229 255
210 229 255
210 229 255
210 229 255
210 229 255
204 224 251
103 129 175
61 98 161
60 96 154
62 98 165
60 96 155
61 97 155
61 97 160
61 98 161
61 97 159
61 97 160
62 98 163
62 98 163
61 98 167
62 98 160
61 97 159
62 98 159
62 98 163
61 97 153
61 97 159
62 98 164
62 98 162
62 99 166
62 98 166
61 97 160
63 99 164
62 98 165
62 98 161
62 98 160
62 98 158
61 97 154
62 98 160
63 98 158
62 98 162
61 98 160
62 98 162
62 99 167
62 98 161
62 98 162
62 97 157
62 98 157
61 97 161
61 97 156
61 97 159
62 98 164
61 96 158
61 97 160
62 97 157
61 97 160
62 99 164
61 96 153
62 98 158
62 98 159
61 97 159
62 98 164
62 98 164
62 98 165
62 98 163
62 99 169
62 98 167
61 97 160
61 97 155
62 98 163
62 98 167
61 97 164
62 98 164
61 96 160
62 97 162
61 96 167
61 96 158
60 95 157
61 96 163
60 95 159
62 97 167
91 119 179
200 220 248
210 229 255
210 229 255
210 229 255
210 229 255
210 229 255
210 229 255
210 230 255
210 230 255
210 230 255
210 230 255
211 230 255
211 230 255
211 230 255
211 230 255
211 230 255
211 230 255
211 230 255
211 230 255
211 230 255
211 230 255
211 230 255
211 230 255
211 230 255
211 230 255
211 230 255
211 230 255
211 230 255
211 230 255
211 230 255
166 171 163
148 143 94
151 147 97
152 149 99
155 151 100
163 160 107
164 161 107
164 161 108
168 166 110
168 166 111
168 166 112
171 169 113
170 169 114
170 169 114
170 169 114
170 169 114
170 169 114
169 169 114
169 169 114
169 169 114
168 169 114
168 168 114
169 169 114
168 168 114
169 169 114
168 169 114
168 168 114
167 168 114
167 168 114
167 168 114
167 168 114
168 168 114
168 168 114
167 168 114
167 168 114
168 168 114
167 168 114
168 168 114
168 168 114
167 168 114
168 168 114
169 169 114
168 168 114
169 169 114
168 168 114
169 169 114
168 168 114
168 168 114
168 168 114
168 168 114
169 169 114
168 168 114
168 168 114
169 169 114
170 169 114
170 169 114
169 169 114
170 169 114
170 169 114
170 169 114
169 169 114
169 169 114
170 169 114
171 170 114
171 169 114
170 169 114
170 169 114
172 170 114
171 170 114
170 169 114
172 170 114
171 170 114
172 170 114
171 170 114
171 170 114
172 170 114
172 170 114
170 169 114
172 170 114
173 171 114
173 171 114
174 171 114
173 171 114
172 170 114
174 171 114
174 171 114
175 171 114
174 171 114
174 171 114
173 171 114
176 172 114
174 171 114
174 171 114
175 171 114
176 172 114
175 171 114
175 172 114
177 172 114
175 171 114
175 172 114
176 172 114
177 172 114
176 172 114
178 173 114
177 172 114
178 173 114
176 172 114
178 173 114
180 174 114
179 173 114
178 173 114
178 173 114
179 173 114
180 174 114
179 173 114
180 174 114
179 173 114
181 174 114
179 173 114
180 174 114
180 174 114
180 174 114
179 173 114
181 174 114
180 174 114
180 174 114
182 175 114
181 174 114
183 175 114
180 174 114
181 174 114
182 175 114
180 173 113
173 197 0
175 197 0
175 198 0
173 197 0
175 198 0
174 197 0
175 198 0
173 197 0
172 196 0
172 196 0
174 197 0
175 198 0
174 198 0
176 199 0
174 197 0
174 198 0
174 197 0
176 199 0
175 198 0
173 197 0
175 198 0
173 197 0
173 197 0
175 198 0
174 198 0
174 198 0
173 197 0
175 198 0
173 197 0
176 199 0
175 198 0
173 197 0
176 198 0
174 198 0
173 197 0
174 198 0
175 198 0
174 198 0
174 198 0
174 197 0
174 197 0
174 198 0
175 198 0
174 198 0
174 197 0
173 197 0
174 198 0
174 198 0
174 197 0
175 198 0
175 198 0
175 198 0
175 198 0
174 197 0
176 199 0
175 198 0
175 198 0
173 197 0
173 196 0
174 197 0
175 198 0
176 198 0
173 197 0
175 198 0
175 198 0
175 198 0
175 198 0
174 198 0
174 198 0
174 198 0
175 198 0
173 197 0
174 197 0
174 198 0
174 198 0
174 197 0
174 198 0
174 198 0
172 196 0
174 198 0
173 197 0
175 198 0
174 197 0
172 197 0
175 198 0
173 197 0
174 198 0
173 197 0
174 198 0
174 198 0
176 199 0
175 198 0
174 198 0
173 197 0
173 197 0
175 198 0
174 198 0
174 198 0
172 197 0
172 197 0
176 198 0
173 197 0
175 198 0
174 197 0
174 198 0
174 198 0
175 198 0
175 198 0
174 197 0
174 197 0
175 198 0
174 197 0
174 198 0
174 197 0
174 197 0
175 198 0
174 197 0
173 197 0
175 198 0
173 197 0
174 197 0
176 199 0
172 196 0
174 198 0
175 198 0
175 198 0
174 197 0
173 197 0
174 198 0
175 198 0
175 198 0
176 199 0
174 197 0
192 212 165
211 230 255
211 230 255
211 230 255
211 230 255
211 230 255
211 230 255
211 230 255
211 230 255
211 230 255
211 230 255
211 230 255
211 230 255
211 230 255
211 230 255
211 230 255
211 230 255
211 230 255
211 230 255
211 230 255
211 230 255
211 230 255
211 230 255
211 230 255
211 230 255
211 230 255
211 230 255
211 230 255
208 227 254
106 132 175
60 96 153
62 98 165
60 96 150
61 97 161
61 97 152
61 97 157
62 98 166
61 98 164
61 98 160
62 98 155
62 98 165
61 97 153
61 98 164
62 98 160
62 98 161
62 98 159
61 97 157
62 98 161
62 98 157
61 97 151
62 98 162
61 97 151
62 98 163
62 98 161
62 98 162
63 99 168
62 98 161
62 98 160
61 97 159
62 98 163
63 99 172
62 98 166
63 99 166
62 98 159
62 98 160
61 97 159
62 98 163
61 97 160
62 98 163
62 98 160
61 97 161
62 98 165
62 98 165
62 98 162
61 96 149
62 99 163
62 98 166
61 96 150
62 98 160
62 99 170
62 98 159
62 97 160
62 97 161
61 97 158
61 97 161
62 98 164
61 97 160
63 99 168
61 97 160
62 97 162
61 97 154
61 96 156
61 96 154
62 97 163
62 98 164
62 98 167
61 96 159
61 97 157
60 95 152
61 95 157
61 97 163
60 95 159
60 95 163
62 97 167
100 125 173
205 223 249
211 230 255
211 230 255
211 230 255
211 230 255
211 230 255
211 230 255
211 230 255
211 230 255
211 230 255
211 230 255
211 230 255
211 230 255
211 230 255
211 230 255
211 230 255
211 230 255
211 230 255
211 230 255
211 230 255
211 230 255
211 230 255
211 230 255
211 230 255
211 230 255
211 230 255
211 230 255
211 230 255
179 187 187
157 152 100
146 142 94
153 150 99
164 159 105
162 158 105
172 169 112
166 164 110
167 165 110
170 168 112
172 169 113
172 170 114
171 170 114
171 170 114
170 169 114
170 169 114
170 169 114
169 169 114
170 169 114
169 169 114
170 169 114
169 169 114
169 169 114
169 169 114
169 169 114
168 168 114
169 169 114
169 169 114
168 168 114
168 168 114
168 168 114
169 169 114
169 169 114
168 168 114
168 169 114
168 168 114
169 169 114
169 169 114
169 169 114
168 168 114
168 169 114
168 168 114
169 169 114
169 169 114
168 168 114
170 169 114
168 169 114
168 169 114
169 169 114
169 169 114
169 169 114
170 169 114
169 169 114
169 169 114
170 169 114
170 169 114
170 169 114
171 170 114
170 169 114
171 170 114
169 169 114
171 170 114
171 170 114
172 170 114
172 170 114
171 169 114
171 170 114
172 170 114
172 170 114
172 170 114
171 170 114
172 170 114
172 170 114
173 171 114
173 170 114
173 171 114
173 171 114
173 171 114
173 171 114
173 171 114
172 170 114
173 171 114
174 171 114
174 171 114
174 171 114
174 171 114
175 172 114
175 171 114
176 172 114
176 172 114
175 171 114
175 172 114
176 172 114
175 172 114
177 172 114
176 172 114
177 172 114
177 172 114
176 172 114
176 172 114
176 172 114
176 172 114
176 172 114
177 172 114
177 172 114
178 173 114
177 173 114
179 173 114
179 173 114
177 172 114
179 173 114
178 173 114
178 173 114
180 174 114
178 173 114
179 173 114
180 174 114
180 174 114
181 174 114
180 174 114
179 174 114
180 174 114
180 174 114
180 174 114
180 174 114
180 174 114
183 175 114
182 175 114
183 175 114
181 174 114
181 174 114
182 175 114
181 174 114
184 176 114
175 197 0
174 198 0
174 197 0
173 197 0
175 198 0
174 198 0
174 198 0
173 197 0
174 198 0
174 197 0
175 198 0
173 197 0
174 198 0
174 197 0
174 197 0
175 198 0
173 197 0
174 198 0
175 198 0
176 199 0
175 198 0
175 198 0
173 197 0
174 198 0
176 198 0
175 198 0
172 197 0
174 197 0
175 198 0
175 198 0
173 197 0
173 197 0
176 198 0
176 199 0
173 197 0
176 199 0
175 198 0
174 198 0
175 198 0
174 198 0
174 198 0
174 198 0
175 198 0
174 198 0
174 198 0
174 198 0
174 198 0
174 198 0
172 196 0
174 197 0
174 198 0
173 197 0
174 198 0
175 198 0
175 198 0
176 199 0
172 196 0
174 198 0
173 197 0
175 198 0
173 197 0
175 198 0
176 199 0
175 198 0
175 198 0
174 198 0
175 198 0
175 198 0
173 197 0
176 199 0
175 198 0
173 197 0
175 198 0
175 198 0
173 197 0
175 198 0
174 197 0
174 197 0
174 197 0
176 198 0
174 197 0
175 198 0
177 199 0
176 199 0
177 199 0
175 198 0
175 198 0
175 198 0
175 198 0
175 198 0
175 198 0
174 197 0
173 197 0
175 198 0
176 199 0
173 197 0
172 196 0
174 198 0
174 198 0
174 198 0
174 197 0
174 198 0
175 198 0
175 198 0
172 196 0
175 198 0
173 197 0
174 197 0
176 198 0
173 197 0
174 197 0
176 199 0
174 197 0
176 198 0
174 197 0
174 198 0
174 197 0
173 197 0
176 199 0
174 197 0
174 197 0
174 198 0
174 198 0
174 198 0
175 198 0
174 198 0
172 196 0
174 198 0
175 198 0
173 197 0
174 198 0
175 198 0
175 198 0
174 197 0
192 213 179
212 230 255
212 230 255
212 230 255
212 230 255
211 230 255
211 230 255
211 230 255
211 230 255
211 230 255
211 230 255
211 230 255
211 230 255
211 230 255
211 230 255
211 230 255
211 230 255
211 230 255
211 230 255
211 230 255
211 230 255
211 230 255
211 230 255
211 230 255
211 230 255
211 230 255
208 227 253
114 139 179
61 98 161
61 97 153
61 97 158
61 97 157
61 97 156
62 98 158
63 99 167
62 98 163
62 98 163
62 98 159
62 98 163
62 98 161
61 97 151
61 98 159
62 98 163
62 98 159
62 98 161
63 99 167
62 98 160
61 97 160
62 98 159
62 98 162
61 97 155
62 98 163
61 96 153
61 97 161
62 98 157
61 96 152
62 97 158
62 98 163
62 99 168
62 98 162
61 97 161
61 97 156
61 97 156
61 97 158
62 98 161
62 98 159
62 98 162
61 97 160
62 98 155
62 98 162
62 98 158
63 99 163
62 98 158
61 97 157
61 97 159
61 97 155
61 97 156
62 98 159
61 97 154
61 97 158
62 97 159
62 98 163
61 97 158
61 97 157
61 96 155
61 97 161
62 97 159
62 97 152
62 98 162
63 98 163
62 97 166
62 98 163
62 98 166
62 98 165
61 96 153
62 98 166
61 97 159
61 96 155
61 95 158
61 96 161
61 96 159
61 96 161
61 96 159
61 95 160
129 151 192
211 230 255
211 230 255
211 230 255
211 230 255
211 230 255
211 230 255
211 230 255
211 230 255
211 230 255
211 230 255
211 230 255
211 230 255
211 230 255
211 230 255
211 230 255
211 230 255
211 230 255
211 230 255
211 230 255
211 230 255
211 230 255
211 230 255
212 230 255
212 230 255
212 230 255
212 230 255
173 181 181
151 147 97
153 148 98
159 155 103
158 154 102
159 155 103
169 166 110
171 168 112
169 166 111
169 166 111
172 170 114
172 170 114
173 171 114
172 170 114
171 170 114
170 169 114
172 170 114
170 169 114
170 169 114
170 169 114
169 169 114
169 169 114
169 169 114
169 169 114
168 168 114
169 169 114
170 169 114
169 169 114
169 169 114
169 169 114
169 169 114
168 168 114
168 169 114
169 169 114
168 168 114
169 169 114
168 169 114
168 168 114
169 169 114
168 169 114
170 169 114
169 169 114
169 169 114
170 169 114
170 169 114
169 169 114
169 169 114
169 169 114
170 169 114
171 170 114
170 169 114
170 169 114
170 169 114
170 169 114
169 169 114
171 170 114
171 170 114
169 169 114
171 170 114
171 170 114
172 170 114
171 170 114
170 169 114
172 170 114
171 170 114
171 170 114
172 170 114
172 170 114
170 169 114
172 170 114
173 170 114
172 170 114
172 170 114
172 170 114
173 170 114
173 170 114
173 171 114
174 171 114
174 171 114
174 171 114
175 171 114
175 171 114
175 172 114
174 171 114
174 171 114
175 172 114
174 171 114
174 171 114
175 171 114
174 171 114
175 171 114
176 172 114
176 172 114
177 173 114
177 172 114
176 172 114
177 172 114
176 172 114
176 172 114
176 172 114
176 172 114
178 173 114
178 173 114
178 173 114
177 172 114
179 173 114
178 173 114
179 173 114
178 173 114
178 173 114
177 173 114
180 174 114
179 173 114
179 173 114
180 174 114
180 174 114
179 174 114
181 174 114
180 174 114
180 174 114
181 174 114
180 174 114
180 174 114
179 173 114
181 174 114
182 175 114
182 175 114
181 174 114
183 175 114
180 174 114
182 175 114
183 175 114
183 175 114
182 175 114
183 175 114
173 197 0
173 197 0
175 198 0
174 197 0
174 198 0
174 198 0
174 197 0
173 197 0
176 199 0
175 198 0
173 197 0
174 198 0
175 198 0
174 198 0
174 197 0
174 197 0
175 198 0
174 197 0
174 198 0
174 197 0
174 197 0
175 198 0
173 197 0
175 198 0
175 198 0
173 197 0
175 198 0
175 198 0
175 197 0
175 198 0
175 198 0
175 198 0
174 198 0
176 198 0
173 196 0
172 197 0
173 197 0
174 197 0
174 198 0
174 198 0
176 199 0
173 197 0
173 197 0
175 198 0
175 198 0
174 197 0
173 197 0
172 197 0
175 198 0
173 197 0
173 197 0
174 198 0
174 198 0
174 197 0
173 197 0
174 198 0
173 197 0
173 197 0
174 198 0
174 197 0
175 198 0
174 197 0
177 199 0
173 197 0
174 198 0
175 198 0
173 197 0
174 198 0
177 199 0
174 198 0
175 198 0
175 198 0
174 197 0
175 198 0
175 198 0
174 198 0
173 197 0
173 197 0
173 197 0
175 198 0
176 198 0
174 198 0
175 198 0
174 198 0
175 198 0
174 197 0
174 198 0
174 198 0
175 198 0
174 198 0
173 197 0
175 198 0
175 198 0
173 197 0
174 198 0
175 198 0
173 197 0
175 198 0
174 198 0
176 199 0
173 197 0
175 198 0
173 197 0
175 198 0
175 198 0
174 197 0
176 199 0
174 198 0
173 196 0
175 198 0
174 197 0
171 196 0
173 197 0
174 197 0
174 198 0
173 197 0
173 197 0
174 198 0
173 196 0
173 196 0
173 197 0
173 197 0
174 197 0
174 198 0
173 197 0
172 196 0
175 198 0
173 197 0
173 197 0
171 195 0
173 197 0
173 197 0
175 198 0
174 198 0
173 197 0
195 216 188
212 230 255
212 230 255
212 230 255
212 230 255
212 230 255
212 230 255
212 230 255
212 230 255
212 230 255
212 230 255
212 230 255
211 230 255
211 230 255
211 230 255
211 230 255
211 230 255
211 230 255
211 230 255
211 230 255
211 230 255
211 230 255
211 230 255
211 230 255
211 230 255
143 165 203
61 97 161
61 97 155
61 97 157
61 97 157
61 96 150
61 98 162
61 97 157
61 97 157
61 97 151
61 97 155
62 98 159
61 96 150
62 99 167
61 97 159
61 97 157
62 98 160
62 97 154
62 98 159
61 97 149
62 98 162
62 98 162
62 98 163
62 98 155
61 97 156
62 97 157
62 98 163
61 97 158
61 96 158
61 96 153
62 98 162
61 97 158
62 98 161
61 97 157
62 98 160
63 99 167
63 99 164
62 98 160
62 98 157
61 97 155
62 98 160
62 97 158
61 97 163
62 98 161
61 97 153
62 98 158
61 97 158
62 98 161
62 98 160
63 99 163
62 98 161
61 96 157
62 98 166
61 97 155
61 96 155
61 97 159
62 98 162
63 99 169
62 98 167
62 97 158
61 97 158
62 97 158
61 97 159
60 94 149
61 96 161
61 96 150
62 97 159
61 97 160
61 96 157
61 96 160
61 97 164
61 96 155
60 95 158
60 96 156
61 96 158
60 96 162
60 95 161
61 96 159
61 95 156
141 162 202
211 230 255
211 230 255
211 230 255
211 230 255
211 230 255
211 230 255
211 230 255
211 230 255
211 230 255
211 230 255
211 230 255
211 230 255
211 230 255
212 230 255
212 230 255
212 230 255
212 230 255
212 230 255
212 230 255
212 230 255
212 230 255
212 230 255
212 230 255
212 230 255
177 186 190
144 139 91
147 143 94
152 147 97
159 156 103
163 159 106
163 161 107
169 166 110
171 168 112
172 169 113
175 171 114
173 171 114
172 170 114
172 170 114
171 169 114
171 170 114
171 170 114
170 169 114
171 170 114
170 169 114
170 169 114
171 170 114
170 169 114
169 169 114
170 169 114
169 169 114
169 169 114
169 169 114
169 169 114
169 169 114
169 169 114
169 169 114
169 169 114
169 169 114
170 169 114
170 169 114
168 168 114
170 169 114
170 169 114
170 169 114
169 169 114
170 169 114
169 169 114
169 169 114
170 169 114
170 169 114
170 169 114
169 169 114
170 169 114
171 170 114
171 170 114
171 170 114
171 170 114
171 170 114
171 170 114
171 170 114
171 170 114
171 170 114
171 170 114
171 169 114
173 171 114
172 170 114
172 170 114
173 170 114
171 170 114
172 170 114
172 170 114
172 170 114
172 170 114
173 171 114
173 171 114
174 171 114
172 170 114
173 171 114
173 171 114
172 170 114
174 171 114
174 171 114
174 171 114
174 171 114
175 171 114
174 171 114
175 171 114
174 171 114
175 172 114
175 172 114
176 172 114
175 171 114
175 171 114
176 172 114
174 171 114
177 172 114
176 172 114
176 172 114
177 172 114
177 172 114
177 173 114
175 171 114
179 173 114
177 172 114
176 172 114
177 172 114
178 173 114
180 174 114
179 173 114
178 173 114
177 173 114
178 173 114
178 173 114
179 173 114
180 174 114
181 174 114
179 174 114
179 174 114
179 173 114
179 174 114
179 174 114
181 174 114
179 173 114
180 174 114
182 175 114
182 175 114
182 175 114
182 175 114
180 174 114
182 175 114
182 175 114
182 175 114
183 175 114
183 175 114
183 175 114
182 175 114
181 174 114
184 175 114
182 175 114
183 175 114
173 197 0
174 197 0
175 198 0
174 197 0
177 199 0
175 198 0
174 198 0
174 198 0
174 197 0
176 199 0
174 198 0
175 198 0
176 199 0
172 197 0
173 197 0
175 198 0
175 198 0
175 198 0
174 197 0
175 198 0
175 198 0
175 198 0
174 198 0
175 198 0
173 197 0
175 198 0
173 197 0
175 198 0
175 198 0
176 198 0
174 197 0
173 197 0
176 199 0
174 198 0
174 197 0
173 197 0
173 197 0
175 198 0
174 197 0
175 198 0
174 198 0
176 199 0
175 198 0
176 199 0
176 198 0
174 198 0
174 198 0
173 197 0
176 198 0
174 198 0
176 199 0
174 197 0
174 197 0
174 198 0
174 198 0
175 198 0
175 198 0
174 198 0
175 198 0
174 198 0
174 197 0
174 198 0
174 198 0
172 196 0
174 197 0
174 198 0
176 199 0
175 198 0
174 197 0
174 197 0
176 198 0
174 198 0
175 198 0
175 198 0
175 198 0
176 199 0
175 198 0
175 198 0
174 197 0
175 198 0
175 198 0
175 198 0
174 198 0
175 198 0
175 198 0
174 197 0
174 198 0
174 198 0
173 197 0
175 198 0
175 198 0
173 197 0
175 198 0
174 198 0
176 199 0
176 199 0
174 198 0
175 198 0
173 197 0
175 198 0
176 199 0
176 199 0
172 197 0
173 197 0
173 197 0
175 198 0
174 198 0
175 198 0
174 198 0
175 198 0
174 198 0
175 198 0
173 197 0
174 198 0
175 198 0
174 197 0
174 198 0
174 197 0
174 197 0
174 198 0
173 197 0
176 198 0
173 197 0
174 197 0
172 196 0
174 197 0
172 196 0
173 197 0
173 197 0
175 198 0
175 198 0
173 197 0
173 197 0
175 198 0
177 199 0
175 197 0
198 218 204
212 230 255
212 230 255
212 230 255
212 230 255
212 230 255
212 230 255
212 230 255
212 230 255
212 230 255
212 230 255
212 230 255
212 230 255
212 230 255
212 230 255
212 230 255
212 230 255
212 230 255
212 230 255
212 230 255
212 230 255
211 230 255
211 230 255
168 188 217
60 96 148
61 97 156
61 96 151
61 97 150
62 98 161
61 97 156
62 98 162
61 97 153
62 98 162
62 98 158
61 97 163
61 97 158
62 98 159
61 97 156
61 96 148
62 97 155
61 97 158
61 97 153
61 97 157
63 98 160
60 96 147
62 97 154
61 97 159
61 96 153
62 98 160
62 98 165
62 98 158
61 97 160
61 96 155
62 98 159
62 98 162
62 98 156
62 98 167
61 97 154
62 98 164
62 98 159
63 99 164
62 98 159
61 97 159
62 97 162
63 99 162
62 98 161
62 98 160
62 98 156
61 97 155
61 97 159
62 97 156
61 97 154
62 98 166
62 98 165
62 98 156
61 97 163
62 98 165
62 97 158
62 98 162
61 97 164
62 97 158
62 97 159
62 98 163
62 98 164
62 97 161
61 96 157
62 97 163
61 96 158
62 97 156
61 96 159
62 97 161
62 97 165
61 96 156
61 97 162
61 96 157
61 95 159
62 97 161
62 97 167
61 95 153
61 95 157
60 94 154
59 94 153
60 93 152
60 94 160
175 195 226
211 230 255
211 230 255
212 230 255
212 230 255
212 230 255
212 230 255
212 230 255
212 230 255
212 230 255
212 230 255
212 230 255
212 230 255
212 230 255
212 230 255
212 230 255
212 230 255
212 230 255
212 230 255
212 230 255
212 230 255
212 230 255
212 230 255
193 205 212
153 147 97
149 145 96
158 153 101
164 160 106
165 161 106
167 163 108
171 167 111
170 167 111
172 169 112
172 170 113
174 171 114
172 170 114
171 169 113
172 170 114
172 170 114
172 170 114
172 170 114
172 170 114
171 170 114
170 169 114
171 170 114
171 170 114
169 169 114
171 169 114
170 169 114
169 169 114
170 169 114
170 169 114
170 169 114
169 169 114
170 169 114
170 169 114
170 169 114
170 169 114
169 169 114
170 169 114
169 169 114
170 169 114
170 169 114
169 169 114
170 169 114
171 169 114
170 169 114
169 169 114
170 169 114
170 169 114
170 169 114
171 170 114
171 170 114
171 169 114
171 170 114
171 170 114
170 169 114
171 170 114
172 170 114
172 170 114
172 170 114
172 170 114
172 170 114
172 170 114
171 170 114
173 170 114
173 171 114
173 171 114
172 170 114
172 170 114
172 170 114
172 170 114
172 170 114
173 170 114
173 170 114
173 171 114
173 171 114
173 171 114
174 171 114
173 171 114
173 171 114
175 171 114
173 171 114
173 171 114
176 172 114
175 171 114
174 171 114
176 172 114
176 172 114
174 171 114
177 172 114
175 172 114
175 172 114
177 172 114
176 172 114
178 173 114
176 172 114
177 172 114
175 172 114
176 172 114
178 173 114
175 172 114
177 172 114
177 173 114
178 173 114
178 173 114
176 172 114
180 174 114
178 173 114
179 173 114
177 173 114
178 173 114
179 174 114
180 174 114
179 174 114
179 173 114
179 174 114
181 174 114
181 174 114
180 174 114
179 173 114
181 174 114
182 175 114
182 175 114
183 175 114
182 175 114
181 174 114
181 174 114
180 174 114
180 174 114
183 175 114
182 175 114
182 175 114
182 175 114
183 175 114
182 175 114
182 175 114
183 175 114
184 176 114
183 175 114
174 198 0
175 198 0
174 196 0
175 198 0
174 197 0
176 199 0
175 198 0
174 197 0
174 198 0
174 198 0
174 197 0
175 198 0
173 196 0
173 197 0
173 197 0
174 197 0
174 197 0
173 197 0
174 198 0
174 198 0
173 197 0
175 198 0
174 198 0
174 198 0
173 197 0
174 198 0
172 196 0
175 198 0
175 198 0
173 197 0
174 198 0
174 198 0
172 197 0
175 198 0
174 198 0
174 198 0
174 198 0
175 198 0
174 198 0
174 198 0
176 198 0
173 197 0
175 198 0
174 197 0
173 197 0
175 198 0
176 198 0
175 198 0
175 198 0
174 197 0
174 198 0
172 196 0
175 198 0
173 197 0
175 198 0
176 199 0
176 198 0
175 198 0
174 198 0
174 197 0
174 198 0
174 197 0
175 198 0
175 198 0
173 197 0
175 198 0
174 198 0
173 197 0
174 197 0
174 198 0
175 198 0
174 198 0
172 196 0
172 197 0
174 197 0
176 198 0
176 199 0
175 198 0
174 198 0
174 198 0
175 198 0
174 198 0
175 198 0
174 198 0
173 197 0
175 198 0
175 198 0
176 199 0
174 197 0
174 198 0
175 198 0
175 198 0
175 198 0
176 198 0
173 197 0
174 197 0
174 198 0
174 198 0
175 198 0
173 197 0
173 197 0
175 198 0
174 197 0
172 197 0
174 197 0
173 197 0
174 198 0
175 198 0
174 198 0
176 199 0
175 198 0
175 198 0
174 197 0
173 197 0
174 198 0
174 197 0
174 198 0
173 197 0
173 197 0
174 197 0
174 197 0
174 198 0
174 197 0
174 197 0
174 198 0
174 197 0
173 197 0
174 198 0
174 197 0
175 198 0
174 198 0
177 199 0
173 197 0
176 198 0
175 197 0
176 199 0
175 198 25
204 223 223
212 231 255
212 231 255
212 231 255
212 231 255
212 230 255
212 230 255
212 230 255
212 230 255
212 230 255
212 230 255
212 230 255
212 230 255
212 230 255
212 230 255
212 230 255
212 230 255
212 230 255
212 230 255
212 230 255
212 230 255
189 208 236
63 98 155
60 96 152
61 97 161
60 96 153
61 97 157
60 96 149
62 98 157
61 96 153
62 98 162
62 98 159
61 97 159
62 98 163
61 97 156
61 96 151
62 97 161
63 99 161
62 98 163
61 97 157
62 99 164
62 98 160
62 98 154
61 97 148
61 98 161
62 98 158
62 97 153
61 97 151
62 98 161
61 97 159
61 97 152
61 96 145
63 99 172
62 98 161
62 98 161
62 98 163
62 98 160
61 97 153
62 97 155
62 97 161
63 99 167
62 98 157
63 99 163
62 98 157
62 97 154
61 97 152
62 98 159
63 99 164
61 97 156
62 98 164
62 97 151
63 99 166
61 97 154
62 97 163
61 97 157
62 98 163
61 97 156
62 98 162
61 97 158
60 95 152
62 98 159
61 97 159
61 97 155
61 97 153
61 96 158
62 97 159
61 96 155
61 96 155
61 97 157
61 96 156
61 96 156
62 97 165
61 97 160
61 96 154
61 96 158
60 95 152
61 96 157
61 96 158
61 95 153
60 94 153
61 95 158
60 93 154
59 93 146
66 97 159
188 207 237
212 230 255
212 230 255
212 230 255
212 230 255
212 230 255
212 230 255
212 230 255
212 230 255
212 230 255
212 230 255
212 230 255
212 230 255
212 230 255
212 230 255
212 230 255
212 231 255
212 231 255
212 231 255
212 231 255
212 231 255
200 215 230
147 142 99
158 153 101
157 153 101
164 160 105
169 165 109
169 164 108
161 157 104
167 164 109
174 170 113
170 168 113
172 169 113
168 167 113
171 169 113
169 167 113
171 169 113
170 168 113
168 167 113
171 170 114
170 169 114
172 170 114
171 170 114
171 169 114
171 170 114
172 170 114
172 170 114
172 170 114
171 170 114
171 170 114
171 170 114
170 169 114
169 169 114
171 170 114
171 170 114
169 169 114
170 169 114
171 170 114
171 170 114
169 169 114
171 170 114
170 169 114
170 169 114
171 170 114
170 169 114
171 170 114
171 170 114
171 170 114
171 170 114
172 170 114
172 170 114
172 170 114
172 170 114
172 170 114
172 170 114
171 170 114
171 170 114
171 170 114
174 171 114
173 171 114
173 171 114
173 171 114
173 170 114
172 170 114
173 171 114
173 171 114
174 171 114
173 171 114
172 170 114
172 170 114
172 170 114
173 171 114
176 172 114
173 171 114
173 170 114
175 172 114
174 171 114
176 172 114
175 171 114
175 171 114
176 172 114
174 171 114
175 172 114
177 172 114
176 172 114
177 173 114
177 173 114
176 172 114
177 173 114
175 171 114
177 172 114
178 173 114
177 173 114
176 172 114
179 173 114
177 172 114
177 172 114
178 173 114
178 173 114
178 173 114
178 173 114
177 172 114
178 173 114
178 173 114
179 173 114
178 173 114
178 173 114
180 174 114
179 173 114
180 174 114
178 173 114
179 173 114
178 173 114
182 175 114
181 174 114
181 175 114
179 173 114
181 174 114
181 174 114
181 174 114
181 174 114
181 174 114
181 174 114
182 175 114
181 174 114
183 175 114
182 175 114
181 174 114
183 175 114
181 174 114
182 175 114
184 176 114
182 175 114
185 176 114
184 176 114
182 175 114
183 175 114
184 176 114
183 175 114
173 197 0
174 198 0
174 198 0
174 198 0
174 198 0
175 198 0
174 197 0
173 197 0
175 198 0
175 198 0
176 198 0
174 198 0
174 198 0
174 198 0
173 197 0
173 197 0
174 198 0
173 197 0
173 197 0
174 197 0
175 198 0
173 197 0
175 198 0
174 198 0
174 197 0
173 197 0
174 197 0
173 197 0
174 198 0
174 197 0
175 198 0
174 198 0
175 198 0
175 198 0
174 197 0
172 196 0
174 197 0
172 196 0
175 198 0
176 199 0
174 198 0
174 198 0
173 197 0
174 197 0
175 198 0
174 197 0
175 198 0
174 197 0
174 198 0
174 198 0
174 197 0
174 198 0
174 197 0
174 197 0
175 198 0
175 198 0
175 198 0
174 198 0
173 197 0
174 197 0
174 197 0
175 198 0
175 198 0
174 197 0
174 198 0
176 199 0
176 199 0
177 199 0
172 196 0
174 198 0
173 197 0
176 198 0
174 198 0
173 197 0
176 199 0
174 198 0
173 197 0
176 199 0
174 198 0
175 198 0
173 197 0
174 198 0
172 196 0
174 198 0
174 198 0
174 198 0
177 199 0
175 198 0
174 198 0
175 198 0
173 197 0
174 198 0
174 197 0
174 198 0
176 199 0
174 197 0
173 197 0
173 197 0
174 198 0
173 197 0
174 198 0
174 197 0
175 198 0
176 198 0
174 197 0
176 198 0
173 197 0
172 197 0
173 197 0
172 196 0
172 197 0
174 197 0
175 198 0
174 197 0
173 197 0
173 196 0
174 197 0
174 198 0
176 198 0
175 198 0
174 197 0
176 198 0
175 198 0
174 197 0
175 198 0
174 198 0
175 198 0
175 198 0
175 198 0
174 197 0
176 198 0
174 197 0
174 197 0
175 198 0
174 197 0
174 197 0
174 197 0
176 199 57
210 229 248
213 231 255
213 231 255
213 231 255
212 231 255
212 231 255
212 231 255
212 231 255
212 231 255
212 231 255
212 231 255
212 231 255
212 231 255
212 231 255
212 230 255
212 230 255
212 230 255
212 230 255
212 230 255
207 226 251
83 113 162
61 96 151
61 97 160
61 97 147
60 95 140
62 98 161
61 97 160
61 97 157
61 97 156
62 98 164
62 97 156
62 98 157
61 97 156
61 96 156
62 98 160
62 98 162
62 97 155
62 98 158
63 98 159
62 97 153
61 97 153
61 97 154
62 98 157
62 98 160
62 98 161
62 98 158
62 97 151
62 98 159
62 98 162
61 97 155
62 98 164
62 98 161
62 97 156
62 98 155
62 98 158
61 97 153
62 98 159
62 98 163
63 99 167
61 97 144
61 96 153
62 98 154
63 99 162
63 99 167
61 97 158
62 98 160
61 96 155
61 97 157
61 97 155
63 99 166
61 97 158
62 98 164
62 98 160
62 98 165
63 99 163
62 97 155
62 97 157
63 98 165
62 97 152
61 96 152
60 95 151
62 98 162
62 98 160
61 97 160
61 96 155
60 95 148
61 96 153
61 97 152
61 96 159
62 97 161
63 98 162
61 97 159
61 96 157
61 96 154
61 95 152
60 94 157
60 95 155
61 96 161
62 96 156
61 96 164
59 94 155
60 94 153
59 92 151
84 111 163
204 223 250
212 230 255
212 230 255
212 230 255
212 230 255
212 230 255
212 231 255
212 231 255
212 231 255
212 231 255
212 231 255
212 231 255
212 231 255
212 231 255
212 231 255
212 231 255
213 231 255
213 231 255
213 231 255
209 226 250
159 157 126
146 142 93
157 152 100
164 159 104
166 162 107
168 164 109
173 168 111
170 166 110
168 166 112
168 166 112
165 164 111
165 163 111
165 163 111
167 166 112
162 162 110
165 164 111
171 169 113
167 166 112
170 168 113
170 168 113
170 168 113
171 170 114
172 170 114
172 170 114
172 170 114
172 170 114
172 170 114
172 170 114
171 170 114
172 170 114
171 170 114
172 170 114
172 170 114
171 170 114
172 170 114
170 169 114
172 170 114
171 170 114
171 170 114
171 170 114
170 169 114
171 170 114
170 169 114
172 170 114
172 170 114
171 170 114
173 170 114
171 170 114
172 170 114
171 170 114
172 170 114
171 170 114
172 170 114
172 170 114
173 170 114
172 170 114
173 170 114
171 170 114
174 171 114
174 171 114
173 171 114
174 171 114
174 171 114
173 171 114
174 171 114
174 171 114
174 171 114
175 172 114
174 171 114
173 171 114
176 172 114
175 172 114
174 171 114
175 172 114
176 172 114
174 171 114
175 171 114
175 171 114
176 172 114
176 172 114
176 172 114
176 172 114
177 172 114
176 172 114
177 172 114
177 172 114
177 173 114
176 172 114
176 172 114
178 173 114
176 172 114
177 172 114
177 172 114
179 173 114
177 173 114
179 174 114
178 173 114
179 173 114
178 173 114
179 173 114
178 173 114
179 173 114
179 174 114
178 173 114
178 173 114
179 173 114
179 173 114
179 174 114
179 173 114
181 174 114
180 174 114
181 174 114
179 173 114
181 174 114
179 173 114
181 174 114
181 174 114
181 174 114
181 174 114
182 175 114
181 174 114
183 175 114
181 174 114
180 174 114
182 175 114
182 175 114
183 175 114
182 175 114
182 175 114
182 175 114
182 175 114
182 175 114
184 176 114
185 176 114
183 175 114
183 175 114
182 175 114
185 176 114
173 197 0
174 198 0
174 197 0
175 198 0
173 197 0
176 198 0
174 198 0
174 198 0
174 198 0
175 198 0
174 198 0
175 198 0
175 198 0
176 199 0
175 198 0
175 198 0
175 198 0
174 197 0
174 198 0
175 198 0
173 197 0
174 197 0
175 198 0
173 197 0
174 198 0
175 198 0
175 198 0
174 197 0
174 198 0
175 198 0
173 197 0
174 197 0
176 199 0
173 197 0
174 197 0
174 198 0
173 197 0
175 198 0
175 198 0
174 198 0
175 198 0
175 198 0
175 198 0
175 198 0
175 198 0
175 198 0
175 198 0
175 198 0
176 198 0
175 198 0
174 197 0
174 197 0
175 198 0
174 197 0
175 198 0
174 197 0
174 198 0
175 198 0
173 197 0
174 198 0
175 198 0
172 197 0
174 198 0
176 198 0
173 197 0
173 197 0
174 198 0
174 198 0
174 197 0
173 197 0
174 198 0
174 198 0
175 198 0
175 198 0
174 197 0
174 198 0
175 198 0
173 197 0
173 197 0
175 198 0
174 197 0
175 198 0
174 198 0
175 198 0
175 198 0
175 198 0
174 198 0
174 198 0
176 198 0
172 196 0
175 198 0
173 197 0
173 197 0
174 197 0
174 197 0
174 198 0
174 198 0
175 198 0
175 198 0
174 198 0
173 197 0
174 197 0
173 197 0
174 197 0
175 198 0
174 197 0
175 198 0
173 197 0
175 198 0
174 198 0
174 198 0
176 198 0
175 198 0
174 197 0
173 197 0
175 198 0
175 198 0
172 196 0
174 198 0
173 197 0
175 198 0
174 198 0
174 197 0
172 197 0
173 197 0
175 198 0
173 196 0
175 198 0
175 198 0
174 198 0
174 198 0
173 196 0
173 196 0
173 197 0
174 197 0
175 198 0
174 197 0
173 197 0
183 205 120
212 230 250
213 231 255
213 231 255
213 231 255
213 231 255
213 231 255
213 231 255
213 231 255
213 231 255
213 231 255
213 231 255
213 231 255
213 231 255
212 231 255
212 231 255
212 231 255
212 231 255
212 231 255
136 158 192
60 96 159
60 96 147
61 97 153
60 96 152
61 97 157
61 97 156
62 97 155
61 97 160
62 98 157
62 97 155
62 97 154
61 97 156
62 98 159
61 97 155
61 97 154
61 97 157
61 97 154
62 98 160
61 97 154
62 98 155
61 97 157
62 98 154
61 98 160
61 96 149
62 98 160
61 97 159
62 98 158
61 97 156
62 98 164
61 97 155
62 98 155
61 97 156
61 96 152
60 96 151
62 98 158
61 97 156
62 98 160
60 95 147
61 97 153
63 98 160
61 97 153
61 97 153
62 97 161
63 99 161
61 96 150
61 96 153
62 97 159
61 97 159
62 97 156
62 98 161
61 97 159
61 96 149
62 97 153
62 98 157
62 98 163
61 96 158
62 98 162
61 97 154
62 98 158
62 97 154
62 97 158
61 97 155
61 96 157
62 98 161
61 96 152
62 98 161
61 96 152
62 98 165
62 97 159
62 97 156
62 97 163
61 95 154
63 98 160
60 96 155
61 95 151
61 97 162
61 96 155
60 94 154
61 95 149
60 95 153
61 95 155
59 92 151
60 94 157
59 92 151
131 153 195
212 231 255
212 231 255
212 231 255
212 231 255
212 231 255
213 231 255
213 231 255
213 231 255
213 231 255
213 231 255
213 231 255
213 231 255
213 231 255
213 231 255
213 231 255
213 231 255
213 231 255
211 229 252
163 167 156
152 146 95
161 154 100
172 165 108
167 162 106
173 167 110
163 159 106
167 163 109
166 163 110
164 162 110
168 166 111
165 163 110
163 161 109
164 163 110
165 165 112
169 167 113
166 165 112
164 163 110
163 162 111
167 166 113
167 166 113
168 167 113
170 169 113
169 168 113
171 169 114
172 170 114
172 170 114
172 170 114
171 170 114
172 170 114
172 170 114
172 170 114
172 170 114
172 170 114
172 170 114
172 170 114
171 170 114
172 170 114
171 170 114
172 170 114
172 170 114
171 170 114
173 171 114
174 171 114
172 170 114
172 170 114
172 170 114
172 170 114
172 170 114
173 171 114
172 170 114
174 171 114
173 171 114
173 171 114
173 171 114
173 171 114
174 171 114
173 171 114
173 171 114
175 171 114
173 171 114
174 171 114
175 171 114
175 171 114
174 171 114
173 171 114
174 171 114
176 172 114
174 171 114
175 171 114
175 171 114
176 172 114
174 171 114
176 172 114
176 172 114
176 172 114
177 172 114
177 172 114
176 172 114
175 172 114
175 172 114
176 172 114
176 172 114
177 172 114
177 172 114
177 173 114
178 173 114
176 172 114
177 172 114
177 173 114
176 172 114
177 172 114
178 173 114
178 173 114
178 173 114
179 173 114
179 173 114
178 173 114
179 173 114
180 174 114
179 174 114
178 173 114
178 173 114
180 174 114
180 174 114
177 173 114
179 174 114
180 174 114
180 174 114
179 173 114
181 174 114
180 174 114
181 174 114
180 174 114
180 174 114
182 175 114
181 174 114
181 174 114
181 175 114
181 174 114
180 174 114
182 175 114
182 175 114
182 175 114
182 175 114
183 175 114
183 175 114
183 175 114
182 175 114
185 176 114
183 175 114
184 176 114
184 175 114
185 176 114
183 175 114
185 176 114
183 175 114
186 177 114
184 176 114
175 198 0
174 198 0
174 197 0
175 198 0
175 198 0
174 198 0
175 198 0
175 198 0
175 198 0
173 197 0
173 197 0
174 198 0
174 197 0
173 197 0
175 198 0
175 198 0
175 198 0
175 198 0
173 197 0
175 198 0
175 198 0
176 198 0
175 198 0
173 197 0
175 198 0
173 197 0
174 198 0
175 198 0
174 198 0
174 198 0
176 198 0
174 198 0
174 198 0
173 196 0
174 198 0
173 197 0
174 198 0
174 197 0
174 198 0
174 198 0
172 196 0
174 197 0
175 198 0
174 198 0
176 199 0
174 198 0
175 198 0
175 198 0
174 198 0
175 198 0
174 197 0
174 198 0
174 198 0
176 199 0
175 198 0
175 198 0
174 198 0
175 198 0
174 198 0
173 197 0
173 197 0
175 198 0
174 198 0
175 198 0
175 198 0
176 199 0
173 197 0
174 197 0
175 198 0
174 198 0
175 198 0
175 198 0
175 198 0
175 198 0
175 198 0
175 198 0
175 198 0
176 199 0
175 198 0
174 198 0
173 197 0
175 198 0
174 198 0
176 199 0
175 198 0
175 198 0
174 197 0
174 197 0
173 197 0
174 198 0
174 198 0
175 198 0
175 198 0
174 198 0
174 198 0
173 197 0
174 198 0
174 197 0
175 198 0
174 198 0
175 198 0
176 199 0
174 197 0
177 199 0
173 197 0
173 197 0
173 197 0
175 198 0
175 198 0
174 197 0
176 198 0
174 198 0
173 197 0
175 198 0
174 198 0
174 197 0
174 198 0
174 197 0
175 198 0
174 197 0
175 198 0
172 196 0
174 198 0
176 198 0
175 198 0
174 198 0
174 197 0
173 197 0
173 197 0
174 198 0
173 197 0
173 197 0
173 197 0
176 199 0
175 198 0
173 196 0
171 195 0
173 196 0
175 198 0
195 216 189
213 231 255
213 231 255
213 231 255
213 231 255
213 231 255
213 231 255
213 231 255
213 231 255
213 231 255
213 231 255
213 231 255
213 231 255
213 231 255
213 231 255
213 231 255
213 231 255
177 197 225
60 95 142
60 96 148
60 95 143
62 97 154
61 97 154
61 97 152
60 95 144
61 97 156
61 97 154
61 97 149
62 98 156
61 97 155
62 97 158
61 97 148
62 98 157
60 95 144
62 98 161
61 97 154
63 98 161
62 98 160
61 97 151
62 97 154
62 98 154
62 98 158
61 97 155
63 99 160
63 98 156
61 97 155
61 97 152
61 97 160
62 98 155
61 96 155
61 98 160
62 98 152
62 98 155
61 96 150
61 97 153
61 97 151
62 98 163
61 97 153
61 96 151
62 98 158
62 97 154
61 96 151
61 97 150
62 98 155
62 98 159
61 97 155
61 97 151
61 96 147
62 98 163
61 96 153
61 97 156
61 97 155
63 98 161
61 97 158
61 96 155
62 97 154
62 98 158
60 95 147
61 97 149
62 98 160
61 97 158
61 96 148
61 96 156
61 97 155
62 97 156
62 97 159
62 98 167
61 96 150
61 96 153
61 97 160
61 97 159
60 95 151
61 96 158
61 96 154
61 95 151
61 95 157
62 96 156
59 93 146
61 96 158
60 94 148
60 93 149
60 94 150
59 92 148
60 92 151
189 207 236
213 231 255
213 231 255
213 231 255
213 231 255
213 231 255
213 231 255
213 231 255
213 231 255
213 231 255
213 231 255
213 231 255
213 231 255
213 231 255
213 231 255
213 231 255
213 231 255
180 188 190
146 140 91
161 156 102
167 161 105
164 159 105
168 164 108
161 157 105
160 157 106
163 160 107
162 159 107
162 161 109
164 163 110
158 158 108
163 162 110
160 160 109
164 163 110
167 166 112
164 163 111
160 159 109
167 166 112
165 164 111
167 165 112
164 163 111
170 168 113
169 168 113
171 169 113
172 170 114
171 169 114
172 170 114
172 170 114
172 170 114
172 170 114
173 171 114
173 170 114
171 170 114
172 170 114
172 170 114
172 170 114
171 170 114
173 171 114
173 171 114
172 170 114
172 170 114
173 170 114
173 171 114
173 170 114
172 170 114
173 171 114
173 171 114
172 170 114
174 171 114
174 171 114
174 171 114
175 171 114
173 171 114
173 171 114
175 171 114
174 171 114
174 171 114
174 171 114
175 171 114
174 171 114
174 171 114
174 171 114
174 171 114
174 171 114
174 171 114
175 171 114
176 172 114
176 172 114
176 172 114
175 171 114
175 171 114
176 172 114
175 171 114
175 172 114
176 172 114
177 172 114
175 171 114
179 173 114
177 172 114
178 173 114
177 172 114
178 173 114
178 173 114
177 173 114
178 173 114
179 173 114
178 173 114
179 173 114
178 173 114
179 173 114
179 173 114
178 173 114
178 173 114
178 173 114
179 173 114
179 173 114
179 173 114
179 173 114
180 174 114
180 174 114
181 174 114
180 174 114
180 174 114
180 174 114
179 174 114
180 174 114
181 174 114
181 174 114
181 174 114
181 174 114
181 174 114
182 175 114
183 175 114
182 175 114
183 175 114
181 174 114
181 174 114
182 175 114
183 175 114
182 175 114
182 175 114
183 175 114
184 175 114
183 175 114
182 175 114
185 176 114
183 175 114
184 176 114
184 175 114
185 176 114
183 175 114
182 175 114
182 175 114
184 176 114
184 176 114
185 176 114
185 176 114
185 176 114
175 198 0
174 197 0
174 198 0
175 198 0
174 198 0
176 198 0
173 197 0
174 198 0
175 198 0
175 198 0
176 198 0
174 198 0
175 198 0
174 198 0
174 198 0
175 198 0
174 198 0
174 197 0
173 197 0
174 198 0
175 198 0
174 198 0
174 198 0
172 196 0
174 197 0
174 197 0
174 197 0
175 198 0
175 198 0
175 198 0
173 197 0
174 198 0
174 198 0
176 198 0
174 198 0
173 197 0
174 197 0
174 198 0
174 198 0
177 199 0
174 198 0
174 198 0
174 198 0
174 198 0
175 198 0
173 197 0
174 198 0
173 197 0
175 198 0
174 198 0
174 198 0
175 198 0
174 198 0
176 198 0
174 198 0
176 198 0
174 198 0
173 197 0
174 198 0
174 198 0
175 198 0
175 198 0
173 197 0
174 198 0
175 198 0
175 198 0
173 197 0
175 198 0
175 198 0
174 197 0
173 197 0
173 197 0
175 198 0
175 198 0
174 197 0
175 198 0
174 198 0
174 198 0
174 198 0
175 198 0
174 198 0
174 198 0
176 199 0
174 197 0
175 198 0
174 198 0
174 198 0
174 198 0
174 197 0
172 197 0
175 198 0
175 198 0
176 198 0
175 198 0
175 198 0
176 199 0
175 198 0
175 198 0
173 197 0
175 198 0
175 198 0
175 198 0
173 197 0
175 198 0
173 197 0
174 197 0
173 197 0
175 198 0
175 198 0
174 198 0
174 198 0
174 198 0
175 198 0
173 197 0
174 198 0
174 198 0
174 197 0
174 197 0
174 197 0
175 198 0
173 197 0
174 197 0
173 197 0
175 198 0
175 198 0
174 197 0
175 198 0
172 196 0
173 197 0
173 197 0
173 197 0
174 198 0
174 198 0
176 198 0
175 198 0
172 196 0
175 198 0
175 198 0
174 197 0
172 195 0
204 223 221
213 231 255
213 231 255
213 231 255
213 231 255
213 231 255
213 231 255
213 231 255
213 231 255
213 231 255
213 231 255
213 231 255
213 231 255
213 231 255
213 231 255
210 228 254
90 118 163
60 95 145
59 94 140
61 97 153
61 96 145
61 97 151
60 96 147
61 97 154
60 96 144
62 98 157
61 97 149
62 97 150
61 97 151
60 96 149
61 97 147
61 97 150
61 96 147
62 98 155
60 96 148
61 97 156
62 97 154
62 98 154
61 97 157
61 97 155
61 96 148
61 97 152
62 98 162
62 97 159
61 97 159
62 97 151
60 96 153
63 99 161
61 97 156
62 98 161
62 98 158
61 97 152
62 98 161
62 98 160
62 98 162
61 96 147
62 98 155
62 97 154
62 98 161
61 97 156
62 98 161
62 97 159
61 96 152
61 96 151
60 95 145
61 96 151
61 97 154
62 98 159
61 97 160
61 97 153
61 97 156
62 97 158
62 97 151
61 96 150
61 96 156
63 99 160
61 97 153
61 96 151
61 96 149
61 95 145
61 96 156
61 96 158
61 96 147
61 97 159
61 96 148
60 95 148
61 96 153
62 98 165
62 97 160
60 95 147
60 94 144
61 95 147
61 95 153
61 97 162
62 97 162
60 95 153
61 96 155
61 96 152
62 97 158
60 95 157
60 94 154
60 92 144
59 92 150
82 108 158
207 225 250
213 231 255
213 231 255
213 231 255
213 231 255
213 231 255
213 231 255
213 231 255
213 231 255
213 231 255
213 231 255
213 231 255
213 231 255
213 231 255
213 231 255
198 211 224
146 140 91
149 144 95
160 154 101
158 154 102
164 160 107
163 159 106
163 159 106
165 162 108
164 161 108
161 159 108
159 157 106
158 157 107
158 158 108
161 159 109
154 154 106
159 158 108
160 160 109
162 161 109
165 164 111
158 158 107
163 162 110
165 164 111
167 165 112
163 162 110
164 163 111
168 167 113
171 169 113
173 170 114
173 170 114
173 170 114
174 171 114
172 170 114
173 171 114
173 171 114
173 170 114
173 171 114
173 170 114
173 170 114
173 171 114
173 171 114
173 171 114
172 170 114
174 171 114
174 171 114
173 170 114
174 171 114
173 171 114
174 171 114
174 171 114
175 172 114
175 172 114
175 172 114
174 171 114
174 171 114
176 172 114
176 172 114
174 171 114
174 171 114
174 171 114
176 172 114
176 172 114
175 172 114
176 172 114
176 172 114
177 172 114
176 172 114
177 172 114
175 172 114
177 173 114
177 173 114
177 173 114
177 172 114
177 173 114
176 172 114
176 172 114
176 172 114
177 173 114
177 173 114
178 173 114
178 173 114
176 172 114
179 174 114
178 173 114
178 173 114
178 173 114
179 173 114
178 173 114
178 173 114
178 173 114
178 173 114
179 173 114
178 173 114
179 173 114
179 173 114
179 174 114
179 173 114
179 173 114
178 173 114
182 175 114
180 174 114
181 174 114
180 174 114
179 173 114
180 174 114
181 174 114
180 174 114
182 175 114
180 174 114
180 174 114
182 175 114
182 175 114
182 175 114
181 174 114
180 174 114
182 175 114
182 175 114
181 174 114
183 175 114
183 175 114
183 175 114
184 176 114
182 175 114
182 175 114
182 175 114
183 175 114
185 176 114
186 176 114
184 176 114
184 176 114
186 176 114
184 176 114
185 176 114
186 177 114
184 176 114
185 176 114
183 175 114
185 176 114
186 177 114
185 176 114
185 176 114
175 198 0
176 198 0
175 198 0
174 198 0
173 197 0
175 198 0
174 198 0
173 197 0
175 198 0
175 198 0
173 197 0
173 197 0
175 198 0
175 198 0
174 198 0
175 198 0
175 198 0
175 198 0
173 197 0
174 198 0
175 198 0
174 198 0
173 197 0
174 198 0
175 198 0
177 199 0
175 198 0
174 198 0
175 198 0
174 198 0
173 197 0
173 197 0
175 198 0
175 198 0
175 198 0
175 198 0
175 198 0
174 197 0
174 198 0
174 198 0
172 196 0
177 199 0
176 199 0
174 198 0
176 199 0
175 198 0
175 198 0
176 199 0
175 198 0
173 197 0
174 197 0
175 198 0
174 197 0
175 198 0
173 197 0
174 198 0
174 198 0
174 198 0
175 198 0
176 199 0
174 198 0
173 197 0
174 198 0
174 198 0
174 197 0
176 199 0
175 198 0
176 199 0
177 199 0
174 198 0
175 198 0
174 198 0
173 197 0
174 197 0
173 197 0
174 197 0
175 198 0
174 197 0
174 198 0
175 198 0
175 198 0
175 198 0
175 198 0
175 198 0
174 198 0
175 198 0
173 197 0
176 199 0
174 198 0
174 198 0
174 198 0
175 198 0
175 198 0
175 198 0
175 198 0
174 197 0
176 198 0
174 198 0
173 197 0
175 198 0
172 197 0
174 198 0
175 198 0
174 198 0
174 198 0
175 198 0
174 198 0
173 197 0
174 198 0
175 198 0
174 198 0
174 198 0
173 197 0
174 197 0
175 198 0
176 198 0
174 197 0
174 198 0
174 198 0
173 197 0
174 197 0
176 198 0
173 197 0
174 198 0
174 197 0
173 197 0
175 198 0
174 197 0
175 198 0
174 196 0
175 198 0
173 197 0
176 199 0
174 198 0
175 198 0
174 198 0
172 196 0
174 198 0
174 197 0
175 198 0
176 199 57
213 231 253
214 231 255
214 231 255
214 231 255
214 231 255
214 231 255
213 231 255
213 231 255
213 231 255
213 231 255
213 231 255
213 231 255
213 231 255
213 231 255
165 184 216
61 96 142
60 96 148
61 97 153
60 96 151
61 96 150
61 96 144
61 97 151
61 97 156
62 98 158
61 97 153
61 97 154
61 96 148
61 97 153
62 97 156
61 97 153
61 97 155
61 97 149
60 95 142
61 97 143
61 96 155
61 97 158
61 97 147
61 97 157
62 98 159
62 97 152
61 97 155
61 96 148
62 97 159
61 97 149
61 97 157
62 98 153
62 97 152
62 98 160
62 97 154
61 97 155
61 97 155
61 96 145
61 97 152
62 97 148
61 96 149
62 98 158
61 96 149
62 97 153
61 97 158
61 96 153
61 97 153
62 98 159
62 98 156
60 96 148
62 97 154
62 98 157
62 98 164
61 97 160
62 98 162
62 97 157
61 96 154
62 98 156
62 97 156
62 97 156
62 97 152
60 95 146
62 98 158
61 96 147
61 96 150
61 97 151
61 96 149
62 97 153
61 96 154
61 96 158
62 97 157
62 96 158
61 95 147
61 96 151
61 95 149
60 94 148
59 93 142
61 96 152
61 95 153
60 94 141
60 94 148
61 95 156
60 95 157
59 93 147
61 94 156
61 95 154
59 94 149
59 92 144
59 91 143
155 174 206
213 231 255
213 231 255
213 231 255
213 231 255
213 231 255
213 231 255
213 231 255
213 231 255
214 231 255
214 231 255
214 231 255
214 231 255
214 231 255
212 229 252
155 155 132
162 155 101
164 157 103
158 153 100
154 150 99
155 152 101
163 160 108
161 158 106
156 155 106
152 152 105
156 155 105
160 158 107
152 152 105
157 156 107
156 156 107
158 157 107
156 155 107
160 159 108
163 161 110
160 160 109
164 163 110
161 160 108
164 162 110
165 163 110
169 166 112
168 166 112
165 164 111
169 167 112
170 168 113
172 169 113
174 171 114
173 171 114
173 171 114
174 171 114
173 170 114
176 172 114
174 171 114
174 171 114
174 171 114
175 171 114
174 171 114
174 171 114
175 171 114
175 171 114
175 171 114
173 171 114
175 171 114
175 171 114
173 171 114
175 171 114
175 171 114
175 172 114
175 171 114
175 171 114
176 172 114
175 171 114
174 171 114
176 172 114
176 172 114
177 172 114
177 172 114
176 172 114
176 172 114
176 172 114
177 172 114
176 172 114
176 172 114
178 173 114
178 173 114
177 172 114
176 172 114
176 172 114
177 172 114
178 173 114
179 173 114
176 172 114
177 173 114
179 173 114
177 172 114
177 173 114
177 173 114
177 172 114
178 173 114
178 173 114
180 174 114
179 173 114
179 173 114
180 174 114
177 173 114
179 173 114
178 173 114
180 174 114
181 174 114
180 174 114
180 174 114
179 173 114
180 174 114
179 173 114
181 174 114
180 174 114
181 174 114
180 174 114
180 174 114
182 175 114
181 174 114
182 175 114
180 174 114
180 174 114
182 175 114
182 175 114
182 175 114
181 175 114
183 175 114
181 175 114
182 175 114
182 175 114
184 176 114
183 175 114
183 175 114
182 175 114
181 175 114
185 176 114
183 175 114
185 176 114
183 175 114
185 176 114
184 175 114
185 176 114
184 176 114
184 176 114
184 176 114
184 176 114
185 176 114
186 177 114
184 175 114
183 175 114
186 177 114
186 176 114
186 177 114
185 176 114
185 176 114
174 197 0
173 197 0
175 198 0
173 197 0
176 198 0
172 196 0
175 198 0
176 198 0
174 197 0
173 197 0
174 198 0
174 198 0
176 198 0
174 198 0
174 197 0
174 198 0
175 198 0
174 198 0
173 197 0
174 197 0
174 197 0
175 198 0
174 198 0
172 197 0
174 198 0
174 198 0
173 197 0
174 198 0
174 197 0
174 197 0
175 198 0
175 198 0
174 197 0
175 198 0
175 198 0
174 197 0
173 197 0
174 198 0
174 198 0
174 198 0
176 199 0
174 198 0
174 198 0
174 198 0
174 198 0
175 198 0
176 199 0
172 197 0
176 198 0
174 198 0
175 198 0
173 197 0
173 197 0
175 198 0
174 198 0
173 197 0
175 198 0
173 197 0
175 198 0
175 198 0
174 198 0
175 198 0
174 198 0
175 198 0
175 198 0
173 197 0
173 197 0
176 198 0
174 198 0
175 198 0
178 200 0
174 198 0
174 198 0
174 198 0
174 198 0
175 198 0
173 197 0
174 198 0
177 199 0
175 198 0
175 198 0
174 197 0
176 199 0
176 198 0
173 197 0
175 198 0
175 198 0
173 197 0
174 197 0
175 198 0
176 199 0
174 198 0
174 198 0
176 199 0
174 198 0
173 197 0
175 198 0
174 198 0
174 198 0
175 198 0
173 197 0
175 198 0
175 198 0
173 197 0
174 197 0
174 198 0
174 198 0
174 198 0
175 198 0
174 197 0
173 197 0
174 198 0
175 198 0
173 197 0
175 198 0
173 197 0
175 198 0
175 198 0
174 197 0
174 198 0
175 198 0
173 197 0
176 199 0
175 198 0
173 197 0
173 197 0
177 199 0
175 198 0
175 198 0
174 197 0
173 197 0
174 197 0
176 199 0
173 197 0
174 197 0
174 198 0
174 197 0
173 197 0
174 197 0
174 197 0
172 195 0
197 216 181
214 231 255
214 231 255
214 231 255
214 231 255
214 231 255
214 231 255
214 231 255
214 231 255
214 231 255
214 231 255
214 231 255
214 231 255
203 221 245
70 102 149
59 95 142
61 96 149
60 96 152
60 96 142
61 97 149
61 97 156
61 96 152
62 97 158
61 96 148
62 98 158
61 97 149
62 97 155
62 97 155
62 98 158
61 97 154
62 98 157
60 95 150
61 96 150
62 98 156
62 98 156
62 98 155
61 97 154
61 97 154
61 97 155
62 98 149
62 97 155
61 96 141
61 96 143
62 98 156
62 98 154
61 97 155
61 97 152
61 97 156
62 97 150
61 97 156
62 98 152
62 98 158
62 97 150
61 96 153
62 97 154
63 99 163
61 96 150
62 97 159
61 97 157
62 97 153
62 98 159
61 97 150
63 99 162
61 96 153
62 98 159
61 96 148
61 97 150
62 98 156
61 96 152
61 96 148
60 95 146
61 97 154
60 95 151
62 98 160
62 97 158
61 96 152
61 96 150
61 97 154
62 97 154
62 97 149
61 96 146
61 96 148
63 98 160
61 96 150
61 96 146
60 94 145
61 96 151
60 95 145
61 95 147
60 94 151
62 97 158
61 96 155
61 96 150
61 96 161
60 94 152
60 94 141
60 94 151
62 96 162
59 92 145
61 95 154
61 95 156
57 89 141
59 91 147
68 97 146
197 215 241
214 231 255
214 231 255
214 231 255
214 231 255
214 231 255
214 231 255
214 231 255
214 231 255
214 231 255
214 231 255
214 231 255
214 231 255
180 187 185
158 151 97
152 146 95
167 160 104
159 155 103
160 157 104
159 156 105
155 152 102
152 150 102
151 150 104
151 150 103
150 149 103
153 153 105
149 149 104
149 149 103
152 152 104
161 160 109
152 152 105
158 157 107
149 150 103
157 157 107
161 160 109
152 152 104
157 157 108
158 157 108
161 160 109
162 161 109
165 163 110
170 168 112
164 163 110
171 168 113
173 170 114
175 171 114
174 171 114
174 171 114
174 171 114
176 172 114
175 171 114
175 171 114
175 172 114
175 172 114
175 172 114
175 171 114
174 171 114
174 171 114
174 171 114
176 172 114
176 172 114
174 171 114
176 172 114
175 171 114
177 172 114
178 173 114
176 172 114
175 171 114
177 172 114
175 172 114
175 172 114
176 172 114
177 172 114
176 172 114
176 172 114
177 173 114
176 172 114
178 173 114
178 173 114
178 173 114
177 173 114
177 172 114
177 173 114
179 174 114
178 173 114
180 174 114
178 173 114
178 173 114
177 173 114
178 173 114
178 173 114
178 173 114
178 173 114
178 173 114
179 174 114
178 173 114
178 173 114
179 173 114
179 173 114
179 174 114
178 173 114
179 173 114
181 174 114
179 173 114
179 174 114
179 174 114
179 174 114
180 174 114
181 174 114
180 174 114
181 174 114
180 174 114
182 175 114
181 174 114
181 174 114
181 174 114
182 175 114
183 175 114
182 175 114
182 175 114
182 175 114
181 174 114
182 175 114
184 176 114
183 175 114
181 174 114
181 174 114
183 175 114
183 175 114
184 176 114
184 176 114
184 176 114
183 175 114
183 175 114
184 176 114
185 176 114
184 176 114
184 175 114
185 176 114
186 176 114
184 176 114
184 176 114
186 177 114
184 176 114
185 176 114
185 176 114
184 176 114
185 176 114
184 176 114
185 176 114
187 177 114
187 177 113
187 177 114
186 177 114
187 177 113
176 198 0
174 198 0
174 198 0
174 198 0
174 197 0
173 197 0
175 198 0
175 198 0
174 198 0
173 197 0
173 197 0
176 199 0
174 197 0
175 198 0
174 198 0
174 197 0
174 197 0
175 198 0
178 200 0
175 198 0
173 197 0
174 197 0
176 198 0
174 198 0
175 198 0
173 197 0
175 198 0
175 198 0
174 198 0
174 198 0
175 198 0
174 198 0
173 197 0
174 197 0
173 197 0
174 198 0
175 198 0
174 198 0
174 197 0
173 197 0
173 197 0
176 199 0
176 198 0
173 197 0
174 198 0
174 198 0
175 198 0
175 198 0
174 198 0
176 199 0
175 198 0
175 198 0
173 197 0
176 198 0
174 198 0
174 197 0
174 198 0
172 197 0
175 198 0
174 198 0
174 198 0
175 198 0
174 198 0
173 197 0
174 198 0
175 198 0
174 197 0
175 198 0
174 198 0
174 198 0
173 197 0
175 198 0
176 199 0
175 198 0
173 197 0
173 197 0
176 198 0
176 199 0
174 197 0
174 198 0
177 199 0
173 197 0
174 198 0
174 198 0
174 197 0
175 198 0
175 198 0
174 197 0
175 198 0
176 199 0
175 198 0
173 197 0
176 199 0
174 198 0
174 198 0
175 198 0
175 198 0
173 197 0
174 197 0
174 198 0
174 198 0
173 197 0
173 196 0
175 198 0
175 198 0
172 197 0
176 198 0
174 198 0
174 198 0
176 198 0
176 198 0
175 198 0
174 198 0
174 197 0
174 198 0
174 197 0
174 197 0
175 198 0
175 198 0
175 198 0
174 198 0
174 198 0
175 198 0
175 198 0
174 198 0
176 198 0
172 197 0
174 197 0
175 198 0
174 197 0
174 197 0
174 198 0
173 197 0
173 197 0
175 198 0
175 198 0
174 198 0
173 197 0
171 196 0
173 196 0
172 196 0
172 195 25
204 223 221
214 232 255
214 232 255
214 232 255
214 232 255
214 232 255
214 232 255
214 232 255
214 231 255
214 231 255
214 231 255
214 231 255
135 157 189
61 97 150
60 96 153
59 94 139
60 96 145
61 96 147
61 96 144
61 97 152
61 96 145
61 97 151
61 96 149
62 98 154
61 97 148
61 96 144
61 97 152
61 97 151
61 96 148
62 98 154
61 96 147
61 97 151
61 96 149
61 97 152
61 97 152
61 96 153
61 96 143
61 97 149
61 96 150
61 97 150
62 97 151
62 98 156
62 98 158
63 99 161
62 98 160
61 97 155
61 97 153
62 98 161
61 96 143
62 97 155
62 98 157
62 98 157
62 98 154
60 96 154
63 99 164
61 97 148
62 98 161
61 97 156
61 96 151
61 96 149
62 98 157
62 98 154
61 97 151
61 97 150
62 97 151
62 97 154
61 96 150
61 96 149
62 97 153
62 97 155
62 98 160
62 97 153
61 96 148
60 96 146
60 96 153
62 97 159
61 96 152
61 96 142
62 97 159
61 95 147
61 95 147
60 95 147
61 96 153
60 95 143
59 93 146
62 97 155
61 96 152
61 95 150
61 95 153
60 94 145
60 95 149
61 95 151
60 95 149
61 95 152
60 94 145
61 95 151
60 95 152
60 93 145
59 92 147
59 93 145
60 93 152
59 92 151
58 88 135
125 146 180
214 231 255
214 231 255
214 231 255
214 231 255
214 232 255
214 232 255
214 232 255
214 232 255
214 232 255
214 232 255
214 232 255
203 216 229
152 145 95
148 142 92
156 150 99
155 150 99
149 146 98
151 148 100
146 144 99
148 146 100
156 155 106
148 148 103
148 147 102
145 145 102
146 147 101
149 149 103
149 149 104
145 145 101
149 149 103
151 151 104
151 151 105
149 149 104
155 155 106
154 153 106
161 160 109
157 156 107
158 158 108
164 162 110
168 166 111
161 159 108
171 168 113
168 165 111
170 167 112
174 170 113
174 171 113
175 171 114
175 171 114
175 172 114
177 172 114
176 172 114
177 172 114
175 172 114
176 172 114
176 172 114
176 172 114
175 172 114
176 172 114
177 172 114
175 172 114
176 172 114
177 173 114
177 172 114
176 172 114
177 172 114
178 173 114
177 172 114
177 172 114
176 172 114
176 172 114
177 173 114
177 172 114
176 172 114
179 173 114
177 172 114
178 173 114
178 173 114
178 173 114
178 173 114
177 173 114
177 173 114
177 172 114
178 173 114
178 173 114
178 173 114
178 173 114
178 173 114
178 173 114
179 173 114
180 174 114
178 173 114
180 174 114
180 174 114
179 174 114
180 174 114
179 173 114
180 174 114
181 174 114
180 174 114
180 174 114
181 174 114
180 174 114
181 174 114
180 174 114
180 174 114
181 174 114
181 174 114
181 174 114
182 175 114
180 174 114
182 175 114
181 174 114
182 175 114
182 175 114
182 175 114
182 175 114
181 174 114
184 176 114
182 175 114
182 175 114
182 175 114
184 175 114
185 176 114
183 175 114
182 175 114
185 176 114
183 175 114
184 176 114
184 176 114
182 175 114
184 176 114
184 176 114
184 176 114
186 177 114
183 175 114
184 176 114
185 176 114
184 176 114
185 176 114
185 176 114
185 176 114
187 177 114
184 176 114
184 176 114
186 177 114
185 176 114
186 177 114
185 176 113
186 176 114
185 176 113
187 177 113
183 175 113
183 175 111
186 176 113
185 176 112
174 198 0
175 198 0
173 197 0
173 197 0
174 197 0
174 198 0
174 198 0
173 197 0
174 198 0
174 198 0
174 198 0
175 198 0
174 197 0
175 198 0
174 198 0
175 198 0
173 197 0
174 198 0
175 198 0
173 197 0
175 198 0
174 198 0
176 198 0
175 198 0
175 198 0
175 198 0
175 198 0
175 198 0
175 198 0
173 197 0
175 198 0
175 198 0
173 197 0
176 199 0
175 198 0
174 198 0
175 198 0
172 196 0
175 198 0
175 198 0
175 198 0
173 197 0
175 198 0
173 197 0
174 198 0
172 197 0
175 198 0
174 198 0
175 198 0
175 198 0
173 197 0
174 198 0
173 197 0
175 198 0
175 198 0
175 198 0
174 197 0
174 198 0
175 198 0
175 198 0
174 197 0
175 198 0
175 198 0
174 198 0
175 198 0
173 197 0
173 197 0
174 197 0
176 199 0
174 197 0
176 198 0
176 198 0
174 198 0
175 198 0
175 198 0
175 198 0
174 198 0
174 198 0
175 198 0
174 198 0
174 198 0
175 198 0
175 198 0
173 197 0
175 198 0
176 198 0
174 197 0
175 198 0
174 198 0
177 199 0
174 198 0
175 198 0
175 198 0
175 198 0
174 198 0
173 197 0
174 198 0
173 197 0
174 197 0
174 197 0
175 198 0
173 197 0
174 198 0
174 198 0
177 199 0
174 197 0
174 198 0
174 198 0
175 198 0
174 198 0
176 199 0
176 198 0
175 198 0
174 198 0
174 198 0
174 198 0
174 197 0
175 198 0
174 197 0
174 197 0
173 197 0
175 198 0
172 197 0
174 197 0
174 198 0
176 199 0
175 198 0
172 196 0
175 198 0
175 198 0
175 198 0
174 198 0
175 198 0
173 197 0
174 198 0
174 197 0
173 197 0
172 197 0
175 198 0
173 196 0
173 197 0
171 195 0
183 205 125
214 232 255
214 232 255
214 232 255
214 232 255
214 232 255
214 232 255
214 232 255
214 232 255
214 232 255
214 232 255
199 217 243
72 104 148
60 96 147
60 96 145
60 95 131
61 97 151
61 97 155
61 97 147
61 97 148
61 96 149
60 95 143
60 96 147
62 97 149
61 96 144
62 97 157
62 98 155
63 98 153
62 98 156
62 98 160
62 97 159
61 97 154
62 97 148
62 97 152
61 97 150
62 97 153
61 97 145
62 98 153
61 97 153
62 97 154
62 97 152
61 96 148
61 97 154
61 97 151
62 98 159
61 97 152
60 96 151
61 96 149
61 97 149
62 97 153
62 97 153
63 98 159
62 98 155
60 95 139
61 97 154
60 96 147
62 98 158
61 97 151
60 96 148
62 97 153
62 97 153
62 97 154
61 97 151
61 96 145
62 97 152
62 97 156
61 97 156
62 97 149
62 98 158
62 97 151
61 96 152
62 98 159
62 97 152
60 96 147
62 97 154
62 96 150
61 96 147
61 97 151
62 98 157
61 97 153
61 97 150
62 98 157
60 95 145
61 96 146
62 97 155
61 96 154
60 94 151
60 94 145
62 97 152
61 95 152
60 94 147
61 96 156
61 94 148
61 95 150
59 94 151
60 94 149
59 93 149
60 93 146
60 93 148
60 93 145
59 92 147
58 91 147
60 93 154
58 89 141
196 214 239
214 232 255
214 232 255
214 232 255
214 232 255
214 232 255
214 232 255
214 232 255
214 232 255
214 232 255
214 232 255
165 165 141
152 145 93
158 152 100
152 147 97
163 158 105
148 144 97
147 144 98
155 153 103
153 151 103
138 138 95
144 144 101
143 143 100
144 144 100
145 145 101
145 145 101
145 146 102
141 142 99
145 146 102
149 149 103
145 146 102
150 150 104
156 155 106
156 155 104
161 160 108
153 152 104
160 159 108
156 155 105
162 160 109
166 163 110
164 162 110
170 167 112
171 168 112
173 170 113
172 168 111
173 170 113
175 171 113
176 172 114
176 172 114
176 172 114
176 172 114
177 172 114
177 173 114
177 172 114
177 172 114
176 172 114
177 172 114
177 172 114
178 173 114
177 172 114
177 173 114
176 172 114
177 172 114
176 172 114
177 172 114
177 172 114
178 173 114
178 173 114
178 173 114
179 173 114
178 173 114
178 173 114
178 173 114
178 173 114
178 173 114
179 173 114
179 173 114
178 173 114
178 173 114
179 173 114
179 173 114
180 174 114
178 173 114
179 173 114
179 173 114
181 174 114
180 174 114
179 174 114
179 173 114
180 174 114
180 174 114
179 173 114
181 174 114
179 174 114
179 173 114
181 174 114
182 175 114
182 175 114
179 173 114
182 175 114
180 174 114
183 175 114
182 175 114
181 174 114
182 175 114
181 174 114
181 174 114
182 175 114
182 175 114
182 175 114
181 175 114
182 175 114
183 175 114
181 175 114
183 175 114
183 175 114
183 175 114
182 175 114
183 175 114
183 175 114
183 175 114
183 175 114
183 175 114
185 176 114
183 175 114
183 175 114
184 176 114
183 175 114
184 176 114
185 176 114
184 176 114
184 176 114
185 176 114
184 176 114
183 175 114
184 176 114
187 177 114
185 176 114
185 176 114
185 176 114
185 176 114
186 177 113
187 177 114
185 176 114
188 178 114
186 176 112
185 176 113
186 177 113
186 176 112
185 176 112
185 176 110
185 176 111
186 176 113
186 176 112
175 198 0
174 198 0
173 197 0
175 198 0
174 198 0
174 198 0
174 198 0
174 198 0
172 197 0
173 197 0
175 198 0
173 197 0
174 198 0
174 198 0
176 198 0
174 198 0
173 197 0
175 198 0
175 198 0
175 198 0
175 198 0
173 197 0
174 198 0
174 197 0
174 198 0
175 198 0
173 197 0
175 198 0
174 198 0
176 198 0
176 199 0
174 198 0
175 198 0
174 197 0
176 199 0
174 198 0
175 198 0
175 198 0
173 197 0
175 198 0
175 198 0
173 197 0
175 198 0
173 197 0
175 198 0
176 199 0
174 198 0
173 197 0
174 198 0
174 198 0
174 197 0
174 198 0
175 198 0
175 198 0
173 197 0
174 198 0
175 198 0
174 198 0
175 198 0
175 198 0
174 198 0
174 197 0
176 199 0
175 198 0
175 198 0
175 198 0
173 197 0
174 198 0
175 198 0
173 197 0
173 197 0
175 198 0
172 196 0
175 198 0
175 198 0
173 197 0
174 197 0
173 197 0
174 197 0
174 198 0
175 198 0
175 198 0
174 198 0
175 198 0
175 198 0
176 198 0
174 197 0
175 198 0
173 197 0
175 198 0
174 198 0
176 199 0
174 198 0
174 198 0
174 198 0
176 199 0
174 198 0
175 198 0
175 198 0
173 197 0
174 198 0
174 198 0
175 198 0
175 198 0
173 197 0
174 198 0
174 198 0
175 198 0
174 198 0
174 198 0
175 198 0
174 198 0
175 198 0
174 197 0
176 199 0
174 197 0
176 199 0
173 197 0
175 198 0
174 198 0
176 198 0
175 198 0
174 198 0
175 198 0
175 198 0
175 198 0
174 198 0
175 198 0
173 197 0
174 198 0
174 198 0
173 197 0
173 197 0
173 197 0
174 198 0
174 197 0
175 198 0
176 198 0
176 198 0
173 197 0
173 197 0
173 196 0
174 197 0
200 219 201
215 232 255
215 232 255
215 232 255
215 232 255
215 232 255
215 232 255
215 232 255
215 232 255
215 232 255
137 158 186
59 95 133
59 94 134
60 96 145
61 96 150
61 97 151
61 96 150
60 95 145
60 96 142
61 96 142
60 96 142
61 97 149
61 97 152
61 97 147
61 97 152
61 97 152
62 97 151
62 97 158
61 97 151
61 97 150
60 96 144
61 97 149
62 97 152
60 96 145
61 96 145
60 96 147
62 97 154
62 98 157
61 97 154
63 98 154
61 97 148
61 97 145
61 97 150
61 97 155
60 96 141
61 96 154
62 97 149
61 97 149
62 97 150
62 98 154
60 96 145
61 96 149
62 98 159
61 96 150
61 97 151
61 97 159
62 97 152
62 97 155
61 96 143
62 97 152
61 96 151
61 97 150
62 97 147
62 97 155
62 98 155
63 98 159
61 96 144
63 98 160
60 96 143
60 95 143
62 97 151
62 97 159
60 95 149
61 95 142
62 98 160
61 96 154
62 97 152
61 96 151
60 95 150
61 95 153
62 98 161
62 97 153
61 96 152
60 94 145
60 95 147
61 95 146
61 96 154
61 95 148
59 93 142
61 94 151
59 93 141
60 94 147
61 95 151
60 94 147
60 95 153
60 94 149
61 94 151
61 95 154
60 94 145
59 92 146
58 90 141
58 90 141
57 89 138
132 152 189
215 232 255
215 232 255
215 232 255
215 232 255
215 232 255
215 232 255
215 232 255
215 232 255
215 232 255
187 198 207
145 138 87
154 147 96
151 146 96
148 144 96
150 147 100
143 141 97
133 132 91
141 141 97
150 149 103
144 143 99
141 141 98
140 141 99
141 141 98
144 145 100
138 140 99
132 135 95
135 137 97
141 142 100
152 151 103
137 138 97
146 147 103
150 149 102
155 154 105
148 148 103
159 157 106
159 158 107
152 151 105
160 158 107
164 162 109
165 163 110
172 169 112
173 169 112
173 170 113
173 169 111
173 169 113
176 172 114
178 173 114
177 172 114
178 173 114
177 172 114
178 173 114
178 173 114
178 173 114
177 172 114
178 173 114
177 172 114
177 173 114
177 172 114
179 174 114
179 173 114
178 173 114
180 174 114
179 173 114
180 174 114
177 173 114
178 173 114
178 173 114
179 173 114
177 173 114
180 174 114
179 173 114
179 173 114
180 174 114
179 173 114
177 172 114
179 174 114
180 174 114
180 174 114
180 174 114
180 174 114
179 173 114
180 174 114
180 174 114
181 174 114
179 173 114
180 174 114
181 174 114
181 174 114
179 173 114
180 174 114
182 175 114
180 174 114
181 174 114
181 175 114
181 174 114
182 175 114
182 175 114
183 175 114
181 174 114
181 174 114
182 175 114
183 175 114
181 174 114
182 175 114
183 175 114
182 175 114
181 174 114
182 175 114
184 176 114
182 175 114
184 176 114
183 175 114
184 176 114
183 175 114
183 175 114
184 176 114
185 176 114
184 176 114
184 176 114
185 176 114
184 176 114
183 175 114
181 174 114
184 176 114
185 176 114
184 176 114
184 176 114
184 175 114
184 176 114
187 177 114
186 177 114
186 177 114
187 177 114
187 177 114
184 176 114
187 177 114
187 177 114
186 177 114
182 175 114
186 176 114
185 176 113
184 175 112
185 176 112
185 176 113
186 177 113
185 176 111
185 176 112
184 175 112
185 176 113
186 176 112
187 177 112
185 176 113
184 175 110
174 198 0
175 198 0
174 197 0
175 198 0
174 198 0
174 198 0
174 198 0
176 198 0
177 199 0
174 198 0
175 198 0
174 197 0
174 198 0
175 198 0
175 198 0
176 199 0
173 197 0
174 198 0
175 198 0
174 197 0
176 199 0
174 198 0
175 198 0
174 198 0
174 198 0
174 198 0
176 198 0
175 198 0
176 199 0
175 198 0
175 198 0
174 198 0
175 198 0
174 198 0
172 197 0
174 198 25
177 200 51
182 203 88
189 209 128
188 208 125
192 211 142
195 213 155
197 215 159
198 216 167
201 218 175
204 221 186
207 223 199
204 221 189
211 226 214
204 221 189
216 230 226
213 228 217
213 228 220
214 228 221
217 231 230
220 234 241
216 230 228
218 232 236
219 232 236
220 234 240
219 233 236
221 234 242
222 235 244
216 230 228
219 233 237
220 234 240
219 233 238
221 234 242
219 232 236
218 232 234
213 228 220
210 225 209
213 228 218
213 227 215
209 225 206
211 226 211
209 225 206
204 221 193
200 218 179
195 214 155
196 215 161
192 212 147
187 207 120
186 207 120
184 205 105
179 201 67
175 198 0
176 199 0
174 198 0
173 197 0
174 198 0
172 196 0
174 198 0
174 197 0
176 199 0
174 198 0
173 197 0
175 198 0
176 199 0
173 197 0
175 198 0
175 198 0
173 197 0
174 197 0
175 198 0
174 198 0
176 198 0
175 198 0
174 198 0
175 198 0
174 198 0
174 198 0
173 197 0
175 198 0
176 198 0
173 197 0
175 198 0
174 198 0
175 198 0
175 198 0
174 198 0
176 199 0
175 198 0
173 197 0
174 198 0
174 198 0
174 197 0
173 197 0
174 198 0
173 197 0
173 196 0
174 198 0
175 198 0
174 198 0
173 197 0
175 198 0
173 197 0
176 199 0
172 197 0
174 197 0
174 197 0
174 198 0
172 196 0
178 200 88
215 232 255
215 232 255
215 232 255
215 232 255
215 232 255
215 232 255
215 232 255
215 232 255
208 225 248
62 96 133
59 94 131
59 95 133
61 97 148
61 97 152
61 97 149
61 96 147
61 97 153
61 96 145
60 96 144
61 96 144
60 96 143
60 96 150
62 98 157
62 98 155
62 97 151
60 95 148
61 97 144
61 97 150
62 97 149
60 96 143
61 97 152
61 97 148
61 96 152
62 98 157
61 96 145
61 97 154
61 96 145
60 95 145
61 96 147
61 96 141
61 97 150
61 97 147
62 97 156
62 97 147
62 98 158
62 97 148
61 97 148
60 95 144
62 98 153
62 97 155
62 98 155
61 96 149
62 97 158
62 97 150
61 96 151
61 96 143
60 95 139
61 96 151
62 98 161
61 96 141
61 96 148
60 96 143
60 96 147
60 96 147
61 97 147
61 97 151
61 96 145
61 96 142
61 96 149
61 96 142
62 97 151
61 97 152
60 95 145
60 95 143
61 96 147
60 95 144
61 95 152
62 97 151
62 97 156
61 96 151
61 95 146
62 97 156
61 96 148
61 96 149
61 95 146
61 95 156
62 97 160
61 96 155
60 95 145
60 93 138
60 94 147
59 92 146
60 95 150
61 95 152
59 93 147
59 93 150
59 92 138
60 94 151
60 94 147
60 94 150
59 91 143
58 91 140
62 93 149
206 223 246
215 232 255
215 232 255
215 232 255
215 232 255
215 232 255
215 232 255
215 232 255
212 229 251
159 157 127
153 146 93
148 143 93
142 138 92
139 136 94
141 139 94
138 137 95
139 138 96
148 146 101
139 139 97
146 146 101
135 135 94
129 131 93
138 139 97
129 131 93
135 137 96
134 136 95
131 134 95
140 141 99
138 139 98
144 145 102
151 151 104
145 146 101
148 148 101
153 152 105
155 154 105
160 158 107
155 154 105
156 155 105
168 164 109
165 163 109
161 159 108
168 164 109
168 165 110
172 168 112
175 171 113
176 171 113
178 173 114
177 172 114
178 173 114
179 173 114
178 173 114
179 173 114
178 173 114
178 173 114
178 173 114
179 173 114
179 173 114
178 173 114
178 173 114
179 173 114
179 173 114
178 173 114
179 173 114
178 173 114
178 173 114
178 173 114
178 173 114
181 174 114
180 174 114
179 174 114
181 174 114
179 173 114
180 174 114
180 174 114
181 174 114
180 174 114
180 174 114
179 174 114
181 174 114
181 174 114
182 175 114
181 174 114
181 174 114
181 174 114
181 174 114
182 175 114
182 175 114
181 174 114
182 175 114
183 175 114
182 175 114
180 174 114
181 174 114
182 175 114
183 175 114
180 174 114
183 175 114
182 175 114
181 174 114
182 175 114
183 175 114
182 175 114
183 175 114
182 175 114
183 175 114
182 175 114
184 176 114
183 175 114
183 175 114
183 175 114
183 175 114
184 176 114
184 176 114
185 176 114
184 175 114
184 176 114
184 176 114
184 175 114
185 176 114
185 176 114
185 176 114
185 176 114
183 175 114
184 176 114
184 176 114
185 176 114
185 176 114
185 176 114
185 176 114
184 176 114
185 176 113
187 177 114
185 176 113
184 176 113
187 177 113
185 176 113
186 176 113
186 177 113
184 175 111
186 176 110
184 175 110
185 176 112
184 175 112
185 176 113
186 176 113
184 175 113
185 176 110
185 176 112
184 175 109
184 175 111
184 175 111
186 176 111
185 176 110
175 198 0
174 198 0
175 198 0
173 197 0
174 198 0
174 198 0
174 197 0
175 198 0
175 198 0
174 198 0
175 198 0
175 198 0
174 198 0
174 197 0
174 198 0
174 198 0
176 199 0
176 199 0
174 198 0
175 198 0
174 197 0
177 200 62
180 202 76
181 203 92
186 207 122
194 213 149
196 214 159
198 216 165
206 222 194
204 221 189
214 228 220
213 228 220
218 232 233
218 232 236
224 237 252
225 238 254
225 238 255
225 238 255
225 238 255
225 238 255
225 238 255
225 238 255
225 238 255
225 238 255
225 238 255
225 238 255
225 238 255
225 238 255
225 238 255
225 238 255
225 238 255
225 238 255
225 238 255
225 238 255
225 238 255
225 238 255
225 238 255
225 238 255
225 238 255
225 238 255
225 238 255
225 238 255
225 238 255
225 238 255
225 238 255
225 238 255
225 238 255
225 238 255
225 238 255
225 238 255
225 238 255
225 238 255
225 238 255
225 238 255
225 238 255
225 238 255
225 238 255
225 238 255
225 238 255
225 238 255
225 238 255
225 238 255
226 238 255
226 238 255
226 238 255
226 238 255
222 235 245
221 235 244
218 232 233
209 225 204
206 223 198
201 219 181
193 212 142
186 207 117
182 203 88
174 198 44
174 198 0
175 198 0
174 197 0
175 198 0
175 198 0
176 199 0
175 198 0
175 198 0
174 198 0
174 198 0
175 198 0
173 197 0
174 198 0
175 198 0
173 197 0
174 198 0
172 197 0
173 197 0
175 198 0
175 198 0
174 198 0
174 197 0
175 198 0
174 198 0
176 198 0
174 198 0
175 198 0
176 198 0
175 198 0
174 198 0
174 198 0
174 198 0
172 197 0
175 198 0
175 198 0
173 197 0
174 198 0
176 199 0
173 197 0
174 198 0
173 197 0
176 198 0
173 197 0
176 198 0
174 197 0
171 195 0
173 196 0
172 196 0
201 220 207
215 232 255
215 232 255
215 232 255
215 232 255
215 232 255
215 232 255
215 232 255
157 177 198
58 94 128
61 97 149
60 95 142
61 96 144
59 94 131
60 95 141
61 97 144
61 96 143
60 96 149
60 96 143
61 97 152
60 96 149
61 97 151
61 97 151
61 96 148
61 97 152
61 96 150
61 97 147
61 97 148
61 97 153
62 97 148
61 96 149
62 97 148
62 98 159
62 98 157
62 98 152
60 95 139
62 98 157
61 97 150
62 98 157
61 97 148
60 95 141
61 97 154
62 98 156
61 96 148
61 96 148
62 97 150
63 98 156
62 98 160
60 96 141
61 97 151
60 96 152
62 97 155
62 97 150
62 97 161
60 95 137
62 98 159
62 97 157
62 97 153
61 96 144
60 95 145
62 97 153
60 96 148
61 96 150
61 97 154
61 97 154
61 96 147
60 95 142
61 97 153
62 98 157
62 98 161
61 96 148
61 97 152
61 97 154
61 96 154
61 97 153
61 96 149
61 96 150
61 96 156
58 93 146
60 95 149
61 97 152
62 97 152
61 96 154
62 97 152
60 95 141
61 96 152
60 95 152
61 95 153
60 95 145
61 96 155
59 93 143
61 96 148
61 95 152
60 94 153
59 92 142
60 93 146
60 93 143
60 93 138
58 90 137
58 89 137
57 89 138
59 91 137
54 83 128
151 169 197
215 232 255
215 232 255
215 232 255
215 232 255
215 232 255
215 232 255
215 232 255
186 195 197
150 143 90
151 145 94
146 141 94
139 136 91
137 135 92
140 138 93
124 126 89
138 138 97
130 131 92
133 134 93
128 129 89
128 130 94
132 134 96
134 136 97
128 132 95
124 127 92
140 141 100
123 127 93
138 139 97
142 142 100
143 144 101
136 137 96
147 147 101
142 142 97
154 153 104
154 152 105
149 149 103
158 156 106
167 164 109
165 163 110
159 157 105
161 159 108
161 158 107
172 168 112
171 167 109
172 168 110
175 171 113
177 171 112
175 171 113
178 173 114
178 173 114
178 173 114
179 173 114
178 173 114
179 173 114
179 173 114
179 173 114
178 173 114
178 173 114
181 174 114
179 173 114
180 174 114
181 174 114
179 173 114
180 174 114
180 174 114
178 173 114
180 174 114
180 174 114
180 174 114
180 174 114
180 174 114
180 174 114
181 174 114
181 174 114
181 174 114
180 174 114
182 175 114
179 174 114
181 174 114
181 174 114
182 175 114
182 175 114
181 174 114
180 174 114
181 174 114
182 175 114
182 175 114
182 175 114
181 174 114
183 175 114
182 175 114
182 175 114
182 175 114
182 175 114
183 175 114
183 175 114
183 175 114
183 175 114
182 175 114
184 176 114
184 176 114
184 176 114
183 175 114
183 175 114
184 176 114
183 175 114
184 176 114
184 176 114
184 176 114
185 176 114
184 176 114
182 175 114
184 176 114
183 175 114
184 176 114
185 176 114
186 177 114
184 176 114
184 176 114
186 177 114
185 176 114
186 176 114
185 176 114
184 176 114
184 176 113
185 176 114
186 177 113
184 176 114
185 176 113
185 176 114
184 175 112
186 177 112
185 176 113
185 176 111
187 177 113
187 177 113
187 177 113
186 176 113
184 175 111
184 175 109
186 176 112
185 175 109
187 177 112
186 176 112
183 174 109
186 176 110
183 175 110
187 177 110
187 177 112
185 175 110
185 175 109
185 175 106
185 175 109
174 198 0
175 198 0
176 199 0
173 197 0
173 197 0
174 198 0
174 198 0
174 197 0
176 198 0
174 198 0
181 203 80
181 203 84
187 208 128
195 213 153
202 219 179
205 222 194
207 223 199
211 226 211
212 227 217
217 231 231
222 235 245
225 238 255
225 238 255
225 238 255
225 238 255
225 238 255
225 238 255
225 238 255
225 238 255
225 238 255
225 238 255
225 238 255
225 238 255
225 238 255
225 238 255
225 238 255
225 238 255
225 238 255
225 238 255
225 238 255
225 238 255
225 238 255
225 238 255
225 238 255
225 238 255
225 238 255
225 238 255
225 238 255
225 238 255
225 238 255
225 238 255
225 238 255
225 238 255
225 238 255
225 238 255
225 238 255
225 238 255
225 238 255
225 238 255
225 238 255
225 238 255
225 238 255
225 238 255
225 238 255
225 238 255
225 238 255
225 238 255
225 238 255
225 238 255
225 238 255
225 238 255
225 238 255
225 238 255
225 238 255
225 238 255
225 238 255
225 238 255
225 238 255
225 238 255
225 238 255
225 238 255
225 238 255
225 238 255
225 238 255
225 238 255
225 238 255
225 238 255
225 238 255
225 238 255
225 238 255
225 238 255
225 238 255
225 238 255
226 238 255
226 238 255
225 238 254
220 234 240
216 230 227
209 225 207
202 219 179
194 213 151
191 210 133
177 200 57
174 197 0
174 198 0
176 199 0
175 198 0
173 197 0
174 198 0
176 199 0
175 198 0
174 197 0
176 199 0
175 198 0
173 197 0
174 198 0
177 199 0
175 198 0
173 197 0
174 197 0
174 197 0
173 197 0
175 198 0
174 197 0
175 198 0
175 198 0
176 198 0
174 197 0
174 197 0
175 198 0
174 198 0
174 198 0
174 198 0
174 198 0
175 198 0
174 197 0
173 197 0
174 198 0
176 198 0
175 198 0
174 197 0
174 197 0
174 198 0
174 198 0
176 199 95
215 232 253
216 232 255
216 232 255
216 232 255
215 232 255
215 232 255
213 230 254
83 112 141
60 96 142
60 95 131
60 96 142
61 96 142
60 95 137
60 95 141
61 96 144
60 96 144
61 97 147
60 96 149
60 96 136
61 97 151
62 98 158
61 96 143
60 95 139
62 98 157
61 97 156
60 95 141
61 97 149
61 97 153
61 97 150
62 97 149
62 97 149
61 96 147
61 97 152
62 98 152
62 98 153
60 95 147
62 98 153
62 97 154
61 96 147
62 97 158
61 97 150
61 96 143
62 97 148
62 98 159
62 98 151
61 97 158
62 97 151
62 98 155
61 96 148
61 97 153
61 96 142
62 97 154
61 96 143
60 95 137
62 97 152
61 96 143
61 96 151
61 97 153
61 96 151
62 97 153
61 97 154
61 97 148
62 97 154
61 96 144
60 95 147
61 96 156
61 96 148
62 98 156
62 97 154
62 97 158
61 96 147
61 96 152
61 97 150
62 97 152
61 96 154
62 97 156
59 94 140
61 96 155
60 95 145
59 94 139
61 95 143
61 95 146
61 96 150
61 96 147
61 95 149
61 95 146
60 95 142
60 93 140
60 94 141
60 94 139
60 94 142
60 95 149
60 94 144
61 95 148
58 89 129
60 93 144
59 92 145
58 90 139
58 90 142
58 90 144
58 90 139
58 90 139
94 117 159
214 231 254
215 232 255
216 232 255
215 232 255
216 232 255
216 232 255
216 232 255
145 142 110
150 142 89
142 137 88
143 139 92
138 135 91
137 135 93
141 140 97
129 130 91
133 132 93
121 123 88
126 128 91
114 117 84
124 127 92
121 124 88
120 122 87
126 129 92
132 134 94
131 133 94
124 126 90
121 125 91
126 128 91
130 132 94
138 140 99
156 154 104
150 149 102
149 149 102
155 154 105
152 151 102
153 152 104
158 156 107
153 152 103
166 162 107
165 161 108
168 164 110
172 167 110
172 167 111
173 168 110
174 169 111
175 170 111
177 171 112
179 173 113
180 174 114
180 174 114
180 174 114
179 174 114
180 174 114
180 174 114
180 174 114
181 174 114
182 175 114
182 175 114
180 174 114
180 174 114
181 174 114
180 174 114
181 174 114
182 175 114
179 173 114
180 174 114
182 175 114
181 174 114
181 174 114
182 175 114
181 174 114
182 175 114
181 174 114
183 175 114
182 175 114
182 175 114
183 175 114
181 174 114
182 175 114
182 175 114
183 175 114
183 175 114
181 174 114
184 175 114
183 175 114
184 176 114
181 174 114
181 174 114
183 175 114
184 176 114
184 176 114
184 176 114
183 175 114
182 175 114
183 175 114
185 176 114
183 175 114
184 176 114
185 176 114
184 175 114
184 176 114
183 175 114
184 175 114
186 176 114
184 176 114
186 177 114
184 176 114
184 176 114
185 176 114
185 176 114
185 176 114
184 176 114
186 177 114
185 176 114
186 177 114
186 177 114
186 177 114
184 176 113
187 177 114
187 177 113
185 176 113
186 177 113
187 177 114
185 176 113
186 177 113
185 176 112
184 175 113
184 175 113
185 176 113
183 175 110
184 175 113
186 176 112
185 176 112
183 174 109
184 175 112
185 176 113
184 175 112
187 177 112
185 176 110
186 176 113
185 176 110
185 175 108
185 176 110
184 175 111
184 175 106
184 175 109
186 176 110
186 176 110
183 174 106
185 175 109
185 175 108
185 175 109
177 200 57
183 204 99
191 210 135
193 212 147
203 220 186
206 223 196
209 225 207
214 229 223
219 233 237
224 237 253
225 238 255
225 238 255
225 238 255
225 238 255
225 238 255
225 238 255
225 238 255
225 238 255
225 238 255
225 238 255
225 238 255
225 238 255
225 238 255
225 238 255
225 238 255
225 238 255
225 238 255
225 238 255
225 238 255
225 238 255
225 238 255
225 238 255
225 238 255
225 238 255
225 238 255
225 238 255
225 238 255
225 238 255
225 238 255
225 238 255
225 238 255
225 238 255
225 238 255
225 238 255
225 238 255
225 238 255
225 238 255
225 238 255
225 238 255
225 238 255
225 238 255
225 238 255
225 238 255
225 238 255
225 238 255
225 238 255
225 238 255
225 238 255
225 238 255
225 238 255
225 238 255
225 238 255
225 238 255
225 238 255
225 238 255
225 238 255
225 238 255
225 238 255
225 238 255
225 238 255
225 238 255
225 238 255
225 238 255
225 238 255
225 238 255
225 238 255
225 238 255
225 238 255
225 238 255
225 238 255
225 238 255
225 238 255
225 238 255
225 238 255
225 238 255
225 238 255
225 238 255
225 238 255
225 238 255
225 238 255
225 238 255
225 238 255
225 238 255
225 238 255
225 238 255
225 238 255
225 238 255
225 238 255
225 238 255
225 238 255
225 238 255
226 238 255
226 238 255
222 235 245
216 230 226
206 222 193
199 217 169
185 206 111
178 200 62
174 197 0
175 198 0
175 198 0
174 198 0
175 198 0
176 199 0
175 198 0
175 198 0
175 198 0
174 197 0
175 198 0
174 198 0
175 198 0
175 198 0
175 198 0
174 198 0
175 198 0
174 197 0
173 197 0
174 198 0
173 197 0
174 198 0
176 199 0
172 197 0
175 198 0
175 198 0
176 199 0
173 197 0
173 197 0
174 198 0
174 198 0
174 198 0
175 198 0
175 197 0
174 197 0
173 196 0
201 220 203
216 233 255
216 233 255
216 232 255
216 233 255
216 232 255
179 197 221
59 94 125
58 93 120
60 95 141
60 96 141
60 96 142
60 95 137
61 97 152
61 97 145
60 95 131
60 95 133
61 96 149
60 95 141
61 96 143
60 96 142
62 97 144
61 96 150
60 95 133
60 95 144
60 96 153
62 97 151
61 96 148
62 97 149
60 96 148
62 98 153
61 97 153
61 97 149
61 96 148
62 98 152
60 96 144
61 96 150
62 98 156
61 97 148
62 98 157
61 96 143
62 97 150
62 97 152
60 95 145
60 95 140
61 97 149
61 96 144
61 97 145
61 96 140
62 97 155
61 96 149
60 95 143
62 97 155
61 97 154
61 96 149
61 96 145
62 97 154
61 96 144
61 96 147
61 96 145
61 96 143
62 98 158
61 97 154
61 96 151
60 96 146
62 97 155
61 96 143
62 97 151
61 95 146
61 96 152
59 94 142
61 96 146
61 96 144
61 96 149
61 96 148
61 96 146
61 95 146
61 96 156
61 96 147
61 96 145
61 95 145
61 96 142
61 95 154
61 95 144
61 95 150
60 94 145
60 93 142
62 96 150
61 96 146
59 93 138
60 94 142
60 93 143
60 95 146
62 96 154
59 93 145
59 92 142
60 94 146
59 92 143
57 90 140
59 91 143
57 88 135
56 85 125
58 89 133
181 197 224
216 232 255
216 232 255
216 233 255
216 233 255
216 233 255
194 205 215
147 140 87
149 143 90
130 127 83
139 136 90
132 130 90
131 130 89
119 120 84
122 123 87
125 126 88
114 116 83
106 111 82
115 118 85
110 114 85
117 120 86
107 112 83
119 122 88
118 122 89
114 119 87
118 122 89
135 137 95
126 128 91
136 137 97
139 140 98
137 138 96
138 139 98
145 145 100
154 152 103
149 148 100
159 157 106
160 157 105
157 155 106
159 155 103
161 158 104
167 162 107
166 162 107
173 167 109
169 165 109
173 168 110
174 169 111
178 172 113
180 173 114
180 174 113
180 174 114
183 175 114
181 174 114
181 174 114
181 174 114
182 175 114
180 174 114
181 175 114
180 174 114
182 175 114
181 174 114
181 174 114
180 174 114
182 175 114
180 174 114
182 175 114
182 175 114
183 175 114
182 175 114
181 174 114
181 174 114
183 175 114
181 174 114
182 175 114
183 175 114
182 175 114
182 175 114
182 175 114
184 176 114
183 175 114
182 175 114
182 175 114
183 175 114
181 175 114
181 174 114
182 175 114
183 175 114
184 176 114
184 176 114
183 175 114
184 176 114
183 175 114
183 175 114
184 176 114
186 177 114
183 175 114
184 176 114
183 175 114
185 176 114
184 176 114
186 177 114
185 176 114
185 176 114
185 176 114
187 177 114
185 176 114
185 176 114
185 176 114
185 176 114
184 176 114
184 176 114
185 176 113
185 176 114
184 176 113
186 176 112
185 176 113
185 176 112
185 176 113
185 176 112
185 176 113
185 176 112
185 176 111
184 175 110
186 176 113
186 176 112
184 175 109
185 176 112
186 176 110
186 176 112
183 175 112
184 175 112
186 176 112
184 175 110
185 176 113
183 174 108
185 176 112
186 176 110
184 175 110
185 175 109
185 176 113
184 175 109
184 175 110
184 175 109
183 175 109
183 174 108
184 174 106
184 175 109
183 174 104
185 175 109
182 173 104
184 175 108
186 176 109
185 175 108
225 238 255
225 238 255
225 238 255
225 238 255
225 238 255
225 238 255
225 238 255
225 238 255
225 238 255
225 238 255
225 238 255
225 238 255
225 238 255
225 238 255
225 238 255
225 238 255
225 238 255
225 238 255
225 238 255
225 238 255
225 238 255
225 238 255
225 238 255
225 238 255
225 238 255
225 238 255
225 238 255
225 238 255
225 238 255
225 238 255
225 238 255
225 238 255
225 238 255
225 238 255
225 238 255
225 238 255
225 238 255
225 238 255
225 238 255
225 238 255
225 238 255
225 237 255
225 237 255
225 237 255
225 237 255
225 237 255
225 237 255
225 237 255
225 237 255
225 237 255
225 237 255
225 237 255
225 237 255
225 237 255
225 237 255
225 237 255
225 237 255
225 237 255
225 237 255
225 237 255
225 237 255
225 237 255
225 237 255
225 237 255
225 237 255
225 237 255
225 237 255
225 237 255
225 237 255
225 237 255
225 237 255
225 237 255
225 238 255
225 238 255
225 238 255
225 238 255
225 238 255
225 238 255
225 238 255
225 238 255
225 238 255
225 238 255
225 238 255
225 238 255
225 238 255
225 238 255
225 238 255
225 238 255
225 238 255
225 238 255
225 238 255
225 238 255
225 238 255
225 238 255
225 238 255
225 238 255
225 238 255
225 238 255
225 238 255
225 238 255
225 238 255
225 238 255
225 238 255
225 238 255
225 238 255
225 238 255
225 238 255
226 238 255
226 238 255
219 233 236
208 224 201
200 217 173
191 211 140
181 203 88
174 198 0
174 198 0
174 198 0
175 198 0
174 197 0
174 198 0
175 198 0
174 198 0
174 198 0
175 198 0
174 198 0
176 199 0
176 199 0
174 198 0
175 198 0
174 198 0
174 198 0
173 197 0
174 198 0
173 197 0
174 198 0
174 197 0
174 197 0
175 198 0
177 199 0
174 197 0
176 198 0
174 198 0
172 196 0
174 197 0
175 198 0
180 203 117
216 233 255
216 233 255
216 233 255
216 233 255
216 233 255
136 157 176
59 93 126
60 95 142
59 95 137
61 97 150
59 95 134
61 97 151
59 94 134
61 97 151
61 96 144
61 96 148
60 95 141
60 96 149
61 97 152
61 96 144
62 97 152
61 96 148
61 96 143
61 97 151
60 95 142
61 96 143
61 97 148
61 96 144
62 97 147
60 95 140
60 95 145
62 98 155
62 97 155
61 96 141
60 96 149
61 96 150
61 97 155
61 97 153
60 96 145
61 96 144
62 97 156
61 96 153
62 97 150
62 97 152
61 96 145
60 96 145
62 97 149
61 96 147
61 95 141
61 96 151
60 95 144
62 97 151
62 97 150
62 97 153
61 97 148
60 95 139
61 96 149
62 98 155
62 97 154
61 96 148
61 97 147
61 97 149
62 97 147
61 96 146
60 95 142
61 95 145
62 97 152
62 97 154
61 96 152
61 96 144
61 96 146
60 94 137
61 97 155
62 97 151
60 95 149
59 93 142
60 96 144
60 95 140
61 96 157
61 95 151
61 95 144
60 95 139
61 95 146
60 94 141
59 93 145
60 94 143
60 94 146
59 92 137
60 95 148
61 95 152
59 92 133
60 94 145
60 93 143
60 94 144
59 92 141
61 95 149
60 94 150
58 91 143
58 91 142
58 91 144
57 88 128
56 85 129
127 145 173
216 233 255
216 233 255
216 233 255
216 233 255
216 233 255
161 160 140
142 136 80
142 138 90
137 133 88
137 135 91
122 121 85
122 121 85
114 116 81
113 116 82
124 126 91
121 123 87
112 116 83
117 120 88
110 115 85
113 117 84
113 118 87
105 111 82
115 119 88
131 133 94
122 126 91
127 129 93
116 120 88
130 132 93
128 130 91
142 143 99
142 141 96
142 142 98
147 146 99
151 150 102
155 152 103
155 153 103
160 157 104
162 158 105
171 166 110
171 166 109
174 168 109
170 166 108
175 169 110
171 166 109
177 171 112
179 172 113
183 175 113
182 175 113
183 175 112
182 175 114
181 174 114
184 176 114
182 175 114
182 175 114
182 175 114
182 175 114
180 174 114
181 174 114
182 175 114
182 175 114
181 174 114
182 175 114
184 176 114
183 175 114
183 175 114
183 175 114
183 175 114
184 176 114
183 175 114
184 176 114
184 176 114
183 175 114
184 175 114
184 176 114
184 176 114
183 175 114
184 176 114
185 176 114
184 176 114
182 175 114
183 175 114
185 176 114
184 176 114
183 175 114
184 176 114
183 175 114
185 176 114
185 176 114
184 176 114
185 176 114
185 176 114
186 177 114
185 176 114
185 176 114
186 177 114
185 176 114
184 176 114
185 176 114
187 177 114
186 176 113
186 176 114
185 176 113
183 175 113
185 176 112
184 176 113
185 176 114
186 176 113
186 176 113
185 176 113
185 176 113
186 176 114
184 175 112
185 176 112
186 177 113
185 176 112
187 177 112
185 176 113
185 176 112
185 176 110
185 176 112
185 175 110
186 176 111
184 175 110
186 176 112
185 175 109
184 174 107
185 175 110
184 175 111
185 176 110
185 175 110
184 175 107
182 173 106
187 177 112
184 175 110
183 174 108
183 174 108
185 175 108
185 176 111
183 174 107
185 176 110
184 174 107
183 174 107
184 175 108
187 177 111
184 175 106
183 174 106
186 176 111
185 175 108
185 175 108
183 174 104
184 175 106
225 238 255
225 238 255
225 238 255
225 238 255
225 238 255
225 238 255
225 238 255
225 238 255
225 238 255
225 238 255
225 238 255
225 238 255
225 238 255
225 238 255
225 238 255
225 238 255
225 238 255
225 237 255
225 237 255
225 237 255
225 237 255
225 237 255
225 237 255
225 237 255
225 237 255
225 237 255
225 237 255
225 237 255
225 237 255
225 237 255
225 237 255
225 237 255
225 237 255
225 237 255
225 237 255
225 237 255
225 237 255
225 237 255
225 237 255
224 237 255
224 237 255
224 237 255
224 237 255
224 237 255
224 237 255
224 237 255
224 237 255
224 237 255
224 237 255
224 237 255
224 237 255
224 237 255
224 237 255
224 237 255
224 237 255
224 237 255
224 237 255
224 237 255
224 237 255
224 237 255
224 237 255
224 237 255
224 237 255
224 237 255
224 237 255
224 237 255
224 237 255
224 237 255
224 237 255
224 237 255
224 237 255
224 237 255
224 237 255
224 237 255
224 237 255
224 237 255
225 237 255
225 237 255
225 237 255
225 237 255
225 237 255
225 237 255
225 237 255
225 237 255
225 237 255
225 237 255
225 237 255
225 237 255
225 237 255
225 237 255
225 237 255
225 238 255
225 238 255
225 238 255
225 238 255
225 238 255
225 238 255
225 238 255
225 238 255
225 238 255
225 238 255
225 238 255
225 238 255
225 238 255
225 238 255
225 238 255
225 238 255
225 238 255
225 238 255
225 238 255
225 238 255
225 238 255
225 238 255
226 238 255
216 230 230
214 229 223
200 218 171
183 205 105
177 200 44
174 198 0
174 198 0
175 198 0
175 198 0
175 198 0
175 198 0
173 197 0
175 198 0
176 198 0
174 197 0
175 198 0
175 198 0
174 197 0
174 198 0
174 197 0
175 198 0
174 198 0
175 198 0
174 198 0
176 199 0
175 198 0
173 197 0
175 198 0
175 198 0
172 196 0
173 196 0
174 198 0
211 228 237
216 233 255
216 233 255
216 233 255
211 228 252
62 96 129
59 93 120
60 94 129
60 95 141
60 95 134
61 96 145
60 95 137
61 97 150
59 94 126
60 95 143
62 98 152
62 98 155
60 95 139
61 97 147
62 97 144
62 98 158
60 96 141
61 96 141
61 96 142
61 96 143
62 98 152
60 95 143
61 96 144
62 97 150
61 96 147
61 96 150
62 97 149
61 96 149
62 98 155
61 96 140
61 97 150
61 97 149
61 97 150
62 97 147
61 97 150
61 97 155
61 95 142
61 97 151
60 95 140
62 97 147
61 97 143
62 97 149
61 96 145
62 97 150
60 96 142
61 96 144
61 97 154
62 97 148
61 96 136
61 96 150
60 95 140
61 96 143
61 95 144
61 96 145
61 96 142
61 96 147
62 98 157
61 95 143
61 96 146
60 94 144
61 96 145
60 95 147
62 97 161
62 96 149
61 96 149
62 97 148
61 97 148
61 95 150
60 95 148
61 96 143
61 96 147
61 95 149
60 94 146
60 95 137
61 95 145
60 94 141
60 95 143
61 95 144
60 94 139
61 95 147
61 95 146
61 95 146
61 96 147
61 95 142
60 93 138
60 94 143
61 95 151
61 95 151
60 94 150
61 95 149
59 91 128
58 90 140
59 91 140
58 89 129
55 87 145
59 91 143
59 90 138
75 98 134
211 227 249
216 233 255
216 233 255
216 233 255
206 220 237
153 145 91
142 138 88
136 132 82
128 126 86
115 115 80
114 114 79
117 118 83
112 114 80
112 114 81
105 110 83
101 105 79
111 115 84
112 115 83
103 108 80
108 112 81
108 112 81
112 116 86
125 127 90
120 122 85
127 129 91
123 126 90
126 128 92
127 129 90
137 137 95
141 141 98
148 147 101
133 134 95
155 153 104
141 141 96
155 152 104
155 153 104
161 157 104
162 158 105
167 162 104
171 166 110
163 159 107
173 167 109
168 163 105
176 171 111
176 169 110
181 173 111
181 173 113
181 174 112
183 175 113
183 175 114
184 176 114
182 175 114
183 175 114
182 175 114
182 175 114
183 175 114
184 176 114
183 175 114
183 175 114
185 176 114
183 175 114
183 175 114
183 175 114
183 175 114
185 176 114
184 176 114
182 175 114
184 176 114
183 175 114
185 176 114
186 177 114
186 177 114
184 176 114
183 175 114
185 176 114
183 175 114
186 176 114
185 176 114
185 176 114
183 175 114
185 176 114
184 176 114
186 177 114
185 176 114
185 176 114
186 177 114
186 177 114
188 177 114
185 176 114
185 176 114
186 177 114
185 176 114
185 176 114
185 176 113
186 176 114
184 175 112
186 177 114
185 176 113
183 175 110
186 176 112
187 177 113
184 175 112
188 177 113
184 176 113
184 175 112
184 175 111
186 176 112
183 175 109
186 177 113
185 176 112
185 176 110
186 176 112
184 175 109
185 175 108
186 176 112
184 175 111
184 175 109
184 175 110
185 176 111
183 174 109
186 176 112
185 176 110
183 174 106
186 176 110
185 176 111
184 175 109
186 176 110
183 174 108
183 174 107
185 175 109
187 176 110
186 176 109
185 176 110
185 176 110
184 175 109
184 175 108
183 174 107
186 176 109
185 175 107
182 174 107
183 174 105
185 175 109
185 175 108
182 173 104
183 174 106
183 174 103
182 173 104
183 174 106
182 173 105
183 174 106
183 174 105
225 238 255
225 238 255
225 237 255
225 237 255
225 237 255
225 237 255
225 237 255
225 237 255
225 237 255
225 237 255
225 237 255
225 237 255
225 237 255
225 237 255
225 237 255
225 237 255
224 237 255
224 237 255
224 237 255
224 237 255
224 237 255
224 237 255
224 237 255
224 237 255
224 237 255
224 237 255
224 237 255
224 237 255
224 237 255
224 237 255
224 237 255
224 237 255
224 237 255
224 237 255
224 237 255
224 237 255
224 237 255
224 237 255
224 237 255
224 237 255
224 237 255
224 237 255
224 237 255
224 237 255
224 237 255
224 237 255
224 237 255
224 237 255
224 237 255
224 237 255
224 237 255
224 237 255
224 237 255
224 237 255
224 237 255
224 237 255
224 237 255
224 237 255
224 237 255
224 237 255
224 237 255
224 237 255
224 237 255
224 237 255
224 237 255
224 237 255
224 237 255
224 237 255
224 237 255
224 237 255
224 237 255
224 237 255
224 237 255
224 237 255
224 237 255
224 237 255
224 237 255
224 237 255
224 237 255
224 237 255
224 237 255
224 237 255
224 237 255
224 237 255
224 237 255
224 237 255
224 237 255
224 237 255
224 237 255
224 237 255
224 237 255
224 237 255
225 237 255
225 237 255
225 237 255
225 237 255
225 237 255
225 237 255
225 237 255
225 237 255
225 238 255
225 238 255
225 238 255
225 238 255
225 238 255
225 238 255
225 238 255
225 238 255
225 238 255
225 238 255
225 238 255
225 238 255
225 238 255
225 238 255
225 238 255
225 238 255
225 238 255
225 238 255
222 235 246
216 230 228
206 222 194
191 211 140
175 198 25
174 198 0
175 198 0
174 197 0
175 198 0
176 199 0
175 198 0
173 197 0
175 198 0
175 198 0
175 198 0
174 198 0
175 198 0
175 198 0
172 196 0
174 197 0
174 198 0
176 198 0
174 198 0
175 198 0
174 198 0
173 197 0
173 197 0
173 196 0
193 213 171
217 233 255
217 233 255
217 233 255
172 190 211
58 93 122
59 94 131
60 95 134
59 94 129
61 96 135
61 96 142
60 95 142
60 95 141
61 97 145
61 96 141
61 96 149
61 97 144
59 94 129
61 96 145
62 97 144
61 96 137
62 98 150
61 97 153
61 96 149
60 95 140
62 97 151
61 95 135
61 96 142
61 96 143
59 94 136
61 96 141
61 97 153
61 97 142
61 96 147
61 96 143
62 97 151
60 95 140
61 96 148
62 97 152
61 96 147
61 96 145
61 96 145
62 97 151
62 97 155
60 96 142
61 97 147
61 96 142
61 97 144
62 96 144
61 96 150
62 97 145
61 97 145
60 95 142
62 97 151
60 94 138
62 97 140
61 97 150
61 96 140
61 97 150
62 97 150
61 95 140
60 95 140
61 96 148
61 96 145
61 96 145
60 94 142
61 97 153
61 96 149
60 95 147
60 94 142
61 96 148
61 96 141
60 95 149
61 96 145
61 96 148
61 96 145
60 95 144
60 94 142
59 93 142
62 97 152
59 93 140
61 96 150
61 95 144
60 96 146
60 95 145
60 94 146
59 93 139
60 94 144
60 93 144
60 94 145
60 92 135
60 93 142
59 92 143
59 91 136
59 92 137
57 88 129
59 92 134
57 89 134
59 92 144
58 90 135
57 89 134
57 87 135
54 83 130
178 195 220
217 233 255
217 233 255
217 233 255
184 192 192
139 134 80
141 136 87
120 117 80
137 133 89
115 115 80
107 108 77
119 120 85
116 116 80
109 112 80
89 95 72
89 94 70
96 102 77
99 104 77
96 102 78
94 101 75
100 105 79
98 105 79
96 103 78
107 112 82
123 126 90
122 124 88
129 131 92
132 133 93
130 132 93
139 138 95
144 142 97
147 146 100
141 140 95
154 152 103
137 137 95
157 154 103
158 155 104
160 156 101
166 162 107
167 163 108
157 154 104
172 166 107
169 164 108
170 165 107
181 174 112
175 169 110
179 172 111
181 174 111
182 175 113
182 175 113
184 176 114
183 175 114
185 176 114
184 176 114
184 176 114
184 176 114
184 176 114
185 176 114
184 176 114
184 176 114
184 176 114
185 176 114
185 176 114
184 176 114
185 176 114
184 176 114
184 176 114
185 176 114
183 175 114
185 176 114
185 176 114
186 176 114
184 176 114
183 175 114
186 177 114
186 177 114
185 176 113
186 177 114
186 177 113
187 177 114
186 177 113
186 177 114
184 176 113
186 176 113
186 177 114
186 176 113
185 176 113
185 176 113
186 176 112
187 177 113
185 176 113
184 176 112
186 177 114
186 177 113
185 176 111
184 175 110
183 174 109
185 176 112
185 176 112
185 176 112
185 176 110
184 175 111
185 176 112
185 176 112
185 176 111
184 175 111
186 176 111
183 174 107
184 175 109
186 176 111
185 175 110
185 175 108
184 175 110
185 176 111
185 175 109
183 174 108
184 175 108
186 177 112
184 175 110
185 176 112
185 175 108
187 177 112
185 176 112
184 175 109
185 176 110
186 176 110
184 175 109
183 174 106
186 176 110
184 175 108
185 175 109
185 175 109
185 175 108
185 175 108
183 174 105
184 175 109
186 176 108
184 175 105
185 175 107
182 174 106
183 174 105
182 173 104
182 174 106
186 176 109
186 176 109
185 175 106
185 175 109
182 173 102
185 175 108
182 173 104
183 173 103
224 237 255
224 237 255
224 237 255
224 237 255
224 237 255
224 237 255
224 237 255
224 237 255
224 237 255
224 237 255
224 237 255
224 237 255
224 237 255
224 237 255
224 237 255
224 237 255
224 237 255
224 237 255
224 237 255
224 237 255
224 237 255
224 237 255
224 237 255
224 237 255
224 237 255
224 237 255
224 237 255
224 237 255
224 237 255
224 237 255
224 237 255
224 237 255
224 237 255
224 237 255
224 237 255
224 237 255
224 237 255
224 237 255
224 237 255
224 237 255
224 237 255
224 237 255
224 237 255
224 237 255
224 237 255
224 237 255
224 237 255
224 237 255
224 237 255
224 237 255
224 237 255
224 237 255
224 237 255
224 237 255
224 237 255
224 237 255
224 237 255
224 237 255
224 237 255
224 237 255
224 237 255
224 237 255
224 237 255
224 237 255
224 237 255
224 237 255
224 237 255
224 237 255
224 237 255
224 237 255
224 237 255
224 237 255
224 237 255
224 237 255
224 237 255
224 237 255
224 237 255
224 237 255
224 237 255
224 237 255
224 237 255
224 237 255
224 237 255
224 237 255
224 237 255
224 237 255
224 237 255
224 237 255
224 237 255
224 237 255
224 237 255
224 237 255
224 237 255
224 237 255
224 237 255
224 237 255
224 237 255
224 237 255
224 237 255
224 237 255
224 237 255
224 237 255
225 237 255
225 237 255
225 237 255
225 237 255
225 237 255
225 237 255
225 238 255
225 238 255
225 238 255
225 238 255
225 238 255
225 238 255
225 238 255
225 238 255
225 238 255
225 238 255
225 238 255
225 238 255
225 238 255
225 238 255
224 237 252
214 229 221
198 216 165
186 206 117
175 198 0
176 199 0
175 198 0
174 198 0
176 199 0
174 198 0
174 198 0
174 198 0
175 198 0
176 198 0
175 198 0
173 197 0
173 197 0
174 198 0
175 198 0
175 198 0
174 197 0
175 198 0
171 195 0
174 198 0
181 204 99
217 233 255
217 233 255
217 233 255
147 167 189
57 92 110
61 96 140
60 95 136
59 95 131
59 95 135
60 95 131
61 96 141
61 96 144
61 96 141
60 95 137
61 96 142
61 95 136
60 96 145
62 97 154
61 96 143
61 96 142
61 96 151
61 97 148
61 96 147
61 96 147
62 97 151
61 96 142
60 95 135
60 95 137
61 96 149
61 96 143
61 96 148
60 95 144
60 95 137
61 97 144
62 98 144
60 95 139
61 96 145
61 97 150
61 96 145
61 96 144
59 94 135
61 96 147
62 97 151
61 97 153
62 98 153
62 97 151
61 96 144
60 96 144
60 95 141
60 95 142
62 97 148
62 98 154
62 98 154
61 96 152
61 96 144
62 98 156
60 96 143
62 97 154
61 97 150
61 96 142
61 96 142
62 96 144
61 97 149
60 94 136
60 95 142
61 96 147
60 95 135
59 94 136
61 95 147
60 94 140
61 96 152
60 94 138
61 95 147
59 93 136
60 95 142
61 96 145
61 95 145
62 96 148
60 95 150
61 95 144
60 94 144
60 95 147
59 93 133
61 96 152
60 94 148
60 93 148
59 93 140
59 93 144
61 95 146
59 93 139
60 93 144
59 92 145
60 93 137
60 92 138
58 90 137
60 94 148
57 89 126
59 91 145
57 88 126
57 89 138
54 84 127
54 83 124
138 156 183
217 233 255
217 233 255
217 233 255
146 142 104
133 128 79
131 126 81
120 118 79
109 109 75
113 113 78
106 108 77
108 110 79
97 100 73
98 101 74
98 102 76
94 99 71
75 84 66
77 87 69
91 98 76
89 96 73
98 104 80
93 100 75
105 110 80
105 110 80
104 109 81
120 123 88
119 121 86
125 126 90
134 135 96
127 129 92
136 136 95
137 136 95
138 137 94
141 140 96
154 151 100
159 155 105
158 154 102
159 155 103
158 154 102
164 159 104
162 157 103
170 164 106
170 164 107
179 171 110
174 167 107
178 171 111
177 170 108
179 172 110
183 175 111
183 175 112
186 177 114
184 176 113
184 176 114
185 176 114
185 176 114
184 176 114
183 175 114
186 177 114
185 176 114
185 176 114
185 176 114
184 176 114
185 176 113
186 176 114
185 176 113
186 176 114
185 176 113
184 176 113
184 176 113
186 176 113
185 176 113
185 176 113
184 176 113
186 177 113
184 176 112
186 177 114
184 175 112
186 177 112
184 175 112
186 176 113
184 176 112
185 176 112
183 175 111
185 176 112
184 175 111
186 176 113
182 174 109
184 176 112
185 176 112
185 175 110
186 176 113
185 176 111
185 176 112
184 175 111
184 175 111
185 175 108
185 176 112
185 176 111
183 175 110
184 176 112
186 176 110
182 174 109
185 176 109
182 174 108
185 176 111
185 176 110
185 176 109
186 177 112
187 177 110
183 174 106
185 175 109
185 176 111
184 175 108
185 176 110
184 175 106
184 175 106
184 175 108
183 174 108
182 174 108
184 175 107
183 174 106
184 174 105
184 175 108
184 175 109
184 175 109
183 174 106
186 176 108
182 174 104
186 176 109
184 175 106
185 175 109
185 175 108
182 173 104
185 175 107
182 173 105
184 174 103
182 173 103
182 173 104
185 175 108
184 174 106
186 176 109
184 174 104
183 174 104
184 175 108
184 174 104
184 174 103
184 174 106
184 174 104
183 174 106
185 175 106
185 175 106
224 237 255
224 237 255
224 237 255
224 237 255
224 237 255
224 237 255
224 237 255
224 237 255
224 237 255
224 237 255
224 237 255
224 237 255
224 237 255
224 237 255
224 237 255
224 237 255
224 237 255
224 237 255
224 237 255
224 237 255
224 237 255
224 237 255
224 237 255
224 237 255
224 237 255
224 237 255
224 237 255
224 237 255
224 237 255
224 237 255
224 237 255
224 237 255
224 237 255
224 237 255
224 237 255
224 237 255
224 237 255
224 237 255
224 237 255
224 237 255
224 237 255
224 237 255
224 237 255
224 237 255
224 237 255
224 237 255
224 237 255
224 237 255
224 237 255
224 237 255
224 237 255
224 237 255
224 237 255
224 237 255
224 237 255
224 237 255
224 237 255
224 237 255
224 237 255
224 237 255
224 237 255
224 237 255
224 237 255
224 237 255
224 237 255
224 237 255
224 237 255
224 237 255
224 237 255
224 237 255
224 237 255
224 237 255
224 237 255
224 237 255
224 237 255
224 237 255
224 237 255
224 237 255
224 237 255
224 237 255
224 237 255
224 237 255
224 237 255
224 237 255
224 237 255
224 237 255
224 237 255
224 237 255
224 237 255
224 237 255
224 237 255
224 237 255
224 237 255
224 237 255
224 237 255
224 237 255
224 237 255
224 237 255
224 237 255
224 237 255
224 237 255
224 237 255
224 237 255
224 237 255
224 237 255
224 237 255
224 237 255
224 237 255
224 237 255
224 237 255
225 237 255
225 237 255
225 237 255
225 237 255
225 237 255
225 238 255
225 238 255
225 238 255
225 238 255
225 238 255
225 238 255
225 238 255
225 238 255
225 238 255
225 238 255
225 238 255
220 234 241
208 224 203
191 210 133
180 202 72
174 198 0
175 198 0
175 198 0
174 198 0
174 198 0
175 198 0
174 198 0
175 198 0
174 198 0
175 198 0
174 198 0
174 198 0
174 197 0
173 197 0
173 197 0
176 199 0
175 198 0
208 225 223
217 233 255
217 233 255
104 129 149
60 95 134
60 95 136
60 95 129
60 95 131
60 95 136
61 96 143
60 95 133
60 95 139
61 95 136
61 97 148
61 97 141
60 96 141
61 96 142
62 97 151
60 95 139
60 95 142
61 96 141
61 96 143
61 97 151
60 95 131
60 95 143
59 94 137
62 98 155
61 96 141
62 97 149
61 96 142
60 95 140
61 97 143
61 97 144
60 95 136
62 98 155
61 96 142
62 98 154
61 96 144
62 97 153
62 97 147
61 96 145
61 96 147
61 97 147
61 96 148
60 95 143
61 96 145
61 96 143
60 95 143
60 95 139
61 96 141
60 95 152
61 96 145
61 96 147
61 96 148
60 94 131
61 96 143
61 97 145
61 96 141
60 95 136
60 95 141
61 96 144
60 95 138
60 95 143
61 95 145
61 95 142
62 97 152
61 95 147
61 97 155
60 95 144
61 95 141
61 95 149
60 94 137
61 96 152
61 96 149
59 93 138
62 97 152
60 95 140
61 95 139
61 96 156
61 96 153
61 96 150
61 96 146
60 95 141
60 94 151
59 93 136
60 94 146
60 94 144
61 96 148
60 94 144
60 94 140
59 92 145
60 94 146
59 92 138
60 94 137
59 91 141
59 91 137
59 92 135
59 91 142
58 90 134
58 89 129
56 86 124
55 84 125
94 115 154
217 233 255
217 233 255
205 217 230
136 131 77
123 120 76
109 108 71
105 105 72
106 106 73
93 95 66
107 107 73
105 107 76
93 98 70
81 88 68
79 87 68
76 83 62
66 78 65
80 88 68
71 81 64
81 90 70
91 98 75
94 101 78
103 108 80
100 106 79
104 108 79
112 116 84
113 116 85
132 132 91
129 130 90
132 132 92
135 135 92
144 142 97
145 143 97
142 140 98
143 141 97
148 145 97
155 151 100
164 158 104
161 156 103
163 157 103
163 158 104
167 162 105
169 164 104
173 166 108
174 167 108
173 167 108
180 172 111
183 174 111
183 175 110
185 176 112
184 175 112
184 175 112
185 176 113
184 176 113
184 176 113
184 175 113
185 176 113
184 176 113
187 177 114
184 175 111
185 176 113
185 176 112
185 176 113
184 176 113
183 175 111
183 175 112
185 176 112
185 176 112
184 176 113
182 174 111
186 177 113
185 176 113
184 175 112
185 176 112
184 175 110
186 176 112
185 176 112
184 175 110
186 176 110
184 175 110
184 175 109
184 175 110
184 175 110
184 175 108
185 176 110
186 176 112
185 176 110
184 175 111
186 176 110
185 176 110
186 176 110
185 175 109
184 175 110
184 175 107
182 174 106
183 175 109
185 176 111
185 176 112
183 175 109
185 175 109
186 176 110
184 174 106
184 175 108
184 175 109
183 174 106
183 174 106
183 174 106
184 175 107
187 176 110
183 174 108
184 175 108
184 175 108
185 175 108
183 174 108
185 175 110
184 174 106
186 176 109
182 173 104
181 172 101
185 175 108
184 175 108
184 175 106
182 173 104
183 174 105
183 174 104
182 173 104
185 175 109
183 174 104
183 174 105
180 172 101
183 174 103
183 174 105
183 173 101
184 175 107
183 173 103
184 175 106
182 173 105
183 173 103
183 174 103
182 173 100
182 173 102
182 174 104
183 174 105
182 173 104
182 173 104
184 174 104
184 174 104
185 175 107
184 175 105
183 174 103
185 174 103
224 237 255
224 237 255
224 237 255
224 237 255
224 237 255
224 237 255
224 237 255
224 237 255
224 237 255
224 237 255
224 237 255
224 237 255
224 237 255
224 237 255
224 237 255
224 237 255
224 237 255
224 237 255
224 237 255
224 237 255
224 237 255
224 237 255
224 237 255
224 237 255
224 237 255
224 237 255
224 237 255
224 237 255
224 237 255
224 237 255
224 237 255
224 237 255
224 237 255
224 237 255
224 237 255
224 237 255
224 237 255
224 237 255
224 237 255
224 237 255
224 237 255
224 237 255
224 237 255
224 237 255
224 237 255
224 237 255
224 237 255
224 237 255
224 237 255
224 237 255
224 237 255
224 237 255
224 237 255
224 237 255
224 237 255
224 237 255
224 237 255
224 237 255
224 237 255
224 237 255
224 237 255
224 237 255
224 237 255
224 237 255
224 237 255
224 237 255
224 237 255
224 237 255
224 237 255
224 237 255
224 237 255
224 237 255
224 237 255
224 237 255
224 237 255
224 237 255
224 237 255
224 237 255
224 237 255
224 237 255
224 237 255
224 237 255
224 237 255
224 237 255
224 237 255
224 237 255
224 237 255
224 237 255
224 237 255
224 237 255
224 237 255
224 237 255
224 237 255
224 237 255
224 237 255
224 237 255
224 237 255
224 237 255
224 237 255
224 237 255
224 237 255
224 237 255
224 237 255
224 237 255
224 237 255
224 237 255
224 237 255
224 237 255
224 237 255
224 237 255
224 237 255
224 237 255
224 237 255
224 237 255
224 237 255
224 237 255
224 237 255
225 237 255
225 237 255
225 237 255
225 238 255
225 238 255
225 238 255
225 238 255
225 238 255
225 238 255
225 238 255
225 238 255
225 238 255
224 237 252
212 227 215
202 219 181
180 202 80
175 198 0
175 198 0
176 199 0
174 198 0
174 198 0
174 197 0
175 198 0
174 198 0
175 198 0
174 197 0
176 198 0
175 198 0
174 198 0
174 198 0
197 217 184
218 234 255
201 217 238
59 94 120
59 94 126
61 96 139
61 96 137
60 94 126
60 95 140
61 96 143
61 95 137
61 96 143
60 95 133
61 97 147
61 97 147
62 97 148
59 94 129
61 96 144
62 98 153
61 96 142
60 96 144
60 95 131
59 94 135
60 95 130
60 95 143
61 97 147
62 97 143
61 97 142
61 96 139
60 95 140
62 97 149
60 95 148
60 95 142
61 96 145
61 96 142
61 96 139
60 94 135
62 97 145
61 96 150
60 95 143
61 96 142
61 97 149
60 95 147
60 95 140
61 96 141
59 94 135
61 96 139
61 96 145
61 95 135
62 97 149
61 96 141
61 97 148
61 96 147
61 97 150
61 96 145
60 95 148
59 94 131
59 94 136
61 96 143
60 94 139
61 95 147
61 96 147
62 97 151
61 95 142
60 95 140
62 97 156
62 97 153
62 97 153
61 96 140
60 95 140
61 95 138
61 96 143
61 96 147
60 96 149
61 95 146
60 95 142
61 96 149
58 92 129
60 94 144
61 95 139
60 95 137
59 93 138
61 95 145
59 92 133
60 94 136
61 95 144
60 94 139
60 93 134
59 92 135
60 93 141
59 93 137
60 93 144
57 90 127
60 93 143
58 90 136
59 93 142
60 93 138
59 91 139
55 86 119
58 89 140
57 88 131
57 86 124
55 84 129
202 217 240
218 234 255
179 186 183
130 125 79
115 113 70
107 106 69
110 109 74
97 98 68
104 105 74
99 101 72
85 90 66
84 90 68
76 83 62
72 81 65
70 79 63
73 82 63
64 75 60
77 86 67
75 86 67
80 90 72
85 94 75
91 99 76
94 100 75
104 109 80
107 111 82
104 109 80
120 122 88
125 126 88
128 129 91
116 119 83
141 139 97
136 135 94
141 140 95
154 150 100
148 145 95
148 145 99
158 153 98
165 159 104
159 154 100
168 162 105
171 164 104
173 166 106
171 164 105
173 166 106
181 173 112
179 171 110
180 172 111
183 175 110
184 175 110
183 175 110
184 175 110
185 176 111
185 176 112
186 176 113
185 176 112
185 176 111
184 175 112
185 176 112
187 177 112
185 176 110
184 175 110
186 176 110
186 176 110
185 175 109
184 175 110
183 174 110
185 176 109
184 175 110
186 176 111
185 176 110
185 176 111
184 175 110
184 175 108
183 175 110
183 174 109
185 176 112
184 175 110
187 177 112
184 175 111
183 174 108
184 175 110
185 176 109
183 175 109
184 174 107
181 173 103
183 174 106
184 175 109
185 175 108
182 174 107
182 174 107
185 175 110
184 175 108
185 175 108
184 175 108
183 174 106
182 174 105
185 175 108
185 175 108
186 176 109
184 175 108
184 174 106
183 174 106
185 175 108
180 172 103
183 174 106
183 174 105
183 174 107
184 175 109
185 175 106
183 174 107
187 176 109
183 174 106
186 176 109
182 173 104
185 175 108
183 174 104
184 174 106
184 175 106
182 174 106
182 173 104
183 174 104
185 175 108
183 174 106
182 173 102
183 174 108
183 174 103
183 174 106
185 175 106
184 175 107
185 175 106
182 173 101
180 172 102
184 174 103
183 174 104
182 173 104
184 174 104
184 175 106
183 174 104
181 173 103
185 175 108
185 175 106
181 172 99
184 174 105
183 174 104
185 175 106
185 175 104
182 173 101
181 172 99
183 173 101
182 173 101
224 237 255
224 237 255
224 237 255
224 237 255
224 237 255
224 237 255
224 237 255
224 237 255
224 237 255
224 237 255
224 237 255
224 237 255
224 237 255
224 237 255
224 237 255
224 237 255
224 237 255
224 237 255
224 237 255
224 237 255
224 237 255
224 237 255
224 237 255
224 237 255
224 237 255
224 237 255
223 237 255
224 237 255
223 237 255
223 237 255
223 237 255
223 237 255
223 237 255
223 237 255
223 237 255
223 237 255
223 237 255
223 237 255
223 237 255
223 237 255
223 237 255
223 237 255
223 237 255
223 237 255
223 237 255
223 237 255
223 237 255
223 237 255
223 237 255
223 237 255
223 237 255
223 237 255
223 237 255
223 237 255
223 237 255
223 237 255
223 237 255
223 237 255
223 237 255
223 237 255
223 237 255
223 237 255
223 237 255
223 237 255
223 237 255
223 237 255
223 237 255
223 237 255
223 237 255
223 237 255
223 237 255
223 237 255
223 237 255
223 237 255
223 237 255
223 237 255
223 237 255
223 237 255
223 237 255
223 237 255
223 237 255
223 237 255
223 237 255
223 237 255
223 237 255
223 237 255
223 237 255
224 237 255
224 237 255
224 237 255
224 237 255
224 237 255
224 237 255
224 237 255
224 237 255
224 237 255
224 237 255
224 237 255
224 237 255
224 237 255
224 237 255
224 237 255
224 237 255
224 237 255
224 237 255
224 237 255
224 237 255
224 237 255
224 237 255
224 237 255
224 237 255
224 237 255
224 237 255
224 237 255
224 237 255
224 237 255
224 237 255
224 237 255
224 237 255
224 237 255
224 237 255
224 237 255
225 237 255
225 237 255
225 237 255
225 238 255
225 238 255
225 238 255
225 238 255
225 238 255
225 238 255
225 238 255
225 238 255
216 230 228
201 218 179
188 208 130
175 198 25
174 197 0
175 198 0
174 198 0
176 199 0
174 198 0
174 197 0
174 198 0
174 198 0
174 198 0
174 198 0
182 204 99
218 234 255
175 193 216
61 96 139
60 95 126
60 95 130
60 94 130
61 96 142
62 97 142
62 97 147
59 93 133
61 97 145
61 96 147
62 97 151
61 96 139
61 96 137
61 97 147
61 96 144
60 96 141
61 96 142
61 96 144
61 95 136
60 94 133
61 96 141
61 96 144
61 96 145
62 97 150
60 95 144
60 95 136
60 96 141
60 95 130
61 96 142
60 95 144
62 97 151
61 97 142
61 96 148
61 95 136
61 95 142
61 96 141
62 97 151
61 96 142
59 94 137
61 96 144
61 96 143
62 97 150
61 96 143
62 97 153
62 97 152
61 97 147
62 97 145
61 96 145
61 96 142
62 97 152
60 95 141
60 95 136
61 96 145
61 97 148
62 97 152
59 94 141
62 97 149
61 95 139
61 95 141
61 97 153
60 95 142
61 96 145
60 94 140
60 95 134
60 95 146
61 96 139
61 96 148
61 96 146
60 94 134
61 95 144
62 97 153
60 95 142
60 94 134
60 94 138
61 97 152
61 95 148
59 93 134
59 94 144
60 95 139
60 93 136
60 94 146
59 92 133
60 94 137
60 93 142
59 92 137
58 91 140
58 90 120
59 92 139
58 91 132
59 92 139
60 93 141
58 89 125
59 91 132
57 88 123
59 91 135
57 88 128
57 88 132
55 86 119
57 87 130
53 81 115
174 189 210
218 234 255
162 161 133
141 135 83
110 108 71
91 91 64
110 109 72
97 99 70
95 96 69
76 81 62
77 83 62
65 74 59
60 69 52
54 65 51
62 73 60
47 62 56
65 75 58
57 72 62
75 84 65
74 83 62
76 86 67
82 91 69
85 92 70
102 107 78
108 112 82
115 117 83
113 116 84
124 125 89
123 124 88
138 136 93
144 141 96
142 141 95
147 144 96
155 151 98
150 147 99
153 149 100
158 153 100
157 152 98
161 156 102
175 168 109
166 160 103
174 167 107
173 166 106
171 164 105
176 168 104
177 169 107
181 172 107
183 174 108
183 174 107
181 173 106
184 175 111
184 175 110
186 176 110
182 174 108
185 175 109
184 176 112
183 174 108
184 175 111
184 175 109
185 176 111
183 174 107
185 176 111
185 176 111
185 175 108
184 175 110
184 175 110
185 175 108
185 175 109
184 175 110
184 175 111
184 175 108
184 175 109
184 175 109
183 174 105
184 175 109
184 175 106
185 175 108
182 173 104
184 175 110
183 174 108
184 175 109
183 174 106
184 175 109
184 174 106
183 174 107
185 175 110
186 176 110
181 173 104
184 174 106
185 175 107
186 176 108
184 175 108
182 173 106
185 175 108
184 174 108
184 174 105
184 175 107
184 175 106
181 173 103
185 175 106
183 173 104
184 175 106
183 174 106
185 175 107
186 176 110
180 172 103
183 173 104
181 173 104
185 175 105
184 175 109
185 175 108
185 175 106
184 174 105
186 176 108
184 175 108
181 172 101
180 172 100
183 174 105
183 173 104
181 172 100
184 174 106
183 174 103
183 174 106
181 172 101
184 175 106
183 174 102
180 172 101
185 175 104
183 173 100
186 176 108
184 174 103
180 171 99
183 173 101
181 172 99
182 173 101
183 174 104
182 173 101
181 172 99
183 174 103
184 174 106
182 173 103
183 174 103
184 174 104
183 174 103
182 173 103
184 174 103
183 173 101
181 172 101
182 173 100
180 171 98
224 237 255
224 237 255
223 237 255
223 237 255
223 237 255
223 237 255
223 237 255
223 237 255
223 237 255
223 237 255
223 237 255
223 237 255
223 237 255
223 237 255
223 237 255
223 237 255
223 237 255
223 237 255
223 237 255
223 237 255
223 237 255
223 237 255
223 237 255
223 237 255
223 237 255
223 237 255
223 237 255
223 237 255
223 237 255
223 237 255
223 237 255
223 237 255
223 237 255
223 237 255
223 237 255
223 237 255
223 237 255
223 237 255
223 237 255
223 237 255
223 237 255
223 237 255
223 237 255
223 237 255
223 237 255
223 237 255
223 237 255
223 237 255
223 237 255
223 237 255
223 237 255
223 237 255
223 237 255
223 237 255
223 237 255
223 237 255
223 237 255
223 237 255
223 237 255
223 237 255
223 237 255
223 237 255
223 237 255
223 237 255
223 237 255
223 237 255
223 237 255
223 237 255
223 237 255
223 237 255
223 237 255
223 237 255
223 237 255
223 237 255
223 237 255
223 237 255
223 237 255
223 237 255
223 237 255
223 237 255
223 237 255
223 237 255
223 237 255
223 237 255
223 237 255
223 237 255
223 237 255
223 237 255
223 237 255
223 237 255
223 237 255
223 237 255
223 237 255
223 237 255
223 237 255
223 237 255
223 237 255
223 237 255
223 237 255
223 237 255
223 237 255
223 237 255
223 237 255
224 237 255
224 237 255
224 237 255
224 237 255
224 237 255
224 237 255
224 237 255
224 237 255
224 237 255
224 237 255
224 237 255
224 237 255
224 237 255
224 237 255
224 237 255
224 237 255
224 237 255
224 237 255
224 237 255
224 237 255
224 237 255
224 237 255
224 237 255
224 237 255
225 237 255
225 237 255
225 237 255
225 238 255
225 238 255
225 238 255
225 238 255
225 238 255
225 238 255
218 232 236
208 224 201
183 204 102
174 197 0
175 198 0
174 198 0
172 196 0
173 197 0
175 198 0
174 198 0
175 198 0
176 199 44
216 232 246
159 177 202
61 96 137
60 96 136
62 97 140
61 96 143
61 95 131
61 96 149
61 96 143
61 96 137
62 97 152
61 96 145
61 96 136
62 97 145
61 96 149
61 96 142
62 97 149
61 96 143
59 94 140
61 96 143
60 95 139
60 95 141
62 97 151
61 96 147
61 96 142
61 96 144
61 97 149
60 95 140
61 96 148
61 96 142
60 95 139
60 95 137
61 96 145
60 95 139
60 94 128
60 94 137
61 96 139
61 96 148
61 96 145
61 96 143
61 96 145
61 96 140
62 98 156
61 96 145
61 96 141
60 95 144
61 97 153
61 96 143
62 97 151
60 94 139
60 95 133
60 95 144
61 96 150
59 94 136
61 96 147
61 97 150
60 95 141
60 95 141
61 96 141
60 95 144
60 95 144
60 95 146
61 97 144
62 97 148
61 95 144
61 95 149
60 95 142
59 94 133
60 94 132
59 94 135
59 93 136
59 94 128
60 93 136
59 93 134
61 96 148
61 96 143
60 94 136
60 93 136
60 94 136
60 94 146
61 95 144
60 95 138
60 93 132
60 93 138
61 95 145
59 94 144
60 94 140
59 92 127
60 93 137
60 93 134
59 92 129
59 92 139
59 90 135
60 92 136
58 90 132
57 89 123
57 89 127
58 89 127
58 88 125
56 88 134
55 84 112
54 83 116
143 159 185
215 230 250
152 146 93
126 122 73
103 103 67
112 111 73
96 96 66
95 95 64
76 80 59
61 68 52
74 81 61
57 67 53
53 66 56
44 58 50
52 64 53
47 62 53
46 62 52
50 65 56
60 73 61
66 78 65
80 88 67
80 89 68
98 104 78
86 94 71
109 112 81
108 112 81
127 127 88
122 124 89
111 114 84
131 130 89
146 144 96
149 145 97
140 138 94
142 140 94
145 142 93
146 143 93
154 150 96
158 154 99
156 151 99
164 158 99
168 161 105
169 163 103
172 164 103
174 167 102
176 169 105
172 165 97
178 170 104
180 172 106
182 173 103
183 174 106
183 174 108
184 175 108
184 174 106
186 176 110
183 174 109
184 174 106
186 176 110
184 175 108
185 176 110
183 174 109
182 174 108
182 173 106
185 176 110
183 174 106
185 175 109
182 174 108
183 174 106
183 175 109
184 175 106
184 175 108
183 174 105
186 176 110
182 174 108
183 174 107
186 176 109
184 175 108
185 175 108
185 176 109
186 176 110
180 172 102
183 174 107
184 174 104
182 173 100
184 174 105
183 173 104
182 174 105
184 174 107
183 174 104
182 173 104
185 175 108
183 174 105
183 173 103
184 174 104
181 172 101
183 174 107
184 175 106
184 175 107
180 172 99
182 173 103
184 175 108
183 174 104
183 174 105
182 173 103
183 174 103
184 175 106
182 173 103
182 172 99
185 175 106
182 173 104
182 173 103
187 176 108
182 173 102
181 172 99
182 173 103
184 174 104
183 174 103
185 175 106
182 173 103
182 173 101
183 174 104
183 174 104
182 173 101
184 174 104
182 173 101
180 171 97
180 172 101
184 174 104
184 174 104
184 174 104
182 173 101
184 174 104
184 174 103
184 174 103
183 173 101
181 172 98
182 172 99
184 174 104
183 174 102
183 173 103
182 173 101
183 173 102
184 174 106
182 173 99
183 174 102
182 173 100
179 171 95
183 173 101
183 173 102
185 175 106
181 172 97
223 237 255
223 237 255
223 237 255
223 237 255
223 237 255
223 237 255
223 237 255
223 237 255
223 237 255
223 237 255
223 237 255
223 237 255
223 237 255
223 237 255
223 237 255
223 237 255
223 237 255
223 237 255
223 237 255
223 237 255
223 237 255
223 237 255
223 237 255
223 237 255
223 237 255
223 237 255
223 237 255
223 237 255
223 237 255
223 237 255
223 237 255
223 237 255
223 237 255
223 237 255
223 237 255
223 237 255
223 237 255
223 237 255
223 237 255
223 237 255
223 237 255
223 237 255
223 237 255
223 237 255
223 237 255
223 237 255
223 237 255
223 237 255
223 237 255
223 237 255
223 237 255
223 237 255
223 237 255
223 237 255
223 237 255
223 237 255
223 237 255
223 237 255
223 237 255
223 237 255
223 237 255
223 237 255
223 237 255
223 237 255
223 237 255
223 237 255
223 237 255
223 237 255
223 237 255
223 237 255
223 237 255
223 237 255
223 237 255
223 237 255
223 237 255
223 237 255
223 237 255
223 237 255
223 237 255
223 237 255
223 237 255
223 237 255
223 237 255
223 237 255
223 237 255
223 237 255
223 237 255
223 237 255
223 237 255
223 237 255
223 237 255
223 237 255
223 237 255
223 237 255
223 237 255
223 237 255
223 237 255
223 237 255
223 237 255
223 237 255
223 237 255
223 237 255
223 237 255
223 237 255
223 237 255
223 237 255
223 237 255
223 237 255
223 237 255
223 237 255
223 237 255
223 237 255
223 237 255
224 237 255
224 237 255
224 237 255
224 237 255
224 237 255
224 237 255
224 237 255
224 237 255
224 237 255
224 237 255
224 237 255
224 237 255
224 237 255
224 237 255
224 237 255
224 237 255
224 237 255
224 237 255
224 237 255
225 237 255
225 237 255
225 238 255
225 238 255
225 238 255
225 238 255
225 238 255
219 233 238
204 220 189
180 203 88
175 198 0
174 198 0
175 198 0
173 197 0
173 197 0
175 198 0
209 226 226
106 130 164
62 97 142
61 96 133
62 97 147
63 98 151
60 95 129
61 96 142
61 96 144
63 98 147
62 97 150
61 96 143
61 96 139
63 98 154
60 95 137
61 96 139
62 97 150
62 97 151
62 97 148
61 96 139
61 96 143
60 95 136
62 96 141
60 96 145
60 95 136
62 97 144
62 97 145
60 95 136
62 97 147
60 95 140
60 95 141
61 96 145
60 95 144
60 95 137
60 95 139
60 94 137
61 97 142
61 96 144
59 94 135
62 97 148
62 97 145
61 97 149
61 96 141
59 93 139
61 96 142
60 95 142
60 95 135
61 96 135
61 96 141
61 96 145
61 97 153
62 97 151
61 96 142
60 95 143
60 95 134
60 95 133
60 94 137
60 95 135
60 94 135
60 94 134
60 95 140
60 95 144
60 95 145
61 96 146
59 93 124
60 95 134
61 96 147
60 95 136
61 96 146
61 96 145
61 96 140
60 94 140
59 94 144
59 93 129
60 95 145
59 93 133
60 94 137
60 94 141
61 96 147
60 95 140
60 94 147
60 93 134
60 94 142
61 95 137
60 94 138
61 95 144
61 94 139
59 93 139
57 89 123
57 90 128
59 91 133
59 92 137
58 90 134
58 89 126
58 90 127
60 92 137
58 90 135
58 89 126
56 87 126
56 86 129
57 87 128
53 80 115
105 121 144
207 219 231
144 138 83
113 109 69
100 98 64
102 100 66
79 80 54
82 85 61
83 86 63
71 77 54
55 65 54
43 57 51
42 55 47
45 60 48
47 61 50
46 61 54
49 64 55
48 64 55
46 62 55
52 67 58
70 80 59
78 87 66
77 86 65
91 97 71
94 101 76
98 103 76
111 114 82
117 119 82
124 125 86
125 125 85
135 133 87
141 139 91
149 146 95
149 146 95
143 140 91
152 148 97
153 149 97
153 149 92
153 149 92
162 156 98
168 161 101
165 159 99
166 160 99
172 165 103
175 168 106
175 168 102
179 170 107
180 171 101
181 172 102
182 173 103
185 175 107
181 172 101
183 174 109
183 174 106
183 174 106
183 174 104
183 174 106
185 175 109
185 176 109
184 174 105
184 175 106
183 174 104
181 172 103
185 175 108
183 174 104
183 174 107
183 174 106
183 174 106
180 172 101
184 174 105
183 174 107
183 173 103
185 175 108
184 175 107
182 173 104
184 175 107
184 175 106
187 177 109
184 175 108
185 175 108
184 175 109
182 174 104
183 174 104
183 174 105
185 175 107
180 172 101
184 175 106
181 173 102
182 173 103
182 173 105
182 173 104
182 174 105
185 175 106
181 173 103
183 174 106
183 174 106
185 175 105
181 172 99
183 174 104
184 175 106
182 173 103
183 174 103
183 174 103
184 174 106
183 173 102
181 172 100
184 174 104
183 173 100
184 174 105
182 173 100
180 171 98
183 173 102
183 173 100
185 175 106
182 172 99
178 171 99
182 172 97
180 172 99
184 174 102
179 171 99
181 172 101
182 173 103
183 173 101
183 173 100
183 173 101
181 172 99
182 173 101
182 173 101
180 171 96
180 172 99
184 174 104
183 173 101
179 170 97
183 173 102
183 173 101
182 173 100
181 172 101
179 171 95
183 173 101
182 173 101
183 174 103
183 173 100
183 173 103
182 173 99
182 173 103
182 173 101
180 171 99
180 171 95
181 171 96
185 174 102
223 237 255
223 237 255
223 237 255
223 237 255
223 237 255
223 237 255
223 237 255
223 237 255
223 237 255
223 237 255
223 237 255
223 237 255
223 237 255
223 237 255
223 237 255
223 236 255
223 236 255
223 236 255
223 236 255
223 236 255
223 236 255
223 236 255
223 236 255
223 236 255
223 236 255
223 236 255
223 236 255
223 236 255
223 236 255
223 236 255
223 236 255
223 236 255
223 236 255
223 236 255
223 236 255
223 236 255
223 236 255
223 236 255
223 236 255
223 236 255
223 236 255
223 236 255
223 236 255
223 236 255
223 236 255
223 236 255
223 236 255
223 236 255
223 236 255
223 236 255
223 236 255
223 236 255
223 236 255
223 236 255
223 236 255
223 236 255
223 236 255
223 236 255
223 236 255
223 236 255
223 236 255
223 236 255
223 236 255
223 236 255
223 236 255
223 236 255
223 236 255
223 236 255
223 236 255
223 236 255
223 236 255
223 236 255
223 236 255
223 236 255
223 236 255
223 236 255
223 236 255
223 236 255
223 236 255
223 236 255
223 236 255
223 236 255
223 236 255
223 236 255
223 236 255
223 236 255
223 236 255
223 236 255
223 236 255
223 236 255
223 236 255
223 236 255
223 236 255
223 236 255
223 236 255
223 236 255
223 237 255
223 237 255
223 237 255
223 237 255
223 237 255
223 237 255
223 237 255
223 237 255
223 237 255
223 237 255
223 237 255
223 237 255
223 237 255
223 237 255
223 237 255
223 237 255
223 237 255
223 237 255
223 237 255
223 237 255
223 237 255
223 237 255
223 237 255
223 237 255
223 237 255
224 237 255
224 237 255
224 237 255
224 237 255
224 237 255
224 237 255
224 237 255
224 237 255
224 237 255
224 237 255
224 237 255
224 237 255
224 237 255
224 237 255
224 237 255
225 237 255
225 237 255
225 238 255
225 238 255
225 238 255
225 238 255
215 229 226
198 216 165
176 199 36
175 198 0
175 198 0
174 198 0
201 219 193
81 110 151
63 98 145
63 98 149
61 97 141
61 97 147
62 98 156
62 98 155
62 97 145
61 97 149
61 96 137
62 97 148
62 97 150
62 97 142
60 95 141
61 96 140
61 96 142
60 95 140
61 96 135
62 97 145
62 97 144
60 95 140
61 95 142
61 96 142
61 96 140
62 97 149
61 96 145
61 96 140
60 95 148
61 96 141
62 97 144
60 95 140
61 96 142
60 95 142
61 96 140
61 95 137
61 96 149
61 96 148
61 95 140
61 96 141
60 95 131
60 95 136
61 96 145
60 95 141
60 94 135
60 95 139
60 95 131
60 95 142
60 95 140
61 96 143
61 97 149
61 96 145
62 97 144
61 96 145
61 96 144
62 97 145
61 96 150
61 96 149
62 97 148
60 95 136
61 96 144
60 95 144
61 95 144
61 96 148
60 95 137
60 94 140
60 95 144
60 95 146
61 96 148
60 95 134
60 94 137
61 97 147
61 95 143
62 96 145
59 93 141
61 95 147
61 95 148
59 92 131
59 93 125
61 96 141
60 93 134
60 95 143
60 93 133
60 94 142
60 93 134
58 91 132
61 95 145
59 91 131
59 92 139
59 92 134
60 93 140
58 92 137
57 89 122
59 91 133
58 90 119
58 91 130
57 88 131
56 87 119
56 87 123
56 85 124
55 84 114
55 84 125
62 83 107
198 207 212
121 117 73
110 107 65
88 88 57
90 89 60
77 80 58
66 70 51
82 83 58
58 67 52
40 52 42
43 57 50
46 61 54
43 56 49
46 60 51
43 56 44
46 62 55
48 64 55
44 59 49
49 65 51
56 71 61
70 81 62
83 91 66
88 95 68
91 97 70
96 101 71
113 114 80
121 123 83
116 117 82
123 123 80
126 126 86
127 127 86
134 133 90
150 146 92
140 138 91
142 139 91
150 146 85
149 146 92
154 150 94
168 162 104
165 159 99
165 159 98
166 159 101
172 164 98
177 169 101
180 171 103
180 171 103
183 174 106
181 173 103
182 173 104
181 172 102
182 173 104
182 173 104
183 174 104
181 173 103
182 173 103
183 173 101
183 174 105
182 173 103
187 176 109
184 175 107
184 174 106
182 174 106
186 176 106
184 175 107
182 173 103
181 173 101
186 176 109
183 174 104
184 175 106
182 173 101
183 174 103
184 174 101
182 173 106
182 174 104
183 174 104
182 173 103
185 175 106
183 174 105
183 173 102
185 175 103
184 174 104
184 175 106
184 174 104
181 172 101
182 173 101
183 173 101
181 172 99
179 171 97
180 171 97
183 174 101
183 174 103
184 174 104
181 173 102
181 172 101
183 174 103
183 174 103
180 172 98
182 173 103
180 172 101
184 175 106
183 174 104
186 175 106
183 174 103
183 173 101
183 174 103
182 173 103
182 172 99
183 173 102
184 174 104
180 172 99
181 172 100
181 172 101
182 173 101
184 174 101
183 173 102
184 174 105
182 173 98
181 172 98
182 173 102
184 174 104
181 172 99
185 175 105
182 173 102
176 168 90
183 173 101
180 171 98
182 172 99
182 173 99
184 174 103
182 173 101
181 172 97
182 172 98
183 174 102
182 173 99
182 173 100
180 172 98
181 172 99
181 172 97
180 172 99
180 172 99
179 171 95
183 173 102
179 170 93
181 172 96
182 172 97
180 171 96
184 174 103
181 172 96
180 171 95
223 236 255
223 236 255
223 236 255
223 236 255
223 236 255
223 236 255
223 236 255
223 236 255
223 236 255
223 236 255
223 236 255
223 236 255
223 236 255
223 236 255
223 236 255
223 236 255
223 236 255
223 236 255
223 236 255
223 236 255
223 236 255
223 236 255
223 236 255
223 236 255
223 236 255
223 236 255
223 236 255
223 236 255
223 236 255
223 236 255
223 236 255
223 236 255
223 236 255
223 236 255
223 236 255
223 236 255
223 236 255
223 236 255
223 236 255
223 236 255
223 236 255
223 236 255
223 236 255
223 236 255
223 236 255
223 236 255
223 236 255
223 236 255
223 236 255
223 236 255
223 236 255
223 236 255
223 236 255
223 236 255
223 236 255
223 236 255
223 236 255
223 236 255
223 236 255
223 236 255
223 236 255
223 236 255
223 236 255
223 236 255
223 236 255
223 236 255
223 236 255
223 236 255
223 236 255
223 236 255
223 236 255
223 236 255
223 236 255
223 236 255
223 236 255
223 236 255
223 236 255
223 236 255
223 236 255
223 236 255
223 236 255
223 236 255
223 236 255
223 236 255
223 236 255
223 236 255
223 236 255
223 236 255
223 236 255
223 236 255
223 236 255
223 236 255
223 236 255
223 236 255
223 236 255
223 236 255
223 236 255
223 236 255
223 236 255
223 236 255
223 236 255
223 236 255
223 236 255
223 236 255
223 236 255
223 236 255
223 236 255
223 236 255
223 236 255
223 236 255
223 236 255
223 237 255
223 237 255
223 237 255
223 237 255
223 237 255
223 237 255
223 237 255
223 237 255
223 237 255
223 237 255
223 237 255
223 237 255
223 237 255
223 237 255
223 237 255
223 237 255
223 237 255
224 237 255
224 237 255
224 237 255
224 237 255
224 237 255
224 237 255
224 237 255
224 237 255
224 237 255
224 237 255
224 237 255
224 237 255
225 237 255
225 237 255
225 238 255
225 238 255
221 234 242
204 221 189
182 204 95
175 198 0
180 200 137
62 97 141
62 97 141
63 98 149
62 96 148
63 98 148
62 98 149
62 97 147
63 98 148
60 95 136
62 97 147
61 96 137
61 96 148
60 95 139
62 97 148
62 97 148
61 96 147
61 95 143
61 95 137
62 97 145
62 97 144
61 97 145
61 96 137
61 96 141
62 97 149
60 94 126
60 95 139
61 96 140
60 95 144
59 94 135
61 96 142
60 95 142
61 96 135
61 95 144
60 95 131
61 96 136
61 97 149
59 93 128
59 93 128
61 97 149
61 96 139
61 96 143
61 97 149
61 96 143
61 96 141
62 97 145
61 96 140
60 95 136
61 95 143
60 95 142
60 95 139
61 97 150
60 95 135
61 95 141
61 96 145
61 96 142
62 97 149
59 94 134
61 96 137
61 95 142
61 96 141
61 96 144
61 96 147
59 94 135
59 94 136
61 96 147
61 96 146
60 95 148
61 96 147
60 94 133
61 96 143
60 93 136
59 94 135
59 93 128
61 95 145
60 94 142
60 94 139
61 96 149
60 95 139
60 94 143
59 93 142
59 93 137
60 95 139
59 92 137
60 94 141
60 93 131
58 91 132
60 94 137
58 91 123
60 94 149
59 92 136
57 89 128
59 91 130
57 89 124
60 94 144
57 87 118
57 88 127
58 89 127
57 88 125
55 86 124
55 84 127
55 84 126
52 80 113
165 169 155
117 113 67
84 83 51
91 90 57
79 79 52
70 74 53
61 66 48
38 49 39
39 51 39
40 51 40
39 51 42
42 56 49
43 56 44
44 57 50
44 58 45
48 63 51
49 64 54
48 63 52
48 63 51
49 64 54
63 75 60
59 72 58
88 95 72
94 99 74
105 108 79
103 107 75
101 104 70
123 123 81
116 118 81
145 142 92
136 134 88
141 138 88
149 145 94
153 148 92
143 141 88
154 150 91
147 144 89
157 152 92
157 152 91
158 153 91
168 161 98
169 162 99
175 167 97
173 165 97
172 165 97
180 171 103
174 166 97
178 170 98
181 172 98
180 172 101
181 172 103
182 172 101
183 173 103
180 172 101
181 172 99
181 172 100
182 172 99
183 173 100
180 172 100
181 173 103
181 172 102
182 173 103
183 173 102
184 174 102
182 172 99
182 173 100
184 174 101
182 173 101
182 173 103
182 173 101
183 173 101
183 174 103
182 173 101
179 170 95
183 173 102
183 173 103
182 173 101
183 174 106
181 172 99
181 172 99
181 172 100
181 172 101
182 172 102
183 173 101
183 174 103
180 171 96
181 172 100
181 172 97
181 172 99
183 174 103
179 170 93
180 171 97
182 173 101
185 175 105
178 170 93
180 172 100
182 173 101
184 174 105
180 172 99
181 172 100
181 172 97
182 173 100
181 172 99
182 173 101
185 175 105
178 170 95
178 170 93
180 171 98
181 172 99
184 174 100
179 170 95
180 171 98
182 173 100
181 172 99
186 175 105
180 171 97
184 173 103
183 173 99
183 173 101
179 170 95
181 172 98
181 172 99
184 174 102
183 174 102
180 171 99
183 173 101
182 173 100
184 174 101
181 172 100
183 173 100
180 171 97
178 170 93
177 169 91
183 173 101
184 173 101
180 171 96
179 170 94
181 172 97
181 171 97
181 172 99
182 173 99
180 171 94
183 173 99
181 172 97
180 171 97
179 170 94
178 170 92
179 170 94
181 172 99
223 236 255
223 236 255
223 236 255
223 236 255
223 236 255
223 236 255
223 236 255
223 236 255
223 236 255
223 236 255
223 236 255
223 236 255
223 236 255
223 236 255
223 236 255
223 236 255
222 236 255
222 236 255
222 236 255
222 236 255
222 236 255
222 236 255
222 236 255
222 236 255
222 236 255
222 236 255
222 236 255
222 236 255
222 236 255
222 236 255
222 236 255
222 236 255
222 236 255
222 236 255
222 236 255
222 236 255
222 236 255
222 236 255
222 236 255
222 236 255
222 236 255
222 236 255
222 236 255
222 236 255
222 236 255
222 236 255
222 236 255
222 236 255
222 236 255
222 236 255
222 236 255
222 236 255
222 236 255
222 236 255
222 236 255
222 236 255
222 236 255
222 236 255
222 236 255
222 236 255
222 236 255
222 236 255
222 236 255
222 236 255
222 236 255
222 236 255
222 236 255
222 236 255
222 236 255
222 236 255
222 236 255
222 236 255
222 236 255
222 236 255
222 236 255
222 236 255
222 236 255
222 236 255
222 236 255
222 236 255
222 236 255
222 236 255
222 236 255
222 236 255
222 236 255
222 236 255
222 236 255
222 236 255
222 236 255
222 236 255
222 236 255
222 236 255
222 236 255
222 236 255
222 236 255
223 236 255
223 236 255
223 236 255
223 236 255
223 236 255
223 236 255
223 236 255
223 236 255
223 236 255
223 236 255
223 236 255
223 236 255
223 236 255
223 236 255
223 236 255
223 236 255
223 236 255
223 236 255
223 236 255
223 236 255
223 236 255
223 236 255
223 236 255
223 236 255
223 236 255
223 236 255
223 237 255
223 237 255
223 237 255
223 237 255
223 237 255
223 237 255
223 237 255
223 237 255
223 237 255
223 237 255
223 237 255
223 237 255
223 237 255
224 237 255
224 237 255
224 237 255
224 237 255
224 237 255
224 237 255
224 237 255
224 237 255
224 237 255
224 237 255
225 237 255
225 238 255
224 237 252
206 222 196
167 188 113
64 99 151
62 96 135
61 96 144
62 97 147
62 97 151
62 97 151
62 97 148
63 98 154
61 96 141
61 96 143
62 97 147
62 97 144
62 97 153
61 95 141
61 96 150
61 96 143
61 97 145
61 95 134
61 96 143
61 95 135
62 97 147
61 96 137
61 96 145
60 95 135
61 96 142
61 95 136
61 96 148
60 95 140
60 95 131
59 94 124
61 96 150
59 94 126
61 96 144
61 96 139
61 96 143
59 93 128
59 94 131
61 96 141
60 95 143
61 96 148
60 95 140
61 96 142
60 95 133
60 95 142
61 96 144
61 96 140
60 95 144
60 95 143
62 97 145
61 96 134
61 96 147
59 94 130
60 94 134
59 94 128
61 96 145
62 97 144
61 96 148
59 93 128
59 93 135
60 94 140
60 96 143
60 95 136
62 97 150
60 95 136
60 95 140
60 95 144
60 95 133
60 94 136
62 97 144
60 93 135
62 96 142
59 93 136
59 93 126
61 95 137
61 96 139
59 93 134
59 93 138
61 95 140
60 94 134
59 93 137
60 94 138
59 93 137
59 93 129
60 93 144
59 93 138
59 93 141
59 92 136
58 89 124
60 93 139
59 92 134
58 90 135
60 93 146
59 91 133
58 90 127
59 92 141
57 89 126
57 87 130
57 87 126
55 85 125
55 85 118
53 81 113
53 80 119
131 130 99
122 118 66
73 72 47
82 80 51
65 67 45
74 76 54
64 67 46
45 53 40
37 49 40
42 55 47
39 51 40
45 58 48
42 55 44
46 61 51
40 54 44
47 62 50
49 65 56
46 61 50
46 61 49
49 65 55
55 70 57
69 80 61
86 93 70
81 88 63
85 92 70
96 100 66
113 115 81
110 113 73
111 114 77
129 129 82
138 135 85
138 136 90
134 133 86
137 135 82
150 146 94
140 138 86
154 150 90
164 158 96
162 156 95
159 153 91
169 162 97
169 162 98
167 161 96
169 162 95
172 165 95
177 169 99
178 170 102
179 170 97
184 174 103
180 171 99
181 172 100
182 173 103
182 172 99
183 173 103
182 173 99
180 171 99
180 171 97
179 170 97
182 173 102
184 174 103
182 172 97
181 172 99
182 172 99
181 172 99
180 171 95
182 173 101
180 171 97
184 174 105
179 170 96
180 172 100
180 171 98
180 171 96
181 172 97
182 173 100
182 173 104
181 172 99
184 174 103
183 173 99
183 173 102
182 172 99
179 170 96
183 173 101
181 172 100
181 172 99
181 172 98
181 172 99
181 172 97
182 173 99
182 173 101
181 172 97
181 172 98
183 174 101
181 172 97
183 173 99
181 172 101
183 173 102
182 173 103
183 173 98
186 175 104
182 172 99
180 171 96
180 171 97
181 172 100
180 172 97
181 172 99
181 171 97
182 173 101
182 173 101
182 172 99
181 172 97
180 172 99
183 173 99
181 172 97
183 173 101
182 172 97
176 168 90
180 171 95
182 173 99
185 175 104
183 174 103
182 172 99
184 174 100
181 172 97
183 173 99
181 172 98
182 172 98
179 171 97
178 169 92
182 172 99
178 170 96
182 173 99
180 171 95
181 171 95
180 171 97
177 170 95
183 173 100
183 173 100
180 171 97
181 171 97
181 171 96
179 170 92
183 173 101
182 173 98
178 170 92
179 170 95
178 170 94
179 170 95
183 173 101
181 172 99
222 236 255
222 236 255
222 236 255
222 236 255
222 236 255
222 236 255
222 236 255
222 236 255
222 236 255
222 236 255
222 236 255
222 236 255
222 236 255
222 236 255
222 236 255
222 236 255
222 236 255
222 236 255
222 236 255
222 236 255
222 236 255
222 236 255
222 236 255
222 236 255
222 236 255
222 236 255
222 236 255
222 236 255
222 236 255
222 236 255
222 236 255
222 236 255
222 236 255
222 236 255
222 236 255
222 236 255
222 236 255
222 236 255
222 236 255
222 236 255
222 236 255
222 236 255
222 236 255
222 236 255
222 236 255
222 236 255
222 236 255
222 236 255
222 236 255
222 236 255
222 236 255
222 236 255
222 236 255
222 236 255
222 236 255
222 236 255
222 236 255
222 236 255
222 236 255
222 236 255
222 236 255
222 236 255
222 236 255
222 236 255
222 236 255
222 236 255
222 236 255
222 236 255
222 236 255
222 236 255
222 236 255
222 236 255
222 236 255
222 236 255
222 236 255
222 236 255
222 236 255
222 236 255
222 236 255
222 236 255
222 236 255
222 236 255
222 236 255
222 236 255
222 236 255
222 236 255
222 236 255
222 236 255
222 236 255
222 236 255
222 236 255
222 236 255
222 236 255
222 236 255
222 236 255
222 236 255
222 236 255
222 236 255
222 236 255
222 236 255
222 236 255
222 236 255
222 236 255
222 236 255
222 236 255
222 236 255
222 236 255
222 236 255
222 236 255
222 236 255
222 236 255
222 236 255
222 236 255
222 236 255
222 236 255
223 236 255
223 236 255
223 236 255
223 236 255
223 236 255
223 236 255
223 236 255
223 236 255
223 236 255
223 236 255
223 236 255
223 236 255
223 236 255
223 236 255
223 236 255
223 236 255
223 237 255
223 237 255
223 237 255
223 237 255
223 237 255
223 237 255
223 237 255
223 237 255
223 237 255
224 237 255
224 237 255
224 237 255
224 237 255
224 237 255
224 237 255
224 237 255
225 237 255
193 208 233
62 97 142
63 97 144
64 99 154
63 97 145
62 97 144
62 97 147
62 98 150
62 98 148
61 97 148
61 96 142
62 97 144
60 95 142
61 97 143
62 96 148
62 98 154
61 96 139
62 97 147
59 94 131
63 98 150
62 97 147
61 96 142
61 95 137
61 96 140
60 95 141
60 95 139
61 96 148
61 96 147
60 95 145
61 95 140
60 95 140
59 94 129
61 96 140
60 95 136
61 97 143
60 94 135
61 96 144
60 96 145
62 97 150
61 96 133
61 95 140
60 95 136
62 98 152
60 94 140
60 95 135
61 96 143
60 95 135
60 94 139
60 95 137
61 96 141
61 96 145
61 96 143
60 95 139
60 94 133
61 96 143
60 94 130
60 95 139
60 94 128
62 97 149
61 95 135
59 94 131
60 95 136
61 97 148
58 92 133
61 96 142
59 93 133
61 96 144
59 94 131
60 95 142
61 96 143
60 95 141
60 94 139
59 93 128
60 94 141
60 94 138
60 94 135
58 92 124
59 93 141
60 95 143
60 94 139
60 94 143
58 91 132
59 93 134
60 94 138
59 93 136
59 91 127
59 92 131
60 93 140
59 92 133
60 94 143
59 92 136
59 91 129
58 90 118
58 90 131
59 91 127
58 89 129
58 89 127
58 89 126
55 85 118
56 86 123
56 84 119
55 85 129
53 80 110
108 108 82
106 103 59
71 71 45
69 70 45
61 63 44
42 49 36
42 50 37
35 47 41
34 44 33
41 52 42
40 51 34
40 52 37
43 56 47
43 57 44
49 63 49
48 64 54
48 63 51
46 61 50
47 62 47
50 66 54
46 61 51
62 76 61
83 90 68
83 90 68
91 96 66
104 108 77
112 114 77
109 111 74
116 117 75
124 123 80
116 118 77
138 136 88
140 137 81
136 133 85
157 152 89
147 144 89
149 144 85
156 151 87
159 154 95
160 154 95
163 157 94
166 159 94
174 166 94
170 163 97
171 164 93
173 165 93
178 169 98
177 169 96
179 171 96
183 174 103
179 171 95
182 172 99
183 173 103
183 173 100
182 172 103
183 173 99
181 172 96
181 172 99
182 172 99
183 174 104
180 172 98
181 171 97
180 171 95
180 171 95
180 171 95
183 173 101
183 174 103
182 172 101
184 174 101
181 172 95
180 171 96
181 172 99
182 173 101
182 172 99
180 171 96
181 172 99
179 170 95
178 169 90
183 173 102
180 171 96
179 170 95
181 172 99
185 174 101
182 173 100
184 174 102
182 173 99
182 173 100
182 173 99
182 173 99
181 172 99
182 172 99
179 171 95
180 171 97
181 172 97
181 172 97
181 172 97
180 171 97
183 174 102
182 172 98
180 171 95
178 170 96
180 171 93
182 173 99
178 170 93
179 170 93
180 171 92
178 170 94
182 173 101
181 172 96
181 172 96
182 173 97
182 172 96
179 170 95
178 169 91
178 169 90
182 173 101
178 170 90
181 172 97
182 172 96
177 169 93
180 171 96
180 171 95
182 173 100
177 169 88
185 174 101
179 170 90
180 171 96
180 171 97
180 170 92
184 174 100
177 168 87
181 171 94
181 171 97
182 173 99
178 170 90
180 171 95
184 173 100
179 170 93
180 171 98
180 171 93
180 171 97
183 173 97
180 171 96
176 168 87
181 171 95
179 170 91
182 173 100
181 171 94
182 172 97
222 236 255
222 236 255
222 236 255
222 236 255
222 236 255
222 236 255
222 236 255
222 236 255
222 236 255
222 236 255
222 236 255
222 236 255
222 236 255
222 236 255
222 236 255
222 236 255
222 236 255
222 236 255
222 236 255
222 236 255
222 236 255
222 236 255
222 236 255
222 236 255
222 236 255
222 236 255
222 236 255
222 236 255
222 236 255
222 236 255
222 236 255
222 236 255
222 236 255
222 236 255
222 236 255
222 236 255
222 236 255
222 236 255
222 236 255
222 236 255
222 236 255
222 236 255
222 236 255
222 236 255
222 236 255
222 236 255
222 236 255
222 236 255
222 236 255
222 236 255
222 236 255
222 236 255
222 236 255
222 236 255
222 236 255
222 236 255
222 236 255
222 236 255
222 236 255
222 236 255
222 236 255
222 236 255
222 236 255
222 236 255
222 236 255
222 236 255
222 236 255
222 236 255
222 236 255
222 236 255
222 236 255
222 236 255
222 236 255
222 236 255
222 236 255
222 236 255
222 236 255
222 236 255
222 236 255
222 236 255
222 236 255
222 236 255
222 236 255
222 236 255
222 236 255
222 236 255
222 236 255
222 236 255
222 236 255
222 236 255
222 236 255
222 236 255
222 236 255
222 236 255
222 236 255
222 236 255
222 236 255
222 236 255
222 236 255
222 236 255
222 236 255
222 236 255
222 236 255
222 236 255
222 236 255
222 236 255
222 236 255
222 236 255
222 236 255
222 236 255
222 236 255
222 236 255
222 236 255
222 236 255
222 236 255
222 236 255
222 236 255
222 236 255
222 236 255
222 236 255
222 236 255
222 236 255
222 236 255
222 236 255
222 236 255
222 236 255
222 236 255
222 236 255
223 236 255
223 236 255
223 236 255
223 236 255
223 236 255
223 236 255
223 236 255
223 236 255
223 236 255
223 236 255
223 237 255
223 237 255
223 237 255
223 237 255
223 237 255
223 237 255
223 237 255
224 237 255
224 237 255
224 237 255
191 205 227
62 96 145
63 98 151
64 99 156
63 98 153
63 98 147
62 98 150
61 95 130
62 98 156
62 97 142
62 96 143
60 95 141
62 97 144
60 95 133
61 96 142
59 94 134
62 97 147
61 96 145
61 95 141
60 95 135
61 96 142
62 97 148
62 97 155
61 96 137
62 97 152
62 97 150
61 95 140
59 94 128
60 95 140
60 95 133
60 94 137
61 96 135
60 95 139
61 96 139
61 96 144
61 95 140
62 97 150
60 95 142
60 95 142
60 95 136
60 95 142
58 92 131
61 95 139
61 96 139
60 95 141
61 96 135
61 96 147
61 95 136
59 94 129
60 95 134
59 93 133
61 96 140
60 95 142
59 94 138
60 95 136
61 95 139
60 94 136
61 96 142
61 96 147
61 96 139
58 91 129
60 94 143
60 95 142
59 94 134
59 93 136
61 95 138
59 94 138
60 94 134
61 96 137
60 94 135
61 95 144
60 94 142
58 92 127
60 95 135
60 94 137
60 94 137
62 97 152
60 94 134
61 95 137
59 92 123
59 94 139
58 91 127
60 94 138
59 93 141
58 92 131
59 92 127
60 93 135
58 92 132
59 92 135
57 90 126
60 93 137
57 89 122
59 91 130
57 88 118
59 91 131
59 90 132
58 89 114
55 85 125
55 84 116
53 81 109
52 80 103
54 83 116
51 78 106
100 100 74
101 98 52
93 90 55
89 86 55
58 60 38
56 61 45
43 52 42
31 40 28
34 45 33
33 43 32
40 53 41
38 49 36
42 55 44
43 57 43
45 59 47
45 59 47
47 63 48
48 64 50
50 66 54
47 64 52
49 65 53
56 70 55
67 78 61
87 93 66
93 99 71
106 107 72
99 103 71
113 114 73
111 112 72
130 129 82
138 135 85
133 131 79
137 134 79
138 135 88
144 140 88
145 141 81
160 155 95
151 146 84
153 148 86
156 151 88
166 159 93
166 160 92
173 165 97
162 157 87
172 164 91
168 162 83
177 169 97
177 168 94
180 171 95
177 169 90
180 171 94
183 173 100
180 172 97
180 171 97
181 172 98
181 172 96
179 170 95
178 170 93
180 171 95
179 170 93
182 173 101
183 173 101
177 169 91
180 171 96
180 171 98
182 172 99
183 173 100
181 172 97
180 171 97
178 169 92
182 172 95
180 171 97
178 170 95
180 171 96
182 172 99
182 173 100
181 172 97
182 172 97
181 172 97
181 172 97
182 173 101
180 171 93
182 172 98
180 170 95
180 171 94
178 170 92
178 169 93
182 172 97
179 170 94
182 172 97
180 171 95
182 172 96
180 171 96
181 172 97
179 170 94
179 170 97
183 173 97
182 172 98
180 171 95
180 171 94
181 171 98
181 171 95
179 170 95
179 170 94
181 171 97
178 169 92
182 172 98
179 171 94
181 171 95
183 173 101
178 170 92
181 171 93
177 169 92
179 170 92
180 171 91
179 170 93
179 170 92
179 170 93
180 171 96
180 171 95
178 170 92
182 172 97
180 171 95
181 171 94
179 170 94
180 171 95
183 173 101
180 171 95
178 170 93
181 172 97
179 170 92
179 170 92
178 170 90
179 170 93
179 170 94
179 170 93
183 173 100
180 171 94
183 173 100
179 170 93
182 173 100
179 170 90
180 172 98
181 171 95
178 169 90
180 171 94
181 172 95
179 170 92
176 168 86
222 236 255
222 236 255
222 236 255
222 236 255
222 236 255
222 236 255
222 236 255
222 236 255
222 236 255
222 236 255
222 236 255
222 236 255
222 236 255
222 236 255
222 236 255
222 236 255
222 236 255
222 236 255
222 236 255
222 236 255
222 236 255
222 236 255
222 236 255
222 236 255
222 236 255
222 236 255
222 236 255
222 236 255
222 236 255
222 236 255
222 236 255
222 236 255
222 236 255
222 236 255
222 236 255
222 236 255
222 236 255
222 236 255
222 236 255
222 236 255
222 236 255
222 236 255
222 236 255
222 236 255
222 236 255
222 236 255
222 236 255
222 236 255
222 236 255
222 236 255
222 236 255
222 236 255
222 236 255
222 236 255
222 236 255
222 236 255
222 236 255
222 236 255
222 236 255
222 236 255
222 236 255
222 236 255
222 236 255
222 236 255
222 236 255
222 236 255
222 236 255
222 236 255
222 236 255
222 236 255
222 236 255
222 236 255
222 236 255
222 236 255
222 236 255
222 236 255
222 236 255
222 236 255
222 236 255
222 236 255
222 236 255
222 236 255
222 236 255
222 236 255
222 236 255
222 236 255
222 236 255
222 236 255
222 236 255
222 236 255
222 236 255
222 236 255
222 236 255
222 236 255
222 236 255
222 236 255
222 236 255
222 236 255
222 236 255
222 236 255
222 236 255
222 236 255
222 236 255
222 236 255
222 236 255
222 236 255
222 236 255
222 236 255
222 236 255
222 236 255
222 236 255
222 236 255
222 236 255
222 236 255
222 236 255
222 236 255
222 236 255
222 236 255
222 236 255
222 236 255
222 236 255
222 236 255
222 236 255
222 236 255
222 236 255
222 236 255
222 236 255
222 236 255
222 236 255
222 236 255
222 236 255
222 236 255
222 236 255
222 236 255
222 236 255
222 236 255
222 236 255
222 236 255
223 236 255
223 236 255
223 236 255
223 236 255
223 236 255
223 236 255
223 236 255
223 237 255
223 237 255
223 237 255
166 183 210
64 99 152
64 99 156
63 98 149
64 100 161
62 97 148
62 97 147
62 97 141
62 97 140
62 97 149
61 96 142
61 96 143
61 96 139
61 96 140
61 96 144
62 97 143
62 97 149
61 96 139
61 96 137
60 95 142
60 95 142
60 95 142
61 97 149
60 95 137
62 97 144
62 97 147
60 94 139
61 96 141
62 97 145
60 95 142
60 94 133
60 95 140
61 96 144
62 97 140
60 95 130
60 94 136
60 94 133
59 93 133
59 94 129
59 94 133
60 94 130
60 95 137
60 95 133
60 94 131
60 95 131
60 95 144
60 94 141
60 95 134
59 94 130
59 94 134
60 95 141
60 94 135
61 96 149
59 94 135
59 94 135
60 95 133
60 94 134
61 96 137
61 96 143
58 92 130
60 94 133
58 92 122
60 95 138
60 95 136
61 96 143
60 95 132
59 93 128
60 94 139
59 94 134
59 93 126
58 91 118
59 93 135
60 94 138
60 94 136
60 93 128
59 92 132
62 96 141
61 95 146
59 93 132
59 93 135
59 92 131
59 92 128
58 90 121
59 93 129
60 94 137
59 92 129
59 93 130
59 92 137
59 92 130
57 89 128
59 93 135
59 92 133
59 92 140
59 92 138
58 90 133
57 88 129
58 89 126
57 87 117
57 88 122
56 87 124
54 83 116
55 83 116
52 78 102
83 90 74
91 88 54
82 80 46
50 52 30
63 64 39
45 49 33
36 45 31
34 45 37
36 47 37
40 52 36
40 51 41
41 54 41
41 54 41
47 61 48
43 57 47
43 55 39
45 59 48
45 58 42
46 61 47
48 64 51
47 63 53
50 66 51
69 79 61
80 87 62
93 98 66
89 95 65
102 106 71
119 119 78
113 114 72
115 116 74
136 133 81
141 138 84
137 135 80
139 137 85
145 140 85
146 142 82
151 146 84
156 150 84
159 154 92
168 161 91
157 152 86
169 161 93
169 161 91
170 163 86
169 161 89
171 163 91
172 164 89
179 170 99
179 170 95
179 171 94
181 172 97
180 171 93
178 169 93
179 170 93
182 172 97
181 172 95
177 169 89
182 172 97
181 172 97
179 170 95
180 171 97
179 171 94
176 168 90
181 172 97
180 170 93
181 171 95
182 172 99
181 171 97
180 171 95
179 171 95
178 169 92
179 170 96
179 170 93
178 169 93
180 171 93
181 171 94
178 170 92
180 171 93
178 170 94
177 169 90
178 170 90
183 174 101
180 171 95
179 170 95
182 173 99
180 171 95
181 171 94
181 172 97
181 172 96
180 171 93
181 172 97
181 172 94
177 169 92
180 171 95
181 172 96
180 171 93
179 171 94
178 170 90
181 172 95
180 171 95
178 169 89
181 172 97
179 171 95
181 171 95
181 171 97
179 170 93
181 172 96
179 170 93
180 172 98
177 169 90
180 171 95
181 172 96
181 172 97
179 170 91
180 170 90
180 171 95
180 171 94
179 170 90
180 171 93
180 171 96
177 169 91
182 172 98
178 169 90
181 171 95
181 171 95
179 169 89
180 171 95
183 173 99
180 171 95
177 168 87
177 168 87
178 170 91
178 170 90
181 171 96
177 169 90
182 172 96
181 171 95
180 171 97
179 170 91
179 170 91
179 171 93
181 171 94
181 171 94
180 170 94
181 172 95
178 170 92
178 170 90
177 168 87
179 170 91
222 236 255
222 236 255
222 236 255
222 236 255
222 236 255
222 236 255
222 236 255
222 236 255
222 236 255
222 236 255
222 236 255
222 236 255
222 236 255
222 236 255
222 236 255
222 236 255
222 236 255
222 236 255
222 236 255
222 236 255
222 236 255
222 236 255
222 236 255
222 236 255
222 236 255
222 236 255
222 236 255
222 236 255
222 236 255
222 236 255
222 236 255
222 236 255
222 236 255
222 236 255
222 236 255
222 236 255
222 236 255
222 236 255
222 236 255
222 236 255
222 236 255
222 236 255
222 236 255
222 236 255
222 236 255
222 236 255
222 236 255
222 236 255
222 236 255
222 236 255
222 236 255
222 236 255
222 236 255
222 236 255
222 236 255
222 236 255
222 236 255
222 236 255
222 236 255
222 236 255
222 236 255
222 236 255
222 236 255
222 236 255
222 236 255
222 236 255
222 236 255
222 236 255
222 236 255
222 236 255
222 236 255
222 236 255
222 236 255
222 236 255
222 236 255
222 236 255
222 236 255
222 236 255
222 236 255
222 236 255
222 236 255
222 236 255
222 236 255
222 236 255
222 236 255
222 236 255
222 236 255
222 236 255
222 236 255
222 236 255
222 236 255
222 236 255
222 236 255
222 236 255
222 236 255
222 236 255
222 236 255
222 236 255
222 236 255
222 236 255
222 236 255
222 236 255
222 236 255
222 236 255
222 236 255
222 236 255
222 236 255
222 236 255
222 236 255
222 236 255
222 236 255
222 236 255
222 236 255
222 236 255
222 236 255
222 236 255
222 236 255
222 236 255
222 236 255
222 236 255
222 236 255
222 236 255
222 236 255
222 236 255
222 236 255
222 236 255
222 236 255
222 236 255
222 236 255
222 236 255
222 236 255
222 236 255
222 236 255
222 236 255
222 236 255
222 236 255
222 236 255
222 236 255
222 236 255
222 236 255
222 236 255
222 236 255
222 236 255
222 236 255
222 236 255
222 236 255
222 236 255
223 236 255
162 180 209
65 101 161
63 97 142
63 98 154
62 96 142
62 97 143
61 97 144
62 96 144
61 96 140
62 97 147
60 95 148
62 96 144
62 97 148
60 95 136
59 94 128
61 96 136
59 93 130
60 94 142
61 96 141
61 96 148
60 95 140
60 95 140
62 97 144
60 94 137
60 95 134
61 96 143
60 95 135
60 95 137
59 93 133
61 96 143
60 94 135
61 95 134
60 95 139
59 94 134
59 94 130
60 95 144
62 97 148
60 95 131
60 95 135
60 95 136
60 94 135
61 96 143
60 95 130
61 96 144
60 94 135
61 96 141
61 96 136
60 94 139
60 94 134
62 97 147
61 95 133
61 96 136
60 95 136
60 95 131
60 95 134
61 96 143
60 95 144
61 96 143
60 95 135
60 95 135
60 94 136
61 96 145
61 96 145
59 93 129
61 96 142
60 95 135
61 96 135
60 95 137
60 94 134
61 96 144
57 90 124
59 93 134
60 94 132
59 93 135
59 93 129
59 92 134
60 95 138
61 95 139
61 95 143
58 91 128
60 94 139
60 93 134
59 92 130
59 93 123
59 93 131
58 91 119
61 95 144
58 91 132
59 93 133
59 92 135
59 91 131
57 88 112
58 90 125
56 88 123
57 89 128
57 88 125
56 87 113
56 86 122
55 84 114
54 83 114
53 82 111
54 82 101
51 78 106
76 85 83
83 81 45
76 75 40
65 65 41
46 50 36
45 51 34
35 44 34
35 45 32
36 47 34
33 43 32
38 48 36
39 50 35
42 54 38
40 51 36
43 56 45
45 58 47
47 60 47
47 62 48
44 58 44
47 62 47
49 66 53
48 65 53
71 81 60
80 88 60
91 98 67
95 100 70
111 113 71
93 98 66
115 116 77
125 124 73
124 124 72
126 126 72
136 134 83
143 140 78
144 140 77
152 147 81
143 140 81
158 152 89
159 153 90
150 145 82
159 154 83
168 161 87
163 157 87
166 159 86
169 161 92
171 164 89
174 166 89
173 165 89
180 171 94
182 173 97
183 173 97
175 167 87
177 169 91
179 170 93
178 170 93
177 168 87
179 170 95
180 170 93
175 167 87
182 172 95
179 170 93
178 169 90
178 169 90
178 169 92
177 169 89
180 171 94
181 171 97
176 168 90
180 170 95
180 171 95
181 171 96
178 169 93
177 169 90
179 170 90
181 171 93
177 168 87
180 171 94
178 170 90
180 171 94
180 171 93
182 172 97
183 173 99
180 171 93
177 168 89
180 170 93
178 169 90
181 172 96
178 170 90
180 171 96
180 171 93
179 170 88
179 170 90
178 169 93
178 170 90
179 171 93
179 170 93
183 173 101
180 171 91
181 172 95
179 170 91
181 172 95
178 169 90
180 171 94
180 171 95
177 169 90
176 168 87
180 171 93
178 170 90
179 170 91
180 171 92
178 169 87
179 170 93
180 171 92
182 172 97
180 171 93
181 172 95
179 170 94
182 172 95
177 168 87
177 168 87
183 173 99
182 172 97
177 168 90
179 169 90
182 172 98
183 173 99
178 169 93
178 169 88
180 171 94
178 169 90
180 171 93
180 171 92
180 171 93
180 171 93
179 170 90
183 173 97
177 168 86
180 171 93
177 169 87
182 172 97
177 169 90
183 173 99
183 173 99
180 171 94
180 171 95
178 169 90
176 167 84
176 168 89
182 172 100
221 236 255
221 236 255
221 236 255
221 236 255
221 236 255
221 236 255
221 236 255
221 236 255
221 236 255
221 236 255
221 236 255
221 236 255
221 236 255
221 236 255
221 236 255
221 236 255
221 236 255
221 236 255
221 236 255
221 236 255
221 236 255
221 236 255
221 236 255
221 236 255
221 236 255
221 236 255
221 236 255
221 236 255
221 236 255
221 236 255
221 236 255
221 236 255
221 236 255
221 236 255
221 236 255
221 236 255
221 236 255
221 236 255
221 236 255
221 236 255
221 236 255
221 236 255
221 236 255
221 236 255
221 236 255
221 236 255
221 236 255
221 236 255
221 236 255
221 236 255
221 236 255
221 236 255
221 236 255
221 236 255
221 236 255
221 236 255
221 236 255
221 236 255
221 236 255
221 236 255
221 236 255
221 236 255
221 236 255
221 236 255
221 236 255
221 236 255
221 236 255
221 236 255
221 236 255
221 236 255
221 236 255
221 236 255
221 236 255
221 236 255
221 236 255
221 236 255
221 236 255
221 236 255
221 236 255
221 236 255
221 236 255
221 236 255
221 236 255
221 236 255
221 236 255
221 236 255
221 236 255
221 236 255
221 236 255
221 236 255
221 236 255
221 236 255
221 236 255
221 236 255
221 236 255
221 236 255
221 236 255
221 236 255
221 236 255
221 236 255
221 236 255
221 236 255
221 236 255
221 236 255
221 236 255
221 236 255
221 236 255
221 236 255
221 236 255
221 236 255
221 236 255
221 236 255
221 236 255
221 236 255
221 236 255
221 236 255
221 236 255
221 236 255
221 236 255
221 236 255
221 236 255
221 236 255
222 236 255
221 236 255
222 236 255
222 236 255
222 236 255
222 236 255
222 236 255
222 236 255
222 236 255
222 236 255
222 236 255
222 236 255
222 236 255
222 236 255
222 236 255
222 236 255
222 236 255
222 236 255
222 236 255
222 236 255
222 236 255
222 236 255
222 236 255
222 236 255
222 236 255
222 236 255
149 168 197
65 101 162
65 101 166
63 98 151
62 97 144
62 96 142
61 96 140
61 96 142
62 96 137
61 96 144
62 97 150
61 95 137
62 97 145
61 95 135
62 98 149
61 97 141
61 96 147
61 96 143
60 94 133
59 94 126
61 96 144
61 96 136
59 93 130
60 94 131
60 94 137
60 95 139
59 94 131
60 94 131
61 96 141
61 96 143
60 95 139
60 94 133
60 94 136
62 97 144
61 95 142
60 94 128
60 95 137
59 94 126
60 95 136
58 93 124
60 95 136
59 93 126
61 96 137
61 96 141
61 96 141
60 95 139
61 96 135
60 94 136
60 95 140
60 96 140
60 95 136
60 95 136
60 95 139
60 94 136
61 96 145
60 95 132
61 96 148
60 95 138
61 95 139
59 93 133
61 96 135
59 94 133
59 94 135
60 95 141
60 95 138
61 96 136
59 93 132
60 95 138
60 95 145
62 96 142
60 95 139
61 95 143
60 94 133
60 94 138
59 93 137
60 94 128
59 92 132
58 92 130
60 94 142
61 95 143
59 93 137
59 93 137
60 94 138
59 93 138
60 94 138
59 92 131
59 93 131
59 93 133
60 93 126
60 94 135
59 93 142
58 90 130
59 91 128
57 88 125
57 88 123
58 90 129
56 87 117
56 87 116
55 84 116
58 88 122
56 86 118
53 81 108
49 74 97
71 80 69
89 88 51
72 71 39
43 46 26
55 57 33
41 47 31
29 37 26
30 39 26
35 45 33
37 49 32
38 49 35
41 53 37
39 50 37
43 56 42
44 58 44
44 57 44
48 63 50
47 61 43
46 61 46
46 60 39
48 63 47
48 65 50
59 70 52
61 74 56
77 84 57
90 95 62
98 102 67
104 107 65
114 114 68
125 124 75
130 129 77
122 121 71
140 137 82
145 141 84
140 136 74
139 136 71
145 141 74
148 144 82
148 144 80
160 155 84
156 151 81
167 160 85
169 162 89
170 162 88
172 164 91
169 162 85
174 165 91
174 166 87
174 166 84
177 168 90
178 169 87
177 168 88
182 172 97
180 171 93
178 169 90
179 170 89
180 171 94
179 170 90
176 167 86
178 169 90
179 170 92
180 171 93
179 170 93
172 165 81
178 170 91
179 170 90
180 171 95
178 170 90
177 169 89
178 169 90
181 171 94
180 171 93
174 166 86
183 173 97
173 166 84
178 169 90
181 171 96
180 171 93
180 171 95
180 171 93
181 171 93
182 172 95
180 171 96
178 169 90
182 172 96
181 171 95
178 169 90
177 168 86
173 166 83
183 173 97
175 168 86
178 170 92
176 168 90
178 169 92
180 171 94
179 170 92
175 167 84
178 170 91
174 167 84
181 172 95
179 170 92
178 169 92
178 169 88
180 171 93
177 169 88
174 166 84
181 172 94
177 168 87
182 172 96
183 173 100
180 171 93
180 171 93
179 170 89
180 171 95
177 169 86
179 170 93
178 169 91
180 171 93
175 167 85
177 169 87
178 169 90
176 167 83
182 172 98
177 169 85
179 170 90
179 170 92
178 170 90
182 172 97
178 169 86
177 168 86
181 171 94
179 170 93
180 170 93
176 167 84
176 167 84
180 170 93
178 169 86
178 169 89
175 167 83
180 170 91
181 171 93
179 170 90
179 170 90
175 167 86
180 170 92
180 171 93
181 171 93
177 168 87
180 171 92
221 236 255
221 236 255
221 236 255
221 236 255
221 236 255
221 236 255
221 236 255
221 236 255
221 236 255
221 236 255
221 236 255
221 236 255
221 236 255
221 236 255
221 236 255
221 236 255
221 236 255
221 236 255
221 236 255
221 236 255
221 236 255
221 236 255
221 236 255
221 236 255
221 236 255
221 236 255
221 236 255
221 236 255
221 236 255
221 236 255
221 236 255
221 236 255
221 236 255
221 236 255
221 236 255
221 236 255
221 236 255
221 236 255
221 236 255
221 236 255
221 236 255
221 236 255
221 236 255
221 236 255
221 236 255
221 236 255
221 236 255
221 236 255
221 236 255
221 236 255
221 236 255
221 236 255
221 236 255
221 236 255
221 236 255
221 236 255
221 236 255
221 236 255
221 236 255
221 236 255
221 236 255
221 236 255
221 236 255
221 236 255
221 236 255
221 236 255
221 236 255
221 236 255
221 236 255
221 236 255
221 236 255
221 236 255
221 236 255
221 236 255
221 236 255
221 236 255
221 236 255
221 236 255
221 236 255
221 236 255
221 236 255
221 236 255
221 236 255
221 236 255
221 236 255
221 236 255
221 236 255
221 236 255
221 236 255
221 236 255
221 236 255
221 236 255
221 236 255
221 236 255
221 236 255
221 236 255
221 236 255
221 236 255
221 236 255
221 236 255
221 236 255
221 236 255
221 236 255
221 236 255
221 236 255
221 236 255
221 236 255
221 236 255
221 236 255
221 236 255
221 236 255
221 236 255
221 236 255
221 236 255
221 236 255
221 236 255
221 236 255
221 236 255
221 236 255
221 236 255
221 236 255
221 236 255
221 236 255
221 236 255
221 236 255
221 236 255
221 236 255
221 236 255
221 236 255
221 236 255
221 236 255
221 236 255
221 236 255
221 236 255
221 236 255
221 236 255
221 236 255
221 236 255
221 236 255
221 236 255
221 236 255
221 236 255
221 236 255
221 236 255
221 236 255
221 236 255
221 236 255
221 236 255
163 181 215
65 100 163
64 99 158
63 98 149
64 99 156
63 98 152
63 98 152
62 97 141
63 98 151
62 97 149
61 95 135
62 97 144
60 95 129
60 95 134
61 96 142
62 97 140
61 96 137
60 95 128
59 94 131
58 92 124
61 96 141
61 95 135
60 94 128
59 93 122
61 95 141
61 95 133
59 93 130
60 95 135
60 94 131
61 96 141
60 95 136
60 95 141
60 94 131
61 96 141
61 96 145
59 93 124
61 96 137
61 96 142
60 95 137
59 93 125
60 95 141
60 94 124
60 95 135
59 93 133
59 93 132
60 95 135
59 93 124
61 96 136
59 94 130
61 95 139
60 94 133
60 95 129
61 96 141
60 94 130
59 94 135
60 94 130
60 95 137
61 95 140
60 95 137
61 96 145
59 94 129
59 93 124
60 95 135
61 95 135
60 95 142
59 93 131
60 94 132
60 94 140
60 95 134
60 94 134
60 94 135
60 95 134
61 95 138
60 94 134
60 94 136
59 93 131
60 94 133
58 92 132
61 95 140
59 92 130
59 93 132
59 92 131
60 93 134
59 93 137
59 92 124
60 94 139
59 91 129
58 90 127
58 90 128
59 92 138
59 91 134
56 88 114
59 92 125
57 89 125
57 89 131
59 90 125
57 88 120
58 90 130
56 86 126
52 80 100
54 83 110
55 84 119
52 78 102
64 77 77
88 85 46
66 65 32
63 64 35
31 37 21
36 41 26
30 39 30
29 38 23
35 46 33
36 47 35
39 50 36
38 50 36
42 54 38
42 53 38
42 55 43
45 59 43
43 57 43
47 63 48
45 59 44
48 63 49
50 66 51
48 64 52
61 73 56
67 78 60
89 96 65
89 95 67
109 110 72
96 100 63
107 108 66
114 114 70
125 124 73
133 131 77
127 126 72
132 130 72
139 135 75
142 138 81
149 144 79
150 145 81
152 146 80
163 156 93
160 154 83
164 157 85
161 155 78
164 158 87
166 160 79
177 168 96
172 164 88
174 166 88
176 168 87
176 167 87
177 169 89
176 168 87
176 167 83
177 169 90
178 170 91
178 169 92
179 170 91
173 165 80
179 169 90
177 169 90
179 170 90
179 170 96
175 167 83
178 169 87
179 170 93
174 166 87
180 170 91
177 169 88
177 168 86
177 168 86
179 169 88
179 170 90
177 168 85
181 171 95
181 172 95
180 170 94
179 170 89
178 169 89
176 168 84
175 167 84
172 165 76
176 168 85
178 169 88
182 172 95
176 168 86
175 167 87
178 169 87
180 171 92
177 168 86
180 170 91
177 169 87
176 167 84
178 169 89
181 171 95
179 170 91
178 169 87
178 169 90
177 169 89
177 168 83
178 169 87
176 167 85
176 167 85
180 171 93
177 168 88
177 168 87
177 168 88
176 168 85
178 169 87
176 167 84
177 168 86
179 169 90
178 169 90
181 171 93
177 168 86
175 167 84
179 170 93
178 169 87
177 169 87
175 167 85
177 169 89
180 170 90
177 168 87
174 166 83
180 170 90
178 169 87
174 166 81
177 168 85
177 168 84
178 170 89
177 168 89
182 172 94
176 168 85
177 168 90
177 168 85
178 169 87
179 170 91
178 169 88
175 167 83
180 170 92
180 171 91
180 171 93
175 167 85
179 170 90
178 169 87
181 171 95
179 170 90
180 170 91
176 167 86
175 167 84
221 235 255
221 235 255
221 235 255
221 235 255
221 235 255
221 235 255
221 235 255
221 235 255
221 235 255
221 235 255
221 235 255
221 235 255
221 235 255
221 235 255
221 235 255
221 235 255
221 235 255
221 235 255
221 235 255
221 235 255
221 235 255
221 235 255
221 235 255
221 235 255
221 235 255
221 235 255
221 235 255
221 235 255
221 235 255
221 235 255
221 235 255
221 235 255
221 235 255
221 235 255
221 235 255
221 235 255
221 235 255
221 235 255
221 235 255
221 235 255
221 235 255
221 235 255
221 235 255
221 235 255
221 235 255
221 235 255
221 235 255
221 235 255
221 235 255
221 235 255
221 235 255
221 235 255
221 235 255
221 235 255
221 235 255
221 235 255
221 235 255
221 235 255
221 235 255
221 235 255
221 235 255
221 235 255
221 235 255
221 235 255
221 235 255
221 235 255
221 235 255
221 235 255
221 235 255
221 235 255
221 235 255
221 235 255
221 235 255
221 235 255
221 235 255
221 235 255
221 235 255
221 235 255
221 235 255
221 235 255
221 235 255
221 235 255
221 235 255
221 235 255
221 235 255
221 235 255
221 235 255
221 235 255
221 235 255
221 235 255
221 235 255
221 235 255
221 235 255
221 235 255
221 235 255
221 235 255
221 235 255
221 235 255
221 235 255
221 235 255
221 235 255
221 235 255
221 235 255
221 235 255
221 235 255
221 235 255
221 235 255
221 235 255
221 235 255
221 235 255
221 235 255
221 235 255
221 235 255
221 235 255
221 235 255
221 235 255
221 235 255
221 235 255
221 235 255
221 235 255
221 235 255
221 235 255
221 235 255
221 235 255
221 235 255
221 235 255
221 235 255
221 235 255
221 235 255
221 235 255
221 235 255
221 235 255
221 235 255
221 235 255
221 235 255
221 235 255
221 235 255
221 235 255
221 235 255
221 235 255
221 235 255
221 235 255
221 235 255
221 235 255
221 235 255
221 235 255
221 235 255
221 235 255
160 179 215
63 97 147
64 100 158
62 97 141
63 98 151
64 99 153
61 96 141
61 95 139
62 97 145
61 96 142
62 96 145
61 96 140
62 97 154
61 96 139
61 96 137
61 95 137
61 96 140
62 96 141
59 93 126
60 95 142
60 94 139
60 95 130
61 96 143
61 95 140
59 94 121
61 96 140
58 92 124
62 97 147
60 94 130
62 97 150
60 95 131
60 95 133
60 95 137
60 95 130
61 96 143
61 95 139
60 94 131
60 95 136
59 94 129
61 96 142
61 96 147
60 95 131
59 93 133
59 94 137
60 95 129
61 96 143
61 96 145
60 95 134
60 94 139
60 94 125
60 94 130
60 95 134
61 95 136
59 94 131
60 94 129
60 95 137
60 94 137
59 93 129
60 95 136
60 94 131
62 97 141
60 95 134
61 95 148
60 95 130
60 94 133
60 95 136
61 96 141
60 95 139
60 94 135
60 94 138
57 91 120
60 94 128
60 95 132
59 94 130
60 94 141
60 95 138
61 95 140
58 91 124
59 93 124
59 93 124
58 92 125
60 94 141
58 91 129
61 95 138
58 92 124
59 92 130
59 93 125
58 91 118
58 90 129
59 92 134
57 90 126
58 91 126
59 90 126
57 89 124
57 88 123
57 87 110
58 89 124
58 89 124
55 85 119
56 85 119
54 81 110
52 79 104
49 73 97
74 81 65
103 99 53
70 69 38
66 66 29
42 46 23
28 35 25
29 36 23
31 40 21
35 45 25
33 42 26
39 50 34
40 51 34
40 53 36
41 53 36
43 55 40
43 56 43
45 59 44
47 61 48
48 63 49
50 65 52
48 63 48
48 64 52
56 69 46
70 78 48
78 87 57
86 90 58
109 110 62
107 110 64
117 117 69
119 119 69
136 133 72
122 121 69
138 135 77
133 130 73
136 134 69
146 141 80
154 149 81
152 147 78
152 147 79
157 151 80
156 150 78
167 160 83
168 161 85
160 155 78
168 161 84
167 160 83
174 166 86
174 166 87
175 166 86
173 165 83
180 170 93
176 168 87
175 167 84
178 169 91
176 168 84
178 169 90
175 166 83
177 168 88
176 167 86
173 165 81
174 166 80
177 169 88
179 169 89
177 168 88
174 166 85
177 168 88
178 169 87
177 168 84
177 168 83
175 167 84
175 166 86
177 168 87
176 168 87
175 167 83
178 169 87
179 169 89
181 171 93
177 168 87
179 170 91
175 166 80
172 165 78
177 169 87
173 165 80
177 168 85
180 171 93
177 168 86
177 168 84
179 170 90
175 167 84
179 170 92
177 168 87
182 172 95
177 168 87
179 169 92
175 167 85
178 169 87
176 168 83
180 170 93
180 170 93
179 169 92
177 168 85
176 168 85
178 169 89
179 170 90
173 166 80
178 169 90
180 171 93
179 170 91
177 168 89
178 169 89
176 167 81
181 171 92
174 166 80
173 166 80
179 170 90
176 167 85
180 171 92
177 168 88
175 167 81
180 171 92
182 172 94
179 170 90
176 167 83
175 167 84
180 170 90
173 165 80
175 167 84
178 169 89
177 169 87
175 167 84
177 168 88
177 168 86
181 171 92
180 170 92
179 169 88
182 171 95
179 170 90
179 169 87
177 169 87
178 169 90
178 169 89
178 169 87
176 168 84
178 169 87
180 170 90
174 165 80
176 168 84
178 170 91
177 168 85
221 235 255
221 235 255
221 235 255
221 235 255
221 235 255
221 235 255
221 235 255
221 235 255
221 235 255
221 235 255
221 235 255
221 235 255
221 235 255
221 235 255
221 235 255
221 235 255
221 235 255
221 235 255
221 235 255
221 235 255
221 235 255
221 235 255
221 235 255
221 235 255
221 235 255
221 235 255
221 235 255
221 235 255
221 235 255
221 235 255
221 235 255
221 235 255
221 235 255
221 235 255
221 235 255
221 235 255
221 235 255
221 235 255
221 235 255
221 235 255
221 235 255
221 235 255
221 235 255
221 235 255
221 235 255
221 235 255
221 235 255
221 235 255
221 235 255
221 235 255
221 235 255
221 235 255
221 235 255
221 235 255
221 235 255
221 235 255
221 235 255
221 235 255
221 235 255
221 235 255
221 235 255
221 235 255
221 235 255
221 235 255
221 235 255
221 235 255
221 235 255
221 235 255
221 235 255
221 235 255
221 235 255
221 235 255
221 235 255
221 235 255
221 235 255
221 235 255
221 235 255
221 235 255
221 235 255
221 235 255
221 235 255
221 235 255
221 235 255
221 235 255
221 235 255
221 235 255
221 235 255
221 235 255
221 235 255
221 235 255
221 235 255
221 235 255
221 235 255
221 235 255
221 235 255
221 235 255
221 235 255
221 235 255
221 235 255
221 235 255
221 235 255
221 235 255
221 235 255
221 235 255
221 235 255
221 235 255
221 235 255
221 235 255
221 235 255
221 235 255
221 235 255
221 235 255
221 235 255
221 235 255
221 235 255
221 235 255
221 235 255
221 235 255
221 235 255
221 235 255
221 235 255
221 235 255
221 235 255
221 235 255
221 235 255
221 235 255
221 235 255
221 235 255
221 235 255
221 235 255
221 235 255
220 235 255
220 235 255
220 235 255
220 235 255
220 235 255
220 235 255
220 235 255
220 235 255
220 235 255
220 235 255
220 235 255
220 235 255
220 235 255
220 235 255
220 235 255
220 235 255
220 235 255
162 181 216
63 98 152
63 98 152
63 97 150
63 98 152
63 98 147
61 95 131
60 95 133
62 98 150
62 97 144
63 98 152
60 95 135
62 97 143
61 95 139
62 97 150
60 95 134
61 96 137
60 95 136
61 95 131
59 93 137
60 95 140
59 94 135
62 97 144
61 95 140
61 97 140
60 95 137
61 96 145
60 94 129
61 96 141
60 95 137
59 93 136
59 93 129
61 95 144
60 94 140
60 95 128
61 95 144
60 95 135
62 96 147
61 95 141
60 95 137
59 93 124
60 95 128
60 95 141
60 95 133
60 95 136
61 95 135
59 94 126
60 95 136
61 96 139
60 95 130
60 95 137
59 94 136
61 96 144
61 95 135
60 94 135
61 95 143
59 93 128
60 95 141
59 93 124
59 93 126
59 94 138
60 94 134
59 93 125
58 93 130
60 95 134
60 94 133
59 92 129
59 93 134
59 93 131
60 94 131
61 95 143
59 93 134
60 94 134
58 92 131
60 94 134
58 91 125
60 94 134
59 92 126
58 92 123
60 94 136
57 90 124
61 95 143
59 92 125
60 93 136
59 92 125
60 93 137
59 92 126
59 93 131
58 91 131
60 93 135
59 93 136
58 90 119
57 89 121
57 88 130
55 86 123
57 87 114
55 86 110
56 86 121
55 84 116
55 84 111
55 85 118
53 81 106
45 68 86
83 90 80
96 92 51
72 70 36
50 51 24
35 40 23
36 43 29
29 37 20
33 43 30
34 44 26
36 47 31
38 48 31
40 52 33
43 56 39
42 54 40
39 51 37
44 58 44
44 57 41
46 61 47
46 61 42
47 62 46
49 65 50
48 63 47
57 70 49
79 86 54
82 88 56
89 94 55
87 93 60
116 116 65
109 111 64
113 114 63
121 121 64
131 129 71
133 131 73
147 143 74
141 138 71
150 145 78
143 139 74
149 145 77
152 147 81
155 149 78
152 148 68
160 153 77
162 155 81
160 154 76
166 158 84
163 157 78
170 163 79
169 162 84
170 163 78
173 165 84
175 167 84
176 167 86
177 168 87
175 166 84
174 165 80
176 168 87
175 166 83
178 169 86
177 168 86
176 167 87
171 164 78
173 166 80
176 167 84
172 164 77
175 167 82
175 167 81
173 165 81
176 167 84
177 169 86
177 168 86
178 169 87
177 167 86
175 167 84
174 166 83
178 169 87
178 169 87
177 168 83
177 168 86
175 166 86
177 167 87
180 170 90
176 168 83
179 169 88
171 164 74
177 169 86
176 167 86
175 167 83
177 168 87
175 167 87
177 169 87
176 168 87
173 165 84
177 168 84
176 168 84
173 165 79
170 163 74
178 169 86
179 170 89
175 167 83
174 166 84
178 168 90
175 167 84
174 166 80
181 171 92
176 168 85
180 171 94
176 167 84
177 168 85
175 167 80
176 167 81
178 169 87
173 165 81
179 170 89
176 168 83
179 170 90
177 168 87
172 165 77
177 168 87
179 170 89
176 167 83
178 169 87
175 167 84
179 170 92
180 171 93
176 167 85
181 171 91
176 167 84
176 168 87
176 168 83
175 167 80
180 170 91
178 169 90
176 168 85
180 171 93
177 168 84
180 170 91
180 170 90
177 168 86
178 169 85
177 169 88
178 169 87
180 170 90
174 166 84
180 170 89
177 168 85
177 168 84
180 170 92
178 169 89
180 171 93
221 235 255
221 235 255
221 235 255
221 235 255
221 235 255
221 235 255
221 235 255
221 235 255
221 235 255
221 235 255
221 235 255
221 235 255
221 235 255
221 235 255
221 235 255
221 235 255
221 235 255
221 235 255
221 235 255
221 235 255
221 235 255
221 235 255
221 235 255
221 235 255
221 235 255
221 235 255
221 235 255
221 235 255
221 235 255
221 235 255
221 235 255
221 235 255
221 235 255
221 235 255
221 235 255
221 235 255
221 235 255
221 235 255
221 235 255
221 235 255
221 235 255
221 235 255
221 235 255
221 235 255
221 235 255
221 235 255
221 235 255
221 235 255
221 235 255
221 235 255
221 235 255
221 235 255
221 235 255
221 235 255
221 235 255
221 235 255
221 235 255
221 235 255
221 235 255
221 235 255
221 235 255
221 235 255
221 235 255
221 235 255
221 235 255
221 235 255
221 235 255
221 235 255
221 235 255
221 235 255
221 235 255
221 235 255
221 235 255
221 235 255
221 235 255
221 235 255
221 235 255
221 235 255
221 235 255
221 235 255
221 235 255
221 235 255
221 235 255
221 235 255
221 235 255
221 235 255
221 235 255
221 235 255
221 235 255
221 235 255
221 235 255
221 235 255
221 235 255
221 235 255
221 235 255
221 235 255
221 235 255
221 235 255
221 235 255
221 235 255
221 235 255
221 235 255
221 235 255
221 235 255
221 235 255
221 235 255
220 235 255
220 235 255
220 235 255
220 235 255
220 235 255
220 235 255
220 235 255
220 235 255
220 235 255
220 235 255
220 235 255
220 235 255
220 235 255
220 235 255
220 235 255
220 235 255
220 235 255
220 235 255
220 235 255
220 235 255
220 235 255
220 235 255
220 235 255
220 235 255
220 235 255
220 235 255
220 235 255
220 235 255
220 235 255
220 235 255
220 235 255
220 235 255
220 235 255
220 235 255
220 235 255
220 235 255
220 235 255
220 235 255
219 235 255
219 235 255
219 234 255
219 234 255
175 192 224
63 97 149
64 99 155
63 98 153
63 98 152
62 97 151
62 96 142
61 96 135
61 95 135
62 96 141
62 97 147
60 95 131
61 96 139
60 95 133
58 92 129
61 96 133
61 95 141
58 92 136
59 94 130
60 94 126
60 95 133
60 95 133
62 97 143
61 96 139
60 95 135
59 93 126
61 96 144
61 95 126
61 96 140
61 96 140
59 93 137
61 95 139
60 94 125
62 97 143
57 91 126
60 95 140
60 95 137
60 94 137
61 96 143
60 94 135
62 97 143
60 95 134
59 94 133
60 94 133
60 94 137
60 95 139
60 94 131
60 94 124
61 96 145
58 91 125
60 95 139
60 94 135
58 92 128
59 93 130
59 94 126
61 95 135
60 95 135
59 94 133
59 93 128
61 96 143
58 92 121
58 92 124
61 96 139
59 93 130
59 93 126
58 91 121
59 93 130
59 93 133
59 93 124
59 93 129
60 94 134
59 92 132
60 93 133
59 92 126
60 94 133
60 93 138
59 93 140
59 93 131
59 93 137
59 91 128
58 92 128
59 93 134
58 89 128
60 93 134
59 93 129
59 91 128
59 93 137
58 90 127
57 89 121
58 90 124
59 93 137
57 89 120
55 86 119
59 91 135
57 89 114
57 89 114
58 89 125
56 85 116
54 82 105
55 84 124
55 83 107
53 79 98
49 75 98
89 93 72
87 85 44
82 81 31
63 63 28
52 54 18
32 36 17
29 38 23
27 36 21
32 42 28
36 44 26
36 47 27
38 50 35
41 53 35
42 54 34
44 57 38
43 55 37
41 54 40
43 56 36
46 59 39
44 58 44
46 60 45
49 65 47
66 76 48
70 78 47
71 81 48
91 96 53
88 94 54
99 103 60
103 107 62
124 123 66
117 117 68
107 109 61
126 125 64
134 132 69
138 135 65
144 140 75
144 140 75
148 143 79
152 147 80
152 147 73
156 150 73
158 152 78
161 155 75
165 158 80
162 156 73
169 162 78
174 166 85
172 164 82
172 164 84
168 162 72
174 166 83
174 166 82
178 169 87
175 167 84
173 165 80
175 167 80
175 166 82
174 166 80
173 165 80
176 168 84
177 168 84
171 164 78
175 167 82
177 168 85
179 170 90
175 166 80
177 168 85
177 168 86
177 168 84
174 166 82
175 167 80
173 165 78
175 166 83
176 168 83
174 166 84
171 163 75
172 165 79
172 165 75
174 166 80
174 166 80
172 164 75
177 168 84
171 164 76
177 168 85
172 164 75
177 168 83
176 168 84
172 164 84
179 169 88
177 169 87
175 166 79
174 166 80
176 168 82
177 168 84
177 167 85
175 167 83
174 166 81
175 167 84
176 168 82
175 167 82
177 168 86
177 168 83
173 165 80
177 168 85
176 167 84
178 169 89
178 169 87
174 166 80
174 166 80
176 167 83
176 168 84
178 169 88
177 168 84
175 166 81
179 170 89
175 167 84
175 167 82
176 167 83
177 169 86
176 168 84
171 163 70
178 169 86
176 168 84
176 168 85
176 167 82
176 167 82
176 168 83
175 166 80
176 167 82
172 164 80
174 166 77
174 166 80
177 168 85
178 169 89
178 169 86
181 171 92
174 166 80
176 167 81
178 169 87
179 170 89
178 169 90
176 168 84
181 171 91
182 171 92
175 167 83
179 169 88
179 169 90
176 168 82
178 169 88
220 235 255
220 235 255
220 235 255
220 235 255
220 235 255
220 235 255
220 235 255
220 235 255
220 235 255
220 235 255
220 235 255
220 235 255
220 235 255
220 235 255
220 235 255
220 235 255
220 235 255
220 235 255
220 235 255
220 235 255
220 235 255
220 235 255
220 235 255
220 235 255
220 235 255
220 235 255
220 235 255
220 235 255
220 235 255
220 235 255
220 235 255
220 235 255
220 235 255
220 235 255
220 235 255
220 235 255
220 235 255
220 235 255
220 235 255
220 235 255
220 235 255
220 235 255
220 235 255
220 235 255
220 235 255
220 235 255
220 235 255
220 235 255
220 235 255
220 235 255
220 235 255
220 235 255
220 235 255
220 235 255
220 235 255
220 235 255
220 235 255
220 235 255
220 235 255
220 235 255
220 235 255
220 235 255
220 235 255
220 235 255
220 235 255
220 235 255
220 235 255
220 235 255
220 235 255
220 235 255
220 235 255
220 235 255
220 235 255
220 235 255
220 235 255
220 235 255
220 235 255
220 235 255
220 235 255
220 235 255
220 235 255
220 235 255
220 235 255
220 235 255
220 235 255
220 235 255
220 235 255
220 235 255
220 235 255
220 235 255
220 235 255
220 235 255
220 235 255
220 235 255
220 235 255
220 235 255
220 235 255
220 235 255
220 235 255
220 235 255
220 235 255
220 235 255
220 235 255
220 235 255
220 235 255
220 235 255
220 235 255
220 235 255
220 235 255
220 235 255
220 235 255
220 235 255
220 235 255
220 235 255
220 235 255
220 235 255
220 235 255
220 235 255
220 235 255
220 235 255
220 235 255
220 235 255
220 235 255
220 235 255
220 235 255
220 235 255
220 235 255
220 235 255
220 235 255
220 235 255
220 235 255
220 235 255
220 235 255
220 235 255
220 235 255
220 235 255
220 235 255
219 235 255
219 235 255
219 235 255
219 234 255
219 234 255
219 234 255
219 234 255
219 234 255
219 234 255
219 234 255
218 234 255
185 202 232
64 99 155
63 98 149
62 97 147
64 99 157
62 97 140
62 97 144
62 96 141
62 97 143
61 96 137
61 96 137
61 96 143
61 96 136
61 96 142
61 96 135
60 95 129
61 96 136
60 94 134
61 96 135
59 93 129
61 96 139
59 94 134
61 96 137
60 95 133
59 94 125
60 95 131
60 96 143
61 95 135
59 93 129
60 94 124
60 94 129
60 95 135
61 96 133
58 92 126
59 93 134
60 95 134
61 96 141
61 96 140
61 96 136
60 94 133
58 92 128
58 92 120
61 96 141
61 96 135
60 94 131
61 96 142
62 97 141
60 95 136
60 94 133
60 94 134
59 92 125
60 95 136
60 94 130
61 96 145
59 93 125
59 93 124
59 93 128
60 95 133
61 96 142
62 97 148
59 93 129
60 94 132
59 93 125
59 92 129
59 93 131
58 92 122
60 94 133
59 93 132
60 93 124
60 94 135
59 93 130
59 93 128
60 94 133
60 94 133
58 92 129
59 92 125
59 93 130
60 93 131
59 94 128
58 91 122
60 93 128
59 92 134
58 92 121
58 91 124
59 92 123
58 91 123
59 92 128
60 92 137
60 93 134
58 91 128
56 88 120
57 88 125
59 92 134
56 87 112
58 89 118
56 87 115
57 88 119
54 83 107
56 87 109
53 81 98
53 80 108
51 77 96
50 76 100
98 99 62
107 103 51
77 75 35
61 62 23
45 47 23
41 45 17
32 41 29
33 43 28
31 40 26
35 45 29
38 49 34
36 46 27
41 52 33
40 51 36
42 55 35
42 55 36
40 54 39
46 61 43
44 59 41
48 64 48
46 62 46
46 59 38
64 75 44
78 86 52
88 92 55
95 99 55
95 98 54
96 100 49
106 109 56
113 113 56
125 124 60
122 121 65
122 121 58
132 130 65
136 134 69
136 134 62
143 140 66
154 148 78
141 138 71
151 146 75
157 150 78
162 155 82
155 149 66
158 152 76
164 157 77
167 160 77
170 162 78
167 160 77
171 163 77
170 163 77
169 162 75
174 166 79
172 164 78
173 165 78
175 167 80
173 165 78
170 163 75
173 164 78
168 160 73
172 164 76
175 166 82
176 167 81
172 164 80
170 162 71
174 166 84
175 166 80
172 164 77
170 162 80
174 166 80
177 168 84
176 167 82
174 166 75
173 165 79
173 165 75
175 167 82
173 166 77
173 165 76
178 168 85
173 165 78
171 163 75
175 167 83
174 166 79
174 166 79
172 165 76
173 165 77
171 164 75
172 165 77
174 166 78
178 169 87
170 163 69
173 165 74
170 163 74
174 165 77
171 164 76
177 168 84
175 167 80
175 166 80
174 165 78
177 168 86
175 166 83
174 166 80
174 166 80
180 170 89
173 165 76
172 164 75
178 169 85
175 167 80
171 163 74
172 165 77
177 168 83
180 170 88
179 169 87
174 166 80
175 167 80
175 166 83
169 162 68
174 166 83
178 169 88
175 167 82
174 166 81
176 168 83
177 168 84
179 169 87
174 166 78
177 168 84
175 166 82
177 168 84
176 168 86
175 167 83
176 167 83
178 169 86
178 168 85
174 167 82
176 167 84
176 167 84
175 167 83
177 168 87
177 168 87
176 168 83
176 168 83
174 165 80
177 168 86
179 169 89
175 166 78
176 168 86
178 169 88
178 169 85
175 166 84
175 167 82
220 235 255
220 235 255
220 235 255
220 235 255
220 235 255
220 235 255
220 235 255
220 235 255
220 235 255
220 235 255
220 235 255
220 235 255
220 235 255
220 235 255
220 235 255
220 235 255
220 235 255
220 235 255
220 235 255
220 235 255
220 235 255
220 235 255
220 235 255
220 235 255
220 235 255
220 235 255
220 235 255
220 235 255
220 235 255
220 235 255
220 235 255
220 235 255
220 235 255
220 235 255
220 235 255
220 235 255
220 235 255
220 235 255
220 235 255
220 235 255
220 235 255
220 235 255
220 235 255
220 235 255
220 235 255
220 235 255
220 235 255
220 235 255
220 235 255
220 235 255
220 235 255
220 235 255
220 235 255
220 235 255
220 235 255
220 235 255
220 235 255
220 235 255
220 235 255
220 235 255
220 235 255
220 235 255
220 235 255
220 235 255
220 235 255
220 235 255
220 235 255
220 235 255
220 235 255
220 235 255
220 235 255
220 235 255
220 235 255
220 235 255
220 235 255
220 235 255
220 235 255
220 235 255
220 235 255
220 235 255
220 235 255
220 235 255
220 235 255
220 235 255
220 235 255
220 235 255
220 235 255
220 235 255
220 235 255
220 235 255
220 235 255
220 235 255
220 235 255
220 235 255
220 235 255
220 235 255
220 235 255
220 235 255
220 235 255
220 235 255
220 235 255
220 235 255
220 235 255
220 235 255
220 235 255
220 235 255
220 235 255
220 235 255
220 235 255
220 235 255
220 235 255
220 235 255
220 235 255
220 235 255
220 235 255
220 235 255
220 235 255
220 235 255
220 235 255
220 235 255
220 235 255
220 235 255
220 235 255
220 235 255
220 235 255
220 235 255
220 235 255
220 235 255
220 235 255
219 235 255
219 235 255
219 235 255
219 234 255
219 234 255
219 234 255
219 234 255
219 234 255
219 234 255
219 234 255
219 234 255
219 234 255
219 234 255
219 234 255
219 234 255
218 234 255
218 234 255
218 234 255
218 234 255
181 198 228
64 99 151
62 96 139
63 98 156
63 98 143
61 95 140
62 97 139
62 96 136
61 96 143
61 95 129
62 97 142
61 96 135
60 94 130
60 95 139
59 94 134
61 95 140
60 95 141
61 96 139
61 96 133
60 94 134
60 95 135
61 96 137
59 92 122
60 95 139
59 93 130
61 96 141
60 95 130
60 94 130
60 94 128
58 91 122
60 94 134
61 95 136
59 93 131
59 93 125
60 95 141
59 94 117
59 93 128
60 95 140
59 93 126
61 96 134
58 92 126
61 96 139
59 93 124
60 95 137
59 93 128
61 95 134
60 94 133
60 95 135
58 91 121
60 94 129
59 94 126
60 94 128
59 94 139
60 94 134
60 94 135
59 93 128
58 92 126
60 95 137
60 94 134
59 93 132
60 94 136
60 95 134
60 94 139
59 93 124
58 92 118
60 95 126
60 94 124
61 96 141
60 94 130
60 94 132
59 93 128
60 94 133
58 92 132
59 93 126
58 92 123
58 92 132
60 95 134
58 92 122
60 93 134
58 91 120
58 90 125
60 93 131
59 92 135
58 90 125
56 89 121
58 92 133
58 90 131
57 89 115
57 89 116
59 92 132
57 88 119
57 89 121
57 89 129
58 90 122
57 88 114
56 88 117
57 87 120
53 83 109
51 78 94
54 83 105
54 81 101
53 81 104
48 74 98
99 100 75
91 89 33
79 77 36
61 61 29
71 71 21
38 43 22
38 43 23
31 40 28
32 41 25
36 48 32
37 46 28
34 44 21
41 53 36
40 52 34
41 54 34
43 56 40
44 58 47
44 58 41
45 59 39
47 62 45
45 59 40
48 63 42
63 72 45
66 76 45
94 97 46
89 95 47
91 96 50
93 96 53
106 108 54
110 111 59
122 120 61
122 121 52
120 120 55
125 124 63
130 128 64
145 141 67
140 137 64
147 143 64
147 142 69
154 148 72
153 148 69
161 155 73
161 155 69
161 154 75
166 159 78
168 161 75
167 160 73
164 158 69
173 164 80
164 158 75
171 163 75
172 164 77
174 165 76
175 166 80
170 163 72
174 166 80
173 165 75
170 162 77
175 166 79
171 164 75
171 163 74
172 164 77
178 169 87
173 165 78
172 164 72
172 164 78
175 166 76
169 162 70
172 164 73
170 162 74
170 163 73
177 168 87
172 164 78
173 164 81
177 168 83
174 166 80
171 164 76
175 167 82
173 165 78
172 165 76
170 163 71
170 163 76
170 163 75
174 166 75
174 166 80
170 164 73
171 164 75
176 167 81
178 169 84
173 165 76
174 166 84
175 167 82
175 166 80
171 164 73
174 166 80
173 165 78
173 165 76
175 167 80
171 164 75
176 167 80
175 167 80
176 167 85
177 168 84
169 162 73
172 165 77
178 169 86
173 165 79
174 166 82
174 166 80
171 163 75
174 166 79
176 167 83
173 165 78
177 168 87
176 167 84
175 167 80
178 168 83
172 164 73
177 168 85
176 167 85
175 167 83
176 167 84
177 168 87
173 165 79
175 167 81
178 169 86
174 166 80
179 169 87
174 166 77
177 168 85
178 169 86
179 170 90
176 167 83
174 166 80
176 167 82
175 167 84
177 168 82
177 168 84
176 168 83
176 168 84
173 166 80
174 166 78
178 169 84
176 167 84
172 164 73
177 168 85
177 168 84
177 167 83
176 168 83
220 235 255
220 235 255
220 235 255
220 235 255
220 235 255
220 235 255
220 235 255
220 235 255
220 235 255
220 235 255
220 235 255
220 235 255
220 235 255
220 235 255
220 235 255
220 235 255
220 235 255
220 235 255
220 235 255
220 235 255
220 235 255
220 235 255
220 235 255
220 235 255
220 235 255
220 235 255
220 235 255
220 235 255
220 235 255
220 235 255
220 235 255
220 235 255
220 235 255
220 235 255
220 235 255
220 235 255
220 235 255
220 235 255
220 235 255
220 235 255
220 235 255
220 235 255
220 235 255
220 235 255
220 235 255
220 235 255
220 235 255
220 235 255
220 235 255
220 235 255
220 235 255
220 235 255
220 235 255
220 235 255
220 235 255
220 235 255
220 235 255
220 235 255
220 235 255
220 235 255
220 235 255
220 235 255
220 235 255
220 235 255
220 235 255
220 235 255
220 235 255
220 235 255
220 235 255
220 235 255
220 235 255
220 235 255
220 235 255
220 235 255
220 235 255
220 235 255
220 235 255
220 235 255
220 235 255
220 235 255
220 235 255
220 235 255
220 235 255
220 235 255
220 235 255
220 235 255
220 235 255
220 235 255
220 235 255
220 235 255
220 235 255
220 235 255
220 235 255
220 235 255
220 235 255
220 235 255
220 235 255
220 235 255
220 235 255
220 235 255
220 235 255
220 235 255
220 235 255
220 235 255
220 235 255
220 235 255
220 235 255
220 235 255
220 235 255
220 235 255
220 235 255
220 235 255
220 235 255
220 235 255
220 235 255
220 235 255
220 235 255
220 235 255
220 235 255
220 235 255
219 235 255
219 235 255
219 235 255
219 235 255
219 234 255
219 234 255
219 234 255
219 234 255
219 234 255
219 234 255
219 234 255
219 234 255
219 234 255
219 234 255
219 234 255
219 234 255
219 234 255
219 234 255
219 234 255
218 234 255
218 234 255
218 234 255
218 234 255
218 234 255
218 234 255
218 233 255
217 233 255
217 233 255
203 219 244
63 97 154
63 98 149
62 97 145
61 96 144
62 97 147
62 96 143
60 94 130
60 94 128
60 95 129
60 95 140
61 95 135
62 96 141
61 97 148
59 93 134
59 93 125
61 96 141
58 93 125
61 95 141
60 95 126
59 93 128
61 96 145
59 93 120
59 93 124
60 95 130
58 93 122
59 93 125
60 94 130
60 95 135
60 95 134
61 96 141
59 94 133
60 95 136
58 92 124
60 94 134
59 93 120
60 95 136
60 94 140
60 95 129
60 94 133
59 93 129
60 94 135
59 94 126
59 94 130
58 93 124
59 93 134
60 94 133
59 94 133
59 92 126
59 93 133
60 95 137
60 95 140
59 93 133
60 94 131
59 93 129
59 94 126
60 94 133
60 94 125
60 95 126
60 94 133
60 95 129
59 93 133
60 95 136
59 93 133
60 94 125
59 93 127
58 91 123
60 93 134
58 91 123
59 93 124
60 94 135
58 91 127
58 92 124
58 91 120
58 91 135
59 92 124
59 91 132
59 93 118
58 91 124
59 93 131
58 91 125
57 89 121
58 91 129
59 92 128
58 91 123
59 92 123
57 90 117
60 93 134
59 93 138
57 89 126
57 88 121
57 90 127
56 86 113
55 87 118
57 88 114
58 90 133
56 87 118
55 84 115
56 86 120
54 83 114
56 86 114
50 75 93
50 74 85
125 122 80
106 102 50
93 91 39
76 75 25
56 58 23
56 59 14
58 61 24
45 51 21
33 41 24
34 44 30
38 48 29
37 48 30
40 51 23
39 50 33
40 52 34
44 56 38
40 52 33
43 57 34
42 55 37
47 62 45
46 60 41
55 68 46
70 79 42
69 76 37
82 89 47
86 91 42
87 94 49
104 106 51
97 101 52
102 105 54
112 112 55
123 122 60
121 121 62
130 129 62
136 133 66
140 136 65
137 134 55
142 138 68
150 145 69
155 150 66
153 148 70
155 150 69
154 149 67
165 158 73
160 153 72
167 160 74
171 163 77
164 158 76
169 161 75
172 164 79
174 165 81
172 164 76
168 161 66
169 161 70
173 165 75
172 163 75
169 162 72
171 163 72
170 162 72
171 163 76
172 164 73
171 163 75
170 163 70
176 166 80
168 161 70
172 164 73
174 165 76
170 162 69
172 164 75
175 167 80
172 164 73
171 163 74
171 163 75
173 165 75
168 162 69
176 167 81
169 162 71
172 164 74
173 165 75
170 163 73
171 163 72
175 166 80
173 165 77
176 167 81
173 165 76
173 165 75
175 166 81
175 166 80
170 163 71
175 166 82
174 166 80
174 165 77
173 165 80
170 162 72
174 165 76
173 165 76
174 166 76
171 163 75
175 167 84
176 167 80
172 164 73
173 165 78
174 165 80
172 164 72
177 168 81
173 165 79
172 164 77
172 164 77
175 166 78
178 169 87
178 169 84
176 168 83
175 167 83
176 167 80
172 164 75
175 166 78
171 163 70
171 164 70
174 166 78
173 165 78
173 165 76
173 165 79
173 165 77
177 168 83
176 167 82
175 167 81
173 165 78
174 166 79
176 167 81
177 168 82
174 166 80
176 167 80
173 165 76
178 169 85
174 166 81
169 162 66
177 168 84
175 167 83
176 167 82
180 170 88
178 168 84
177 168 82
175 167 81
174 166 80
177 168 83
175 167 82
175 166 78
173 165 77
176 167 80
220 235 255
220 235 255
220 235 255
220 235 255
220 235 255
220 235 255
220 235 255
220 235 255
220 235 255
220 235 255
220 235 255
220 235 255
220 235 255
220 235 255
220 235 255
220 235 255
220 235 255
220 235 255
220 235 255
220 235 255
220 235 255
220 235 255
220 235 255
220 235 255
220 235 255
220 235 255
220 235 255
220 235 255
220 235 255
220 235 255
220 235 255
220 235 255
220 235 255
220 235 255
220 235 255
220 235 255
220 235 255
220 235 255
220 235 255
220 235 255
220 235 255
220 235 255
220 235 255
220 235 255
220 235 255
220 235 255
220 235 255
220 235 255
220 235 255
220 235 255
220 235 255
220 235 255
220 235 255
220 235 255
220 235 255
220 235 255
220 235 255
220 235 255
220 235 255
220 235 255
220 235 255
220 235 255
220 235 255
220 235 255
220 235 255
220 235 255
220 235 255
220 235 255
220 235 255
220 235 255
220 235 255
220 235 255
220 235 255
220 235 255
220 235 255
220 235 255
220 235 255
220 235 255
220 235 255
220 235 255
220 235 255
220 235 255
220 235 255
220 235 255
220 235 255
220 235 255
220 235 255
220 235 255
220 235 255
220 235 255
220 235 255
220 235 255
220 235 255
220 235 255
220 235 255
220 235 255
220 235 255
220 235 255
220 235 255
220 235 255
220 235 255
220 235 255
220 235 255
220 235 255
220 235 255
220 235 255
220 235 255
220 235 255
219 235 255
219 235 255
219 235 255
219 235 255
219 235 255
219 235 255
219 234 255
219 234 255
219 234 255
219 234 255
219 234 255
219 234 255
219 234 255
219 234 255
219 234 255
219 234 255
219 234 255
219 234 255
219 234 255
219 234 255
219 234 255
219 234 255
219 234 255
219 234 255
219 234 255
219 234 255
218 234 255
218 234 255
218 234 255
218 234 255
218 234 255
218 234 255
218 234 255
218 234 255
218 233 255
217 233 255
217 233 255
217 233 255
217 233 255
216 233 255
202 218 242
63 98 151
63 98 149
64 98 151
62 97 145
62 96 145
63 98 147
62 97 150
62 97 147
60 95 135
60 94 133
61 95 137
61 95 139
60 94 135
59 94 120
59 94 134
60 95 128
61 97 143
61 95 137
59 93 124
59 94 126
60 95 126
59 94 131
60 94 135
60 95 135
60 94 131
59 93 129
59 93 121
60 94 131
59 94 128
58 91 120
60 95 129
60 94 141
59 94 133
60 94 135
60 94 139
59 93 130
60 94 131
61 96 135
59 93 126
59 93 130
59 93 118
59 93 128
60 95 137
59 93 126
60 94 128
60 94 134
59 93 135
60 94 129
58 92 120
61 95 136
59 93 124
61 96 135
58 91 126
60 94 130
60 94 128
59 93 125
60 95 130
60 94 136
60 93 125
60 94 139
59 94 130
60 95 128
60 95 134
59 93 120
60 94 131
58 92 129
60 94 135
60 94 133
59 91 119
59 93 128
59 93 128
58 92 128
59 92 122
59 92 131
60 94 134
58 92 120
59 93 129
59 92 127
60 93 129
58 91 125
59 92 120
59 93 133
59 92 124
60 92 123
57 89 118
58 90 124
59 92 132
59 91 134
59 91 130
55 86 108
58 91 129
57 89 110
58 90 125
57 89 113
57 88 123
55 85 114
56 86 107
54 83 98
55 84 116
54 82 102
51 77 96
47 70 83
162 164 152
93 91 40
93 91 40
82 80 31
61 62 18
54 57 14
53 58 17
37 45 21
32 42 17
32 42 21
38 48 28
36 47 22
40 51 30
39 51 31
38 49 30
41 54 34
46 59 40
41 53 35
43 57 35
44 58 36
49 64 43
55 68 48
59 69 40
75 82 42
83 89 49
87 92 49
95 99 43
102 105 50
102 104 49
111 113 51
110 111 57
113 113 53
119 119 50
137 134 61
131 129 57
134 132 59
142 139 61
139 136 66
142 139 65
141 137 65
157 151 70
152 147 68
154 148 67
151 146 62
157 152 70
163 157 69
164 158 67
167 160 68
168 160 71
169 162 70
165 158 70
168 160 67
170 162 75
168 161 72
169 161 73
168 161 69
171 163 73
170 162 73
164 157 65
167 160 67
169 162 70
172 164 75
170 163 72
168 161 65
174 165 79
170 162 74
168 162 70
174 165 75
170 163 71
170 162 71
170 162 69
175 166 78
173 165 72
169 162 67
172 164 75
171 163 73
168 161 69
168 160 70
173 165 76
171 163 75
170 163 72
174 166 79
173 165 75
169 162 70
173 165 75
173 165 76
170 162 69
168 162 68
175 167 79
170 162 75
173 165 78
170 163 70
172 164 75
171 164 75
175 166 80
170 162 66
171 164 73
169 161 69
169 162 70
171 163 72
173 165 75
171 164 69
172 164 78
173 165 75
172 164 75
171 163 75
170 162 73
173 165 75
175 167 80
172 164 75
171 164 73
173 164 75
169 162 68
175 167 84
174 166 80
172 165 72
170 163 73
176 167 82
173 165 79
173 165 75
171 164 73
173 165 79
173 165 75
175 166 81
177 168 83
172 164 80
176 167 83
175 166 79
173 164 76
171 164 75
175 167 79
177 169 85
173 164 78
174 166 78
177 168 84
173 165 75
175 166 80
177 168 84
174 166 82
175 167 81
175 167 79
176 167 80
174 166 78
171 164 75
174 166 80
175 167 82
172 163 76
174 166 78
173 165 79
219 234 255
219 234 255
219 234 255
219 234 255
219 234 255
219 235 255
219 235 255
219 235 255
219 235 255
219 235 255
219 235 255
219 235 255
219 235 255
219 235 255
219 235 255
219 235 255
219 235 255
219 235 255
219 235 255
219 235 255
219 235 255
220 235 255
220 235 255
220 235 255
220 235 255
220 235 255
220 235 255
220 235 255
220 235 255
220 235 255
220 235 255
220 235 255
220 235 255
220 235 255
220 235 255
220 235 255
220 235 255
220 235 255
220 235 255
220 235 255
220 235 255
220 235 255
220 235 255
220 235 255
220 235 255
220 235 255
220 235 255
220 235 255
220 235 255
220 235 255
220 235 255
220 235 255
220 235 255
220 235 255
220 235 255
220 235 255
220 235 255
220 235 255
220 235 255
220 235 255
220 235 255
220 235 255
220 235 255
220 235 255
220 235 255
220 235 255
220 235 255
220 235 255
220 235 255
220 235 255
220 235 255
220 235 255
220 235 255
220 235 255
220 235 255
220 235 255
220 235 255
220 235 255
220 235 255
220 235 255
220 235 255
220 235 255
220 235 255
220 235 255
220 235 255
220 235 255
220 235 255
220 235 255
220 235 255
220 235 255
220 235 255
219 235 255
219 235 255
219 235 255
219 235 255
219 235 255
219 235 255
219 235 255
219 235 255
219 235 255
219 235 255
219 234 255
219 234 255
219 234 255
219 234 255
219 234 255
219 234 255
219 234 255
219 234 255
219 234 255
219 234 255
219 234 255
219 234 255
219 234 255
219 234 255
219 234 255
219 234 255
219 234 255
219 234 255
219 234 255
219 234 255
219 234 255
219 234 255
219 234 255
219 234 255
219 234 255
219 234 255
219 234 255
218 234 255
218 234 255
218 234 255
218 234 255
218 234 255
218 234 255
218 234 255
218 234 255
218 234 255
218 234 255
218 234 255
217 233 255
217 233 255
217 233 255
217 233 255
217 233 255
217 233 255
216 233 255
216 233 255
215 232 255
221 235 255
90 118 164
62 96 142
62 96 135
61 95 139
61 95 136
61 96 147
62 96 144
62 96 142
62 97 143
59 92 129
60 94 129
61 96 139
60 95 133
59 93 126
61 96 135
60 94 133
59 94 125
59 93 128
59 93 133
59 93 121
60 95 135
60 94 125
59 94 128
60 95 134
59 94 128
59 94 137
58 92 120
60 95 128
61 95 135
61 96 139
59 93 117
60 94 125
58 92 124
60 94 125
60 94 136
59 93 128
59 93 126
59 94 128
59 93 117
59 93 128
58 92 115
61 95 133
59 93 120
60 95 137
59 93 122
60 94 135
59 93 126
61 95 142
59 93 121
60 94 125
60 93 133
60 94 131
58 92 121
59 94 133
60 94 132
58 92 115
59 94 130
59 92 121
59 93 128
59 93 129
59 93 118
61 96 147
60 94 133
59 92 117
57 90 115
59 93 128
58 91 129
60 93 138
57 90 117
58 91 123
59 92 123
59 93 129
59 92 124
59 93 126
58 92 129
56 89 124
59 92 128
59 91 133
57 90 119
58 92 129
59 92 132
58 90 118
59 93 131
59 91 119
58 91 125
59 92 137
57 89 128
58 91 123
57 89 130
56 87 122
58 90 115
57 88 121
58 89 122
55 85 108
54 83 105
56 86 119
55 84 110
50 76 88
53 82 100
53 80 110
48 73 82
77 93 102
191 197 195
125 120 57
101 98 40
90 88 34
68 69 31
76 78 28
68 70 23
52 56 14
35 43 22
35 46 20
32 42 25
36 47 31
37 48 26
40 51 31
42 54 29
42 55 32
43 56 35
43 56 35
42 56 35
44 57 34
48 61 38
66 75 38
61 71 39
72 80 41
74 81 36
84 90 49
79 87 42
103 106 46
101 103 47
114 114 50
119 118 50
119 119 52
126 124 50
129 127 56
124 123 58
141 138 64
129 128 55
146 142 53
141 137 64
143 140 57
149 145 60
153 148 63
150 146 58
161 155 62
152 148 64
162 156 56
164 157 71
167 160 69
167 160 70
170 162 76
168 160 72
166 159 70
171 163 75
166 159 67
167 160 68
167 160 68
167 159 69
174 165 78
171 163 75
167 160 69
172 163 72
166 159 63
168 161 63
167 161 68
171 163 72
167 160 67
165 158 62
170 163 70
170 163 67
167 160 69
168 160 69
171 163 71
171 163 72
172 164 75
169 161 67
171 163 70
172 164 74
169 162 67
172 164 75
175 166 80
176 167 81
173 164 74
172 164 73
174 166 78
169 162 68
172 164 71
172 164 77
168 161 66
165 159 57
168 161 71
171 164 71
169 162 69
171 164 72
176 167 80
176 167 79
171 163 71
174 165 75
171 163 73
171 163 74
170 163 74
172 164 76
169 161 64
174 166 75
176 167 82
172 164 75
175 165 77
170 163 73
167 160 68
166 160 64
176 167 82
175 166 80
170 163 70
170 162 68
171 164 69
173 165 75
172 164 75
172 164 74
180 170 87
177 167 82
172 165 75
171 163 73
174 165 77
173 165 75
174 165 77
173 165 76
175 166 78
171 163 73
174 165 80
173 165 76
173 165 74
169 162 66
173 164 76
178 168 83
170 163 66
175 167 82
174 166 77
172 164 75
174 165 78
174 165 79
175 166 81
173 165 77
172 164 74
175 166 81
175 166 80
176 168 81
175 166 80
172 164 75
174 166 76
173 165 79
219 234 255
219 234 255
219 234 255
219 234 255
219 234 255
219 234 255
219 234 255
219 234 255
219 234 255
219 234 255
219 234 255
219 234 255
219 234 255
219 234 255
219 234 255
219 234 255
219 234 255
219 234 255
219 234 255
219 234 255
219 234 255
219 234 255
219 234 255
219 234 255
219 234 255
219 234 255
219 234 255
219 234 255
219 234 255
219 234 255
219 234 255
219 234 255
219 234 255
219 234 255
219 234 255
219 234 255
219 234 255
219 234 255
219 234 255
219 234 255
219 234 255
219 235 255
219 235 255
219 235 255
219 235 255
219 235 255
219 235 255
219 235 255
219 235 255
219 235 255
219 235 255
219 235 255
219 235 255
219 235 255
219 235 255
219 235 255
219 235 255
219 235 255
219 235 255
219 235 255
219 235 255
219 235 255
219 235 255
219 235 255
219 235 255
219 235 255
219 235 255
219 235 255
219 235 255
219 235 255
219 235 255
219 235 255
219 235 255
219 234 255
219 235 255
219 235 255
219 234 255
219 234 255
219 234 255
219 234 255
219 234 255
219 234 255
219 234 255
219 234 255
219 234 255
219 234 255
219 234 255
219 234 255
219 234 255
219 234 255
219 234 255
219 234 255
219 234 255
219 234 255
219 234 255
219 234 255
219 234 255
219 234 255
219 234 255
219 234 255
219 234 255
219 234 255
219 234 255
219 234 255
219 234 255
219 234 255
219 234 255
219 234 255
219 234 255
219 234 255
219 234 255
219 234 255
219 234 255
219 234 255
219 234 255
219 234 255
219 234 255
219 234 255
219 234 255
219 234 255
219 234 255
219 234 255
218 234 255
218 234 255
218 234 255
218 234 255
218 234 255
218 234 255
218 234 255
218 234 255
218 234 255
218 234 255
218 234 255
218 234 255
218 233 255
218 233 255
217 233 255
217 233 255
217 233 255
217 233 255
217 233 255
217 233 255
216 233 255
216 233 255
216 233 255
216 232 255
215 232 255
215 232 255
222 236 255
121 143 187
62 97 141
61 95 135
60 94 133
59 92 130
61 96 136
59 94 134
61 95 141
61 96 142
58 92 131
60 94 129
61 95 131
60 94 122
59 94 130
60 94 135
60 94 137
61 95 134
59 93 124
58 92 120
58 92 129
59 94 125
59 93 124
61 96 142
60 94 128
59 93 128
60 94 133
60 94 128
61 95 136
59 94 121
59 94 130
60 95 140
59 94 133
60 94 130
61 96 136
61 95 133
58 92 117
59 93 129
59 92 133
60 95 133
58 92 125
61 96 129
58 93 130
59 93 122
59 94 135
60 94 135
59 94 129
58 92 126
60 94 133
58 92 115
59 93 125
58 92 124
58 92 122
60 94 129
60 94 124
58 92 125
61 96 136
59 94 124
59 93 129
60 94 129
58 92 125
59 92 121
59 93 125
59 93 128
59 93 128
59 93 133
57 90 122
59 93 125
59 92 120
59 93 123
58 92 120
58 92 125
57 90 113
58 90 124
59 92 130
58 92 123
58 91 124
58 91 118
58 92 130
59 92 125
59 93 132
59 92 136
58 90 126
57 90 127
59 93 127
55 87 113
57 89 108
58 91 121
58 90 120
56 86 109
58 90 119
58 89 126
57 88 116
56 86 113
57 88 113
55 85 110
54 82 99
54 84 110
54 82 102
52 79 91
50 78 88
51 78 100
125 139 151
207 218 230
109 105 50
99 97 40
88 86 34
73 74 22
67 69 25
67 69 22
64 66 24
52 58 22
39 46 18
37 48 20
37 48 25
39 50 28
40 52 31
40 53 34
40 52 32
42 56 32
42 56 37
48 62 39
50 61 38
47 59 36
57 68 33
66 75 37
83 89 41
79 85 40
96 100 46
97 99 44
103 105 44
101 103 42
100 103 45
113 113 57
110 110 52
126 124 49
128 126 52
134 132 50
140 136 60
135 132 52
141 137 59
140 136 62
145 141 57
152 147 69
152 147 55
150 146 62
156 149 62
154 149 55
158 152 60
165 158 67
168 160 68
164 157 70
159 153 57
168 161 68
160 154 59
167 160 65
163 156 62
167 160 66
167 159 67
164 157 64
166 159 66
166 160 64
163 156 62
166 159 66
171 163 72
172 163 75
166 159 66
165 158 59
165 158 58
168 160 61
168 161 68
167 160 67
165 158 64
165 159 64
164 158 60
165 158 58
164 157 58
166 160 64
172 165 73
168 161 64
168 161 67
170 162 71
173 164 74
167 160 62
167 161 63
171 163 72
169 162 64
174 166 78
170 162 70
169 161 69
170 162 69
176 167 81
170 163 71
172 164 75
169 162 66
169 162 70
171 164 71
167 160 63
166 159 70
172 163 74
168 161 66
174 166 80
169 161 73
173 165 75
175 166 77
172 164 73
176 167 81
172 165 75
172 164 74
175 165 81
171 163 71
171 163 71
174 165 76
172 164 76
174 165 75
171 163 75
173 164 77
173 165 73
173 165 71
173 165 75
176 167 82
171 164 73
175 166 79
172 164 73
174 166 80
173 165 73
171 164 72
170 163 70
175 166 76
174 166 75
172 165 73
172 164 75
175 167 79
172 164 75
177 168 82
172 164 74
176 167 80
174 165 75
175 167 80
171 164 72
171 163 74
172 164 72
174 166 75
173 164 75
178 169 86
173 165 75
173 165 72
177 168 83
174 165 75
174 166 79
172 165 76
173 165 75
219 234 255
219 234 255
219 234 255
219 234 255
219 234 255
219 234 255
219 234 255
219 234 255
219 234 255
219 234 255
219 234 255
219 234 255
219 234 255
219 234 255
219 234 255
219 234 255
219 234 255
219 234 255
219 234 255
219 234 255
219 234 255
219 234 255
219 234 255
219 234 255
219 234 255
219 234 255
219 234 255
219 234 255
219 234 255
219 234 255
219 234 255
219 234 255
219 234 255
219 234 255
219 234 255
219 234 255
219 234 255
219 234 255
219 234 255
219 234 255
219 234 255
219 234 255
219 234 255
219 234 255
219 234 255
219 234 255
219 234 255
219 234 255
219 234 255
219 234 255
219 234 255
219 234 255
219 234 255
219 234 255
219 234 255
219 234 255
219 234 255
219 234 255
219 234 255
219 234 255
219 234 255
219 234 255
219 234 255
219 234 255
219 234 255
219 234 255
219 234 255
219 234 255
219 234 255
219 234 255
219 234 255
219 234 255
219 234 255
219 234 255
219 234 255
219 234 255
219 234 255
219 234 255
219 234 255
219 234 255
219 234 255
219 234 255
219 234 255
219 234 255
219 234 255
219 234 255
219 234 255
219 234 255
219 234 255
219 234 255
219 234 255
219 234 255
219 234 255
219 234 255
219 234 255
219 234 255
219 234 255
219 234 255
219 234 255
219 234 255
219 234 255
219 234 255
219 234 255
219 234 255
219 234 255
219 234 255
219 234 255
219 234 255
219 234 255
219 234 255
219 234 255
219 234 255
219 234 255
219 234 255
219 234 255
219 234 255
218 234 255
218 234 255
218 234 255
218 234 255
218 234 255
218 234 255
218 234 255
218 234 255
218 234 255
218 234 255
218 234 255
218 234 255
218 234 255
218 234 255
218 233 255
218 233 255
217 233 255
217 233 255
217 233 255
217 233 255
217 233 255
217 233 255
217 233 255
216 233 255
216 233 255
216 233 255
216 233 255
216 232 255
215 232 255
215 232 255
214 232 255
214 231 255
223 237 255
155 173 211
63 97 149
62 97 143
61 95 143
62 96 142
59 93 131
62 96 143
62 97 144
61 96 140
61 96 143
62 97 136
62 96 143
61 96 142
60 95 133
61 95 130
61 95 135
60 95 135
60 94 121
59 93 121
59 94 131
58 92 122
60 94 122
60 94 124
59 93 130
61 96 135
60 94 130
59 94 125
58 92 122
60 95 134
59 93 122
61 95 134
59 93 128
58 92 128
58 92 128
58 92 121
60 94 122
59 93 124
59 93 124
60 95 129
58 92 126
60 94 129
60 94 131
60 94 131
58 92 117
60 94 134
59 93 128
58 92 123
60 94 129
57 91 120
59 94 136
58 92 128
58 92 126
60 94 129
61 95 136
60 94 124
60 94 125
60 94 124
59 94 122
58 91 117
60 94 131
59 92 121
59 92 125
61 95 129
58 92 134
59 93 133
59 92 129
58 92 129
60 94 134
58 92 125
59 92 125
57 89 117
58 92 121
59 93 120
58 91 115
56 89 115
58 92 120
59 92 115
59 92 136
56 88 118
58 91 117
59 92 134
58 91 123
58 91 129
57 89 105
56 88 111
55 85 101
59 92 131
57 89 117
58 90 125
55 87 105
56 87 117
57 87 116
56 87 113
57 88 122
57 88 123
54 83 101
54 83 102
54 83 101
49 75 91
50 76 87
49 72 84
160 174 188
222 234 252
142 135 67
101 99 36
91 88 39
80 81 26
79 78 24
62 66 17
49 54 20
63 68 23
52 58 25
40 50 22
42 53 32
43 51 22
41 53 31
40 53 30
41 53 34
40 52 32
44 55 29
51 61 38
49 62 39
60 70 39
60 67 32
68 77 35
66 74 31
83 88 38
84 91 38
94 98 43
93 96 40
104 106 38
110 111 41
105 107 48
124 123 53
127 126 51
128 126 50
125 123 47
127 126 53
142 138 62
147 143 56
142 138 57
150 146 59
147 143 53
148 144 44
152 147 55
156 150 65
158 152 62
162 155 70
165 158 66
163 157 63
163 156 64
165 158 65
166 160 65
160 155 54
162 156 56
165 159 66
164 157 63
164 157 65
161 155 64
166 159 61
168 161 70
165 158 61
167 159 60
169 162 70
162 156 57
162 156 58
167 160 64
163 157 63
170 162 74
160 155 52
169 162 66
165 158 58
169 162 66
166 160 60
166 159 64
168 161 66
170 162 69
168 161 60
168 161 64
171 163 70
168 161 63
170 162 68
165 158 59
171 163 74
164 158 58
167 159 64
169 162 67
170 163 69
172 164 73
166 160 59
167 160 65
165 159 61
166 159 64
170 163 75
170 163 68
169 162 68
173 165 77
168 161 65
167 160 63
171 163 75
169 162 67
165 159 58
168 161 65
174 165 80
166 160 64
167 160 67
166 160 63
167 160 63
173 166 75
168 161 66
172 164 70
169 162 69
171 163 69
169 162 69
172 164 74
169 161 71
176 167 79
175 167 79
170 163 69
173 165 76
168 161 62
172 164 75
169 161 69
171 163 73
171 163 68
169 162 69
171 163 73
171 164 72
172 164 74
177 168 81
171 164 75
173 165 73
170 162 71
171 164 71
173 165 75
174 166 74
173 165 74
172 164 72
175 166 77
170 163 69
172 164 75
171 163 68
175 165 77
170 163 69
172 164 73
174 166 78
173 165 79
173 165 75
175 166 76
172 164 75
173 165 75
219 234 255
219 234 255
219 234 255
219 234 255
219 234 255
219 234 255
219 234 255
219 234 255
219 234 255
219 234 255
219 234 255
219 234 255
219 234 255
219 234 255
219 234 255
219 234 255
219 234 255
219 234 255
219 234 255
219 234 255
219 234 255
219 234 255
219 234 255
219 234 255
219 234 255
219 234 255
219 234 255
219 234 255
219 234 255
219 234 255
219 234 255
219 234 255
219 234 255
219 234 255
219 234 255
219 234 255
219 234 255
219 234 255
219 234 255
219 234 255
219 234 255
219 234 255
219 234 255
219 234 255
219 234 255
219 234 255
219 234 255
219 234 255
219 234 255
219 234 255
219 234 255
219 234 255
219 234 255
219 234 255
219 234 255
219 234 255
219 234 255
219 234 255
219 234 255
219 234 255
219 234 255
219 234 255
219 234 255
219 234 255
219 234 255
219 234 255
219 234 255
219 234 255
219 234 255
219 234 255
219 234 255
219 234 255
219 234 255
219 234 255
219 234 255
219 234 255
219 234 255
219 234 255
219 234 255
219 234 255
219 234 255
219 234 255
219 234 255
219 234 255
219 234 255
219 234 255
219 234 255
219 234 255
219 234 255
219 234 255
219 234 255
219 234 255
219 234 255
219 234 255
219 234 255
219 234 255
219 234 255
219 234 255
219 234 255
219 234 255
219 234 255
219 234 255
219 234 255
219 234 255
219 234 255
219 234 255
219 234 255
218 234 255
218 234 255
218 234 255
218 234 255
218 234 255
218 234 255
218 234 255
218 234 255
218 234 255
218 234 255
218 234 255
218 234 255
218 234 255
218 234 255
218 234 255
218 234 255
218 234 255
218 234 255
218 234 255
218 233 255
218 233 255
217 233 255
217 233 255
217 233 255
217 233 255
217 233 255
217 233 255
217 233 255
217 233 255
216 233 255
216 233 255
216 233 255
216 233 255
216 232 255
215 232 255
215 232 255
215 232 255
215 232 255
214 232 255
213 231 255
211 229 244
216 230 230
176 192 203
62 97 145
63 97 145
60 93 137
61 95 134
61 96 135
60 95 130
60 95 140
59 93 128
60 93 128
60 94 126
60 94 134
58 91 113
60 95 133
60 94 125
59 94 130
60 94 125
58 93 121
62 97 141
59 93 122
60 94 122
59 94 126
59 93 125
58 92 124
59 93 128
59 94 130
59 94 135
59 93 122
59 93 121
61 96 139
58 92 121
60 95 126
59 93 129
60 95 134
60 94 129
59 93 121
59 93 128
58 92 120
59 93 121
59 92 120
58 92 126
58 92 122
60 95 136
60 95 133
60 95 129
60 94 131
59 93 125
61 95 136
59 93 126
60 94 131
61 95 136
60 94 130
59 93 131
59 93 125
58 92 128
60 95 131
60 94 133
58 92 121
60 94 137
59 92 126
61 96 140
59 93 125
59 93 129
58 92 129
60 94 131
58 91 130
58 92 124
60 95 136
59 92 125
59 93 124
57 91 114
58 91 118
58 93 120
58 91 125
59 92 127
58 90 121
58 91 118
58 91 128
60 93 134
57 89 117
58 90 122
58 91 118
60 92 126
56 89 113
59 92 129
59 91 127
57 89 123
58 90 120
56 87 121
57 88 117
55 85 98
56 87 108
56 88 120
56 86 108
56 87 111
55 85 110
55 84 116
52 81 104
53 80 98
47 71 76
50 76 87
174 188 177
218 232 236
151 151 117
111 108 42
96 95 37
89 89 31
91 91 28
72 74 20
65 67 19
58 61 17
56 62 21
40 47 18
44 52 21
42 49 21
44 52 20
46 57 30
42 52 30
45 54 32
46 57 33
48 58 24
62 70 31
53 63 25
53 64 29
61 71 37
74 79 30
76 82 36
92 95 40
91 96 37
95 97 37
98 101 39
111 112 44
100 103 41
115 115 48
120 120 53
115 116 51
129 127 54
121 120 50
132 130 40
143 139 45
133 130 48
142 138 56
144 140 53
149 144 55
152 147 62
149 145 58
158 152 59
156 151 50
157 151 59
160 154 57
162 156 57
160 153 61
164 158 62
159 154 57
158 153 49
166 159 59
168 161 68
165 159 61
168 161 66
166 159 58
166 160 58
166 158 65
163 157 59
161 153 60
164 157 59
162 157 56
165 158 60
162 155 62
164 158 64
164 157 57
164 158 60
166 159 63
170 161 69
163 156 61
168 161 68
170 162 65
167 161 67
163 157 57
161 156 45
169 161 65
167 160 61
167 160 62
168 161 62
171 162 69
166 159 57
167 161 63
163 157 56
164 158 60
166 160 60
169 162 68
169 162 69
168 161 65
165 159 60
166 159 61
169 161 68
170 162 64
165 159 60
168 160 64
167 160 63
165 159 59
170 163 69
169 161 68
170 163 67
166 160 62
169 162 70
169 162 65
172 164 71
166 159 60
169 161 65
167 160 58
170 162 70
169 162 68
170 163 70
170 162 71
172 163 71
173 165 75
169 162 68
170 162 63
172 164 74
172 164 72
172 164 74
171 163 72
166 160 60
168 161 64
170 162 68
171 163 71
174 165 74
172 164 72
174 166 79
173 165 77
172 164 74
173 165 76
174 165 79
172 164 73
170 162 65
170 163 68
175 166 80
175 166 80
172 164 72
171 164 72
171 163 68
174 165 77
172 164 74
176 167 82
172 164 75
173 165 73
173 165 76
173 165 76
169 162 67
174 166 78
174 166 78
218 234 255
218 234 255
218 234 255
218 234 255
218 234 255
218 234 255
218 234 255
218 234 255
218 234 255
218 234 255
219 234 255
219 234 255
219 234 255
219 234 255
219 234 255
219 234 255
219 234 255
219 234 255
219 234 255
219 234 255
219 234 255
219 234 255
219 234 255
219 234 255
219 234 255
219 234 255
219 234 255
219 234 255
219 234 255
219 234 255
219 234 255
219 234 255
219 234 255
219 234 255
219 234 255
219 234 255
219 234 255
219 234 255
219 234 255
219 234 255
219 234 255
219 234 255
219 234 255
219 234 255
219 234 255
219 234 255
219 234 255
219 234 255
219 234 255
219 234 255
219 234 255
219 234 255
219 234 255
219 234 255
219 234 255
219 234 255
219 234 255
219 234 255
219 234 255
219 234 255
219 234 255
219 234 255
219 234 255
219 234 255
219 234 255
219 234 255
219 234 255
219 234 255
219 234 255
219 234 255
219 234 255
219 234 255
219 234 255
219 234 255
219 234 255
219 234 255
219 234 255
219 234 255
219 234 255
219 234 255
219 234 255
219 234 255
219 234 255
219 234 255
219 234 255
219 234 255
219 234 255
219 234 255
219 234 255
219 234 255
219 234 255
219 234 255
219 234 255
219 234 255
219 234 255
219 234 255
219 234 255
218 234 255
218 234 255
218 234 255
218 234 255
218 234 255
218 234 255
218 234 255
218 234 255
218 234 255
218 234 255
218 234 255
218 234 255
218 234 255
218 234 255
218 234 255
218 234 255
218 234 255
218 234 255
218 234 255
218 234 255
218 234 255
218 234 255
218 234 255
218 234 255
218 233 255
218 233 255
217 233 255
217 233 255
217 233 255
217 233 255
217 233 255
217 233 255
217 233 255
217 233 255
217 233 255
217 233 255
216 233 255
216 233 255
216 233 255
216 233 255
216 232 255
216 232 255
215 232 255
215 232 255
215 232 255
215 232 255
214 232 255
214 231 255
213 231 255
213 231 255
197 218 198
176 198 0
162 186 65
61 96 142
64 99 153
62 96 147
61 96 137
62 96 140
60 94 137
61 95 131
60 94 125
61 95 136
60 94 140
60 94 129
60 95 126
59 93 129
59 93 133
59 94 128
61 95 133
58 93 124
59 93 133
58 92 128
60 95 130
58 92 122
58 91 113
60 94 130
59 93 128
59 93 128
58 93 117
59 93 126
59 93 120
60 94 129
59 94 129
60 94 129
59 93 120
61 96 134
59 93 129
59 92 117
58 91 115
58 92 129
59 93 121
58 91 125
59 92 124
60 94 126
60 95 135
58 92 121
59 93 131
59 94 129
59 93 126
59 93 125
59 94 126
59 93 124
58 92 121
58 92 124
57 90 120
58 91 120
59 93 113
60 93 137
59 93 122
59 93 120
58 91 114
60 94 133
60 93 127
59 93 121
60 94 130
58 92 124
56 89 110
60 94 129
57 90 114
60 94 133
58 92 120
59 93 130
57 91 114
57 91 123
60 93 130
59 93 124
59 93 120
57 90 123
58 91 118
57 90 110
58 91 118
58 90 123
58 91 117
57 90 124
59 92 129
57 90 112
57 89 109
56 88 116
57 88 115
57 89 110
60 93 127
57 89 122
55 86 105
57 87 113
57 87 102
54 84 110
57 88 121
55 84 96
53 81 97
53 82 100
53 81 100
53 80 93
44 66 61
163 186 25
173 197 0
157 166 44
120 115 47
100 96 38
93 91 30
91 88 36
70 72 23
75 78 15
72 75 14
58 64 24
54 60 18
57 62 13
54 60 28
52 60 25
41 51 27
51 60 31
52 59 27
48 58 29
45 55 30
51 61 29
61 71 34
64 73 35
63 73 37
69 76 34
79 84 25
89 92 32
92 96 39
89 94 34
102 104 37
105 106 43
117 116 36
111 112 39
115 115 36
123 124 40
127 124 49
130 129 46
139 135 50
142 137 57
138 136 43
138 135 42
145 140 59
147 142 57
147 144 57
153 147 60
155 150 52
158 151 51
158 152 52
157 151 56
160 154 56
155 150 49
158 153 54
163 155 60
158 154 51
156 151 48
164 157 62
165 158 61
159 153 51
163 157 54
156 152 39
158 153 45
163 157 61
164 157 63
161 156 57
164 157 57
161 155 52
167 159 62
163 156 59
162 155 58
163 157 60
167 159 62
162 156 58
161 156 48
165 158 57
162 156 56
167 159 61
163 157 61
170 162 65
167 159 66
169 162 64
163 157 54
163 157 57
165 158 59
171 163 67
167 160 67
164 157 57
169 161 67
168 161 61
166 159 61
170 162 70
168 161 69
168 161 62
169 162 66
165 159 59
163 157 59
165 158 61
170 162 63
170 162 70
168 160 68
167 160 64
170 162 67
168 160 71
170 162 67
167 160 64
165 159 63
169 162 67
168 161 66
170 161 68
165 158 60
169 162 66
165 159 60
170 162 67
166 160 60
165 158 64
170 163 67
169 162 62
173 164 74
165 159 60
170 163 69
171 162 70
172 164 70
169 161 68
170 162 72
168 160 66
170 163 67
171 163 68
168 161 61
170 163 70
169 162 67
173 164 72
168 161 68
168 161 63
170 162 69
172 164 74
170 163 70
174 165 75
176 167 80
173 164 76
171 164 71
170 163 72
175 166 79
172 164 74
173 165 73
171 163 69
174 165 77
172 164 75
173 165 74
171 164 72
172 164 73
173 164 74
218 234 255
218 234 255
218 234 255
218 234 255
218 234 255
218 234 255
218 234 255
218 234 255
218 234 255
218 234 255
218 234 255
218 234 255
218 234 255
218 234 255
218 234 255
218 234 255
218 234 255
218 234 255
218 234 255
218 234 255
218 234 255
218 234 255
218 234 255
218 234 255
218 234 255
218 234 255
218 234 255
218 234 255
218 234 255
218 234 255
218 234 255
218 234 255
218 234 255
218 234 255
218 234 255
218 234 255
219 234 255
219 234 255
219 234 255
219 234 255
219 234 255
219 234 255
219 234 255
219 234 255
219 234 255
219 234 255
219 234 255
219 234 255
219 234 255
219 234 255
219 234 255
219 234 255
219 234 255
219 234 255
219 234 255
219 234 255
219 234 255
219 234 255
219 234 255
219 234 255
219 234 255
219 234 255
219 234 255
219 234 255
219 234 255
219 234 255
219 234 255
219 234 255
219 234 255
219 234 255
219 234 255
219 234 255
219 234 255
219 234 255
219 234 255
219 234 255
219 234 255
219 234 255
219 234 255
219 234 255
218 234 255
218 234 255
218 234 255
218 234 255
218 234 255
218 234 255
218 234 255
218 234 255
218 234 255
218 234 255
218 234 255
218 234 255
218 234 255
218 234 255
218 234 255
218 234 255
218 234 255
218 234 255
218 234 255
218 234 255
218 234 255
218 234 255
218 234 255
218 234 255
218 234 255
218 234 255
218 234 255
218 234 255
218 234 255
218 234 255
218 234 255
218 234 255
218 234 255
218 234 255
218 234 255
218 234 255
218 233 255
217 233 255
217 233 255
217 233 255
217 233 255
217 233 255
217 233 255
217 233 255
217 233 255
217 233 255
217 233 255
217 233 255
217 233 255
217 233 255
216 233 255
216 233 255
216 233 255
216 233 255
216 233 255
216 232 255
215 232 255
215 232 255
215 232 255
215 232 255
215 232 255
214 232 255
214 231 255
213 231 255
213 231 255
212 231 255
212 230 255
181 204 108
174 198 0
173 197 0
82 113 144
62 97 145
62 97 143
61 95 135
60 94 126
60 95 126
59 92 133
59 93 130
60 95 133
60 94 128
59 94 133
60 94 129
60 95 130
59 94 130
59 92 126
60 94 128
58 92 111
59 93 142
60 94 126
60 93 125
59 94 125
60 94 129
59 93 128
59 93 118
59 93 124
58 92 126
59 93 122
59 93 125
59 93 125
59 92 122
58 92 121
60 94 130
58 92 124
60 94 130
60 93 131
58 91 118
61 95 137
60 94 129
60 93 128
59 93 128
60 94 130
59 92 118
60 93 125
59 93 124
59 94 129
58 92 125
58 92 118
60 94 129
60 93 129
58 92 122
59 92 125
59 93 124
57 91 117
59 93 126
59 93 122
59 93 125
58 91 117
59 92 124
58 92 117
57 90 110
59 93 120
60 94 128
60 94 131
60 94 134
59 92 120
58 91 117
57 90 107
57 90 117
59 93 131
58 92 119
57 91 117
59 92 121
59 93 130
57 90 113
57 91 115
55 87 113
58 91 112
58 92 124
57 89 113
59 93 133
59 92 125
58 91 113
55 86 110
58 91 115
57 90 113
55 86 115
57 90 116
56 88 108
57 88 118
55 85 104
58 89 120
54 83 103
55 84 100
55 85 102
53 82 94
52 81 97
52 80 98
50 78 100
50 74 83
69 87 59
176 199 0
175 198 0
166 186 22
125 120 53
103 100 34
106 103 43
86 85 26
78 78 25
82 82 25
78 80 26
74 77 15
61 65 17
58 64 23
62 67 24
51 60 30
47 56 25
53 59 28
47 57 26
52 61 26
54 63 31
57 65 32
59 66 32
64 71 31
69 76 27
73 78 34
73 78 28
85 89 27
95 99 39
89 93 25
102 103 35
104 103 36
104 104 26
123 123 40
110 111 42
122 121 34
119 118 46
134 131 50
130 129 37
134 131 43
129 127 43
139 135 43
146 140 55
147 143 52
146 142 47
156 150 51
154 149 51
158 151 62
159 153 58
153 149 45
156 152 48
159 153 47
159 153 57
159 153 54
161 155 56
158 152 59
155 150 47
160 153 47
160 153 58
155 150 47
162 156 53
161 155 54
158 153 45
163 157 56
158 153 51
159 154 47
166 160 59
164 157 57
158 154 45
163 157 52
162 156 59
160 155 45
162 157 47
161 156 51
160 154 48
160 154 49
166 159 60
162 155 54
168 161 60
161 154 61
165 159 59
161 156 48
165 159 62
161 156 56
165 158 61
167 160 62
161 156 53
164 156 57
165 159 54
165 158 60
162 157 49
169 161 67
164 157 52
166 160 60
169 161 65
167 160 63
168 160 63
169 162 65
169 162 64
171 163 69
166 160 58
170 162 65
168 161 63
163 158 51
169 162 66
165 158 62
171 163 67
168 161 66
166 160 61
168 161 65
170 161 66
163 157 58
167 159 62
167 160 62
167 160 63
165 158 60
172 164 72
169 161 66
168 161 64
165 159 57
167 161 63
173 164 70
170 162 66
168 162 65
170 162 69
165 159 61
168 161 66
171 163 69
168 162 64
168 161 67
167 161 60
171 163 69
171 162 68
172 164 71
170 162 71
172 164 70
171 164 70
168 162 64
167 161 62
174 166 76
168 161 63
174 166 76
168 161 66
178 168 82
170 162 75
173 164 75
171 163 70
169 162 66
174 165 75
174 166 78
176 167 80
218 234 255
218 234 255
218 234 255
218 234 255
218 234 255
218 234 255
218 234 255
218 234 255
218 234 255
218 234 255
218 234 255
218 234 255
218 234 255
218 234 255
218 234 255
218 234 255
218 234 255
218 234 255
218 234 255
218 234 255
218 234 255
218 234 255
218 234 255
218 234 255
218 234 255
218 234 255
218 234 255
218 234 255
218 234 255
218 234 255
218 234 255
218 234 255
218 234 255
218 234 255
218 234 255
218 234 255
218 234 255
218 234 255
218 234 255
218 234 255
218 234 255
218 234 255
218 234 255
218 234 255
218 234 255
218 234 255
218 234 255
218 234 255
218 234 255
218 234 255
218 234 255
218 234 255
218 234 255
218 234 255
218 234 255
218 234 255
218 234 255
218 234 255
218 234 255
218 234 255
218 234 255
218 234 255
218 234 255
218 234 255
218 234 255
218 234 255
218 234 255
218 234 255
218 234 255
218 234 255
218 234 255
218 234 255
218 234 255
218 234 255
218 234 255
218 234 255
218 234 255
218 234 255
218 234 255
218 234 255
218 234 255
218 234 255
218 234 255
218 234 255
218 234 255
218 234 255
218 234 255
218 234 255
218 234 255
218 234 255
218 234 255
218 234 255
218 234 255
218 234 255
218 234 255
218 234 255
218 234 255
218 234 255
218 234 255
218 234 255
218 234 255
218 234 255
218 234 255
218 234 255
218 234 255
218 234 255
218 234 255
218 234 255
218 234 255
218 233 255
218 233 255
218 233 255
217 233 255
217 233 255
217 233 255
217 233 255
217 233 255
217 233 255
217 233 255
217 233 255
217 233 255
217 233 255
217 233 255
217 233 255
217 233 255
217 233 255
216 233 255
216 233 255
216 233 255
216 233 255
216 233 255
216 232 255
216 232 255
216 232 255
215 232 255
215 232 255
215 232 255
215 232 255
214 232 255
214 232 255
214 231 255
214 231 255
213 231 255
213 231 255
212 230 255
211 230 255
206 226 240
175 198 0
174 198 0
174 198 0
119 145 121
61 95 137
61 96 140
62 97 141
60 94 131
59 93 125
62 97 144
60 94 129
60 94 131
60 94 133
59 93 126
60 94 131
59 93 128
59 94 142
57 90 117
59 93 122
61 95 140
59 93 130
59 93 128
59 93 121
60 94 134
59 94 126
59 93 124
60 94 128
58 91 120
59 92 122
60 95 137
58 92 118
58 92 115
59 92 118
61 95 135
58 92 124
59 94 130
58 92 120
60 94 126
59 93 126
58 93 124
58 91 122
59 93 126
58 92 121
58 91 117
59 93 125
58 92 122
60 93 122
60 94 130
58 92 120
58 92 118
58 92 120
59 93 131
58 92 122
60 94 129
58 92 118
58 92 122
58 92 124
59 92 122
57 91 121
59 93 120
58 91 114
58 90 114
60 93 130
56 90 118
60 94 136
59 93 126
60 94 135
60 94 136
58 91 111
59 93 118
57 89 113
57 90 123
59 92 124
58 92 120
58 91 123
59 93 130
57 90 123
58 91 118
58 91 119
56 87 107
59 91 113
57 90 113
57 90 119
58 91 116
58 91 120
56 89 111
57 89 121
55 86 97
57 89 121
57 89 121
57 88 118
56 86 113
54 83 101
55 85 102
56 86 108
54 84 105
54 82 98
52 80 96
53 80 101
51 77 90
51 78 87
47 71 70
115 135 48
172 196 0
173 197 0
175 198 11
135 137 49
117 113 43
95 93 30
102 99 36
95 93 27
86 87 21
77 79 20
68 70 25
65 69 15
60 65 20
68 70 25
54 61 24
52 60 21
64 68 26
55 61 21
45 55 27
64 70 27
66 71 23
61 68 30
62 70 33
77 82 26
86 90 25
87 90 26
93 96 31
82 86 27
101 104 39
98 101 33
99 101 35
97 100 36
107 107 38
123 121 33
117 117 32
130 128 44
129 127 35
133 130 43
137 135 35
144 140 52
136 133 40
146 142 46
139 136 37
138 135 47
149 145 52
145 142 42
148 144 42
154 149 47
151 146 42
157 151 49
156 150 47
154 148 44
162 155 56
158 152 52
154 148 47
157 151 45
156 152 45
156 151 47
153 149 44
155 150 45
158 153 45
160 155 44
158 152 58
158 153 45
151 146 32
159 154 52
159 153 49
161 155 49
160 154 47
161 155 53
159 154 47
160 154 47
160 152 54
154 149 47
161 155 49
163 157 52
160 154 47
163 157 53
162 156 53
165 159 60
160 154 51
163 156 54
161 156 56
161 155 54
162 156 53
165 160 52
165 159 57
165 158 56
161 156 48
169 161 68
164 159 54
163 157 51
165 159 57
163 157 56
163 157 54
165 158 60
163 156 56
167 159 62
165 158 62
161 156 48
165 157 61
167 160 61
166 159 63
164 157 61
165 159 54
167 160 62
166 159 58
163 158 56
161 155 49
168 161 62
167 160 57
167 160 61
170 162 65
169 162 65
170 162 67
166 159 60
163 157 52
166 160 59
164 156 62
167 160 63
167 160 61
167 160 60
169 162 65
169 162 66
170 163 68
170 163 66
170 162 68
169 161 66
172 164 70
167 159 61
165 159 56
167 160 66
165 159 59
170 162 66
170 162 68
166 159 62
165 159 58
171 162 72
170 162 71
174 166 75
170 162 70
170 163 70
174 166 78
170 163 69
171 163 66
170 162 70
171 163 71
170 162 65
173 164 77
170 162 67
218 234 255
218 234 255
218 234 255
218 234 255
218 234 255
218 234 255
218 234 255
218 234 255
218 234 255
218 234 255
218 234 255
218 234 255
218 234 255
218 234 255
218 234 255
218 234 255
218 234 255
218 234 255
218 234 255
218 234 255
218 234 255
218 234 255
218 234 255
218 234 255
218 234 255
218 234 255
218 234 255
218 234 255
218 234 255
218 234 255
218 234 255
218 234 255
218 234 255
218 234 255
218 234 255
218 234 255
218 234 255
218 234 255
218 234 255
218 234 255
218 234 255
218 234 255
218 234 255
218 234 255
218 234 255
218 234 255
218 234 255
218 234 255
218 234 255
218 234 255
218 234 255
218 234 255
218 234 255
218 234 255
218 234 255
218 234 255
218 234 255
218 234 255
218 234 255
218 234 255
218 234 255
218 234 255
218 234 255
218 234 255
218 234 255
218 234 255
218 234 255
218 234 255
218 234 255
218 234 255
218 234 255
218 234 255
218 234 255
218 234 255
218 234 255
218 234 255
218 234 255
218 234 255
218 234 255
218 234 255
218 234 255
218 234 255
218 234 255
218 234 255
218 234 255
218 234 255
218 234 255
218 234 255
218 234 255
218 234 255
218 234 255
218 234 255
218 234 255
218 234 255
218 234 255
218 234 255
218 234 255
218 234 255
218 234 255
218 234 255
218 234 255
218 234 255
218 233 255
218 233 255
218 233 255
217 233 255
217 233 255
217 233 255
217 233 255
217 233 255
217 233 255
217 233 255
217 233 255
217 233 255
217 233 255
217 233 255
217 233 255
217 233 255
217 233 255
217 233 255
217 233 255
217 233 255
216 233 255
216 233 255
216 233 255
216 233 255
216 233 255
216 233 255
216 233 255
216 232 255
216 232 255
215 232 255
215 232 255
215 232 255
215 232 255
215 232 255
214 232 255
214 232 255
214 231 255
214 231 255
213 231 255
213 231 255
212 231 255
212 230 255
211 230 255
210 230 255
197 217 199
176 199 0
174 197 0
174 197 0
150 174 84
62 96 145
57 90 120
60 94 128
60 94 129
61 95 136
60 95 130
60 95 130
60 94 126
60 94 129
59 93 128
60 95 130
59 93 128
59 92 114
61 95 131
59 94 128
60 95 129
59 92 126
58 92 115
59 93 128
59 94 130
59 93 124
58 92 125
58 91 115
60 94 129
58 92 125
59 93 124
62 96 140
58 92 111
60 94 131
59 93 125
57 91 117
58 92 128
59 94 134
59 93 121
59 93 120
59 93 130
59 92 120
60 94 133
59 93 121
57 91 124
58 92 122
59 93 122
58 92 125
59 94 125
59 93 128
57 89 118
59 93 125
59 92 125
60 94 129
58 91 115
58 92 122
59 93 125
58 92 122
58 91 121
58 92 125
59 94 124
59 93 121
58 91 126
59 93 120
58 90 123
57 90 114
60 94 125
59 93 128
58 92 121
59 92 125
58 92 128
59 92 123
58 91 114
57 90 113
57 89 113
58 91 126
58 91 117
58 92 123
56 88 117
57 90 117
59 92 120
58 91 122
58 90 121
58 91 124
56 88 118
59 92 127
57 88 115
54 84 106
56 87 109
57 89 117
57 89 118
58 90 120
57 88 122
54 85 98
54 82 99
56 88 110
55 85 103
54 84 108
56 86 111
52 79 101
52 79 98
50 76 87
47 71 64
154 175 46
173 196 0
175 198 0
174 198 0
151 161 41
122 117 46
105 102 30
93 91 20
102 99 40
87 88 22
82 83 17
77 79 23
82 83 10
72 74 10
63 67 23
66 69 21
68 70 17
51 57 19
61 65 21
50 60 21
55 61 22
76 79 25
82 86 28
68 75 27
81 84 24
79 82 20
72 78 26
93 96 31
88 93 31
87 91 32
103 104 27
103 106 32
97 100 25
109 110 31
120 121 37
113 114 29
121 120 30
126 123 43
131 129 44
129 126 38
133 130 44
139 135 37
139 136 43
138 135 42
152 147 48
149 145 45
147 142 39
143 139 44
148 144 45
149 145 44
150 146 39
153 148 41
150 146 34
154 149 41
158 154 44
157 152 52
158 153 49
159 153 48
156 152 39
153 149 42
158 153 42
157 152 45
161 155 53
159 152 48
161 155 49
162 155 51
156 151 45
155 151 37
158 152 42
158 153 56
155 151 37
160 153 49
161 155 45
159 154 44
158 153 42
157 151 51
159 154 42
164 157 56
166 159 57
160 154 47
161 155 52
157 151 44
159 154 52
163 157 53
163 157 52
162 156 51
164 158 59
162 156 51
167 161 60
159 155 37
166 159 57
160 155 49
162 156 52
163 156 56
163 157 56
165 158 57
159 154 48
165 158 56
162 157 56
167 160 61
165 158 53
165 158 57
162 156 54
169 161 63
168 160 62
167 161 61
166 160 58
170 161 67
167 159 58
167 160 58
167 160 63
167 161 62
167 159 64
167 160 61
167 160 63
165 159 53
168 160 63
166 159 54
165 158 60
168 162 62
164 157 54
168 161 65
169 161 68
169 161 65
165 158 59
167 160 59
170 162 63
171 163 72
168 160 67
169 161 70
169 162 66
165 159 57
169 162 66
168 160 62
170 162 68
166 160 56
172 164 69
171 162 67
167 160 64
171 162 70
167 161 63
170 163 70
167 160 61
169 161 63
173 164 74
170 162 69
170 162 68
170 162 63
167 159 64
168 160 60
166 159 62
217 233 255
217 233 255
217 233 255
217 233 255
217 233 255
217 233 255
217 233 255
217 233 255
218 233 255
218 233 255
218 233 255
218 233 255
218 233 255
218 233 255
218 234 255
218 234 255
218 234 255
218 234 255
218 234 255
218 234 255
218 234 255
218 234 255
218 234 255
218 234 255
218 234 255
218 234 255
218 234 255
218 234 255
218 234 255
218 234 255
218 234 255
218 234 255
218 234 255
218 234 255
218 234 255
218 234 255
218 234 255
218 234 255
218 234 255
218 234 255
218 234 255
218 234 255
218 234 255
218 234 255
218 234 255
218 234 255
218 234 255
218 234 255
218 234 255
218 234 255
218 234 255
218 234 255
218 234 255
218 234 255
218 234 255
218 234 255
218 234 255
218 234 255
218 234 255
218 234 255
218 234 255
218 234 255
218 234 255
218 234 255
218 234 255
218 234 255
218 234 255
218 234 255
218 234 255
218 234 255
218 234 255
218 234 255
218 234 255
218 234 255
218 234 255
218 234 255
218 234 255
218 234 255
218 234 255
218 234 255
218 234 255
218 234 255
218 234 255
218 234 255
218 234 255
218 234 255
218 234 255
218 234 255
218 234 255
218 234 255
218 234 255
218 234 255
218 233 255
218 233 255
218 233 255
218 233 255
218 233 255
217 233 255
217 233 255
217 233 255
217 233 255
217 233 255
217 233 255
217 233 255
217 233 255
217 233 255
217 233 255
217 233 255
217 233 255
217 233 255
217 233 255
217 233 255
217 233 255
217 233 255
217 233 255
217 233 255
217 233 255
217 233 255
216 233 255
216 233 255
216 233 255
216 233 255
216 233 255
216 233 255
216 233 255
216 232 255
216 232 255
216 232 255
215 232 255
215 232 255
215 232 255
215 232 255
215 232 255
215 232 255
214 232 255
214 232 255
214 231 255
214 231 255
213 231 255
213 231 255
213 231 255
212 230 255
212 230 255
211 230 255
210 229 255
209 229 255
178 201 84
175 198 0
173 197 0
173 197 0
166 191 40
65 99 140
60 95 129
60 94 133
59 93 130
59 93 130
61 95 136
58 92 122
59 93 128
59 93 130
59 93 124
59 94 122
59 93 120
60 94 133
59 93 125
59 93 124
58 92 115
59 92 115
59 92 115
58 92 121
60 94 131
60 94 125
60 94 129
58 92 121
59 93 124
58 92 126
60 94 122
60 94 133
57 91 122
59 93 117
58 92 120
59 93 124
59 92 122
59 93 129
58 91 113
58 92 121
58 92 115
58 92 121
58 91 115
58 91 118
58 92 115
58 91 107
58 92 120
59 93 118
57 91 107
59 92 126
58 92 114
60 94 131
58 92 129
60 94 122
58 92 122
57 90 122
58 92 121
57 90 121
56 89 108
59 93 128
60 94 129
57 90 115
59 92 120
58 92 123
58 92 120
58 92 120
58 92 110
57 90 117
57 90 113
57 90 117
58 91 121
58 90 120
59 92 129
59 92 125
58 91 120
59 92 121
57 89 116
60 93 138
59 92 120
57 90 119
58 90 122
57 90 111
56 88 108
56 88 113
57 89 116
57 89 118
59 91 128
56 88 109
58 91 116
55 85 103
55 86 106
57 89 118
57 87 105
54 84 104
53 82 102
56 85 105
56 87 109
54 84 98
54 83 104
53 81 89
52 78 87
51 78 85
49 72 77
170 192 0
174 197 0
173 197 0
175 198 0
167 184 30
128 122 47
118 114 43
100 99 28
89 87 26
99 98 27
92 90 30
81 83 30
59 63 12
73 76 19
77 79 20
72 75 17
70 72 20
59 64 27
63 67 27
57 63 23
55 63 26
56 64 26
71 74 24
77 82 22
83 85 20
83 86 24
86 90 26
79 84 29
90 94 30
90 94 26
93 95 26
100 101 27
107 108 22
116 115 30
121 120 28
107 108 27
128 126 40
126 124 32
127 124 36
126 124 38
137 135 38
137 135 36
144 141 34
144 140 42
135 132 33
139 136 35
146 141 45
150 145 37
155 149 44
154 150 36
155 150 41
148 144 37
154 149 42
152 147 42
149 145 41
153 148 37
154 148 42
149 146 30
152 148 39
150 146 42
154 151 36
155 150 47
152 148 39
158 153 41
158 152 51
158 152 48
163 156 51
160 154 48
159 154 47
155 150 39
158 153 49
153 149 47
156 151 44
159 152 49
160 155 47
155 151 34
159 154 45
162 156 51
160 155 48
161 155 54
162 156 52
160 154 48
158 152 47
159 154 48
159 155 45
160 155 42
160 155 47
156 151 44
160 155 47
166 160 56
164 157 54
161 155 47
160 154 53
160 155 48
162 156 51
163 156 48
165 158 57
163 157 52
164 157 59
163 157 48
166 159 59
164 158 51
168 160 59
164 158 52
166 160 58
162 157 54
163 157 53
166 159 59
168 161 64
166 160 56
165 158 52
162 156 53
165 158 57
165 159 54
169 161 63
163 157 53
170 163 68
164 158 52
164 158 54
166 159 57
167 160 60
165 159 59
166 159 62
167 160 63
164 157 52
169 162 67
170 162 67
168 160 61
168 161 65
164 157 54
167 160 62
167 160 61
170 162 66
168 161 63
168 160 61
170 162 66
167 160 60
171 162 70
174 165 76
169 161 66
168 161 64
174 165 77
168 161 65
167 160 59
170 162 71
172 163 71
172 163 72
169 161 66
166 160 63
171 163 69
169 162 66
217 233 255
217 233 255
217 233 255
217 233 255
217 233 255
217 233 255
217 233 255
217 233 255
217 233 255
217 233 255
217 233 255
217 233 255
217 233 255
217 233 255
217 233 255
217 233 255
217 233 255
217 233 255
217 233 255
217 233 255
217 233 255
217 233 255
217 233 255
217 233 255
217 233 255
218 233 255
218 233 255
218 233 255
218 233 255
218 233 255
218 233 255
218 233 255
218 233 255
218 233 255
218 234 255
218 234 255
218 234 255
218 234 255
218 234 255
218 234 255
218 234 255
218 234 255
218 234 255
218 234 255
218 234 255
218 234 255
218 234 255
218 234 255
218 234 255
218 234 255
218 234 255
218 234 255
218 234 255
218 234 255
218 234 255
218 234 255
218 234 255
218 234 255
218 234 255
218 234 255
218 234 255
218 234 255
218 234 255
218 234 255
218 234 255
218 234 255
218 234 255
218 234 255
218 234 255
218 234 255
218 234 255
218 234 255
218 234 255
218 234 255
218 234 255
218 234 255
218 234 255
218 233 255
218 233 255
218 233 255
218 233 255
218 233 255
218 233 255
218 233 255
217 233 255
217 233 255
217 233 255
217 233 255
217 233 255
217 233 255
217 233 255
217 233 255
217 233 255
217 233 255
217 233 255
217 233 255
217 233 255
217 233 255
217 233 255
217 233 255
217 233 255
217 233 255
217 233 255
217 233 255
217 233 255
217 233 255
217 233 255
217 233 255
217 233 255
217 233 255
217 233 255
217 233 255
217 233 255
216 233 255
216 233 255
216 233 255
216 233 255
216 233 255
216 233 255
216 233 255
216 233 255
216 233 255
216 232 255
216 232 255
215 232 255
215 232 255
215 232 255
215 232 255
215 232 255
215 232 255
215 232 255
214 232 255
214 232 255
214 232 255
214 231 255
214 231 255
213 231 255
213 231 255
213 231 255
212 231 255
212 230 255
211 230 255
211 230 255
210 229 255
209 229 255
200 221 221
172 196 0
174 198 0
172 196 0
173 197 0
175 198 0
107 133 114
62 97 143
62 96 147
61 95 136
60 94 133
60 93 126
61 95 135
59 93 124
59 94 131
59 93 124
59 93 130
58 92 125
58 92 126
59 93 126
60 95 130
61 95 131
59 93 122
60 93 131
59 92 107
57 91 113
59 93 126
59 93 128
59 93 125
59 93 139
59 93 125
59 93 124
60 94 125
60 94 137
57 90 114
58 91 108
57 90 110
61 95 134
58 91 114
59 93 120
59 93 124
58 91 111
59 93 122
60 93 130
58 92 120
58 92 115
59 92 125
59 93 125
58 92 120
59 94 117
58 92 125
58 92 125
59 93 130
59 92 121
59 92 124
58 92 113
57 90 117
58 92 115
60 94 133
60 94 126
59 93 128
58 91 118
59 92 128
58 91 121
57 90 116
57 91 113
59 93 128
60 93 133
57 90 116
59 92 123
57 89 105
56 89 114
58 92 123
59 93 110
57 89 109
59 92 131
57 90 114
57 89 115
57 89 115
57 89 118
57 90 121
56 88 111
57 90 118
55 87 102
57 88 106
60 93 130
56 87 116
56 88 118
57 88 113
56 87 100
56 88 110
57 90 121
55 85 110
57 88 113
57 89 119
55 85 108
55 85 106
55 85 103
52 81 95
55 84 104
51 78 95
48 74 85
51 77 81
96 116 62
174 196 0
172 197 0
174 197 0
172 196 0
174 197 0
131 135 34
121 117 38
111 108 37
102 100 36
107 105 34
94 94 23
77 78 21
84 86 19
82 84 21
64 69 15
80 79 12
52 60 27
76 78 18
69 71 20
62 67 25
69 71 17
73 77 21
68 73 26
76 78 27
77 80 22
70 73 24
72 74 21
81 85 25
104 105 25
90 92 20
99 101 22
105 105 22
111 110 18
122 121 29
116 116 31
119 119 28
115 114 28
112 113 19
119 119 37
127 125 32
137 133 38
129 128 29
136 134 29
140 138 35
132 130 28
142 138 37
138 135 21
146 142 36
145 141 36
142 139 30
148 145 28
152 147 34
144 140 30
148 144 28
148 144 34
148 145 25
148 145 34
150 147 39
157 152 34
143 141 22
154 150 30
150 146 28
155 151 25
152 148 30
152 147 36
158 152 36
148 145 25
159 153 45
155 151 28
155 151 34
158 153 39
159 154 41
158 154 37
156 151 37
157 152 39
159 154 45
159 154 41
156 150 42
157 152 39
158 153 42
154 150 36
154 150 30
158 153 48
158 152 48
159 154 41
158 152 45
160 154 49
157 153 34
159 154 42
158 154 44
160 155 48
159 154 45
163 157 48
161 155 51
162 156 49
159 153 48
158 153 44
158 153 42
159 153 45
162 156 47
161 156 52
163 157 53
158 153 45
163 157 56
160 154 39
159 153 48
165 158 54
163 157 54
163 157 52
161 157 45
165 158 57
165 158 54
163 157 48
165 158 58
168 161 59
164 158 54
163 156 49
166 159 57
165 158 62
162 157 51
166 159 61
168 159 68
168 160 67
165 158 54
164 157 56
167 160 60
168 161 66
167 160 63
167 160 61
165 159 54
170 162 69
170 162 67
165 158 59
168 161 65
169 162 63
168 160 61
169 161 64
165 159 53
170 162 69
165 159 57
169 160 67
167 160 64
168 162 64
171 163 70
169 161 63
165 158 59
168 160 62
166 160 62
171 163 69
168 161 61
167 159 67
217 233 255
217 233 255
217 233 255
217 233 255
217 233 255
217 233 255
217 233 255
217 233 255
217 233 255
217 233 255
217 233 255
217 233 255
217 233 255
217 233 255
217 233 255
217 233 255
217 233 255
217 233 255
217 233 255
217 233 255
217 233 255
217 233 255
217 233 255
217 233 255
217 233 255
217 233 255
217 233 255
217 233 255
217 233 255
217 233 255
217 233 255
217 233 255
217 233 255
217 233 255
217 233 255
217 233 255
217 233 255
217 233 255
217 233 255
217 233 255
217 233 255
217 233 255
217 233 255
217 233 255
217 233 255
217 233 255
217 233 255
217 233 255
217 233 255
217 233 255
217 233 255
217 233 255
217 233 255
217 233 255
217 233 255
217 233 255
217 233 255
217 233 255
217 233 255
217 233 255
217 233 255
217 233 255
217 233 255
217 233 255
217 233 255
217 233 255
217 233 255
217 233 255
217 233 255
217 233 255
217 233 255
217 233 255
217 233 255
217 233 255
217 233 255
217 233 255
217 233 255
217 233 255
217 233 255
217 233 255
217 233 255
217 233 255
217 233 255
217 233 255
217 233 255
217 233 255
217 233 255
217 233 255
217 233 255
217 233 255
217 233 255
217 233 255
217 233 255
217 233 255
217 233 255
217 233 255
217 233 255
217 233 255
217 233 255
217 233 255
217 233 255
217 233 255
217 233 255
217 233 255
217 233 255
217 233 255
217 233 255
217 233 255
216 233 255
216 233 255
216 233 255
216 233 255
216 233 255
216 233 255
216 233 255
216 233 255
216 233 255
216 233 255
216 232 255
216 232 255
216 232 255
215 232 255
215 232 255
215 232 255
215 232 255
215 232 255
215 232 255
215 232 255
214 232 255
214 232 255
214 232 255
214 231 255
214 231 255
213 231 255
213 231 255
213 231 255
213 231 255
212 231 255
212 230 255
212 230 255
211 230 255
211 230 255
210 229 255
209 229 255
208 228 255
188 210 165
173 197 0
175 198 0
174 197 0
175 198 0
173 197 0
148 172 76
58 92 130
60 94 131
58 92 118
59 93 129
60 94 136
59 93 122
59 93 128
59 93 128
59 93 125
59 93 120
59 94 124
59 93 124
57 91 114
58 92 122
58 91 122
59 93 122
59 94 126
58 92 121
59 93 129
58 92 122
60 94 131
59 93 133
59 92 131
59 93 129
59 94 125
59 93 115
58 92 124
58 91 120
59 92 124
58 91 115
58 91 115
58 92 117
58 92 121
59 92 121
58 92 117
58 92 122
57 90 117
59 93 126
58 92 111
59 93 128
58 91 121
58 91 116
58 92 118
58 92 117
58 91 102
57 90 111
58 91 117
57 90 118
57 89 121
59 93 123
57 90 118
57 90 118
59 93 130
58 91 116
57 89 117
59 92 126
60 94 129
60 94 128
58 91 121
57 89 111
56 88 121
59 93 113
57 89 111
56 89 117
59 92 130
57 89 116
59 93 134
57 90 123
58 92 121
55 86 103
58 91 124
57 90 116
58 91 128
58 91 125
58 91 119
57 90 126
58 91 116
56 87 115
57 89 120
57 88 110
55 86 113
56 88 114
58 90 113
54 85 105
55 87 108
54 84 107
55 85 114
54 83 101
56 87 113
54 83 104
54 83 90
54 83 98
53 82 90
52 79 90
49 75 73
48 72 71
155 177 38
174 197 0
173 196 0
174 198 0
174 197 0
173 196 0
162 175 36
134 129 52
125 120 46
118 114 40
101 98 24
99 96 25
80 80 8
78 79 15
87 86 10
76 78 19
85 87 15
79 80 14
82 84 21
66 70 19
60 66 22
67 70 20
61 68 25
81 83 26
64 69 25
80 83 28
84 85 18
81 83 19
95 96 23
87 89 23
94 98 28
97 100 19
112 111 25
102 102 18
103 104 28
111 110 18
115 115 25
113 113 21
125 124 22
125 124 18
129 128 22
132 129 34
128 127 28
134 132 36
135 132 25
139 137 21
139 137 24
144 139 34
142 140 25
143 139 25
138 135 28
150 146 34
149 144 28
140 137 22
142 138 22
150 147 32
148 144 30
147 143 30
148 143 22
149 145 19
149 144 32
146 143 25
152 147 32
152 147 25
151 148 25
149 145 25
153 150 30
155 152 30
152 148 34
151 146 32
153 148 30
150 146 32
157 153 44
154 151 28
153 148 34
149 144 19
152 149 28
154 149 32
155 151 34
154 151 28
154 149 37
160 154 48
157 152 42
158 153 42
160 155 44
152 148 34
160 154 45
158 152 39
160 154 51
159 154 42
160 154 48
160 154 47
160 154 49
161 156 47
164 157 56
159 154 44
163 156 49
159 153 45
160 154 44
156 151 37
161 155 47
164 157 49
159 155 36
160 154 42
163 157 53
164 157 58
160 155 49
158 152 44
162 156 48
160 155 49
159 154 44
161 155 48
162 156 51
162 156 47
165 158 59
162 156 49
166 159 57
163 156 51
164 157 57
166 160 58
165 159 57
163 157 52
164 158 57
166 159 61
166 159 65
161 154 49
165 159 58
166 160 58
166 159 58
168 161 62
167 160 63
168 161 61
165 158 59
167 160 61
165 159 54
164 158 49
164 158 51
168 160 67
166 159 61
170 162 67
165 157 56
167 160 58
167 161 62
166 159 56
168 161 62
170 161 62
174 165 76
166 159 63
167 161 63
168 161 61
169 161 69
174 165 76
217 233 255
217 233 255
217 233 255
217 233 255
217 233 255
217 233 255
217 233 255
217 233 255
217 233 255
217 233 255
217 233 255
217 233 255
217 233 255
217 233 255
217 233 255
217 233 255
217 233 255
217 233 255
217 233 255
217 233 255
217 233 255
217 233 255
217 233 255
217 233 255
217 233 255
217 233 255
217 233 255
217 233 255
217 233 255
217 233 255
217 233 255
217 233 255
217 233 255
217 233 255
217 233 255
217 233 255
217 233 255
217 233 255
217 233 255
217 233 255
217 233 255
217 233 255
217 233 255
217 233 255
217 233 255
217 233 255
217 233 255
217 233 255
217 233 255
217 233 255
217 233 255
217 233 255
217 233 255
217 233 255
217 233 255
217 233 255
217 233 255
217 233 255
217 233 255
217 233 255
217 233 255
217 233 255
217 233 255
217 233 255
217 233 255
217 233 255
217 233 255
217 233 255
217 233 255
217 233 255
217 233 255
217 233 255
217 233 255
217 233 255
217 233 255
217 233 255
217 233 255
217 233 255
217 233 255
217 233 255
217 233 255
217 233 255
217 233 255
217 233 255
217 233 255
217 233 255
217 233 255
217 233 255
217 233 255
217 233 255
217 233 255
217 233 255
217 233 255
217 233 255
217 233 255
217 233 255
217 233 255
217 233 255
217 233 255
217 233 255
217 233 255
216 233 255
216 233 255
216 233 255
216 233 255
216 233 255
216 233 255
216 233 255
216 233 255
216 233 255
216 233 255
216 233 255
216 233 255
216 232 255
216 232 255
216 232 255
216 232 255
215 232 255
215 232 255
215 232 255
215 232 255
215 232 255
215 232 255
215 232 255
215 232 255
215 232 255
214 232 255
214 232 255
214 231 255
214 231 255
214 231 255
213 231 255
213 231 255
213 231 255
213 231 255
212 231 255
212 230 255
212 230 255
211 230 255
211 230 255
210 229 255
210 229 255
209 229 255
208 228 255
203 224 238
172 197 36
175 198 0
172 196 0
174 197 0
174 197 0
175 198 0
171 194 31
79 109 131
60 95 136
59 92 129
60 94 130
59 93 126
58 92 133
59 93 125
58 91 122
57 90 110
59 92 120
60 94 126
59 92 125
57 90 117
59 93 129
58 92 120
57 90 115
59 93 121
60 94 133
59 94 125
58 92 118
58 91 122
59 93 124
57 90 114
59 93 125
60 94 126
60 94 122
61 95 130
58 92 122
59 92 114
60 94 126
57 91 111
57 91 108
59 93 113
56 90 110
59 93 125
60 94 125
58 92 125
58 91 117
58 91 110
57 90 115
57 90 105
58 91 113
59 92 117
55 88 115
58 91 114
60 94 124
58 91 113
58 91 113
57 90 114
57 90 122
57 90 110
59 92 122
57 90 111
58 92 121
58 92 119
57 90 110
58 91 124
59 92 123
58 91 115
56 88 111
59 92 115
57 90 107
58 91 120
56 89 108
58 92 123
58 91 124
57 90 115
57 89 109
56 88 114
56 89 111
57 90 117
56 88 113
59 92 115
56 88 114
55 87 106
57 89 112
58 91 116
57 90 121
56 88 104
59 91 129
53 83 102
56 87 109
57 89 121
56 87 107
56 86 102
53 82 102
56 87 109
53 83 93
52 82 101
53 83 90
55 84 98
52 81 96
50 76 79
50 77 94
50 76 84
63 84 60
173 196 0
173 196 0
175 198 0
176 199 0
172 196 0
175 198 0
172 195 0
135 135 45
119 114 40
110 106 38
97 95 24
101 100 30
99 98 32
94 93 16
90 91 19
83 84 14
78 79 14
69 69 13
68 72 19
74 75 18
67 71 18
73 77 24
77 80 20
70 74 18
77 79 17
78 81 29
91 92 9
82 86 25
77 80 19
101 102 22
99 101 22
103 104 22
87 90 16
104 104 23
108 107 19
115 115 20
116 116 21
116 116 29
116 115 16
125 123 19
123 122 24
132 130 26
129 127 26
132 130 8
140 138 14
141 139 16
134 130 16
139 137 11
138 136 11
145 142 11
150 145 16
147 143 16
143 139 11
137 135 0
147 144 16
144 142 22
144 140 19
143 141 19
142 140 11
149 144 28
148 144 19
146 143 16
151 148 19
150 147 28
145 142 16
151 147 36
149 145 22
152 148 16
150 147 16
156 151 22
157 152 37
152 148 34
152 148 34
152 148 16
155 151 39
154 149 36
158 152 37
154 149 28
151 147 34
153 150 25
154 150 34
153 149 36
157 153 32
154 149 34
153 149 39
156 151 36
153 148 37
157 153 36
158 152 45
156 152 37
158 152 36
158 153 39
156 151 37
160 154 44
160 155 39
154 151 32
157 152 39
158 153 42
157 152 37
158 152 45
159 154 39
160 155 41
162 157 45
157 151 44
157 152 37
161 154 51
159 154 48
162 156 49
163 157 45
161 155 47
159 153 44
158 153 44
162 156 41
165 158 59
167 159 60
165 158 54
163 156 53
164 157 56
164 157 54
161 156 48
161 156 48
165 158 54
164 156 56
161 156 48
160 154 47
165 158 56
162 156 49
163 158 56
164 158 57
165 159 59
165 158 56
166 160 59
164 157 54
169 162 64
160 153 45
167 159 59
169 162 64
165 158 58
165 159 58
167 159 67
170 161 65
161 156 48
166 159 59
167 161 61
164 158 53
167 159 62
164 158 57
171 162 66
163 156 53
170 163 67
164 158 54
166 159 57
216 233 255
216 233 255
216 233 255
216 233 255
216 233 255
216 233 255
216 233 255
216 233 255
216 233 255
217 233 255
217 233 255
217 233 255
217 233 255
217 233 255
217 233 255
217 233 255
217 233 255
217 233 255
217 233 255
217 233 255
217 233 255
217 233 255
217 233 255
217 233 255
217 233 255
217 233 255
217 233 255
217 233 255
217 233 255
217 233 255
217 233 255
217 233 255
217 233 255
217 233 255
217 233 255
217 233 255
217 233 255
217 233 255
217 233 255
217 233 255
217 233 255
217 233 255
217 233 255
217 233 255
217 233 255
217 233 255
217 233 255
217 233 255
217 233 255
217 233 255
217 233 255
217 233 255
217 233 255
217 233 255
217 233 255
217 233 255
217 233 255
217 233 255
217 233 255
217 233 255
217 233 255
217 233 255
217 233 255
217 233 255
217 233 255
217 233 255
217 233 255
217 233 255
217 233 255
217 233 255
217 233 255
217 233 255
217 233 255
217 233 255
217 233 255
217 233 255
217 233 255
217 233 255
217 233 255
217 233 255
217 233 255
217 233 255
217 233 255
217 233 255
217 233 255
217 233 255
217 233 255
217 233 255
217 233 255
217 233 255
217 233 255
217 233 255
217 233 255
217 233 255
216 233 255
216 233 255
216 233 255
216 233 255
216 233 255
216 233 255
216 233 255
216 233 255
216 233 255
216 233 255
216 233 255
216 233 255
216 233 255
216 233 255
216 233 255
216 232 255
216 232 255
216 232 255
216 232 255
215 232 255
215 232 255
215 232 255
215 232 255
215 232 255
215 232 255
215 232 255
215 232 255
215 232 255
214 232 255
214 232 255
214 232 255
214 232 255
214 231 255
214 231 255
214 231 255
213 231 255
213 231 255
213 231 255
213 231 255
212 231 255
212 230 255
212 230 255
211 230 255
211 230 255
210 230 255
210 229 255
209 229 255
209 229 255
208 228 255
207 227 255
186 208 159
174 197 0
174 197 0
172 196 0
173 197 0
172 195 0
171 195 0
173 197 0
121 146 113
58 92 133
60 94 134
58 92 120
58 91 118
59 93 131
59 93 130
59 93 131
59 93 126
59 93 122
60 94 134
59 93 128
59 93 117
58 92 126
57 91 114
59 93 115
57 91 121
57 91 122
59 93 121
60 95 131
60 94 126
58 92 120
57 91 113
57 90 108
57 91 115
59 92 122
59 94 126
59 93 125
59 93 133
57 90 114
58 92 121
59 93 128
58 91 120
57 91 121
57 91 113
58 91 121
59 93 121
56 88 108
56 89 107
59 92 120
56 89 102
58 91 110
58 92 125
57 90 120
58 92 118
59 93 122
60 94 137
58 91 120
57 90 110
59 92 115
58 91 114
58 91 114
58 92 124
59 93 117
59 93 122
58 92 129
58 92 122
59 93 134
58 92 121
57 90 110
56 88 97
58 91 119
58 91 120
57 90 110
57 90 107
58 91 128
56 89 114
59 91 123
57 90 123
58 90 115
57 91 115
59 92 118
59 92 127
56 88 113
56 88 108
53 83 94
59 91 125
56 87 106
54 86 110
58 91 121
56 87 105
53 83 102
56 87 105
56 87 107
53 82 96
56 87 112
54 85 103
54 83 104
55 86 99
54 82 97
54 84 99
51 78 75
53 81 86
48 74 74
48 72 78
129 150 53
174 197 0
171 195 0
173 196 0
170 194 0
175 198 0
171 194 0
174 197 0
153 167 22
119 114 47
113 111 35
102 100 33
111 107 24
95 93 18
96 94 23
92 89 24
83 83 12
83 84 14
81 82 17
76 78 20
82 82 23
75 77 8
87 87 15
81 83 20
83 85 14
80 81 12
76 78 20
82 84 15
81 82 13
89 89 21
90 92 22
93 95 16
99 101 21
107 107 16
101 102 8
106 108 18
105 105 14
106 107 14
116 116 16
118 117 18
127 126 18
123 122 16
120 121 16
127 126 21
133 131 11
130 129 8
130 129 0
140 138 11
137 135 0
139 136 0
143 140 0
143 141 0
136 134 0
147 144 0
146 142 0
142 139 0
144 140 0
142 140 0
144 141 0
144 142 11
149 147 0
152 149 11
146 143 0
143 140 0
149 146 0
147 143 16
143 140 16
149 144 16
147 145 16
149 145 11
145 143 11
145 140 28
148 144 11
149 146 19
150 147 25
150 147 19
154 150 22
151 147 11
151 148 25
154 149 30
153 148 22
151 146 16
153 150 22
157 152 32
151 147 30
152 148 32
154 151 25
155 150 28
156 151 30
156 150 36
156 152 32
153 147 37
157 152 34
151 146 30
157 152 36
156 151 30
160 154 44
161 155 39
156 151 36
153 149 28
153 148 32
159 154 37
152 148 34
158 154 36
153 148 39
158 153 42
160 154 47
158 154 32
161 155 41
161 155 48
159 153 52
160 154 51
164 158 51
163 157 47
160 155 42
159 153 45
159 154 37
168 160 57
165 158 58
161 155 48
163 157 56
162 156 48
159 154 45
164 158 54
163 157 51
163 157 47
164 157 56
165 159 54
156 151 36
165 159 54
164 158 56
166 159 57
165 158 53
164 157 56
167 160 62
163 158 54
170 162 64
163 157 51
165 158 57
164 158 56
164 157 56
166 157 56
164 158 58
166 159 59
168 161 64
165 158 54
167 159 62
169 161 63
166 159 60
163 157 51
166 159 63
168 161 66
166 158 58
216 233 255
216 233 255
216 233 255
216 233 255
216 233 255
216 233 255
216 233 255
216 233 255
216 233 255
216 233 255
216 233 255
216 233 255
216 233 255
216 233 255
216 233 255
216 233 255
216 233 255
216 233 255
216 233 255
216 233 255
216 233 255
216 233 255
216 233 255
216 233 255
217 233 255
217 233 255
217 233 255
217 233 255
217 233 255
217 233 255
217 233 255
217 233 255
217 233 255
217 233 255
217 233 255
217 233 255
217 233 255
217 233 255
217 233 255
217 233 255
217 233 255
217 233 255
217 233 255
217 233 255
217 233 255
217 233 255
217 233 255
217 233 255
217 233 255
217 233 255
217 233 255
217 233 255
217 233 255
217 233 255
217 233 255
217 233 255
217 233 255
217 233 255
217 233 255
217 233 255
217 233 255
217 233 255
217 233 255
217 233 255
217 233 255
217 233 255
217 233 255
217 233 255
217 233 255
217 233 255
217 233 255
217 233 255
217 233 255
217 233 255
217 233 255
217 233 255
217 233 255
217 233 255
217 233 255
217 233 255
217 233 255
217 233 255
217 233 255
217 233 255
216 233 255
216 233 255
216 233 255
216 233 255
216 233 255
216 233 255
216 233 255
216 233 255
216 233 255
216 233 255
216 233 255
216 233 255
216 233 255
216 233 255
216 233 255
216 233 255
216 233 255
216 233 255
216 233 255
216 232 255
216 232 255
216 232 255
216 232 255
216 232 255
215 232 255
215 232 255
215 232 255
215 232 255
215 232 255
215 232 255
215 232 255
215 232 255
215 232 255
215 232 255
215 232 255
214 232 255
214 232 255
214 232 255
214 232 255
214 231 255
214 231 255
214 231 255
213 231 255
213 231 255
213 231 255
213 231 255
213 231 255
212 231 255
212 230 255
212 230 255
211 230 255
211 230 255
211 230 255
210 229 255
210 229 255
209 229 255
208 228 255
208 228 255
207 227 255
200 222 233
171 195 0
174 197 0
174 197 0
172 195 0
174 197 0
172 196 0
172 195 0
173 196 0
161 185 54
63 95 118
59 93 129
59 93 126
58 91 114
57 91 114
58 91 117
59 93 126
58 92 118
60 94 126
57 90 118
57 90 113
59 93 121
56 89 105
59 93 128
59 93 122
57 91 117
58 92 108
58 93 115
58 92 122
59 93 125
58 92 121
59 92 129
58 92 120
58 92 124
59 93 120
58 91 114
58 92 125
59 93 134
60 93 122
57 91 111
56 89 115
57 90 108
57 91 110
58 92 117
59 92 121
56 88 108
59 92 130
59 93 131
59 94 128
57 90 114
57 91 113
58 92 114
59 92 117
59 93 126
59 93 120
57 90 108
57 90 115
57 89 126
56 89 103
57 90 117
59 92 118
58 92 118
58 90 120
59 93 124
56 89 100
59 92 122
57 91 117
56 89 110
58 91 117
57 90 110
56 89 104
58 91 121
57 90 105
56 88 102
56 88 96
57 89 113
57 90 114
57 89 104
58 91 113
58 92 120
58 91 125
55 86 104
56 88 111
57 89 112
58 90 123
56 89 110
55 86 108
57 89 111
56 88 103
56 89 111
55 87 103
54 85 107
56 87 111
56 86 106
53 81 87
56 87 106
53 82 92
53 82 97
54 85 91
54 83 101
53 81 98
49 75 74
51 78 86
50 74 70
161 183 8
172 196 0
172 195 0
172 195 0
171 195 0
174 197 0
172 195 0
173 197 0
174 197 0
136 135 48
124 121 39
105 102 31
105 103 37
95 92 27
98 96 24
91 88 14
92 92 12
79 81 16
92 92 11
86 85 20
86 86 10
88 86 20
71 73 16
85 85 21
76 79 18
76 80 27
86 85 20
86 86 21
87 88 24
89 90 23
99 97 14
105 103 8
104 102 16
105 104 24
100 101 16
111 109 14
100 100 12
109 110 16
111 112 21
111 111 16
123 120 24
124 121 16
129 126 8
129 127 0
122 121 0
127 125 0
136 134 0
134 131 0
138 136 0
140 137 0
140 136 0
134 131 0
140 138 0
136 134 0
135 133 0
146 141 0
142 137 0
138 136 0
142 140 0
136 133 0
147 143 0
148 144 0
142 139 0
143 141 0
147 144 0
150 147 0
151 147 0
147 144 0
143 140 0
151 148 0
149 145 0
150 146 11
147 144 11
148 145 0
150 147 16
145 142 0
153 147 16
146 143 0
154 150 11
152 148 11
153 149 16
154 150 25
150 147 11
153 149 19
153 148 28
152 147 22
157 152 36
154 150 28
151 148 19
153 150 22
157 153 34
153 150 28
157 151 28
155 150 37
152 148 30
154 150 19
157 151 36
156 151 37
155 151 25
151 148 30
157 153 34
155 150 32
161 156 42
156 151 39
155 151 32
155 150 37
157 152 41
161 155 51
159 153 41
162 156 42
157 152 36
156 151 32
159 154 39
156 151 37
160 155 41
157 151 39
161 155 45
160 155 44
160 154 41
160 155 41
158 152 45
161 154 49
161 155 49
162 156 48
163 156 48
165 158 53
163 157 51
166 158 57
163 157 53
163 156 51
164 157 49
165 157 60
165 158 56
164 158 52
162 156 51
162 156 48
161 155 48
165 158 53
163 157 52
164 157 54
164 157 53
166 159 58
165 159 56
164 158 52
167 160 57
166 159 58
164 158 53
169 161 63
167 159 64
164 156 59
168 161 62
164 158 53
166 158 57
216 232 255
216 232 255
216 233 255
216 233 255
216 233 255
216 233 255
216 233 255
216 233 255
216 233 255
216 233 255
216 233 255
216 233 255
216 233 255
216 233 255
216 233 255
216 233 255
216 233 255
216 233 255
216 233 255
216 233 255
216 233 255
216 233 255
216 233 255
216 233 255
216 233 255
216 233 255
216 233 255
216 233 255
216 233 255
216 233 255
216 233 255
216 233 255
216 233 255
216 233 255
216 233 255
216 233 255
216 233 255
216 233 255
216 233 255
216 233 255
216 233 255
216 233 255
216 233 255
216 233 255
216 233 255
216 233 255
216 233 255
216 233 255
216 233 255
216 233 255
217 233 255
217 233 255
217 233 255
217 233 255
216 233 255
217 233 255
217 233 255
217 233 255
217 233 255
216 233 255
217 233 255
216 233 255
216 233 255
216 233 255
216 233 255
216 233 255
216 233 255
216 233 255
216 233 255
216 233 255
216 233 255
216 233 255
216 233 255
216 233 255
216 233 255
216 233 255
216 233 255
216 233 255
216 233 255
216 233 255
216 233 255
216 233 255
216 233 255
216 233 255
216 233 255
216 233 255
216 233 255
216 233 255
216 233 255
216 233 255
216 233 255
216 233 255
216 233 255
216 233 255
216 233 255
216 233 255
216 233 255
216 232 255
216 232 255
216 232 255
216 232 255
216 232 255
216 232 255
215 232 255
215 232 255
215 232 255
215 232 255
215 232 255
215 232 255
215 232 255
215 232 255
215 232 255
215 232 255
215 232 255
215 232 255
215 232 255
214 232 255
214 232 255
214 232 255
214 232 255
214 231 255
214 231 255
214 231 255
213 231 255
213 231 255
213 231 255
213 231 255
213 231 255
212 231 255
212 231 255
212 230 255
212 230 255
211 230 255
211 230 255
211 230 255
210 229 255
210 229 255
209 229 255
209 229 255
208 228 255
207 228 255
206 227 255
205 227 255
183 206 140
173 196 0
176 199 0
171 194 0
171 195 0
173 197 0
172 196 0
173 196 0
171 195 0
171 195 0
110 137 107
58 92 118
58 92 126
58 92 118
60 94 135
57 91 118
56 88 111
57 91 113
59 93 129
60 93 126
58 91 113
58 92 121
58 92 120
59 93 122
57 91 125
59 93 115
56 88 113
57 90 113
58 92 125
56 88 105
59 92 130
56 88 111
59 93 125
58 91 111
58 91 117
58 92 128
58 92 113
59 93 124
57 90 105
58 91 115
59 92 126
58 91 124
57 90 114
58 92 128
58 92 120
57 91 110
59 93 117
57 90 120
58 92 118
58 92 114
57 90 115
57 90 111
58 92 117
57 90 99
57 90 111
59 92 122
58 91 118
56 89 102
58 92 121
57 89 108
57 89 113
57 91 117
59 92 117
57 90 108
57 90 107
58 91 118
58 92 121
58 92 120
56 88 107
57 89 111
57 90 110
57 89 116
57 90 108
58 90 114
58 89 112
57 90 118
57 90 108
57 90 125
57 90 118
57 89 105
57 90 115
58 90 118
57 89 110
56 87 109
57 88 115
55 87 107
56 87 102
55 87 102
57 89 118
57 89 109
56 88 110
57 88 113
55 86 109
54 84 103
56 85 102
54 84 106
54 82 102
55 85 107
54 84 107
52 79 94
50 76 78
50 76 56
46 70 62
107 128 60
172 196 0
169 192 0
174 197 0
171 194 0
175 198 0
172 195 0
173 196 0
172 195 0
174 197 0
157 175 11
125 119 48
132 126 49
108 107 21
112 108 34
94 93 21
103 102 14
84 84 9
89 88 14
92 92 16
91 91 1
90 90 12
85 84 12
96 94 13
74 76 12
85 84 14
78 79 16
85 85 18
90 90 16
75 78 16
89 89 16
90 90 14
92 92 16
107 105 16
100 99 16
104 103 16
118 116 14
111 110 18
108 108 16
108 109 11
119 117 14
119 118 8
124 121 0
126 124 16
136 134 0
130 127 0
134 131 0
127 126 0
136 132 0
133 132 0
135 133 0
137 135 0
140 136 0
134 132 0
134 132 0
135 131 0
137 134 0
147 144 0
147 144 0
140 138 0
143 140 0
144 141 0
145 141 0
144 140 0
146 143 0
144 141 0
145 143 0
149 146 0
146 143 0
149 146 0
147 144 0
149 146 0
145 142 0
144 142 0
146 143 0
147 144 0
149 146 0
145 144 0
148 145 0
152 148 0
149 145 0
150 146 0
155 151 16
147 143 0
148 143 11
152 147 19
146 144 19
154 149 19
150 146 22
155 151 16
153 150 28
150 147 11
154 150 19
149 147 19
149 147 19
151 148 22
157 153 25
153 149 30
154 149 32
153 149 19
157 151 39
157 152 30
158 153 39
159 155 39
154 149 32
157 152 39
156 151 37
156 150 32
163 157 44
154 151 22
154 150 30
153 149 34
157 151 34
152 148 28
156 151 36
159 154 36
159 154 42
160 153 45
158 154 32
157 151 37
162 156 47
162 157 47
159 153 45
159 154 41
159 154 39
161 155 41
161 156 41
162 156 49
159 154 44
162 156 51
160 154 48
163 156 52
162 156 48
164 158 51
161 154 53
167 159 60
167 160 58
163 157 53
161 156 45
165 158 54
162 156 54
167 160 60
161 155 51
165 158 53
167 159 62
162 156 51
167 160 59
167 160 61
165 158 54
164 156 53
166 160 58
165 158 56
162 157 51
163 157 52
215 232 255
216 232 255
216 232 255
216 232 255
216 232 255
216 232 255
216 232 255
216 232 255
216 232 255
216 232 255
216 232 255
216 232 255
216 232 255
216 232 255
216 233 255
216 233 255
216 233 255
216 233 255
216 233 255
216 233 255
216 233 255
216 233 255
216 233 255
216 233 255
216 233 255
216 233 255
216 233 255
216 233 255
216 233 255
216 233 255
216 233 255
216 233 255
216 233 255
216 233 255
216 233 255
216 233 255
216 233 255
216 233 255
216 233 255
216 233 255
216 233 255
216 233 255
216 233 255
216 233 255
216 233 255
216 233 255
216 233 255
216 233 255
216 233 255
216 233 255
216 233 255
216 233 255
216 233 255
216 233 255
216 233 255
216 233 255
216 233 255
216 233 255
216 233 255
216 233 255
216 233 255
216 233 255
216 233 255
216 233 255
216 233 255
216 233 255
216 233 255
216 233 255
216 233 255
216 233 255
216 233 255
216 233 255
216 233 255
216 233 255
216 233 255
216 233 255
216 233 255
216 233 255
216 233 255
216 233 255
216 233 255
216 233 255
216 233 255
216 233 255
216 233 255
216 233 255
216 233 255
216 233 255
216 233 255
216 232 255
216 232 255
216 232 255
216 232 255
216 232 255
216 232 255
216 232 255
216 232 255
215 232 255
215 232 255
215 232 255
215 232 255
215 232 255
215 232 255
215 232 255
215 232 255
215 232 255
215 232 255
215 232 255
215 232 255
215 232 255
215 232 255
215 232 255
214 232 255
214 232 255
214 232 255
214 232 255
214 231 255
214 231 255
214 231 255
214 231 255
213 231 255
213 231 255
213 231 255
213 231 255
213 231 255
213 231 255
212 231 255
212 230 255
212 230 255
212 230 255
211 230 255
211 230 255
211 230 255
210 229 255
210 229 255
209 229 255
209 229 255
208 228 255
208 228 255
207 228 255
206 227 255
205 227 255
195 218 217
173 196 0
172 196 0
173 197 0
173 196 0
173 196 0
170 194 0
172 195 0
173 197 0
171 195 0
172 195 0
163 186 40
60 94 130
59 93 120
58 91 121
60 94 131
58 91 129
61 96 136
56 89 108
57 90 108
58 91 121
56 89 111
59 92 120
57 91 108
56 89 113
59 93 126
58 92 118
59 92 114
59 93 121
58 92 117
58 91 107
56 89 102
58 92 118
57 91 117
57 91 117
58 91 117
56 89 117
57 90 117
59 92 114
59 93 129
58 91 121
58 92 120
58 92 111
57 90 110
58 92 115
59 93 115
58 92 108
57 90 111
58 92 122
58 92 117
58 92 126
58 91 105
57 90 114
57 89 113
57 91 117
58 92 128
58 92 108
56 89 99
59 93 120
58 92 118
59 93 124
55 88 94
58 91 120
58 91 121
57 90 118
58 91 118
56 89 113
55 87 102
58 91 114
57 90 105
58 91 120
57 90 114
58 91 123
59 93 122
56 89 111
57 89 100
57 89 107
55 87 102
55 88 107
58 91 117
54 86 99
56 88 107
58 91 117
57 89 110
56 87 107
56 88 105
54 86 104
56 88 108
56 87 106
54 85 95
55 86 105
55 86 102
55 85 95
54 84 106
56 86 102
54 85 98
53 82 92
53 81 89
51 79 80
51 79 81
51 78 87
50 76 82
47 70 73
50 73 66
156 179 33
169 191 0
172 193 0
172 195 0
172 194 0
173 196 0
172 195 0
172 195 0
171 195 0
171 194 0
173 196 11
130 133 37
126 119 47
123 118 34
119 115 34
112 108 24
106 104 19
97 96 2
97 96 3
89 89 16
95 93 12
86 86 8
81 82 14
88 88 18
77 78 12
84 84 11
88 85 11
77 78 14
94 95 18
95 96 16
100 99 16
107 107 21
94 94 16
105 103 16
113 112 14
109 106 14
107 106 14
101 102 11
111 111 16
115 113 8
107 107 0
121 118 8
128 125 0
131 128 8
125 121 0
125 122 0
129 127 0
136 131 0
137 134 0
134 131 0
139 136 0
139 136 0
144 141 0
141 139 0
137 134 0
137 135 0
142 140 0
139 135 0
140 137 0
144 140 0
142 140 0
142 138 0
140 136 0
139 136 0
143 140 0
138 134 0
148 144 0
139 136 0
144 140 0
144 140 0
149 146 0
143 141 0
150 146 0
146 142 0
141 139 0
151 146 0
148 144 0
144 140 0
147 144 0
149 147 0
146 142 0
149 146 0
146 143 0
147 145 0
145 143 0
148 144 0
150 146 0
145 142 0
148 144 11
152 148 11
152 149 19
152 148 0
152 148 11
151 147 16
150 146 19
149 146 19
154 150 11
153 149 16
153 149 16
150 146 19
152 149 25
152 148 25
153 150 22
151 147 19
158 154 36
153 149 16
156 152 28
153 150 28
154 149 30
152 147 28
154 149 25
151 147 22
158 152 41
158 153 44
157 152 36
157 152 36
160 154 41
158 153 30
158 152 30
159 152 42
161 155 39
158 153 32
159 154 39
159 152 41
156 152 36
160 154 51
159 153 44
160 154 42
166 159 54
159 154 45
158 153 39
161 155 47
160 154 42
162 156 45
161 155 47
162 156 48
164 156 52
160 155 42
162 156 47
159 154 37
165 159 56
166 159 57
163 156 52
166 159 57
161 156 47
166 159 57
162 156 52
166 159 58
166 159 60
162 156 51
167 160 60
163 157 53
168 160 59
168 161 64
215 232 255
215 232 255
215 232 255
215 232 255
215 232 255
215 232 255
215 232 255
215 232 255
215 232 255
215 232 255
215 232 255
215 232 255
215 232 255
216 232 255
216 232 255
216 232 255
216 232 255
216 232 255
216 232 255
216 232 255
216 232 255
216 232 255
216 232 255
216 232 255
216 232 255
216 232 255
216 232 255
216 232 255
216 232 255
216 232 255
216 233 255
216 233 255
216 233 255
216 233 255
216 233 255
216 233 255
216 233 255
216 233 255
216 233 255
216 233 255
216 233 255
216 233 255
216 233 255
216 233 255
216 233 255
216 233 255
216 233 255
216 233 255
216 233 255
216 233 255
216 233 255
216 233 255
216 233 255
216 233 255
216 233 255
216 233 255
216 233 255
216 233 255
216 233 255
216 233 255
216 233 255
216 233 255
216 233 255
216 233 255
216 233 255
216 233 255
216 233 255
216 233 255
216 233 255
216 233 255
216 233 255
216 233 255
216 233 255
216 233 255
216 233 255
216 233 255
216 233 255
216 233 255
216 232 255
216 232 255
216 232 255
216 232 255
216 232 255
216 232 255
216 232 255
216 232 255
216 232 255
216 232 255
216 232 255
216 232 255
215 232 255
215 232 255
215 232 255
215 232 255
215 232 255
215 232 255
215 232 255
215 232 255
215 232 255
215 232 255
215 232 255
215 232 255
215 232 255
215 232 255
215 232 255
215 232 255
215 232 255
214 232 255
214 232 255
214 232 255
214 232 255
214 232 255
214 232 255
214 231 255
214 231 255
214 231 255
214 231 255
213 231 255
213 231 255
213 231 255
213 231 255
213 231 255
213 231 255
212 231 255
212 231 255
212 230 255
212 230 255
212 230 255
211 230 255
211 230 255
211 230 255
210 229 255
210 229 255
210 229 255
209 229 255
209 229 255
208 228 255
207 228 255
207 228 255
206 227 255
205 226 255
203 226 255
177 201 117
174 197 0
170 194 0
172 196 0
175 198 0
174 198 0
172 195 0
171 195 0
173 196 0
174 197 0
173 196 0
174 198 0
112 138 105
57 91 118
58 92 115
58 92 111
58 92 114
59 92 122
59 93 122
57 90 113
57 90 118
57 90 120
58 92 117
58 92 120
57 90 114
58 92 115
58 92 125
58 92 121
59 93 121
56 89 102
59 93 118
59 93 129
57 90 108
59 93 114
59 93 125
58 91 113
58 92 120
58 91 117
57 91 110
58 92 125
57 90 111
57 91 117
59 92 124
57 90 115
55 88 97
56 89 105
56 88 110
57 90 110
57 90 110
57 91 114
59 92 118
57 90 114
57 91 113
57 90 111
56 88 107
57 88 110
56 89 103
56 88 92
58 91 120
58 92 110
57 90 115
58 92 113
58 92 117
57 90 114
58 91 122
57 90 114
58 91 118
58 91 114
58 92 125
56 88 102
56 89 105
57 89 110
57 89 120
55 87 103
54 85 95
57 90 118
56 89 103
55 86 99
57 89 108
57 89 108
56 89 107
57 90 114
57 89 112
57 87 102
56 88 106
55 86 104
58 90 118
57 90 111
56 87 106
56 86 109
55 87 106
54 85 105
52 82 91
56 87 112
54 84 104
55 85 103
53 82 99
53 81 98
52 81 99
52 79 94
49 75 75
51 78 89
49 75 67
112 133 48
171 194 0
170 193 0
171 193 0
170 192 0
173 195 0
171 193 0
168 191 0
171 192 0
170 192 0
171 194 0
171 195 0
160 178 11
106 102 22
119 113 41
117 114 26
113 110 29
103 101 20
109 107 2
106 104 0
94 92 14
96 96 8
103 100 11
95 92 11
94 94 18
88 88 14
94 94 14
86 84 12
82 81 14
102 99 16
100 97 12
93 94 14
97 97 14
95 96 16
102 100 14
108 105 11
107 106 16
110 107 14
112 109 8
113 111 8
115 115 11
118 116 0
118 116 0
119 118 0
126 125 8
125 123 0
122 121 0
134 130 0
133 129 0
133 129 0
132 129 0
141 137 0
138 133 0
133 131 0
136 133 0
141 138 0
137 135 0
140 137 0
141 138 0
138 135 0
136 134 0
144 140 0
140 137 0
141 138 0
143 140 0
144 141 0
143 139 0
142 136 0
143 141 0
146 142 0
149 146 0
145 142 0
148 145 0
145 142 0
146 143 0
147 143 0
146 144 0
142 140 0
147 142 0
149 145 0
144 141 0
148 145 0
146 142 0
148 144 0
149 146 0
149 145 0
153 148 0
146 143 0
152 148 0
147 144 0
149 145 0
146 143 0
145 141 0
147 143 0
153 148 0
150 145 11
151 147 0
150 146 0
150 147 0
153 149 0
152 147 11
152 148 19
149 145 11
153 149 19
153 149 22
157 152 30
157 154 28
151 145 11
153 150 32
156 151 36
153 148 25
154 149 22
155 151 37
153 150 22
159 154 36
158 152 36
156 151 36
157 152 34
157 152 34
156 149 30
156 152 34
157 152 30
159 153 41
160 154 42
160 154 45
157 152 37
159 154 42
156 153 30
157 151 37
158 152 44
164 158 49
160 155 41
156 151 39
161 155 41
158 153 37
159 153 42
161 155 47
162 156 49
165 157 53
162 156 48
161 155 48
164 157 54
164 158 51
163 156 49
162 155 51
166 160 58
164 157 51
162 155 52
164 158 53
163 156 51
161 153 49
166 159 58
163 157 54
163 158 47
163 156 51
215 232 255
215 232 255
215 232 255
215 232 255
215 232 255
215 232 255
215 232 255
215 232 255
215 232 255
215 232 255
215 232 255
215 232 255
215 232 255
215 232 255
215 232 255
215 232 255
215 232 255
215 232 255
215 232 255
215 232 255
215 232 255
215 232 255
215 232 255
215 232 255
215 232 255
215 232 255
215 232 255
215 232 255
216 232 255
216 232 255
216 232 255
216 232 255
216 232 255
216 232 255
216 232 255
216 232 255
216 232 255
216 232 255
216 232 255
216 232 255
216 232 255
216 232 255
216 232 255
216 232 255
216 232 255
216 232 255
216 232 255
216 232 255
216 232 255
216 232 255
216 232 255
216 232 255
216 232 255
216 232 255
216 232 255
216 232 255
216 232 255
216 232 255
216 232 255
216 232 255
216 232 255
216 232 255
216 232 255
216 232 255
216 232 255
216 232 255
216 232 255
216 232 255
216 232 255
216 232 255
216 232 255
216 232 255
216 232 255
216 232 255
216 232 255
216 232 255
216 232 255
216 232 255
216 232 255
215 232 255
215 232 255
215 232 255
215 232 255
215 232 255
215 232 255
215 232 255
215 232 255
215 232 255
215 232 255
215 232 255
215 232 255
215 232 255
215 232 255
215 232 255
215 232 255
215 232 255
215 232 255
215 232 255
215 232 255
215 232 255
215 232 255
215 232 255
215 232 255
214 232 255
214 232 255
214 232 255
214 232 255
214 232 255
214 232 255
214 231 255
214 231 255
214 231 255
214 231 255
214 231 255
213 231 255
213 231 255
213 231 255
213 231 255
213 231 255
213 231 255
212 231 255
212 231 255
212 230 255
212 230 255
212 230 255
211 230 255
211 230 255
211 230 255
211 230 255
210 229 255
210 229 255
210 229 255
209 229 255
209 229 255
208 228 255
208 228 255
207 228 255
207 227 255
206 227 255
205 226 255
203 226 255
188 211 189
171 194 0
172 195 0
175 198 0
172 195 0
171 194 0
173 197 0
175 198 0
173 196 0
172 195 0
170 195 0
172 195 0
169 193 0
164 187 36
65 97 121
59 92 126
57 90 115
56 89 108
58 91 125
57 90 117
58 92 118
59 93 125
59 93 121
58 91 120
58 91 113
57 90 113
58 92 113
58 91 114
58 91 113
57 90 121
58 92 118
57 91 113
59 93 114
58 92 117
58 91 114
56 90 110
55 88 102
57 90 110
57 90 114
55 87 103
57 90 105
56 89 111
56 88 118
59 92 122
58 91 115
57 90 117
58 91 110
57 90 105
58 91 117
57 90 105
58 92 124
56 89 107
57 89 111
59 93 122
56 88 108
58 91 122
58 91 124
57 90 113
58 92 124
57 89 103
58 90 105
58 92 118
59 93 117
57 90 116
56 89 107
57 90 115
57 90 110
59 92 124
57 90 110
58 91 117
55 87 109
57 90 113
58 92 124
59 92 120
58 91 120
54 86 92
57 90 103
55 86 110
54 85 105
56 88 105
54 85 96
55 86 111
56 88 98
58 90 114
55 86 106
57 89 118
55 87 104
56 87 101
55 85 100
55 86 106
55 85 98
55 85 105
54 84 100
55 84 99
54 83 98
53 84 101
52 80 87
52 80 79
54 83 102
51 79 89
52 80 86
51 78 81
49 76 76
60 82 71
161 184 8
171 194 0
166 187 0
167 190 0
170 194 0
171 195 0
168 191 0
172 195 0
170 193 0
172 195 0
170 193 0
172 195 0
169 192 0
141 150 34
115 110 28
122 118 39
112 108 28
125 118 42
116 112 16
110 108 11
88 86 8
98 95 8
97 93 5
88 87 12
102 100 0
97 93 3
89 87 14
99 97 8
91 92 11
80 80 14
82 82 14
97 96 14
96 94 8
94 94 14
108 106 11
101 99 14
103 102 5
108 105 11
114 112 11
112 110 11
106 104 0
120 117 8
116 114 11
123 121 0
116 114 8
130 127 0
127 123 0
124 122 0
134 130 0
127 123 0
133 129 0
133 129 0
134 131 0
130 128 0
140 138 0
136 135 0
134 129 0
141 138 0
137 135 0
135 133 0
139 136 0
140 136 0
140 137 0
137 134 0
144 141 0
141 137 0
147 143 0
141 140 0
135 132 0
143 139 0
149 145 0
145 141 0
148 144 0
148 145 0
144 141 0
147 142 0
143 140 0
146 143 0
149 145 0
148 142 0
147 143 0
151 147 0
148 145 0
147 144 0
143 141 0
149 145 0
147 144 0
147 142 0
146 142 0
146 143 0
148 144 0
149 145 0
149 145 0
146 142 0
150 147 0
151 147 0
153 150 0
150 147 0
153 148 0
150 147 0
150 146 0
152 149 0
150 146 0
151 147 16
149 145 11
152 148 0
152 149 19
154 150 16
150 144 30
154 149 16
156 152 25
152 147 19
150 146 16
154 150 19
156 151 28
156 151 32
157 151 34
153 149 28
156 151 32
155 149 25
157 151 30
157 151 34
153 149 30
158 153 34
158 153 34
157 153 32
157 150 39
158 153 44
158 152 39
157 151 36
157 150 37
159 154 34
158 152 36
162 156 44
161 156 45
158 152 42
160 155 41
166 159 52
158 153 42
162 156 47
164 157 47
158 152 41
158 152 45
161 156 48
163 157 49
162 156 48
163 156 51
158 152 42
164 157 52
165 158 52
163 157 54
160 154 37
160 154 48
163 158 51
166 159 56
215 232 255
215 232 255
215 232 255
215 232 255
215 232 255
215 232 255
215 232 255
215 232 255
215 232 255
215 232 255
215 232 255
215 232 255
215 232 255
215 232 255
215 232 255
215 232 255
215 232 255
215 232 255
215 232 255
215 232 255
215 232 255
215 232 255
215 232 255
215 232 255
215 232 255
215 232 255
215 232 255
215 232 255
215 232 255
215 232 255
215 232 255
215 232 255
215 232 255
215 232 255
215 232 255
215 232 255
215 232 255
215 232 255
215 232 255
215 232 255
215 232 255
215 232 255
215 232 255
215 232 255
215 232 255
215 232 255
215 232 255
215 232 255
215 232 255
215 232 255
215 232 255
215 232 255
215 232 255
215 232 255
215 232 255
215 232 255
215 232 255
215 232 255
215 232 255
215 232 255
215 232 255
215 232 255
215 232 255
215 232 255
215 232 255
215 232 255
215 232 255
215 232 255
215 232 255
215 232 255
215 232 255
215 232 255
215 232 255
215 232 255
215 232 255
215 232 255
215 232 255
215 232 255
215 232 255
215 232 255
215 232 255
215 232 255
215 232 255
215 232 255
215 232 255
215 232 255
215 232 255
215 232 255
215 232 255
215 232 255
215 232 255
215 232 255
215 232 255
215 232 255
215 232 255
215 232 255
215 232 255
215 232 255
214 232 255
214 232 255
214 232 255
214 232 255
214 232 255
214 232 255
214 231 255
214 231 255
214 231 255
214 231 255
214 231 255
214 231 255
213 231 255
213 231 255
213 231 255
213 231 255
213 231 255
213 231 255
213 231 255
213 231 255
212 231 255
212 230 255
212 230 255
212 230 255
212 230 255
211 230 255
211 230 255
211 230 255
211 230 255
210 229 255
210 229 255
210 229 255
209 229 255
209 229 255
208 228 255
208 228 255
207 228 255
207 228 255
206 227 255
205 227 255
204 226 255
203 226 255
198 221 237
173 197 67
172 196 0
173 197 0
172 195 0
171 194 0
169 193 0
174 197 0
170 193 0
170 192 0
170 193 0
174 197 0
172 195 0
173 196 0
168 192 0
128 152 94
55 88 110
57 91 117
56 89 121
56 89 113
57 90 110
56 88 102
59 93 120
57 90 113
58 92 120
59 93 121
57 90 114
57 90 117
56 89 94
56 88 107
58 92 120
57 90 110
58 92 110
57 91 118
58 91 120
56 89 117
56 88 108
57 91 114
58 91 115
58 91 124
60 94 126
56 88 99
59 93 120
58 91 113
57 91 113
56 89 107
58 90 117
57 89 102
57 90 110
56 89 102
56 89 110
57 91 107
58 91 128
56 89 103
56 88 102
56 88 99
56 89 105
55 87 97
57 90 110
55 87 102
57 91 110
56 89 110
58 91 113
58 91 121
55 87 100
56 89 100
56 88 113
59 94 124
57 90 114
58 91 120
56 87 105
56 89 100
56 89 111
57 90 108
53 84 102
55 87 103
56 88 107
58 90 120
56 89 110
59 92 120
57 89 117
56 88 107
59 93 126
55 86 103
55 86 103
55 87 105
54 85 97
56 89 117
55 85 94
54 83 99
54 83 84
53 83 91
55 86 95
53 83 88
53 83 94
53 83 100
54 84 92
56 86 100
52 82 93
52 80 89
52 80 89
49 76 87
50 76 81
49 75 75
120 140 49
169 192 0
163 185 0
169 190 0
167 189 0
168 192 0
168 190 0
170 192 0
170 192 0
168 190 0
171 193 0
167 190 0
172 195 0
170 193 0
167 189 11
113 116 28
123 118 34
121 117 32
114 109 31
107 103 21
101 100 8
102 99 14
98 96 3
91 90 9
91 89 12
86 84 14
93 92 3
89 88 18
92 90 0
84 84 14
88 86 8
92 90 11
91 89 9
89 89 14
95 93 14
97 97 0
112 108 0
90 90 8
118 116 0
113 111 0
112 109 0
122 118 8
117 115 8
114 111 0
113 111 0
118 117 8
122 117 0
128 124 0
123 120 0
128 126 0
135 131 0
133 129 0
137 134 0
122 119 0
129 125 0
143 139 0
135 132 0
136 132 0
135 132 0
141 137 0
138 134 0
136 134 0
135 132 0
144 140 0
143 139 0
140 137 0
136 133 0
143 138 0
140 138 0
144 140 0
144 140 0
142 139 0
142 138 0
144 140 0
143 139 0
144 140 0
142 140 0
147 142 0
148 144 0
145 141 0
149 145 0
149 145 0
147 144 0
142 140 0
149 147 0
145 141 0
149 146 0
146 143 0
147 144 0
143 140 0
145 140 0
148 144 0
147 144 0
142 139 0
151 147 0
147 144 0
147 144 0
151 146 0
147 143 0
151 147 0
149 145 0
152 148 0
149 146 0
148 145 0
148 146 0
150 147 0
148 146 0
150 146 0
151 147 11
151 147 11
150 145 16
152 148 22
152 148 16
151 147 19
152 148 11
154 149 28
154 149 25
153 148 16
155 151 19
152 148 22
156 151 28
155 150 32
154 148 30
156 153 25
159 154 36
153 149 19
159 153 39
157 151 32
159 155 30
154 149 30
159 153 39
155 151 19
156 150 25
159 155 36
160 155 44
157 151 37
159 155 36
157 152 34
154 150 22
163 156 48
159 155 39
162 156 47
161 155 42
161 155 47
158 153 42
161 155 51
162 156 48
159 153 36
163 156 48
163 157 51
161 155 47
160 154 47
159 153 41
162 156 51
162 156 42
162 155 48
214 232 255
214 232 255
214 232 255
214 232 255
214 232 255
214 232 255
214 232 255
215 232 255
215 232 255
215 232 255
215 232 255
215 232 255
215 232 255
215 232 255
215 232 255
215 232 255
215 232 255
215 232 255
215 232 255
215 232 255
215 232 255
215 232 255
215 232 255
215 232 255
215 232 255
215 232 255
215 232 255
215 232 255
215 232 255
215 232 255
215 232 255
215 232 255
215 232 255
215 232 255
215 232 255
215 232 255
215 232 255
215 232 255
215 232 255
215 232 255
215 232 255
215 232 255
215 232 255
215 232 255
215 232 255
215 232 255
215 232 255
215 232 255
215 232 255
215 232 255
215 232 255
215 232 255
215 232 255
215 232 255
215 232 255
215 232 255
215 232 255
215 232 255
215 232 255
215 232 255
215 232 255
215 232 255
215 232 255
215 232 255
215 232 255
215 232 255
215 232 255
215 232 255
215 232 255
215 232 255
215 232 255
215 232 255
215 232 255
215 232 255
215 232 255
215 232 255
215 232 255
215 232 255
215 232 255
215 232 255
215 232 255
215 232 255
215 232 255
215 232 255
215 232 255
215 232 255
215 232 255
215 232 255
215 232 255
215 232 255
215 232 255
214 232 255
214 232 255
214 232 255
214 232 255
214 232 255
214 232 255
214 232 255
214 232 255
214 231 255
214 231 255
214 231 255
214 231 255
214 231 255
214 231 255
214 231 255
213 231 255
213 231 255
213 231 255
213 231 255
213 231 255
213 231 255
213 231 255
213 231 255
212 231 255
212 231 255
212 230 255
212 230 255
212 230 255
212 230 255
211 230 255
211 230 255
211 230 255
211 230 255
211 230 255
210 229 255
210 229 255
210 229 255
209 229 255
209 229 255
209 228 255
208 228 255
208 228 255
207 228 255
206 227 255
206 227 255
205 227 255
204 226 255
203 225 255
201 225 255
181 204 125
170 193 0
171 194 0
173 196 0
173 195 0
168 191 0
169 192 0
170 194 0
170 193 0
170 193 0
169 192 0
171 196 0
173 196 0
170 192 0
168 192 0
169 192 40
86 113 95
55 88 105
58 92 114
57 90 113
56 89 117
57 91 108
57 91 117
58 92 120
58 91 111
57 90 115
58 92 114
57 91 114
56 90 110
57 90 110
57 90 103
58 92 118
57 90 113
56 89 95
57 90 99
58 92 125
57 90 115
58 91 117
57 90 102
57 90 118
57 90 108
57 90 108
58 91 118
58 91 111
57 90 103
56 90 100
57 90 113
57 91 117
57 91 115
58 91 113
56 88 104
55 87 103
57 90 107
58 91 120
59 92 117
58 91 114
57 89 115
57 90 110
57 89 108
58 91 117
58 91 120
55 87 105
57 89 107
57 89 108
56 89 107
55 88 113
56 88 113
56 89 103
55 87 107
55 87 95
55 87 108
56 88 99
55 86 100
56 88 94
56 87 103
55 88 105
56 88 108
55 88 108
56 89 110
56 89 115
57 90 115
56 87 104
53 84 100
57 89 104
58 92 118
56 87 99
54 85 107
55 86 101
56 86 109
55 86 96
53 83 98
56 88 110
54 84 97
55 86 103
52 80 90
51 78 82
52 81 91
52 81 91
51 79 76
52 79 86
51 78 93
49 76 81
46 69 71
69 91 68
163 185 25
169 192 0
168 191 0
167 188 0
167 189 0
170 190 0
171 194 0
170 193 0
168 189 0
161 183 0
170 192 0
168 190 0
167 189 0
172 194 0
172 195 0
152 170 19
114 108 36
115 111 34
113 109 25
108 105 11
101 100 8
104 100 0
101 99 14
110 107 8
106 103 8
99 97 3
90 88 11
108 103 2
106 102 0
95 94 12
103 99 11
98 96 14
82 83 1
96 95 11
89 87 8
98 95 11
111 107 8
114 110 8
107 106 16
100 97 0
106 104 0
116 113 8
123 119 8
120 117 0
111 110 8
122 119 0
124 121 0
125 121 0
126 122 0
131 128 0
129 124 0
129 126 0
132 129 0
126 123 0
131 127 0
136 133 0
135 130 0
132 129 0
134 132 0
139 135 0
133 131 0
138 133 0
136 133 0
138 134 0
133 130 0
141 138 0
146 142 0
144 141 0
143 140 0
143 138 0
142 139 0
145 141 0
145 141 0
145 141 0
142 138 0
142 138 0
140 137 0
142 140 0
149 145 0
145 142 0
140 138 0
145 142 0
149 144 0
145 143 0
145 141 0
148 143 0
146 142 0
147 143 0
155 149 0
146 142 0
146 141 0
145 142 0
143 140 0
148 145 0
147 144 0
147 145 0
149 145 0
149 147 0
148 143 0
145 142 0
147 143 0
151 148 0
148 144 0
149 146 0
148 144 0
150 146 0
150 146 0
147 143 0
150 146 0
151 147 0
149 147 0
150 146 0
151 147 16
150 146 0
152 149 0
152 149 0
155 151 28
152 148 16
156 150 30
155 152 25
154 149 16
156 151 22
156 152 28
155 150 19
158 152 34
154 149 30
155 149 25
154 150 32
160 154 34
160 154 36
158 152 37
154 149 32
156 152 34
155 150 28
158 152 37
157 152 36
153 149 30
159 155 36
159 153 41
160 154 36
157 153 28
159 153 34
158 153 37
157 151 37
163 157 51
159 153 45
158 152 42
160 155 37
165 158 52
161 155 44
164 157 53
164 157 51
158 153 37
157 151 37
166 159 57
165 158 59
214 231 255
214 231 255
214 232 255
214 232 255
214 232 255
214 232 255
214 232 255
214 232 255
214 232 255
214 232 255
214 232 255
214 232 255
214 232 255
214 232 255
214 232 255
214 232 255
214 232 255
214 232 255
214 232 255
214 232 255
215 232 255
215 232 255
215 232 255
215 232 255
215 232 255
215 232 255
215 232 255
215 232 255
215 232 255
215 232 255
215 232 255
215 232 255
215 232 255
215 232 255
215 232 255
215 232 255
215 232 255
215 232 255
215 232 255
215 232 255
215 232 255
215 232 255
215 232 255
215 232 255
215 232 255
215 232 255
215 232 255
215 232 255
215 232 255
215 232 255
215 232 255
215 232 255
215 232 255
215 232 255
215 232 255
215 232 255
215 232 255
215 232 255
215 232 255
215 232 255
215 232 255
215 232 255
215 232 255
215 232 255
215 232 255
215 232 255
215 232 255
215 232 255
215 232 255
215 232 255
215 232 255
215 232 255
215 232 255
215 232 255
215 232 255
215 232 255
215 232 255
215 232 255
215 232 255
215 232 255
215 232 255
215 232 255
214 232 255
214 232 255
214 232 255
214 232 255
214 232 255
214 232 255
214 232 255
214 232 255
214 232 255
214 232 255
214 232 255
214 232 255
214 231 255
214 231 255
214 231 255
214 231 255
214 231 255
214 231 255
214 231 255
213 231 255
213 231 255
213 231 255
213 231 255
213 231 255
213 231 255
213 231 255
213 231 255
213 231 255
213 231 255
212 231 255
212 231 255
212 230 255
212 230 255
212 230 255
212 230 255
211 230 255
211 230 255
211 230 255
211 230 255
211 230 255
210 230 255
210 229 255
210 229 255
210 229 255
209 229 255
209 229 255
209 228 255
208 228 255
208 228 255
207 228 255
207 227 255
206 227 255
205 227 255
205 226 255
204 226 255
203 225 255
201 225 255
186 210 188
170 194 0
170 192 0
170 193 0
173 196 0
170 193 0
171 195 0
174 197 0
170 193 0
167 191 0
167 190 0
166 189 0
172 196 0
169 193 0
170 193 0
171 194 0
169 193 0
139 162 62
56 89 114
57 90 113
57 90 122
55 88 95
57 91 117
58 92 115
54 86 107
55 87 103
57 91 120
58 91 117
56 88 110
56 89 103
55 88 105
58 92 114
58 91 111
57 90 115
56 88 102
57 90 115
57 91 113
57 91 110
57 90 117
56 88 95
57 90 117
56 89 103
55 88 103
57 90 111
56 88 95
58 92 108
57 90 103
54 86 99
56 89 107
56 89 108
56 89 100
58 91 114
58 91 110
56 89 105
55 87 101
57 90 102
57 91 110
56 89 107
56 88 94
57 90 102
58 92 115
55 88 103
56 89 111
57 90 99
56 88 100
57 90 115
58 91 114
55 87 107
57 91 118
58 92 120
56 89 99
57 89 121
56 88 113
56 89 105
56 88 105
55 87 108
56 88 107
54 86 105
56 88 107
57 90 110
54 85 106
56 87 111
57 89 110
55 87 109
55 87 107
55 86 98
55 87 104
54 85 97
54 85 98
55 85 113
52 82 91
57 88 103
54 83 93
56 87 110
51 79 82
54 84 102
54 85 102
56 87 101
52 81 89
50 77 88
51 78 92
52 79 87
48 74 79
46 70 67
142 164 28
166 188 0
168 191 0
165 186 0
167 186 0
165 188 0
171 193 0
170 192 0
167 189 0
169 191 0
166 188 0
165 186 0
166 189 0
166 189 0
168 189 0
165 187 0
168 190 0
141 155 22
111 105 22
111 105 25
116 113 28
106 101 11
111 109 0
105 102 8
110 106 8
107 104 8
95 93 8
101 98 0
99 95 3
99 95 8
99 96 8
91 89 0
103 100 0
87 84 12
102 101 8
102 99 8
101 98 11
96 96 0
104 101 8
109 107 14
105 103 11
116 112 0
112 107 0
125 121 0
118 114 0
116 112 0
120 115 0
114 111 0
118 115 0
122 118 0
122 119 0
134 130 0
123 120 0
133 129 0
131 128 0
131 127 0
139 134 0
136 132 0
134 129 0
135 133 0
137 134 0
133 130 0
134 133 0
138 135 0
139 136 0
138 135 0
139 134 0
141 137 0
141 138 0
142 139 0
133 130 0
141 139 0
140 138 0
138 135 0
140 135 0
142 137 0
143 140 0
142 138 0
147 142 0
140 137 0
144 139 0
146 141 0
145 142 0
140 136 0
146 142 0
146 142 0
147 143 0
148 143 0
146 143 0
148 145 0
150 145 0
146 143 0
148 144 0
148 144 0
149 144 0
148 143 0
149 145 0
147 143 0
147 143 0
144 141 0
147 144 0
148 144 0
146 144 0
147 143 0
147 144 0
152 147 0
147 143 0
150 146 0
147 143 0
150 148 0
150 146 0
149 145 0
152 146 0
148 145 0
151 146 0
152 148 0
149 147 0
151 148 11
154 149 0
152 148 0
149 145 0
153 147 11
152 148 0
151 146 16
154 150 30
156 150 19
153 148 19
155 149 30
156 152 22
155 150 28
158 154 32
155 151 32
157 150 32
159 154 30
155 150 28
158 153 36
157 152 34
154 149 32
158 153 36
159 153 34
155 151 32
159 154 37
159 153 39
158 153 41
157 153 34
158 152 39
158 154 34
161 154 45
157 151 30
159 155 39
162 155 48
161 154 48
159 154 41
165 157 52
160 155 45
158 152 45
162 155 45
214 231 255
214 231 255
214 231 255
214 231 255
214 231 255
214 231 255
214 231 255
214 231 255
214 231 255
214 231 255
214 231 255
214 231 255
214 231 255
214 232 255
214 232 255
214 232 255
214 232 255
214 232 255
214 232 255
214 232 255
214 232 255
214 232 255
214 232 255
214 232 255
214 232 255
214 232 255
214 232 255
214 232 255
214 232 255
214 232 255
214 232 255
214 232 255
214 232 255
214 232 255
214 232 255
214 232 255
214 232 255
215 232 255
215 232 255
215 232 255
215 232 255
215 232 255
215 232 255
215 232 255
215 232 255
215 232 255
215 232 255
215 232 255
215 232 255
215 232 255
215 232 255
215 232 255
215 232 255
215 232 255
215 232 255
215 232 255
215 232 255
215 232 255
215 232 255
215 232 255
215 232 255
215 232 255
215 232 255
215 232 255
215 232 255
215 232 255
215 232 255
214 232 255
215 232 255
214 232 255
214 232 255
214 232 255
214 232 255
214 232 255
214 232 255
214 232 255
214 232 255
214 232 255
214 232 255
214 232 255
214 232 255
214 232 255
214 232 255
214 232 255
214 232 255
214 232 255
214 232 255
214 231 255
214 231 255
214 231 255
214 231 255
214 231 255
214 231 255
214 231 255
214 231 255
214 231 255
213 231 255
213 231 255
213 231 255
213 231 255
213 231 255
213 231 255
213 231 255
213 231 255
213 231 255
213 231 255
213 231 255
212 231 255
212 231 255
212 231 255
212 230 255
212 230 255
212 230 255
212 230 255
211 230 255
211 230 255
211 230 255
211 230 255
211 230 255
210 230 255
210 229 255
210 229 255
210 229 255
210 229 255
209 229 255
209 229 255
209 228 255
208 228 255
208 228 255
207 228 255
207 228 255
206 227 255
206 227 255
205 227 255
204 226 255
203 226 255
202 225 255
201 224 255
192 215 226
172 195 36
172 195 0
173 195 0
167 191 0
174 196 0
174 197 0
173 196 0
168 191 0
168 191 0
167 191 0
169 192 0
167 190 0
172 195 0
172 194 0
166 190 0
165 188 0
169 192 0
167 191 0
103 127 92
57 89 114
54 86 99
55 87 99
57 90 107
58 91 113
54 86 103
55 86 105
57 90 114
57 91 117
56 89 92
55 87 99
58 91 121
56 89 111
57 89 105
54 86 94
57 90 107
56 88 107
55 87 100
54 86 99
56 88 108
57 91 103
56 89 108
57 90 117
55 87 94
57 90 117
55 88 103
57 90 121
57 89 113
55 88 107
56 89 111
57 89 108
57 91 114
57 90 111
54 86 97
57 90 113
56 88 102
58 91 110
58 92 110
57 89 114
58 91 115
58 92 111
56 88 100
57 90 115
56 89 102
55 87 97
58 91 111
56 89 107
57 90 113
54 86 97
55 87 104
56 88 114
56 89 111
53 85 97
57 90 111
55 87 102
55 86 100
58 91 120
55 87 101
56 88 102
57 89 114
57 89 108
57 89 117
53 84 105
55 86 103
55 85 101
54 85 91
55 86 98
54 86 96
52 82 86
52 81 95
54 85 97
54 85 102
58 89 109
55 85 101
53 82 85
51 80 85
53 82 92
52 80 88
48 76 84
54 84 91
52 80 83
51 78 75
50 77 71
48 74 57
114 135 49
169 190 0
165 185 0
166 187 0
165 187 0
161 182 0
162 184 0
162 184 0
165 186 0
167 187 0
167 187 0
167 187 0
169 191 0
170 193 0
168 190 0
169 190 0
167 188 0
166 188 0
168 190 0
118 123 0
114 109 30
105 102 22
110 106 16
107 101 0
113 109 0
107 103 8
101 97 8
108 101 0
107 104 0
104 100 0
94 93 0
113 108 8
98 96 0
102 100 8
106 101 0
104 100 8
96 94 0
94 90 8
105 102 8
104 101 0
103 99 3
111 107 0
108 105 0
118 113 0
105 103 0
118 113 0
120 115 0
120 116 0
123 120 0
130 126 0
117 114 0
128 123 0
129 126 0
127 124 0
127 124 0
128 125 0
138 134 0
126 122 0
130 126 0
132 127 0
134 130 0
133 130 0
137 133 0
137 132 0
140 135 0
139 136 0
134 130 0
135 132 0
131 128 0
139 136 0
144 139 0
140 135 0
141 137 0
147 143 0
141 136 0
139 135 0
140 137 0
139 135 0
144 140 0
140 137 0
148 145 0
142 140 0
143 140 0
143 138 0
149 145 0
145 142 0
145 139 0
147 142 0
146 141 0
147 144 0
145 140 0
148 144 0
144 141 0
152 148 0
148 144 0
149 145 0
151 146 0
147 143 0
145 141 0
151 147 0
149 144 0
149 144 0
150 145 0
147 143 0
148 144 0
150 145 0
146 144 0
147 142 0
154 149 0
150 146 0
154 150 0
147 144 0
150 145 0
151 146 0
148 144 0
151 146 0
151 147 0
151 147 0
152 146 0
152 148 0
150 148 0
148 144 0
149 145 0
151 146 11
153 149 11
153 149 22
153 149 16
153 148 16
150 146 16
152 147 16
157 152 25
154 149 30
152 148 16
152 148 25
155 151 30
155 150 25
156 150 37
151 146 25
157 152 30
157 151 32
158 152 36
155 150 36
158 152 39
157 152 36
160 154 42
158 153 39
159 153 42
158 153 34
157 152 34
159 154 34
161 154 47
159 154 45
161 156 44
162 155 53
163 156 48
158 152 37
159 152 44
161 155 45
213 231 255
213 231 255
213 231 255
213 231 255
213 231 255
213 231 255
214 231 255
214 231 255
214 231 255
214 231 255
214 231 255
214 231 255
214 231 255
214 231 255
214 231 255
214 231 255
214 231 255
214 231 255
214 231 255
214 231 255
214 231 255
214 231 255
214 231 255
214 231 255
214 231 255
214 232 255
214 232 255
214 232 255
214 232 255
214 232 255
214 232 255
214 232 255
214 232 255
214 232 255
214 232 255
214 232 255
214 232 255
214 232 255
214 232 255
214 232 255
214 232 255
214 232 255
214 232 255
214 232 255
214 232 255
214 232 255
214 232 255
214 232 255
214 232 255
214 232 255
214 232 255
214 232 255
214 232 255
214 232 255
214 232 255
214 232 255
214 232 255
214 232 255
214 232 255
214 232 255
214 232 255
214 232 255
214 232 255
214 232 255
214 232 255
214 232 255
214 232 255
214 232 255
214 232 255
214 232 255
214 232 255
214 232 255
214 232 255
214 232 255
214 232 255
214 232 255
214 232 255
214 231 255
214 231 255
214 231 255
214 231 255
214 231 255
214 231 255
214 231 255
214 231 255
214 231 255
214 231 255
214 231 255
214 231 255
214 231 255
213 231 255
213 231 255
213 231 255
213 231 255
213 231 255
213 231 255
213 231 255
213 231 255
213 231 255
213 231 255
213 231 255
213 231 255
213 231 255
212 231 255
212 231 255
212 231 255
212 230 255
212 230 255
212 230 255
212 230 255
212 230 255
211 230 255
211 230 255
211 230 255
211 230 255
211 230 255
211 230 255
210 230 255
210 229 255
210 229 255
210 229 255
209 229 255
209 229 255
209 229 255
208 228 255
208 228 255
208 228 255
207 228 255
207 228 255
206 227 255
206 227 255
205 227 255
205 226 255
204 226 255
203 225 255
202 225 255
201 224 255
195 219 236
174 197 62
169 192 0
171 194 0
172 195 0
175 197 0
171 194 0
171 193 0
169 192 0
169 193 0
166 189 0
171 193 0
171 195 0
169 193 0
168 191 0
171 195 0
166 190 0
170 192 0
170 193 0
169 192 0
163 186 0
78 106 108
55 87 105
55 88 103
54 87 97
57 90 117
57 91 111
55 88 108
56 89 100
55 87 97
56 89 108
57 90 108
56 88 102
55 88 105
55 88 90
57 90 103
58 91 117
55 87 100
57 90 110
58 92 111
55 88 103
57 89 111
57 90 103
54 86 84
56 89 97
57 90 107
56 89 108
58 91 117
58 91 111
55 87 100
58 91 117
58 91 110
55 87 99
56 88 107
55 88 107
56 88 110
56 89 99
57 89 114
55 87 108
57 90 110
55 88 100
56 89 107
54 85 86
56 89 107
56 88 95
55 87 99
56 89 95
56 89 103
56 89 107
55 88 84
57 90 115
53 85 101
56 89 110
58 91 118
57 88 116
52 83 90
55 87 103
56 88 105
54 84 102
58 91 108
57 89 114
56 88 104
57 89 108
54 86 99
55 86 105
55 86 95
55 87 95
55 85 96
54 84 94
53 83 96
55 87 109
53 83 97
54 85 108
54 85 108
53 82 89
52 82 91
53 82 100
49 76 83
54 84 98
55 85 104
49 76 90
51 79 80
49 75 83
51 78 89
74 95 68
149 170 25
162 182 0
165 186 0
161 183 0
163 184 0
163 184 0
162 183 0
164 184 0
164 185 0
164 186 0
166 189 0
161 182 0
164 185 0
167 188 0
166 187 0
167 189 0
167 190 0
171 191 0
163 184 0
162 180 19
120 119 28
105 99 19
103 98 16
103 100 0
112 109 0
103 98 0
107 103 0
99 96 0
108 105 0
104 100 0
93 90 0
105 102 8
98 95 8
107 103 3
96 94 8
97 94 0
106 102 11
109 105 0
110 106 0
102 99 0
101 98 0
111 106 0
121 117 0
106 104 0
116 112 0
112 109 0
106 104 0
118 115 0
120 117 0
120 116 0
123 121 0
125 121 0
118 115 0
132 125 0
126 123 0
132 127 0
133 129 0
134 130 0
133 129 0
133 129 0
137 132 0
137 131 0
139 135 0
128 126 0
133 129 0
141 137 0
136 133 0
134 130 0
140 136 0
134 129 0
140 136 0
138 133 0
141 137 0
141 136 0
139 135 0
142 139 0
137 134 0
143 138 0
150 146 0
141 136 0
140 137 0
145 140 0
143 140 0
142 138 0
144 140 0
141 137 0
141 138 0
142 138 0
147 142 0
145 141 0
143 140 0
149 143 0
147 143 0
145 142 0
147 143 0
149 146 0
147 142 0
151 146 0
149 145 0
149 146 0
151 147 0
152 148 0
147 143 0
149 145 0
146 142 0
150 145 0
147 142 0
149 145 0
150 147 0
151 146 0
148 145 0
147 142 0
149 146 0
152 148 0
145 141 0
149 147 0
150 146 0
154 149 0
148 143 0
148 144 0
153 148 0
152 147 0
148 143 0
155 149 0
152 148 0
150 146 0
153 148 0
154 150 16
152 147 16
150 146 11
156 152 16
154 149 11
152 148 16
152 147 19
153 149 16
155 151 22
153 148 25
153 148 19
154 148 30
155 149 32
156 151 25
157 152 32
157 150 37
156 150 28
156 151 34
153 149 19
159 153 37
154 149 34
158 153 37
157 151 36
160 153 42
161 156 42
158 152 34
158 152 39
156 152 34
162 155 49
161 155 41
160 153 45
213 231 255
213 231 255
213 231 255
213 231 255
213 231 255
213 231 255
213 231 255
213 231 255
213 231 255
213 231 255
213 231 255
213 231 255
213 231 255
213 231 255
213 231 255
213 231 255
214 231 255
214 231 255
214 231 255
214 231 255
214 231 255
214 231 255
214 231 255
214 231 255
214 231 255
214 231 255
214 231 255
214 231 255
214 231 255
214 231 255
214 231 255
214 231 255
214 231 255
214 231 255
214 231 255
214 231 255
214 231 255
214 231 255
214 231 255
214 231 255
214 231 255
214 231 255
214 231 255
214 231 255
214 231 255
214 231 255
214 231 255
214 231 255
214 231 255
214 231 255
214 231 255
214 231 255
214 231 255
214 231 255
214 231 255
214 231 255
214 231 255
214 231 255
214 231 255
214 231 255
214 231 255
214 231 255
214 231 255
214 231 255
214 231 255
214 231 255
214 231 255
214 231 255
214 231 255
214 231 255
214 231 255
214 231 255
214 231 255
214 231 255
214 231 255
214 231 255
214 231 255
214 231 255
214 231 255
214 231 255
214 231 255
214 231 255
213 231 255
213 231 255
213 231 255
213 231 255
213 231 255
213 231 255
213 231 255
213 231 255
213 231 255
213 231 255
213 231 255
213 231 255
213 231 255
213 231 255
213 231 255
213 231 255
212 231 255
212 231 255
212 231 255
212 231 255
212 230 255
212 230 255
212 230 255
212 230 255
212 230 255
212 230 255
211 230 255
211 230 255
211 230 255
211 230 255
211 230 255
211 230 255
210 230 255
210 229 255
210 229 255
210 229 255
210 229 255
209 229 255
209 229 255
209 229 255
208 228 255
208 228 255
208 228 255
207 228 255
207 228 255
206 227 255
206 227 255
205 227 255
205 226 255
204 226 255
203 226 255
202 225 255
202 225 255
200 224 255
198 222 252
171 195 108
171 194 0
169 193 0
169 193 0
167 191 0
171 194 0
170 194 0
171 195 0
169 192 0
167 190 0
166 190 0
171 193 0
167 190 0
166 189 0
167 190 0
170 193 0
165 188 0
167 191 0
166 189 0
163 187 0
165 189 0
157 180 47
57 88 107
55 87 107
55 88 94
54 86 88
56 89 107
56 90 107
57 90 105
54 87 97
57 91 110
56 89 107
55 88 99
56 89 110
54 87 110
55 88 102
55 87 88
56 88 103
56 88 107
55 87 95
56 88 103
56 89 103
57 89 113
54 86 100
58 91 114
56 89 100
57 89 111
55 88 102
56 89 102
55 87 99
55 87 94
56 89 99
57 91 105
57 90 115
57 90 110
57 89 115
57 91 115
56 88 92
56 89 118
57 90 111
57 90 107
55 87 97
57 89 107
56 89 105
57 89 110
53 85 92
56 88 111
58 92 114
58 91 107
54 86 96
57 89 110
56 89 108
55 87 97
55 86 110
55 87 99
56 88 113
56 88 107
55 87 94
56 87 113
54 86 103
56 88 116
54 85 89
57 89 114
55 87 103
57 89 108
54 84 100
54 85 92
54 85 104
55 87 107
55 86 99
55 86 99
52 82 94
56 87 106
56 87 101
52 81 89
52 81 96
52 81 90
51 80 81
50 77 82
48 74 75
52 80 83
47 73 74
48 72 73
53 76 63
148 169 18
162 183 0
160 180 0
165 186 0
167 188 0
163 184 0
162 183 0
161 181 0
159 178 0
164 186 0
165 185 0
162 184 0
162 185 0
165 184 0
163 183 0
167 189 0
164 185 0
168 191 0
163 183 0
164 184 0
167 188 0
156 171 11
110 106 25
114 110 22
105 99 16
112 106 0
113 106 0
111 106 0
111 105 0
97 94 0
115 107 0
97 93 3
96 91 0
107 103 3
101 98 0
98 94 0
103 99 0
104 101 0
102 98 8
115 111 0
112 107 0
113 109 0
118 113 0
106 103 0
117 112 0
113 109 0
107 102 0
116 112 0
111 108 0
124 119 0
116 112 0
124 119 0
125 122 0
116 113 0
128 124 0
129 124 0
127 123 0
133 128 0
132 128 0
136 132 0
135 131 0
133 129 0
130 127 0
134 131 0
140 134 0
137 133 0
134 131 0
130 126 0
137 134 0
139 134 0
132 129 0
140 136 0
146 141 0
138 134 0
143 138 0
135 131 0
142 137 0
140 135 0
145 142 0
141 137 0
142 140 0
147 144 0
144 141 0
141 135 0
142 137 0
139 137 0
140 136 0
145 141 0
144 139 0
139 136 0
145 140 0
145 141 0
150 146 0
141 137 0
145 141 0
150 145 0
145 141 0
136 133 0
149 144 0
145 141 0
149 146 0
147 144 0
148 144 0
149 145 0
150 145 0
151 146 0
151 146 0
148 144 0
149 145 0
144 140 0
152 148 0
149 145 0
152 146 0
148 143 0
147 143 0
148 143 0
152 148 0
151 147 0
151 147 0
148 143 0
148 145 0
151 146 0
149 145 0
151 146 0
153 146 0
152 147 0
147 143 0
151 147 0
150 145 0
148 143 0
152 149 0
150 146 0
151 146 0
155 150 16
153 148 22
150 146 0
150 147 19
152 147 22
152 147 16
154 149 30
152 146 19
155 150 22
158 152 32
159 154 41
155 151 22
154 149 22
153 148 28
156 151 32
159 153 39
158 152 41
159 154 39
158 152 37
159 153 41
159 153 37
160 154 41
159 154 44
156 149 37
159 153 39
160 154 41
213 231 255
213 231 255
213 231 255
213 231 255
213 231 255
213 231 255
213 231 255
213 231 255
213 231 255
213 231 255
213 231 255
213 231 255
213 231 255
213 231 255
213 231 255
213 231 255
213 231 255
213 231 255
213 231 255
213 231 255
213 231 255
213 231 255
213 231 255
213 231 255
213 231 255
213 231 255
213 231 255
213 231 255
213 231 255
213 231 255
213 231 255
214 231 255
214 231 255
214 231 255
214 231 255
214 231 255
214 231 255
214 231 255
214 231 255
214 231 255
214 231 255
214 231 255
214 231 255
214 231 255
214 231 255
214 231 255
214 231 255
214 231 255
214 231 255
214 231 255
214 231 255
214 231 255
214 231 255
214 231 255
214 231 255
214 231 255
214 231 255
214 231 255
214 231 255
214 231 255
214 231 255
214 231 255
214 231 255
214 231 255
214 231 255
214 231 255
214 231 255
214 231 255
214 231 255
214 231 255
214 231 255
213 231 255
213 231 255
213 231 255
213 231 255
213 231 255
213 231 255
213 231 255
213 231 255
213 231 255
213 231 255
213 231 255
213 231 255
213 231 255
213 231 255
213 231 255
213 231 255
213 231 255
213 231 255
213 231 255
213 231 255
213 231 255
213 231 255
213 231 255
212 231 255
212 231 255
212 231 255
212 230 255
212 230 255
212 230 255
212 230 255
212 230 255
212 230 255
212 230 255
211 230 255
211 230 255
211 230 255
211 230 255
211 230 255
211 230 255
211 230 255
210 230 255
210 229 255
210 229 255
210 229 255
210 229 255
209 229 255
209 229 255
209 229 255
209 229 255
208 228 255
208 228 255
208 228 255
207 228 255
207 228 255
206 227 255
206 227 255
206 227 255
205 227 255
204 226 255
204 226 255
203 225 255
202 225 255
201 224 255
200 224 255
198 223 255
177 201 147
171 193 0
173 196 0
171 195 0
171 194 0
167 190 0
170 193 0
164 186 0
173 197 0
169 192 0
170 193 0
170 192 0
170 193 0
161 185 0
165 188 0
167 189 0
169 192 0
167 189 0
167 191 0
165 188 0
168 191 0
162 186 0
164 187 0
130 154 60
55 87 105
56 88 115
55 87 105
57 90 118
55 87 105
56 89 103
57 91 108
56 90 95
56 88 94
57 90 113
54 86 99
56 88 111
55 88 90
56 88 90
57 89 105
56 89 94
57 90 110
57 90 114
54 86 102
56 88 108
55 88 105
54 86 94
55 88 100
56 88 110
56 89 110
55 87 95
57 91 114
55 87 102
55 87 100
54 85 84
56 88 95
56 88 97
56 89 104
56 89 102
56 88 105
57 89 121
57 90 111
56 88 94
57 91 114
57 89 111
56 89 99
56 89 99
56 88 105
55 86 90
57 89 114
56 88 107
57 90 115
54 85 114
56 88 97
56 88 107
55 87 107
54 86 94
56 88 105
51 80 95
57 89 114
55 85 93
57 90 114
55 87 98
56 89 110
56 88 108
56 87 102
53 82 92
54 85 107
54 84 101
55 85 91
55 86 110
54 84 98
55 86 99
53 84 90
53 83 90
54 84 99
55 85 99
50 78 86
50 78 84
50 79 89
52 80 80
51 79 86
52 81 94
51 79 82
45 69 48
126 143 19
158 180 0
155 176 0
155 175 0
161 180 0
158 179 0
157 175 0
163 182 0
158 179 0
161 179 0
167 187 0
158 178 0
162 182 0
156 175 0
163 183 0
161 181 0
164 183 0
161 179 0
162 184 0
163 183 0
154 173 0
164 185 0
167 187 0
150 164 16
103 98 11
101 94 16
109 105 0
111 105 0
111 108 0
102 99 0
105 101 0
108 101 0
103 99 0
110 105 0
103 98 0
104 101 0
101 95 0
116 110 0
103 98 0
111 108 0
100 98 0
103 99 0
110 104 0
110 104 0
98 94 0
117 112 0
111 106 0
118 111 0
120 115 0
119 114 0
117 112 0
125 120 0
116 113 0
124 120 0
122 118 0
118 114 0
124 120 0
135 131 0
133 131 0
126 121 0
132 128 0
135 131 0
122 119 0
133 127 0
135 131 0
133 129 0
132 130 0
139 134 0
141 137 0
136 132 0
134 131 0
142 138 0
141 136 0
140 134 0
139 135 0
146 142 0
139 135 0
136 130 0
139 133 0
141 137 0
143 140 0
139 133 0
144 139 0
132 128 0
140 135 0
142 138 0
135 131 0
150 144 0
148 144 0
147 143 0
142 138 0
145 142 0
144 140 0
143 139 0
140 135 0
147 142 0
147 143 0
147 142 0
148 142 0
147 142 0
148 143 0
148 144 0
146 142 0
148 144 0
150 145 0
146 141 0
145 141 0
149 145 0
149 144 0
147 144 0
152 148 0
149 145 0
149 145 0
150 145 0
149 144 0
149 145 0
148 143 0
150 145 0
147 142 0
146 141 0
152 148 0
148 144 0
151 146 0
148 144 0
151 146 0
151 147 0
152 146 0
144 141 0
153 150 0
152 148 0
154 149 0
151 148 0
152 148 0
151 147 0
154 149 0
151 147 11
154 151 11
151 147 11
151 146 11
152 147 22
151 146 16
156 149 28
154 150 22
148 145 16
156 151 22
153 149 19
153 150 28
156 152 30
156 150 28
155 149 28
157 151 32
157 152 36
157 151 34
157 152 30
159 153 44
156 150 30
160 154 41
157 151 32
161 154 39
154 149 30
212 231 255
212 231 255
212 231 255
212 231 255
212 231 255
212 231 255
212 231 255
213 231 255
213 231 255
213 231 255
213 231 255
213 231 255
213 231 255
213 231 255
213 231 255
213 231 255
213 231 255
213 231 255
213 231 255
213 231 255
213 231 255
213 231 255
213 231 255
213 231 255
213 231 255
213 231 255
213 231 255
213 231 255
213 231 255
213 231 255
213 231 255
213 231 255
213 231 255
213 231 255
213 231 255
213 231 255
213 231 255
213 231 255
213 231 255
213 231 255
213 231 255
213 231 255
213 231 255
213 231 255
213 231 255
213 231 255
213 231 255
213 231 255
213 231 255
213 231 255
213 231 255
213 231 255
213 231 255
213 231 255
213 231 255
213 231 255
213 231 255
213 231 255
213 231 255
213 231 255
213 231 255
213 231 255
213 231 255
213 231 255
213 231 255
213 231 255
213 231 255
213 231 255
213 231 255
213 231 255
213 231 255
213 231 255
213 231 255
213 231 255
213 231 255
213 231 255
213 231 255
213 231 255
213 231 255
213 231 255
213 231 255
213 231 255
213 231 255
213 231 255
213 231 255
213 231 255
213 231 255
212 231 255
212 231 255
212 231 255
212 231 255
212 231 255
212 230 255
212 230 255
212 230 255
212 230 255
212 230 255
212 230 255
212 230 255
212 230 255
211 230 255
211 230 255
211 230 255
211 230 255
211 230 255
211 230 255
211 230 255
211 230 255
210 229 255
210 229 255
210 229 255
210 229 255
210 229 255
209 229 255
209 229 255
209 229 255
209 229 255
209 228 255
208 228 255
208 228 255
208 228 255
207 228 255
207 228 255
206 227 255
206 227 255
206 227 255
205 227 255
205 226 255
204 226 255
203 226 255
203 225 255
202 225 255
201 224 255
199 224 255
197 222 255
181 206 171
169 192 0
170 193 0
170 192 0
167 191 0
168 191 0
168 191 0
169 191 0
169 192 0
167 190 0
163 186 0
168 192 0
172 194 0
167 190 0
168 190 0
165 188 0
167 190 0
167 190 0
169 192 0
166 188 0
165 188 0
165 187 0
164 187 0
160 185 0
163 185 0
105 129 84
52 83 88
53 85 105
54 86 92
54 87 92
55 88 95
55 86 100
56 89 107
55 87 105
57 90 105
54 86 88
56 88 113
55 87 95
55 88 97
52 83 99
56 89 114
56 88 103
57 89 113
54 86 100
59 92 121
57 90 102
54 86 84
57 89 100
56 88 94
56 88 102
58 90 105
54 87 88
55 88 102
56 88 103
56 89 92
55 88 108
54 86 86
54 86 102
57 89 110
57 89 114
56 89 100
55 87 107
56 89 105
54 86 97
58 91 105
54 86 88
55 88 108
56 89 108
56 88 105
54 85 102
56 89 111
55 87 90
55 86 102
55 86 86
53 85 95
54 86 94
55 86 92
53 84 80
54 85 99
53 85 94
55 87 113
56 88 99
57 89 111
54 84 104
55 87 103
53 85 92
53 84 94
57 89 115
54 84 90
54 85 89
56 86 105
52 82 87
51 80 86
51 80 89
53 84 90
54 84 94
52 82 87
52 81 89
51 78 84
49 76 84
53 82 99
51 80 85
49 76 65
48 74 79
105 124 36
154 173 0
155 176 0
162 182 0
160 182 0
157 177 0
158 178 0
158 178 0
153 173 0
161 182 0
159 179 0
159 179 0
164 183 0
152 172 0
162 181 0
156 176 0
161 181 0
162 181 0
160 179 0
154 174 0
160 178 0
159 180 0
165 184 0
159 177 0
158 176 0
145 155 19
100 96 0
112 107 16
111 107 0
99 94 0
99 96 0
105 98 0
108 102 0
106 100 0
109 103 0
101 96 0
114 109 0
105 97 0
108 101 0
104 101 0
108 104 0
108 103 0
103 102 0
111 105 0
122 115 0
112 107 0
115 110 0
109 103 0
116 109 0
114 109 0
118 113 0
109 105 0
126 122 0
120 115 0
124 119 0
125 121 0
126 121 0
126 121 0
126 123 0
133 127 0
125 120 0
133 128 0
131 125 0
136 133 0
131 125 0
133 128 0
123 120 0
126 122 0
133 128 0
136 133 0
132 127 0
137 132 0
137 133 0
141 137 0
144 139 0
136 132 0
134 128 0
141 137 0
142 136 0
140 135 0
142 136 0
144 139 0
141 136 0
143 139 0
146 138 0
132 129 0
145 140 0
145 141 0
144 138 0
147 142 0
145 139 0
141 137 0
148 142 0
146 141 0
143 137 0
148 144 0
143 139 0
148 142 0
143 139 0
150 145 0
147 142 0
146 142 0
149 145 0
145 139 0
149 142 0
148 142 0
149 144 0
144 141 0
143 139 0
149 144 0
146 141 0
149 145 0
149 143 0
149 145 0
151 147 0
152 146 0
149 144 0
146 141 0
149 145 0
146 142 0
150 145 0
146 142 0
148 143 0
153 149 0
148 144 0
150 146 0
155 150 0
150 146 0
148 144 0
150 146 0
151 147 0
150 144 0
153 148 0
152 147 0
149 146 0
153 147 0
149 145 0
151 147 0
153 149 0
151 146 0
149 147 11
152 147 16
150 146 11
154 151 16
154 150 19
154 148 19
155 151 25
157 152 28
155 149 30
155 150 22
149 145 19
154 149 28
156 151 34
156 151 32
153 149 22
155 149 36
155 151 30
154 149 25
162 155 49
158 153 36
158 153 42
212 230 255
212 230 255
212 230 255
212 230 255
212 230 255
212 230 255
212 230 255
212 230 255
212 230 255
212 231 255
212 231 255
212 231 255
212 231 255
212 231 255
212 231 255
212 231 255
212 231 255
213 231 255
213 231 255
213 231 255
213 231 255
213 231 255
213 231 255
213 231 255
213 231 255
213 231 255
213 231 255
213 231 255
213 231 255
213 231 255
213 231 255
213 231 255
213 231 255
213 231 255
213 231 255
213 231 255
213 231 255
213 231 255
213 231 255
213 231 255
213 231 255
213 231 255
213 231 255
213 231 255
213 231 255
213 231 255
213 231 255
213 231 255
213 231 255
213 231 255
213 231 255
213 231 255
213 231 255
213 231 255
213 231 255
213 231 255
213 231 255
213 231 255
213 231 255
213 231 255
213 231 255
213 231 255
213 231 255
213 231 255
213 231 255
213 231 255
213 231 255
213 231 255
213 231 255
213 231 255
213 231 255
213 231 255
213 231 255
213 231 255
213 231 255
213 231 255
213 231 255
213 231 255
213 231 255
213 231 255
212 231 255
212 231 255
212 231 255
212 231 255
212 231 255
212 231 255
212 230 255
212 230 255
212 230 255
212 230 255
212 230 255
212 230 255
212 230 255
212 230 255
212 230 255
211 230 255
211 230 255
211 230 255
211 230 255
211 230 255
211 230 255
211 230 255
211 230 255
211 230 255
210 230 255
210 229 255
210 229 255
210 229 255
210 229 255
210 229 255
209 229 255
209 229 255
209 229 255
209 229 255
209 229 255
208 228 255
208 228 255
208 228 255
207 228 255
207 228 255
207 228 255
206 227 255
206 227 255
206 227 255
205 227 255
205 226 255
204 226 255
203 226 255
203 225 255
202 225 255
201 224 255
200 224 255
199 223 255
197 222 255
182 206 177
170 193 0
168 190 0
169 192 0
172 195 0
169 192 0
171 194 0
170 192 0
169 193 0
164 187 0
165 188 0
164 188 0
166 189 0
167 190 0
164 187 0
167 189 0
163 186 0
163 186 0
166 189 0
159 182 0
166 188 0
164 187 0
165 187 0
168 190 0
165 188 0
162 185 0
156 179 18
88 114 82
52 82 90
55 87 99
56 89 110
55 88 99
55 87 95
51 82 86
53 85 86
56 88 100
54 86 107
55 88 100
56 88 102
54 87 86
55 88 107
55 87 97
55 87 94
56 88 100
55 88 100
55 87 100
55 87 110
56 89 103
55 87 105
54 86 84
57 90 108
57 89 105
55 87 97
57 90 105
56 89 103
54 86 102
54 86 97
56 88 105
55 87 105
56 88 100
55 88 103
55 86 99
55 87 94
55 87 86
57 90 115
55 87 103
53 84 86
56 89 103
56 89 113
56 89 113
54 87 90
55 86 107
56 88 102
55 87 105
55 86 103
55 86 94
54 85 92
54 86 94
53 84 77
53 83 88
54 85 92
55 87 107
55 85 109
55 86 86
55 86 102
53 84 90
55 87 84
53 84 100
56 88 114
53 83 83
54 85 99
54 84 104
51 81 92
55 86 104
53 84 89
53 83 97
52 81 93
53 83 89
48 74 77
49 76 75
50 78 90
47 72 73
48 73 84
49 74 72
83 101 51
151 171 0
152 171 0
155 176 0
159 177 0
155 176 0
154 174 0
156 176 0
156 175 0
162 181 0
159 179 0
162 181 0
154 173 0
155 174 0
163 183 0
165 185 0
153 171 0
162 181 0
160 180 0
163 182 0
161 180 0
161 179 0
159 176 0
163 181 0
162 180 0
163 182 0
163 181 0
140 147 19
108 103 22
100 94 0
102 97 0
113 108 0
107 102 0
109 104 0
103 97 0
103 100 0
98 90 0
114 109 0
100 95 0
104 99 0
102 97 0
106 100 0
103 100 0
110 103 0
98 95 0
107 102 0
120 114 0
110 106 0
126 120 0
119 112 0
118 112 0
117 113 0
123 116 0
119 115 0
127 122 0
123 120 0
125 120 0
126 120 0
127 122 0
126 122 0
129 123 0
122 116 0
124 118 0
131 126 0
127 123 0
135 130 0
136 131 0
135 131 0
143 137 0
130 125 0
135 129 0
126 123 0
138 131 0
129 125 0
131 128 0
139 135 0
135 131 0
143 137 0
138 133 0
139 134 0
143 139 0
138 133 0
136 131 0
142 138 0
144 139 0
141 135 0
147 143 0
138 132 0
143 139 0
139 135 0
137 134 0
148 143 0
146 141 0
144 139 0
142 140 0
139 134 0
142 138 0
147 144 0
146 140 0
143 140 0
150 144 0
148 143 0
147 140 0
141 137 0
147 143 0
149 143 0
143 139 0
147 142 0
151 146 0
148 143 0
144 139 0
146 142 0
148 144 0
150 144 0
147 141 0
148 144 0
148 145 0
145 141 0
147 141 0
149 144 0
145 140 0
146 142 0
147 142 0
146 143 0
151 146 0
152 147 0
153 149 0
151 145 0
149 144 0
152 146 0
148 144 0
149 145 0
150 147 0
150 145 0
145 141 0
150 145 0
150 147 0
151 145 0
151 145 0
155 151 0
152 149 0
154 150 0
153 148 0
152 148 11
149 146 0
152 147 11
153 148 28
154 149 25
154 149 16
155 150 19
153 148 19
151 146 22
155 150 36
156 151 28
153 148 28
154 149 30
156 152 30
158 151 36
151 146 25
159 152 41
155 150 34
159 152 41
211 230 255
211 230 255
212 230 255
212 230 255
212 230 255
212 230 255
212 230 255
212 230 255
212 230 255
212 230 255
212 230 255
212 230 255
212 230 255
212 230 255
212 230 255
212 230 255
212 230 255
212 230 255
212 230 255
212 230 255
212 231 255
212 231 255
212 231 255
212 231 255
212 231 255
212 231 255
212 231 255
212 231 255
212 231 255
212 231 255
212 231 255
213 231 255
213 231 255
213 231 255
213 231 255
213 231 255
213 231 255
213 231 255
213 231 255
213 231 255
213 231 255
213 231 255
213 231 255
213 231 255
213 231 255
213 231 255
213 231 255
213 231 255
213 231 255
213 231 255
213 231 255
213 231 255
213 231 255
213 231 255
213 231 255
213 231 255
213 231 255
213 231 255
213 231 255
213 231 255
213 231 255
213 231 255
213 231 255
213 231 255
213 231 255
213 231 255
213 231 255
213 231 255
212 231 255
212 231 255
212 231 255
212 231 255
212 231 255
212 231 255
212 231 255
212 231 255
212 230 255
212 230 255
212 230 255
212 230 255
212 230 255
212 230 255
212 230 255
212 230 255
212 230 255
212 230 255
212 230 255
212 230 255
212 230 255
212 230 255
211 230 255
211 230 255
211 230 255
211 230 255
211 230 255
211 230 255
211 230 255
211 230 255
211 230 255
211 230 255
210 230 255
210 229 255
210 229 255
210 229 255
210 229 255
210 229 255
210 229 255
209 229 255
209 229 255
209 229 255
209 229 255
209 229 255
208 228 255
208 228 255
208 228 255
208 228 255
207 228 255
207 228 255
207 227 255
206 227 255
206 227 255
206 227 255
205 227 255
205 226 255
204 226 255
204 226 255
203 225 255
202 225 255
201 225 255
201 224 255
199 224 255
198 223 255
197 222 255
180 205 181
168 191 25
172 194 0
167 190 0
167 190 0
166 190 0
170 193 0
164 187 0
162 185 0
169 191 0
172 195 0
168 191 0
163 186 0
164 185 0
169 191 0
166 189 0
166 188 0
165 188 0
167 190 0
163 185 0
163 186 0
162 184 0
164 187 0
161 184 0
157 180 0
155 176 0
161 183 0
155 178 0
157 179 18
84 111 99
56 89 99
55 88 100
53 84 97
54 87 100
55 87 100
55 88 95
55 87 97
54 86 102
54 85 95
56 88 97
54 86 107
54 86 95
58 91 114
56 89 99
54 85 92
56 89 95
53 84 88
56 88 102
53 85 99
54 86 97
55 87 107
55 88 82
55 88 102
55 88 105
54 86 86
54 86 105
56 88 102
56 89 110
51 81 78
55 87 103
54 86 88
55 87 100
54 86 90
56 88 102
54 86 102
55 88 96
53 85 88
54 86 95
55 87 102
55 86 110
57 90 105
55 87 103
54 86 100
54 85 97
54 85 99
55 87 105
54 85 102
54 86 105
52 83 90
55 86 90
55 86 102
52 82 86
55 86 101
54 83 94
53 84 100
53 83 95
54 86 107
53 83 83
55 86 104
51 80 88
53 83 85
54 85 92
53 83 82
52 81 90
54 84 106
53 83 87
52 81 86
52 81 92
52 81 92
49 76 81
51 79 65
49 76 79
47 74 67
47 74 58
88 108 61
144 164 0
156 175 0
159 178 0
152 172 0
150 170 0
151 170 0
154 173 0
160 179 0
148 164 0
156 174 0
160 178 0
157 176 0
156 173 0
156 173 0
150 170 0
162 181 0
159 179 0
156 174 0
161 182 0
155 175 0
146 164 0
155 173 0
156 173 0
160 178 0
160 180 0
162 179 0
160 177 0
158 175 0
126 133 11
104 99 16
103 96 0
100 97 0
108 104 0
105 100 0
106 99 0
100 96 0
104 98 0
107 100 0
105 100 0
112 106 0
98 92 0
103 100 0
112 104 0
111 106 0
108 101 0
119 112 0
119 112 0
121 117 0
115 107 0
111 106 0
122 116 0
122 116 0
120 114 0
124 117 0
120 117 0
114 111 0
125 120 0
134 127 0
124 120 0
126 121 0
128 124 0
125 121 0
137 130 0
123 117 0
131 124 0
133 127 0
132 126 0
125 119 0
136 131 0
133 126 0
134 129 0
132 127 0
129 123 0
134 129 0
140 136 0
137 133 0
140 136 0
135 130 0
134 130 0
137 131 0
142 135 0
140 136 0
139 135 0
139 133 0
146 140 0
139 133 0
141 135 0
141 135 0
146 141 0
140 134 0
144 139 0
146 141 0
144 138 0
148 143 0
140 135 0
142 137 0
143 138 0
140 136 0
147 143 0
147 143 0
145 139 0
147 141 0
146 141 0
140 134 0
142 137 0
143 139 0
146 140 0
147 141 0
146 141 0
147 142 0
148 143 0
139 134 0
148 141 0
148 142 0
148 143 0
146 142 0
148 143 0
148 143 0
151 147 0
149 144 0
149 145 0
150 146 0
150 143 0
146 141 0
147 143 0
148 144 0
147 143 0
150 145 0
153 148 0
152 148 0
153 147 0
152 149 0
151 147 0
145 139 0
150 146 0
150 146 0
150 145 0
150 146 0
151 146 0
149 146 0
150 146 0
150 145 0
149 145 0
150 146 0
151 148 11
150 146 0
154 151 11
152 148 16
154 150 11
153 148 19
153 148 11
152 148 19
152 147 16
154 148 22
157 151 28
156 151 28
157 152 32
159 153 32
154 148 36
161 155 39
154 148 36
158 153 44
211 230 255
211 230 255
211 230 255
211 230 255
211 230 255
211 230 255
211 230 255
211 230 255
211 230 255
211 230 255
212 230 255
212 230 255
212 230 255
212 230 255
212 230 255
212 230 255
212 230 255
212 230 255
212 230 255
212 230 255
212 230 255
212 230 255
212 230 255
212 230 255
212 230 255
212 230 255
212 230 255
212 230 255
212 230 255
212 230 255
212 230 255
212 230 255
212 230 255
212 230 255
212 231 255
212 231 255
212 231 255
212 231 255
212 231 255
212 231 255
212 231 255
212 231 255
212 231 255
212 231 255
212 231 255
212 231 255
212 231 255
212 231 255
212 231 255
212 231 255
212 231 255
212 231 255
212 231 255
212 231 255
212 231 255
212 231 255
212 231 255
212 231 255
212 231 255
212 231 255
212 231 255
212 231 255
212 231 255
212 230 255
212 230 255
212 230 255
212 230 255
212 230 255
212 230 255
212 230 255
212 230 255
212 230 255
212 230 255
212 230 255
212 230 255
212 230 255
212 230 255
212 230 255
212 230 255
212 230 255
212 230 255
212 230 255
212 230 255
212 230 255
211 230 255
211 230 255
211 230 255
211 230 255
211 230 255
211 230 255
211 230 255
211 230 255
211 230 255
211 230 255
211 230 255
211 230 255
210 230 255
210 229 255
210 229 255
210 229 255
210 229 255
210 229 255
210 229 255
209 229 255
209 229 255
209 229 255
209 229 255
209 229 255
209 229 255
208 228 255
208 228 255
208 228 255
208 228 255
207 228 255
207 228 255
207 228 255
207 227 255
206 227 255
206 227 255
205 227 255
205 227 255
205 226 255
204 226 255
204 226 255
203 225 255
202 225 255
202 225 255
201 224 255
200 224 255
199 223 255
198 223 255
196 222 255
185 210 198
171 193 25
167 190 0
165 188 0
173 195 0
166 188 0
168 190 0
169 192 0
170 193 0
161 184 0
162 186 0
166 189 0
159 181 0
171 194 0
167 189 0
161 183 0
167 189 0
159 181 0
156 178 0
164 187 0
160 182 0
169 191 0
161 183 0
159 182 0
165 188 0
157 179 0
160 183 0
147 169 0
160 182 0
162 184 0
146 169 18
82 108 92
55 87 105
52 84 92
54 87 95
54 86 90
53 85 88
53 84 94
56 89 102
57 90 107
54 86 94
56 89 108
54 86 102
53 84 82
55 88 102
56 88 97
55 88 102
54 85 92
54 85 94
54 85 82
56 89 110
54 87 84
56 89 108
55 88 107
55 87 100
56 88 103
56 88 105
57 89 103
54 85 95
55 86 97
54 85 102
55 87 95
56 87 108
53 84 86
55 87 97
55 87 102
53 84 94
52 83 82
54 85 100
55 86 102
54 85 92
52 82 89
53 83 88
54 85 85
55 87 105
54 86 94
54 84 88
55 87 99
56 88 99
54 85 94
53 84 94
54 86 101
56 88 94
51 82 81
54 86 94
54 84 99
53 84 97
53 85 94
55 86 89
52 81 82
52 81 85
53 82 86
51 80 80
52 81 78
53 82 97
49 78 78
51 79 77
52 81 89
50 79 77
49 77 80
49 77 79
49 76 72
47 73 68
48 74 72
68 90 58
138 156 25
149 167 0
140 157 0
151 170 0
143 159 0
149 166 0
149 166 0
148 163 0
144 162 0
144 158 0
145 161 0
149 167 0
152 170 0
152 169 0
147 164 0
144 163 0
151 167 0
148 165 0
153 169 0
158 174 0
155 171 0
155 173 0
152 170 0
158 175 0
154 170 0
159 177 0
154 168 0
155 172 0
159 175 0
160 179 0
132 138 16
107 100 19
100 95 0
103 96 0
91 86 0
92 86 0
102 97 0
99 94 0
106 99 0
104 97 0
102 94 0
109 102 0
111 104 0
99 95 0
105 98 0
114 108 0
108 101 0
125 118 0
116 111 0
111 106 0
120 114 0
117 111 0
120 114 0
114 109 0
118 110 0
130 125 0
131 124 0
124 119 0
126 120 0
113 109 0
122 116 0
134 127 0
129 124 0
126 120 0
125 120 0
130 125 0
128 121 0
130 125 0
130 123 0
129 123 0
126 121 0
128 124 0
130 125 0
132 127 0
139 134 0
135 129 0
140 135 0
139 134 0
140 135 0
137 132 0
138 134 0
142 138 0
135 128 0
140 135 0
139 134 0
141 134 0
142 136 0
144 139 0
137 132 0
142 136 0
141 136 0
138 132 0
137 132 0
136 131 0
142 137 0
144 139 0
150 144 0
146 142 0
145 139 0
142 137 0
146 141 0
137 131 0
147 141 0
145 139 0
144 139 0
142 136 0
143 139 0
149 144 0
145 139 0
146 140 0
145 141 0
147 141 0
146 140 0
149 143 0
150 145 0
145 139 0
145 140 0
147 142 0
148 142 0
146 141 0
146 142 0
149 144 0
149 143 0
148 143 0
147 143 0
150 143 0
145 140 0
149 144 0
150 143 0
149 144 0
149 144 0
150 145 0
151 146 0
149 145 0
150 146 0
146 142 0
152 148 0
151 146 0
150 146 0
147 142 0
148 143 0
150 146 0
153 148 0
150 145 0
150 146 0
150 146 0
152 148 0
155 150 0
154 149 0
153 147 0
150 146 11
151 146 19
153 149 19
155 152 0
154 149 25
153 148 25
155 148 34
156 150 28
153 148 25
156 150 34
153 149 19
159 152 39
156 151 30
211 230 255
211 230 255
211 230 255
211 230 255
211 230 255
211 230 255
211 230 255
211 230 255
211 230 255
211 230 255
211 230 255
211 230 255
211 230 255
211 230 255
211 230 255
211 230 255
211 230 255
211 230 255
211 230 255
211 230 255
212 230 255
212 230 255
212 230 255
212 230 255
212 230 255
212 230 255
212 230 255
212 230 255
212 230 255
212 230 255
212 230 255
212 230 255
212 230 255
212 230 255
212 230 255
212 230 255
212 230 255
212 230 255
212 230 255
212 230 255
212 230 255
212 230 255
212 230 255
212 230 255
212 230 255
212 230 255
212 230 255
212 230 255
212 230 255
212 230 255
212 230 255
212 230 255
212 230 255
212 230 255
212 230 255
212 230 255
212 230 255
212 230 255
212 230 255
212 230 255
212 230 255
212 230 255
212 230 255
212 230 255
212 230 255
212 230 255
212 230 255
212 230 255
212 230 255
212 230 255
212 230 255
212 230 255
212 230 255
212 230 255
211 230 255
211 230 255
211 230 255
211 230 255
211 230 255
211 230 255
211 230 255
211 230 255
211 230 255
211 230 255
211 230 255
211 230 255
211 230 255
211 230 255
211 230 255
211 230 255
211 230 255
210 230 255
210 229 255
210 229 255
210 229 255
210 229 255
210 229 255
210 229 255
210 229 255
209 229 255
209 229 255
209 229 255
209 229 255
209 229 255
209 229 255
209 228 255
208 228 255
208 228 255
208 228 255
208 228 255
207 228 255
207 228 255
207 228 255
207 227 255
206 227 255
206 227 255
206 227 255
205 227 255
205 227 255
205 226 255
204 226 255
204 226 255
203 225 255
202 225 255
202 225 255
201 224 255
200 224 255
199 223 255
198 223 255
197 222 255
195 221 255
180 205 189
169 192 0
168 191 0
170 193 0
172 194 0
165 188 0
171 194 0
166 188 0
170 193 0
165 189 0
163 185 0
167 190 0
163 185 0
163 185 0
165 187 0
161 183 0
160 183 0
163 185 0
167 190 0
159 181 0
162 184 0
162 185 0
167 189 0
161 183 0
159 182 0
156 178 0
157 180 0
155 177 0
162 183 0
159 181 0
157 178 0
151 173 0
141 163 18
86 110 92
51 82 86
54 86 99
53 84 97
53 84 90
56 88 105
53 84 94
53 84 94
54 85 90
54 85 97
58 91 110
55 87 94
54 86 103
56 88 100
54 86 102
55 87 95
54 86 97
55 87 88
54 86 97
54 86 102
53 85 102
57 90 107
56 88 100
53 84 95
55 87 95
53 84 84
53 84 88
55 87 99
54 85 88
57 90 102
55 86 90
53 83 92
55 86 97
55 87 107
54 86 95
56 88 105
54 86 99
54 86 95
53 84 95
55 86 105
52 82 90
53 84 88
54 85 95
53 85 88
55 87 110
53 84 97
55 87 101
54 85 100
53 84 80
54 86 102
53 85 92
53 84 96
54 85 94
54 85 94
52 82 100
52 82 62
52 82 87
53 83 85
53 83 102
51 80 87
53 82 96
48 76 72
54 85 90
49 76 84
50 79 83
51 79 84
50 79 74
51 78 82
47 73 77
50 79 87
48 74 73
85 105 57
142 161 25
148 166 0
142 160 0
145 165 0
152 168 0
148 165 0
146 164 0
138 156 0
156 175 0
143 160 0
143 160 0
151 169 0
156 171 0
150 167 0
149 165 0
143 156 0
148 166 0
148 165 0
152 168 0
157 174 0
152 167 0
158 175 0
158 174 0
151 169 0
155 170 0
156 173 0
149 166 0
150 166 0
148 163 0
159 175 0
157 173 0
158 175 0
132 138 16
92 85 0
99 95 0
95 91 0
107 100 0
96 91 0
102 98 0
112 104 0
106 100 0
108 102 0
108 101 0
110 104 0
106 100 0
107 102 0
104 98 0
116 110 0
116 106 0
107 103 0
115 109 0
114 109 0
117 109 0
118 111 0
124 117 0
119 115 0
113 108 0
117 110 0
127 121 0
123 116 0
120 114 0
122 118 0
127 121 0
131 125 0
121 117 0
127 121 0
125 119 0
123 115 0
127 120 0
131 125 0
133 129 0
133 129 0
129 122 0
129 123 0
133 128 0
140 134 0
133 127 0
142 137 0
139 133 0
137 131 0
136 129 0
133 129 0
139 132 0
141 134 0
144 138 0
143 138 0
137 130 0
137 131 0
142 136 0
140 133 0
140 133 0
145 140 0
141 136 0
144 139 0
145 139 0
143 136 0
135 130 0
141 135 0
141 135 0
147 140 0
144 137 0
144 139 0
141 134 0
146 140 0
144 138 0
146 141 0
149 143 0
146 142 0
146 138 0
142 137 0
145 139 0
146 141 0
146 141 0
150 145 0
145 139 0
148 142 0
146 141 0
143 137 0
148 142 0
151 146 0
149 143 0
142 139 0
150 144 0
149 143 0
151 146 0
148 141 0
149 142 0
152 147 0
149 144 0
149 145 0
152 147 0
148 143 0
150 145 0
150 145 0
149 144 0
152 147 0
148 143 0
149 144 0
147 142 0
151 146 0
147 143 0
152 146 0
149 144 0
150 145 0
150 144 0
152 149 0
152 146 0
152 146 0
150 146 0
148 144 0
152 147 0
152 146 0
153 147 11
153 148 11
153 146 16
152 146 22
155 150 22
155 149 32
152 147 19
153 148 19
152 147 22
155 149 25
158 151 34
155 149 37
210 229 255
210 229 255
210 229 255
210 230 255
210 230 255
211 230 255
211 230 255
211 230 255
211 230 255
211 230 255
211 230 255
211 230 255
211 230 255
211 230 255
211 230 255
211 230 255
211 230 255
211 230 255
211 230 255
211 230 255
211 230 255
211 230 255
211 230 255
211 230 255
211 230 255
211 230 255
211 230 255
211 230 255
211 230 255
211 230 255
211 230 255
211 230 255
211 230 255
211 230 255
211 230 255
211 230 255
211 230 255
212 230 255
212 230 255
212 230 255
212 230 255
212 230 255
212 230 255
212 230 255
212 230 255
212 230 255
212 230 255
212 230 255
212 230 255
212 230 255
212 230 255
212 230 255
212 230 255
212 230 255
212 230 255
212 230 255
212 230 255
212 230 255
212 230 255
211 230 255
211 230 255
211 230 255
211 230 255
211 230 255
211 230 255
211 230 255
211 230 255
211 230 255
211 230 255
211 230 255
211 230 255
211 230 255
211 230 255
211 230 255
211 230 255
211 230 255
211 230 255
211 230 255
211 230 255
211 230 255
211 230 255
211 230 255
211 230 255
211 230 255
211 230 255
210 230 255
210 229 255
210 229 255
210 229 255
210 229 255
210 229 255
210 229 255
210 229 255
210 229 255
210 229 255
209 229 255
209 229 255
209 229 255
209 229 255
209 229 255
209 229 255
209 229 255
208 228 255
208 228 255
208 228 255
208 228 255
208 228 255
207 228 255
207 228 255
207 228 255
207 228 255
206 227 255
206 227 255
206 227 255
206 227 255
205 227 255
205 226 255
204 226 255
204 226 255
204 226 255
203 225 255
202 225 255
202 225 255
201 224 255
200 224 255
200 224 255
199 223 255
198 223 255
196 222 255
195 221 255
181 206 167
166 189 0
166 190 0
165 188 0
165 187 0
164 186 0
166 189 0
163 186 0
167 190 0
166 189 0
158 181 0
163 186 0
162 185 0
162 185 0
165 188 0
167 190 0
166 189 0
159 182 0
164 187 0
159 181 0
159 182 0
160 181 0
158 180 0
165 187 0
155 178 0
150 171 0
154 176 0
153 174 0
156 178 0
158 180 0
154 175 0
151 172 0
151 172 0
143 165 0
149 171 0
73 98 74
51 82 62
53 84 88
52 84 82
54 86 97
54 86 95
53 84 97
50 80 67
52 84 76
53 84 95
53 85 94
53 84 92
54 86 88
55 87 90
55 87 97
53 84 88
55 87 94
53 84 99
52 83 90
52 82 88
53 84 107
54 85 86
54 85 97
54 86 97
55 88 103
56 87 105
54 86 99
55 87 100
55 87 115
55 87 99
53 84 95
54 85 78
52 82 92
53 84 97
54 85 90
55 87 92
51 81 80
56 88 100
53 83 90
53 84 97
56 88 97
54 85 99
55 86 102
54 85 107
55 87 99
55 87 94
54 86 97
55 86 102
54 84 100
54 84 105
52 82 76
52 82 102
53 84 83
52 82 92
51 80 82
52 83 82
51 81 79
54 84 90
51 79 78
50 79 83
52 81 90
52 82 100
50 78 81
51 81 80
49 78 81
51 80 77
48 75 77
46 73 72
46 72 63
79 98 61
138 157 18
145 162 0
144 159 0
142 161 0
138 155 0
137 151 0
138 155 0
141 158 0
150 166 0
146 163 0
145 161 0
145 162 0
141 158 0
139 156 0
146 163 0
148 164 0
139 155 0
150 166 0
157 173 0
142 156 0
149 166 0
152 167 0
143 155 0
154 171 0
152 166 0
142 157 0
150 166 0
149 164 0
152 169 0
151 164 0
149 164 0
148 162 0
149 163 0
159 176 0
121 127 11
88 84 0
93 86 0
95 88 0
91 85 0
99 92 0
96 87 0
107 98 0
105 98 0
99 95 0
102 96 0
102 95 0
102 95 0
118 111 0
111 104 0
115 107 0
115 108 0
113 108 0
111 105 0
112 108 0
118 110 0
120 114 0
124 116 0
119 112 0
119 113 0
125 119 0
133 126 0
125 119 0
130 124 0
128 121 0
136 128 0
124 117 0
128 121 0
123 117 0
127 121 0
131 124 0
129 123 0
135 129 0
133 128 0
132 127 0
136 130 0
124 117 0
130 123 0
136 129 0
141 134 0
137 131 0
140 134 0
139 132 0
141 135 0
135 128 0
143 137 0
144 138 0
137 130 0
141 133 0
137 133 0
138 132 0
146 141 0
139 134 0
144 137 0
145 140 0
141 134 0
139 132 0
142 137 0
143 137 0
142 137 0
149 144 0
144 138 0
144 139 0
144 138 0
146 138 0
142 136 0
142 137 0
146 141 0
143 137 0
142 137 0
140 134 0
142 136 0
144 138 0
145 140 0
148 142 0
149 143 0
144 140 0
145 139 0
149 143 0
149 144 0
144 139 0
148 142 0
150 144 0
149 143 0
145 141 0
149 144 0
148 143 0
149 141 0
146 142 0
148 143 0
147 142 0
147 141 0
146 139 0
147 142 0
148 142 0
149 143 0
150 145 0
146 139 0
150 144 0
150 145 0
148 144 0
148 144 0
149 143 0
146 141 0
150 145 0
149 144 0
151 146 0
151 145 0
150 145 0
151 146 0
150 144 0
154 148 0
150 144 0
152 147 0
153 147 0
148 145 11
154 147 19
153 147 11
154 150 22
155 150 25
154 148 32
152 146 22
151 145 22
156 149 30
154 148 34
160 153 45
210 229 255
210 229 255
210 229 255
210 229 255
210 229 255
210 229 255
210 229 255
210 229 255
210 229 255
210 229 255
210 229 255
210 229 255
210 230 255
210 230 255
211 230 255
211 230 255
211 230 255
211 230 255
211 230 255
211 230 255
211 230 255
211 230 255
211 230 255
211 230 255
211 230 255
211 230 255
211 230 255
211 230 255
211 230 255
211 230 255
211 230 255
211 230 255
211 230 255
211 230 255
211 230 255
211 230 255
211 230 255
211 230 255
211 230 255
211 230 255
211 230 255
211 230 255
211 230 255
211 230 255
211 230 255
211 230 255
211 230 255
211 230 255
211 230 255
211 230 255
211 230 255
211 230 255
211 230 255
211 230 255
211 230 255
211 230 255
211 230 255
211 230 255
211 230 255
211 230 255
211 230 255
211 230 255
211 230 255
211 230 255
211 230 255
211 230 255
211 230 255
211 230 255
211 230 255
211 230 255
211 230 255
211 230 255
211 230 255
211 230 255
211 230 255
211 230 255
211 230 255
210 230 255
210 230 255
210 229 255
210 229 255
210 229 255
210 229 255
210 229 255
210 229 255
210 229 255
210 229 255
210 229 255
210 229 255
210 229 255
209 229 255
209 229 255
209 229 255
209 229 255
209 229 255
209 229 255
209 229 255
209 229 255
208 228 255
208 228 255
208 228 255
208 228 255
208 228 255
208 228 255
207 228 255
207 228 255
207 228 255
207 228 255
207 227 255
206 227 255
206 227 255
206 227 255
205 227 255
205 227 255
205 226 255
204 226 255
204 226 255
203 226 255
203 225 255
202 225 255
202 225 255
201 225 255
200 224 255
200 224 255
199 223 255
198 223 255
197 222 255
195 221 255
193 220 252
175 200 155
166 189 0
165 189 0
162 185 0
164 188 0
166 189 0
167 190 0
162 185 0
161 184 0
163 185 0
163 186 0
165 188 0
165 187 0
165 188 0
159 182 0
164 187 0
161 184 0
158 181 0
150 173 0
157 178 0
159 182 0
158 180 0
163 186 0
155 178 0
161 182 0
148 170 0
157 180 0
156 179 0
157 178 0
156 178 0
152 174 0
158 180 0
144 166 0
152 174 0
146 168 0
154 175 0
146 168 18
96 119 65
52 83 90
53 84 92
54 85 90
53 85 84
54 85 97
53 84 97
52 83 80
54 86 86
53 85 97
54 85 86
52 83 80
53 84 94
50 80 82
54 86 90
54 86 95
54 86 99
51 82 88
52 84 80
54 86 97
54 86 90
56 88 82
54 86 99
53 85 92
53 85 90
54 85 92
53 84 90
55 87 107
51 82 82
53 84 95
51 81 82
54 86 100
54 86 102
54 85 100
55 87 88
53 85 94
51 81 95
54 85 97
53 84 94
53 84 90
49 79 82
53 83 88
53 84 86
55 86 105
54 86 94
51 81 86
54 85 86
55 86 94
52 83 90
52 82 86
52 82 87
52 83 105
52 82 82
52 82 79
53 83 89
54 85 92
53 83 93
50 79 76
51 81 75
49 77 77
51 81 83
49 76 83
50 79 79
50 78 87
48 75 74
48 74 71
45 70 58
90 109 70
124 140 18
134 150 0
129 146 0
142 159 0
137 153 0
136 153 0
132 148 0
137 153 0
142 158 0
137 154 0
133 148 0
149 167 0
130 146 0
133 149 0
140 155 0
137 153 0
149 164 0
146 158 0
147 165 0
147 162 0
145 158 0
138 152 0
149 165 0
151 166 0
145 157 0
145 157 0
149 164 0
146 161 0
150 164 0
144 156 0
146 160 0
147 157 0
148 162 0
155 168 0
156 170 0
147 159 0
128 135 0
90 86 0
97 89 0
91 86 0
106 101 0
105 98 0
108 102 0
102 95 0
98 91 0
99 93 0
113 104 0
108 100 0
111 105 0
116 109 0
111 106 0
118 111 0
112 106 0
111 103 0
124 116 0
123 115 0
121 115 0
123 114 0
121 113 0
124 118 0
113 108 0
116 110 0
124 115 0
118 114 0
118 111 0
130 122 0
128 121 0
133 126 0
131 126 0
121 114 0
129 124 0
129 122 0
125 118 0
131 123 0
139 131 0
131 123 0
133 127 0
133 126 0
135 128 0
133 127 0
137 131 0
139 132 0
134 128 0
137 129 0
131 124 0
139 132 0
140 134 0
141 134 0
130 123 0
138 132 0
139 132 0
138 133 0
137 131 0
140 136 0
138 133 0
141 134 0
141 134 0
142 136 0
138 134 0
146 139 0
139 134 0
139 134 0
141 136 0
147 141 0
140 135 0
143 137 0
146 140 0
146 139 0
144 137 0
149 143 0
146 139 0
144 139 0
147 140 0
144 138 0
142 137 0
148 142 0
148 142 0
143 138 0
145 139 0
147 142 0
146 140 0
144 140 0
147 142 0
144 140 0
150 145 0
142 137 0
146 141 0
148 143 0
150 145 0
147 142 0
148 143 0
149 143 0
152 148 0
150 144 0
151 147 0
150 144 0
151 146 0
150 145 0
151 145 0
151 146 0
150 144 0
147 142 0
151 146 0
151 147 0
146 142 0
151 147 0
154 148 0
148 143 0
149 145 0
153 147 0
152 147 0
152 148 0
153 149 0
148 142 0
151 146 0
152 147 0
152 148 16
153 147 16
151 146 16
153 148 11
156 151 25
151 145 22
154 148 19
151 146 28
149 144 32
151 142 28
209 229 255
209 229 255
209 229 255
210 229 255
210 229 255
210 229 255
210 229 255
210 229 255
210 229 255
210 229 255
210 229 255
210 229 255
210 229 255
210 229 255
210 229 255
210 229 255
210 229 255
210 229 255
210 229 255
210 229 255
210 229 255
210 229 255
210 229 255
210 230 255
210 230 255
210 230 255
210 230 255
211 230 255
211 230 255
211 230 255
211 230 255
211 230 255
211 230 255
211 230 255
211 230 255
211 230 255
211 230 255
211 230 255
211 230 255
211 230 255
211 230 255
211 230 255
211 230 255
211 230 255
211 230 255
211 230 255
211 230 255
211 230 255
211 230 255
211 230 255
211 230 255
211 230 255
211 230 255
211 230 255
211 230 255
211 230 255
211 230 255
211 230 255
211 230 255
211 230 255
211 230 255
211 230 255
211 230 255
211 230 255
211 230 255
211 230 255
210 230 255
210 230 255
210 230 255
210 230 255
210 229 255
210 229 255
210 229 255
210 229 255
210 229 255
210 229 255
210 229 255
210 229 255
210 229 255
210 229 255
210 229 255
210 229 255
210 229 255
210 229 255
209 229 255
209 229 255
209 229 255
209 229 255
209 229 255
209 229 255
209 229 255
209 229 255
209 229 255
209 229 255
208 228 255
208 228 255
208 228 255
208 228 255
208 228 255
208 228 255
208 228 255
207 228 255
207 228 255
207 228 255
207 227 255
206 227 255
206 227 255
206 227 255
206 227 255
205 227 255
205 227 255
205 226 255
204 226 255
204 226 255
204 226 255
203 226 255
203 225 255
202 225 255
202 225 255
201 224 255
201 224 255
200 224 255
199 223 255
198 223 255
197 222 255
196 222 255
195 221 255
190 216 237
172 196 111
161 184 0
165 189 0
166 188 0
163 186 0
162 185 0
163 186 0
161 184 0
161 184 0
161 184 0
160 183 0
165 188 0
160 184 0
167 190 0
156 179 0
167 190 0
166 189 0
158 180 0
155 177 0
163 185 0
157 179 0
158 179 0
153 175 0
152 173 0
155 178 0
158 180 0
148 171 0
158 179 0
153 176 0
147 168 0
155 177 0
149 170 0
153 174 0
156 178 0
143 164 0
145 166 0
150 171 0
138 159 0
138 159 0
106 128 54
49 78 76
50 80 80
52 83 94
50 81 86
54 85 88
53 84 84
51 82 70
53 84 82
52 83 82
51 81 76
54 85 95
51 82 82
52 83 86
52 83 78
52 83 80
54 86 99
50 80 84
55 86 92
54 86 99
54 85 97
53 84 94
54 86 100
53 85 94
53 84 92
51 82 86
50 80 70
53 84 95
52 83 90
50 79 67
54 86 90
53 84 90
55 87 94
52 83 92
56 87 103
54 84 94
52 82 88
54 85 86
53 84 94
53 84 84
55 87 103
51 82 86
52 83 90
51 81 78
48 77 67
53 83 98
51 81 89
53 84 92
54 85 94
48 76 78
52 82 80
51 80 90
53 83 87
49 78 74
52 82 88
52 81 70
51 80 82
50 79 84
50 78 85
50 79 81
49 77 81
46 74 57
48 76 65
48 75 57
47 73 71
92 110 36
128 143 0
132 147 0
132 150 0
131 148 0
135 150 0
129 144 0
136 151 0
135 150 0
139 157 0
132 148 0
134 149 0
139 156 0
136 150 0
139 153 0
141 155 0
131 145 0
133 149 0
135 150 0
137 154 0
142 156 0
136 152 0
140 155 0
138 151 0
144 158 0
138 154 0
143 156 0
149 162 0
137 150 0
147 160 0
153 169 0
142 154 0
145 155 0
145 156 0
147 159 0
150 164 0
146 158 0
147 160 0
156 170 0
139 147 11
110 107 0
91 84 0
90 84 0
93 86 0
102 95 0
103 96 0
89 83 0
105 99 0
112 102 0
109 102 0
117 110 0
111 104 0
117 109 0
116 109 0
120 112 0
116 110 0
118 111 0
113 106 0
120 112 0
122 114 0
127 120 0
112 105 0
125 118 0
121 114 0
123 115 0
124 115 0
121 114 0
133 125 0
125 119 0
125 119 0
125 118 0
128 122 0
128 123 0
131 124 0
125 118 0
123 117 0
131 124 0
128 120 0
129 123 0
132 127 0
137 129 0
135 129 0
130 123 0
132 125 0
142 136 0
134 126 0
141 134 0
139 132 0
141 134 0
136 129 0
139 132 0
140 134 0
142 137 0
134 128 0
133 127 0
139 132 0
135 129 0
142 136 0
144 137 0
136 131 0
146 138 0
145 139 0
139 132 0
146 140 0
139 134 0
146 141 0
141 135 0
145 137 0
142 137 0
143 135 0
146 141 0
144 137 0
145 138 0
144 138 0
146 140 0
146 140 0
146 139 0
146 139 0
142 136 0
143 138 0
144 137 0
149 142 0
146 140 0
150 145 0
146 140 0
150 144 0
146 141 0
144 140 0
149 144 0
149 143 0
145 141 0
150 146 0
149 142 0
147 144 0
145 141 0
147 141 0
147 141 0
145 139 0
146 139 0
151 145 0
147 141 0
151 146 0
151 146 0
149 144 0
151 146 0
149 143 0
149 143 0
152 148 0
150 143 0
151 145 0
147 142 0
149 144 0
150 146 0
149 144 0
151 146 0
153 147 0
150 143 0
151 146 0
152 148 0
151 146 0
153 148 0
149 143 0
153 148 19
150 144 19
149 143 16
153 147 30
151 145 16
155 149 37
209 229 255
209 229 255
209 229 255
209 229 255
209 229 255
209 229 255
209 229 255
209 229 255
209 229 255
209 229 255
209 229 255
209 229 255
210 229 255
210 229 255
210 229 255
210 229 255
210 229 255
210 229 255
210 229 255
210 229 255
210 229 255
210 229 255
210 229 255
210 229 255
210 229 255
210 229 255
210 229 255
210 229 255
210 229 255
210 229 255
210 229 255
210 229 255
210 229 255
210 229 255
210 229 255
210 229 255
210 229 255
210 229 255
210 229 255
210 229 255
210 229 255
210 229 255
210 229 255
210 229 255
210 229 255
210 229 255
210 229 255
210 229 255
210 229 255
210 229 255
210 229 255
210 229 255
210 229 255
210 229 255
210 229 255
210 229 255
210 229 255
210 229 255
210 229 255
210 229 255
210 229 255
210 229 255
210 229 255
210 229 255
210 229 255
210 229 255
210 229 255
210 229 255
210 229 255
210 229 255
210 229 255
210 229 255
210 229 255
210 229 255
210 229 255
210 229 255
210 229 255
210 229 255
209 229 255
209 229 255
209 229 255
209 229 255
209 229 255
209 229 255
209 229 255
209 229 255
209 229 255
209 229 255
209 229 255
208 228 255
208 228 255
208 228 255
208 228 255
208 228 255
208 228 255
208 228 255
208 228 255
207 228 255
207 228 255
207 228 255
207 228 255
207 227 255
206 227 255
206 227 255
206 227 255
206 227 255
205 227 255
205 227 255
205 226 255
205 226 255
204 226 255
204 226 255
204 226 255
203 226 255
203 225 255
202 225 255
202 225 255
201 224 255
200 224 255
200 224 255
199 223 255
198 223 255
197 222 255
196 222 255
195 221 255
194 220 255
187 213 234
171 195 99
168 191 0
164 188 0
163 186 0
160 183 0
168 190 0
159 182 0
163 186 0
165 188 0
158 181 0
166 188 0
165 188 0
164 186 0
165 188 0
161 184 0
152 175 0
158 181 0
157 179 0
158 181 0
157 180 0
163 185 0
156 178 0
154 176 0
151 173 0
158 180 0
149 170 0
153 175 0
151 173 0
153 175 0
151 172 0
152 173 0
147 169 0
149 172 0
152 173 0
141 162 0
143 164 0
150 171 0
139 160 0
145 165 0
139 160 0
137 157 0
122 143 31
55 84 78
51 81 86
54 86 82
51 82 90
51 81 80
53 84 86
50 80 74
50 81 95
50 80 72
52 83 86
51 82 78
55 87 110
52 83 95
52 84 82
53 84 94
53 84 92
54 86 94
53 84 99
55 86 102
54 85 86
52 82 78
57 89 108
53 83 95
54 86 97
52 83 88
52 83 90
56 88 102
53 84 88
52 83 84
52 82 78
51 82 78
54 85 92
53 84 86
50 80 90
54 85 103
53 83 90
54 85 90
53 84 92
53 83 92
51 81 72
54 85 101
55 86 100
51 80 90
52 83 86
52 83 84
51 79 84
51 81 91
50 80 93
49 78 68
52 83 86
51 80 80
53 84 95
49 78 76
47 75 77
50 79 87
50 78 79
50 79 84
50 79 81
47 74 74
48 76 74
49 76 82
53 75 51
108 125 19
123 139 0
119 134 0
121 135 0
133 147 0
132 147 0
130 144 0
124 139 0
128 143 0
139 155 0
131 147 0
134 151 0
133 151 0
131 144 0
125 139 0
133 150 0
137 151 0
140 156 0
132 147 0
134 151 0
138 152 0
139 152 0
142 155 0
141 155 0
143 157 0
146 159 0
141 154 0
148 161 0
140 149 0
137 151 0
149 159 0
141 154 0
143 157 0
144 155 0
132 141 0
144 156 0
147 160 0
148 161 0
144 156 0
150 162 0
145 157 0
144 151 0
104 101 0
98 90 0
90 84 0
99 93 0
106 97 0
98 90 0
101 95 0
109 101 0
109 101 0
103 96 0
110 101 0
104 96 0
110 101 0
113 102 0
116 107 0
120 111 0
116 110 0
106 99 0
119 109 0
120 113 0
121 115 0
131 122 0
111 104 0
121 113 0
116 108 0
129 121 0
123 115 0
123 115 0
124 116 0
133 124 0
127 119 0
126 120 0
131 124 0
127 119 0
124 116 0
129 124 0
137 129 0
137 129 0
128 120 0
134 126 0
131 124 0
128 120 0
132 125 0
138 131 0
138 132 0
137 130 0
131 124 0
131 125 0
135 128 0
135 127 0
138 133 0
138 132 0
137 131 0
140 133 0
139 134 0
136 130 0
143 136 0
139 131 0
143 136 0
144 136 0
138 132 0
142 136 0
143 136 0
144 136 0
141 135 0
146 139 0
143 136 0
141 135 0
142 137 0
144 138 0
147 140 0
145 138 0
141 134 0
141 133 0
145 139 0
145 138 0
143 136 0
147 141 0
143 137 0
145 138 0
146 141 0
143 138 0
145 139 0
143 136 0
150 143 0
148 144 0
144 138 0
149 141 0
145 140 0
146 140 0
145 140 0
148 142 0
145 140 0
145 138 0
149 144 0
148 142 0
144 139 0
148 141 0
150 144 0
148 142 0
149 142 0
146 140 0
148 143 0
147 143 0
148 144 0
149 143 0
150 145 0
150 144 0
149 144 0
150 144 0
152 146 0
149 144 0
150 143 0
151 145 0
151 145 0
148 144 0
155 149 0
151 147 0
150 145 0
152 147 11
151 145 16
150 144 16
147 142 22
152 145 22
150 145 16
151 145 19
150 144 19
208 228 255
208 228 255
208 228 255
209 229 255
209 229 255
209 229 255
209 229 255
209 229 255
209 229 255
209 229 255
209 229 255
209 229 255
209 229 255
209 229 255
209 229 255
209 229 255
209 229 255
209 229 255
209 229 255
209 229 255
209 229 255
209 229 255
209 229 255
210 229 255
210 229 255
210 229 255
210 229 255
210 229 255
210 229 255
210 229 255
210 229 255
210 229 255
210 229 255
210 229 255
210 229 255
210 229 255
210 229 255
210 229 255
210 229 255
210 229 255
210 229 255
210 229 255
210 229 255
210 229 255
210 229 255
210 229 255
210 229 255
210 229 255
210 229 255
210 229 255
210 229 255
210 229 255
210 229 255
210 229 255
210 229 255
210 229 255
210 229 255
210 229 255
210 229 255
210 229 255
210 229 255
210 229 255
210 229 255
210 229 255
210 229 255
210 229 255
210 229 255
210 229 255
209 229 255
209 229 255
209 229 255
209 229 255
209 229 255
209 229 255
209 229 255
209 229 255
209 229 255
209 229 255
209 229 255
209 229 255
209 229 255
209 229 255
209 229 255
209 228 255
208 228 255
208 228 255
208 228 255
208 228 255
208 228 255
208 228 255
208 228 255
208 228 255
207 228 255
207 228 255
207 228 255
207 228 255
207 228 255
207 227 255
206 227 255
206 227 255
206 227 255
206 227 255
206 227 255
205 227 255
205 227 255
205 226 255
205 226 255
204 226 255
204 226 255
204 226 255
203 226 255
203 225 255
202 225 255
202 225 255
202 225 255
201 224 255
201 224 255
200 224 255
199 223 255
198 223 255
198 223 255
197 222 255
196 221 255
194 221 255
193 220 255
177 204 201
166 191 62
166 190 0
160 183 0
162 186 0
168 192 0
164 188 0
165 189 0
157 181 0
162 185 0
171 194 0
165 187 0
156 180 0
157 181 0
160 183 0
159 182 0
159 182 0
158 180 0
156 178 0
160 182 0
162 184 0
156 178 0
149 173 0
159 181 0
159 182 0
151 173 0
158 179 0
154 176 0
155 176 0
152 173 0
150 171 0
150 171 0
149 170 0
149 170 0
140 161 0
139 159 0
146 167 0
151 171 0
142 162 0
148 170 0
139 159 0
134 155 0
134 155 0
135 155 0
128 148 40
78 102 72
50 80 72
50 80 90
50 81 78
50 80 74
51 81 84
53 83 92
54 86 80
49 78 65
50 81 84
49 80 72
52 83 97
54 86 84
52 83 80
54 85 92
53 84 92
50 81 84
53 84 84
52 83 82
52 83 88
53 84 94
50 80 86
50 80 67
53 84 92
53 83 86
54 85 84
50 80 80
53 84 95
55 87 99
52 82 80
51 81 90
56 87 105
51 82 76
49 78 70
54 86 84
51 80 80
52 83 82
54 85 100
53 83 95
52 82 80
53 83 86
51 81 76
53 83 86
49 79 84
51 80 84
49 78 65
52 82 85
51 80 80
51 80 76
48 76 76
47 74 75
48 76 84
48 76 81
49 77 65
49 77 83
49 77 72
47 74 63
47 75 60
45 70 66
64 85 57
96 113 32
121 136 0
118 134 0
124 139 0
119 136 0
133 149 0
112 126 0
120 135 0
121 138 0
130 146 0
117 131 0
128 144 0
135 150 0
135 152 0
128 141 0
135 148 0
141 154 0
140 154 0
133 149 0
135 149 0
135 148 0
139 153 0
140 152 0
140 152 0
140 153 0
131 143 0
136 150 0
135 148 0
141 151 0
126 138 0
133 144 0
143 155 0
137 147 0
125 135 0
140 152 0
133 140 0
137 148 0
150 160 0
148 159 0
138 148 0
133 141 0
143 153 0
147 156 0
145 152 0
109 110 0
94 85 0
91 83 0
93 85 0
98 90 0
103 96 0
100 90 0
106 96 0
106 97 0
103 94 0
117 110 0
106 98 0
114 105 0
117 109 0
108 102 0
119 110 0
120 111 0
113 107 0
119 111 0
112 103 0
114 106 0
114 106 0
123 116 0
120 111 0
124 115 0
122 114 0
123 114 0
116 110 0
124 118 0
132 126 0
130 122 0
131 125 0
129 118 0
130 122 0
130 121 0
132 126 0
129 120 0
129 122 0
132 125 0
120 113 0
135 126 0
141 134 0
137 131 0
134 128 0
137 129 0
138 132 0
138 129 0
136 128 0
138 132 0
139 132 0
137 130 0
139 132 0
137 129 0
140 132 0
135 127 0
136 128 0
138 132 0
141 133 0
138 129 0
138 130 0
141 134 0
145 138 0
142 136 0
137 129 0
143 136 0
145 138 0
144 136 0
140 131 0
139 131 0
138 131 0
143 134 0
151 143 0
146 140 0
143 137 0
142 135 0
149 142 0
146 140 0
143 137 0
147 140 0
149 142 0
145 137 0
147 141 0
145 140 0
147 141 0
146 139 0
148 141 0
147 141 0
144 140 0
144 136 0
149 143 0
147 139 0
147 141 0
150 145 0
150 143 0
151 144 0
148 142 0
148 142 0
145 137 0
148 142 0
149 144 0
148 142 0
150 144 0
148 141 0
148 142 0
148 142 0
151 147 0
149 144 0
150 145 0
152 147 0
149 144 0
147 140 0
153 146 0
150 143 0
149 144 0
148 144 0
148 142 0
153 146 0
148 143 0
147 141 0
148 142 11
151 146 11
146 140 16
145 141 11
144 138 22
149 143 16
147 142 28
208 228 255
208 228 255
208 228 255
208 228 255
208 228 255
208 228 255
208 228 255
208 228 255
208 228 255
208 228 255
208 228 255
209 229 255
209 229 255
209 229 255
209 229 255
209 229 255
209 229 255
209 229 255
209 229 255
209 229 255
209 229 255
209 229 255
209 229 255
209 229 255
209 229 255
209 229 255
209 229 255
209 229 255
209 229 255
209 229 255
209 229 255
209 229 255
209 229 255
209 229 255
209 229 255
209 229 255
209 229 255
209 229 255
209 229 255
209 229 255
209 229 255
209 229 255
209 229 255
209 229 255
209 229 255
209 229 255
209 229 255
209 229 255
209 229 255
209 229 255
209 229 255
209 229 255
209 229 255
209 229 255
209 229 255
209 229 255
209 229 255
209 229 255
209 229 255
209 229 255
209 229 255
209 229 255
209 229 255
209 229 255
209 229 255
209 229 255
209 229 255
209 229 255
209 229 255
209 229 255
209 229 255
209 229 255
209 229 255
209 229 255
209 229 255
209 229 255
209 228 255
208 228 255
208 228 255
208 228 255
208 228 255
208 228 255
208 228 255
208 228 255
208 228 255
208 228 255
208 228 255
208 228 255
207 228 255
207 228 255
207 228 255
207 228 255
207 228 255
207 227 255
207 227 255
206 227 255
206 227 255
206 227 255
206 227 255
206 227 255
205 227 255
205 227 255
205 226 255
205 226 255
204 226 255
204 226 255
204 226 255
203 226 255
203 225 255
203 225 255
202 225 255
202 225 255
201 225 255
201 224 255
200 224 255
200 224 255
199 223 255
198 223 255
198 223 255
197 222 255
196 222 255
195 221 255
193 220 255
191 219 254
178 205 165
165 189 0
168 191 0
164 188 0
166 191 0
162 185 0
159 183 0
164 188 0
162 186 0
159 182 0
162 186 0
161 185 0
156 180 0
157 180 0
158 181 0
156 179 0
157 179 0
156 179 0
157 180 0
159 182 0
163 185 0
156 179 0
153 175 0
156 179 0
155 177 0
155 177 0
148 170 0
154 176 0
155 178 0
140 161 0
143 164 0
141 162 0
148 169 0
145 167 0
142 164 0
143 165 0
140 160 0
141 161 0
146 167 0
136 157 0
140 160 0
128 147 0
124 144 0
137 157 0
126 146 0
132 151 0
131 150 0
100 121 51
55 83 76
49 79 86
51 81 78
51 82 92
52 82 88
52 82 72
51 82 80
52 83 92
51 81 82
54 85 92
52 82 76
51 82 86
51 81 86
53 84 86
50 80 74
52 83 97
53 84 92
49 78 80
51 80 82
52 83 78
52 83 76
49 79 76
52 83 82
50 81 76
52 82 86
55 87 107
51 81 84
52 82 86
49 79 82
51 81 78
52 83 78
52 82 80
51 81 80
51 81 88
50 80 76
50 79 71
51 81 82
51 81 88
53 84 90
52 81 86
50 79 76
51 81 79
51 80 85
52 82 90
51 80 77
48 77 80
49 78 70
48 77 72
48 75 75
51 80 78
50 79 82
49 76 79
51 79 77
47 73 76
49 76 87
43 67 70
81 97 52
111 122 0
112 125 0
123 137 0
118 134 0
111 125 0
117 132 0
118 133 0
122 136 0
121 136 0
121 134 0
122 137 0
126 141 0
129 143 0
135 150 0
129 143 0
126 138 0
133 147 0
130 143 0
131 145 0
137 153 0
132 146 0
134 145 0
139 154 0
130 144 0
146 159 0
132 144 0
121 130 0
126 137 0
136 148 0
138 149 0
139 150 0
131 143 0
130 141 0
137 145 0
118 126 0
133 142 0
133 144 0
142 155 0
133 142 0
142 150 0
137 145 0
134 142 0
140 146 0
147 155 0
134 142 0
139 148 0
113 116 0
87 81 0
96 89 0
81 76 0
96 86 0
103 93 0
90 83 0
90 84 0
116 104 0
98 92 0
108 99 0
111 102 0
115 106 0
105 98 0
111 104 0
114 104 0
119 109 0
110 103 0
115 107 0
109 101 0
113 106 0
117 111 0
116 108 0
121 115 0
120 114 0
118 110 0
115 109 0
127 121 0
124 114 0
129 121 0
132 125 0
130 123 0
132 123 0
126 118 0
129 122 0
133 124 0
128 120 0
127 121 0
132 124 0
132 124 0
136 127 0
129 121 0
133 124 0
131 124 0
134 127 0
135 127 0
134 127 0
134 127 0
139 132 0
131 125 0
138 131 0
131 123 0
132 127 0
139 133 0
138 129 0
139 134 0
139 132 0
141 134 0
138 131 0
137 129 0
142 136 0
141 135 0
140 133 0
139 130 0
138 130 0
139 131 0
145 138 0
147 141 0
146 139 0
146 139 0
142 136 0
147 139 0
149 141 0
141 135 0
143 137 0
147 138 0
144 139 0
146 140 0
140 134 0
147 141 0
145 139 0
145 138 0
147 140 0
148 143 0
146 139 0
144 138 0
145 139 0
149 142 0
147 142 0
146 140 0
150 145 0
148 142 0
146 139 0
150 145 0
147 142 0
148 142 0
148 141 0
151 145 0
151 144 0
149 144 0
147 142 0
148 143 0
147 141 0
148 142 0
148 141 0
150 145 0
148 142 0
153 146 0
151 144 0
154 149 0
150 144 0
147 141 0
152 144 0
147 139 0
149 144 0
149 144 0
150 144 0
149 144 0
149 145 0
145 140 0
150 144 11
152 145 25
147 143 19
150 145 22
150 144 16
207 228 255
207 228 255
207 228 255
208 228 255
208 228 255
208 228 255
208 228 255
208 228 255
208 228 255
208 228 255
208 228 255
208 228 255
208 228 255
208 228 255
208 228 255
208 228 255
208 228 255
208 228 255
208 228 255
208 228 255
208 228 255
208 228 255
209 228 255
209 229 255
209 229 255
209 229 255
209 229 255
209 229 255
209 229 255
209 229 255
209 229 255
209 229 255
209 229 255
209 229 255
209 229 255
209 229 255
209 229 255
209 229 255
209 229 255
209 229 255
209 229 255
209 229 255
209 229 255
209 229 255
209 229 255
209 229 255
209 229 255
209 229 255
209 229 255
209 229 255
209 229 255
209 229 255
209 229 255
209 229 255
209 229 255
209 229 255
209 229 255
209 229 255
209 229 255
209 229 255
209 229 255
209 229 255
209 229 255
209 229 255
209 229 255
209 229 255
209 228 255
208 228 255
208 228 255
208 228 255
208 228 255
208 228 255
208 228 255
208 228 255
208 228 255
208 228 255
208 228 255
208 228 255
208 228 255
208 228 255
208 228 255
208 228 255
207 228 255
207 228 255
207 228 255
207 228 255
207 228 255
207 228 255
207 228 255
207 227 255
206 227 255
206 227 255
206 227 255
206 227 255
206 227 255
206 227 255
205 227 255
205 227 255
205 227 255
205 226 255
205 226 255
204 226 255
204 226 255
204 226 255
203 226 255
203 225 255
203 225 255
202 225 255
202 225 255
202 225 255
201 224 255
201 224 255
200 224 255
200 224 255
199 223 255
198 223 255
198 223 255
197 222 255
196 222 255
195 221 255
194 220 255
192 220 255
185 213 228
164 188 92
166 191 0
164 188 0
167 192 0
159 183 0
165 188 0
166 190 0
165 188 0
159 182 0
160 184 0
166 190 0
153 176 0
164 187 0
157 181 0
161 184 0
162 185 0
159 183 0
153 176 0
147 170 0
162 184 0
150 173 0
148 170 0
153 176 0
147 170 0
144 166 0
152 175 0
158 179 0
150 173 0
144 165 0
157 180 0
151 172 0
144 166 0
144 165 0
142 164 0
140 161 0
148 168 0
139 160 0
132 152 0
143 163 0
146 167 0
147 167 0
139 160 0
132 152 0
129 149 0
126 145 0
135 154 0
122 142 0
123 142 0
115 134 0
111 130 25
71 95 54
47 76 67
53 83 97
49 78 78
51 82 88
49 78 72
49 78 70
52 84 84
50 80 88
50 79 82
52 83 94
51 80 78
53 84 78
51 81 86
52 83 94
52 83 99
49 78 67
53 84 80
51 80 84
51 81 78
52 82 82
50 80 74
50 79 86
53 83 90
51 81 74
52 83 84
54 85 100
52 82 82
51 81 80
54 86 92
50 79 76
50 79 74
52 82 88
49 79 76
51 81 94
47 76 74
52 82 78
49 78 74
50 80 72
51 81 76
51 81 90
48 76 70
51 81 78
48 76 78
51 80 86
49 78 68
46 74 76
47 74 75
49 76 71
48 75 78
50 77 80
49 76 74
44 70 57
75 93 31
92 107 18
91 105 0
98 109 0
96 107 0
106 118 0
111 123 0
116 130 0
119 131 0
115 131 0
116 126 0
121 134 0
112 126 0
120 135 0
114 126 0
126 141 0
128 139 0
122 137 0
126 139 0
121 134 0
127 141 0
125 138 0
129 142 0
131 143 0
131 143 0
125 137 0
128 138 0
126 136 0
134 146 0
130 140 0
130 140 0
134 147 0
123 132 0
131 143 0
144 157 0
140 152 0
136 147 0
136 145 0
132 142 0
130 140 0
145 153 0
126 131 0
137 147 0
140 147 0
137 144 0
130 136 0
136 142 0
143 149 0
141 146 0
132 134 0
129 136 0
93 87 0
87 80 0
99 88 0
92 83 0
92 83 0
94 87 0
107 97 0
96 89 0
99 92 0
116 106 0
111 103 0
112 100 0
114 105 0
117 107 0
117 108 0
124 114 0
110 101 0
115 106 0
119 111 0
125 116 0
125 117 0
123 114 0
127 119 0
125 116 0
122 113 0
124 117 0
120 113 0
129 119 0
126 117 0
136 128 0
129 120 0
130 122 0
120 113 0
126 118 0
128 120 0
138 129 0
136 127 0
130 126 0
133 126 0
138 131 0
127 118 0
133 126 0
136 127 0
138 130 0
134 128 0
138 131 0
134 126 0
136 126 0
136 128 0
136 128 0
138 133 0
135 128 0
137 128 0
139 131 0
135 128 0
144 137 0
138 131 0
139 132 0
144 136 0
138 130 0
138 132 0
142 134 0
143 136 0
142 135 0
143 136 0
146 137 0
140 135 0
147 138 0
141 134 0
144 137 0
143 137 0
148 140 0
142 136 0
141 133 0
141 134 0
140 134 0
146 139 0
148 143 0
146 139 0
148 142 0
148 141 0
147 141 0
147 140 0
146 140 0
146 139 0
147 139 0
142 136 0
148 142 0
143 137 0
143 137 0
144 138 0
148 141 0
148 143 0
148 141 0
151 145 0
146 140 0
151 147 0
149 143 0
146 139 0
149 142 0
152 145 0
150 144 0
151 145 0
146 139 0
149 145 0
146 140 0
152 147 0
150 145 0
150 144 0
148 140 0
151 147 0
151 145 0
148 142 0
147 141 0
147 141 0
148 142 0
148 141 0
149 145 0
148 144 16
146 140 16
144 138 16
142 137 11
147 140 28
207 228 255
207 228 255
207 228 255
207 228 255
207 228 255
207 228 255
207 228 255
207 228 255
207 228 255
207 228 255
207 228 255
208 228 255
208 228 255
208 228 255
208 228 255
208 228 255
208 228 255
208 228 255
208 228 255
208 228 255
208 228 255
208 228 255
208 228 255
208 228 255
208 228 255
208 228 255
208 228 255
208 228 255
208 228 255
208 228 255
208 228 255
208 228 255
208 228 255
208 228 255
208 228 255
208 228 255
208 228 255
208 228 255
208 228 255
208 228 255
208 228 255
208 228 255
208 228 255
208 228 255
208 228 255
208 228 255
209 228 255
209 228 255
208 228 255
208 228 255
208 228 255
208 228 255
208 228 255
208 228 255
208 228 255
208 228 255
208 228 255
208 228 255
208 228 255
208 228 255
208 228 255
208 228 255
208 228 255
208 228 255
208 228 255
208 228 255
208 228 255
208 228 255
208 228 255
208 228 255
208 228 255
208 228 255
208 228 255
208 228 255
208 228 255
207 228 255
207 228 255
207 228 255
207 228 255
207 228 255
207 228 255
207 228 255
207 228 255
207 227 255
207 227 255
206 227 255
206 227 255
206 227 255
206 227 255
206 227 255
206 227 255
206 227 255
205 227 255
205 227 255
205 227 255
205 226 255
205 226 255
204 226 255
204 226 255
204 226 255
204 226 255
203 226 255
203 225 255
203 225 255
202 225 255
202 225 255
202 225 255
201 225 255
201 224 255
200 224 255
200 224 255
199 223 255
199 223 255
198 223 255
197 222 255
197 222 255
196 222 255
195 221 255
194 220 255
192 220 255
190 219 255
179 207 198
166 190 25
170 194 0
162 186 0
160 184 0
158 183 0
167 192 0
162 186 0
166 190 0
165 189 0
161 184 0
160 184 0
159 184 0
161 185 0
154 177 0
158 182 0
160 182 0
154 178 0
158 180 0
159 183 0
154 178 0
158 181 0
163 186 0
148 170 0
148 171 0
152 174 0
154 176 0
152 173 0
154 176 0
159 182 0
147 170 0
142 163 0
147 168 0
152 174 0
139 161 0
137 158 0
145 166 0
145 166 0
143 163 0
134 155 0
130 151 0
135 156 0
128 147 0
138 157 0
129 148 0
119 138 0
123 143 0
120 139 0
120 138 0
126 145 0
113 132 0
106 124 0
116 133 0
106 124 31
67 91 54
47 76 57
48 77 76
47 76 70
48 77 67
52 83 76
51 81 80
52 83 94
50 81 78
51 81 76
51 81 70
49 78 80
53 83 92
48 76 84
48 77 57
50 80 90
49 78 70
51 81 72
52 83 88
52 83 78
53 83 86
51 81 74
48 77 62
53 83 86
49 78 65
52 83 82
51 81 79
50 80 74
50 79 76
48 77 72
51 81 65
50 80 84
50 80 77
49 78 76
48 76 74
51 82 74
50 79 78
49 78 74
46 72 72
50 78 71
51 80 87
48 75 88
51 81 82
50 79 70
48 76 76
47 74 72
44 70 65
47 73 67
47 74 67
52 75 57
88 101 36
104 118 0
100 111 0
98 110 0
104 117 0
96 108 0
112 125 0
108 119 0
107 120 0
112 124 0
109 121 0
104 119 0
122 137 0
116 129 0
117 131 0
113 126 0
121 134 0
110 124 0
110 124 0
124 136 0
129 144 0
125 139 0
118 129 0
118 132 0
123 135 0
127 140 0
126 139 0
133 146 0
132 144 0
132 143 0
115 125 0
127 139 0
125 133 0
127 137 0
119 129 0
131 141 0
126 135 0
130 140 0
129 139 0
129 138 0
127 137 0
130 138 0
122 131 0
131 139 0
135 140 0
132 141 0
137 141 0
122 126 0
136 142 0
137 143 0
135 141 0
135 139 0
135 141 0
112 107 0
94 85 0
90 83 0
85 78 0
95 85 0
99 90 0
101 91 0
99 91 0
100 91 0
111 100 0
104 96 0
99 91 0
105 96 0
119 108 0
118 109 0
115 104 0
113 103 0
120 110 0
125 114 0
125 116 0
117 108 0
126 118 0
116 108 0
113 105 0
120 111 0
118 109 0
133 125 0
123 113 0
129 120 0
127 119 0
136 126 0
127 117 0
125 117 0
126 116 0
131 124 0
127 119 0
129 119 0
128 119 0
132 124 0
134 126 0
126 117 0
131 124 0
129 119 0
137 130 0
137 129 0
132 123 0
142 134 0
134 127 0
135 128 0
142 134 0
131 122 0
134 125 0
140 133 0
141 132 0
128 121 0
138 130 0
141 133 0
136 127 0
141 134 0
135 128 0
143 135 0
142 134 0
143 133 0
143 136 0
143 137 0
143 134 0
140 131 0
137 129 0
138 130 0
142 135 0
138 131 0
143 136 0
144 138 0
142 136 0
144 134 0
146 139 0
144 136 0
146 138 0
145 139 0
142 136 0
148 141 0
146 140 0
146 138 0
141 135 0
148 141 0
143 135 0
143 138 0
145 139 0
147 140 0
150 145 0
147 140 0
146 140 0
148 141 0
147 140 0
149 142 0
148 143 0
148 141 0
150 144 0
149 143 0
147 139 0
149 144 0
149 143 0
152 143 0
151 145 0
150 141 0
149 143 0
147 139 0
149 143 0
149 143 0
152 146 0
147 141 0
147 141 0
150 144 0
142 138 0
145 140 0
147 142 0
139 135 0
145 138 0
147 144 0
141 136 16
146 140 25
142 135 22
206 227 255
206 227 255
206 227 255
206 227 255
207 227 255
207 227 255
207 227 255
207 228 255
207 228 255
207 228 255
207 228 255
207 228 255
207 228 255
207 228 255
207 228 255
207 228 255
207 228 255
207 228 255
207 228 255
207 228 255
207 228 255
208 228 255
208 228 255
208 228 255
208 228 255
208 228 255
208 228 255
208 228 255
208 228 255
208 228 255
208 228 255
208 228 255
208 228 255
208 228 255
208 228 255
208 228 255
208 228 255
208 228 255
208 228 255
208 228 255
208 228 255
208 228 255
208 228 255
208 228 255
208 228 255
208 228 255
208 228 255
208 228 255
208 228 255
208 228 255
208 228 255
208 228 255
208 228 255
208 228 255
208 228 255
208 228 255
208 228 255
208 228 255
208 228 255
208 228 255
208 228 255
208 228 255
208 228 255
208 228 255
208 228 255
207 228 255
207 228 255
207 228 255
207 228 255
207 228 255
207 228 255
207 228 255
207 228 255
207 228 255
207 228 255
207 228 255
207 228 255
207 227 255
207 227 255
206 227 255
206 227 255
206 227 255
206 227 255
206 227 255
206 227 255
206 227 255
206 227 255
205 227 255
205 227 255
205 227 255
205 227 255
205 226 255
205 226 255
204 226 255
204 226 255
204 226 255
204 226 255
203 226 255
203 226 255
203 225 255
203 225 255
202 225 255
202 225 255
202 225 255
201 225 255
201 224 255
200 224 255
200 224 255
200 224 255
199 223 255
199 223 255
198 223 255
197 222 255
197 222 255
196 222 255
195 221 255
194 221 255
192 220 255
191 219 255
186 214 238
166 192 105
165 190 0
164 189 0
165 190 0
157 182 0
160 184 0
161 185 0
161 186 0
164 187 0
160 184 0
159 183 0
156 179 0
160 183 0
164 188 0
159 183 0
155 178 0
159 182 0
160 183 0
157 180 0
155 178 0
155 177 0
159 182 0
155 177 0
161 183 0
156 178 0
160 182 0
150 172 0
152 174 0
146 167 0
147 168 0
158 180 0
143 165 0
142 164 0
148 170 0
146 167 0
149 170 0
148 169 0
139 159 0
140 161 0
137 158 0
132 152 0
140 159 0
147 166 0
128 147 0
124 144 0
140 160 0
131 150 0
131 149 0
126 145 0
127 145 0
126 144 0
113 130 0
102 118 0
117 133 0
108 126 0
107 124 18
91 108 40
61 86 67
46 75 67
48 76 62
49 78 67
48 77 74
47 75 84
46 75 70
50 81 74
48 76 74
49 78 76
51 81 82
50 80 78
49 78 78
52 82 70
48 77 82
49 78 84
48 77 51
51 81 76
50 79 78
49 78 78
52 82 90
50 80 84
48 77 80
47 76 62
49 78 65
52 81 84
49 77 74
51 80 86
45 72 67
51 81 84
50 79 74
47 75 78
47 75 80
48 77 62
50 80 72
50 79 80
48 76 76
44 69 65
47 73 67
45 71 63
49 76 76
45 71 60
47 74 73
42 67 65
43 68 57
50 71 57
70 85 44
93 102 0
104 115 0
108 121 0
107 120 0
92 104 0
101 114 0
103 115 0
102 113 0
111 123 0
105 118 0
105 118 0
111 125 0
109 123 0
103 117 0
115 130 0
117 131 0
116 128 0
117 129 0
130 144 0
128 141 0
120 132 0
123 135 0
122 133 0
120 132 0
131 144 0
116 126 0
117 127 0
125 134 0
135 146 0
118 132 0
121 132 0
133 146 0
133 144 0
127 139 0
123 135 0
120 128 0
122 132 0
129 139 0
132 138 0
138 147 0
136 143 0
139 147 0
119 128 0
127 133 0
125 129 0
129 134 0
121 129 0
127 130 0
123 127 0
140 149 0
134 138 0
128 131 0
119 123 0
135 139 0
125 127 0
124 125 0
81 76 0
82 75 0
91 83 0
93 83 0
85 75 0
94 83 0
96 89 0
96 87 0
104 94 0
104 97 0
101 91 0
121 110 0
103 95 0
113 102 0
114 104 0
109 100 0
121 111 0
117 105 0
110 100 0
123 111 0
119 110 0
124 115 0
119 111 0
125 115 0
116 105 0
124 115 0
127 117 0
126 116 0
121 109 0
132 123 0
129 118 0
125 115 0
129 118 0
133 124 0
129 120 0
128 119 0
132 123 0
140 129 0
131 123 0
135 124 0
132 125 0
126 118 0
137 129 0
135 126 0
138 128 0
137 128 0
134 125 0
135 127 0
139 129 0
137 127 0
139 129 0
138 130 0
135 129 0
140 132 0
136 127 0
141 132 0
140 131 0
134 128 0
143 135 0
141 134 0
139 131 0
145 135 0
143 134 0
143 135 0
135 127 0
140 133 0
146 138 0
140 132 0
141 134 0
145 137 0
143 133 0
143 138 0
138 129 0
142 132 0
145 138 0
145 136 0
149 141 0
150 142 0
145 138 0
146 139 0
148 141 0
143 134 0
147 140 0
149 144 0
146 141 0
145 140 0
144 138 0
147 140 0
146 139 0
149 142 0
142 135 0
147 139 0
146 140 0
146 142 0
147 141 0
149 142 0
144 137 0
148 141 0
149 142 0
147 140 0
149 142 0
149 143 0
149 142 0
148 140 0
149 142 0
148 142 0
148 142 0
149 142 0
142 136 0
148 142 0
147 141 0
145 138 0
146 140 0
141 135 0
144 137 11
141 137 11
142 136 11
148 142 19
138 133 16
146 140 32
206 227 255
206 227 255
206 227 255
206 227 255
206 227 255
206 227 255
206 227 255
206 227 255
206 227 255
206 227 255
206 227 255
206 227 255
206 227 255
207 227 255
207 227 255
207 227 255
207 227 255
207 228 255
207 228 255
207 228 255
207 228 255
207 228 255
207 228 255
207 228 255
207 228 255
207 228 255
207 228 255
207 228 255
207 228 255
207 228 255
207 228 255
207 228 255
207 228 255
207 228 255
207 228 255
207 228 255
207 228 255
207 228 255
207 228 255
207 228 255
207 228 255
207 228 255
207 228 255
207 228 255
207 228 255
207 228 255
207 228 255
207 228 255
207 228 255
207 228 255
207 228 255
207 228 255
207 228 255
207 228 255
207 228 255
207 228 255
207 228 255
207 228 255
207 228 255
207 228 255
207 228 255
207 228 255
207 228 255
207 228 255
207 228 255
207 228 255
207 228 255
207 228 255
207 227 255
207 227 255
207 227 255
207 227 255
206 227 255
206 227 255
206 227 255
206 227 255
206 227 255
206 227 255
206 227 255
206 227 255
206 227 255
206 227 255
205 227 255
205 227 255
205 227 255
205 227 255
205 226 255
205 226 255
205 226 255
204 226 255
204 226 255
204 226 255
204 226 255
204 226 255
203 226 255
203 225 255
203 225 255
203 225 255
202 225 255
202 225 255
202 225 255
201 225 255
201 224 255
201 224 255
200 224 255
200 224 255
199 223 255
199 223 255
198 223 255
198 223 255
197 222 255
196 222 255
195 221 255
195 221 255
194 220 255
193 220 255
191 219 255
189 217 250
177 205 182
162 187 36
163 188 0
160 185 0
159 186 0
164 188 0
158 183 0
161 186 0
160 185 0
156 180 0
159 183 0
161 184 0
162 185 0
158 182 0
155 178 0
162 186 0
158 182 0
161 184 0
158 181 0
162 186 0
154 176 0
151 174 0
152 174 0
155 177 0
151 174 0
151 173 0
155 177 0
153 175 0
150 172 0
149 170 0
150 172 0
144 166 0
148 169 0
148 170 0
147 168 0
137 158 0
142 164 0
145 165 0
149 170 0
133 153 0
136 157 0
136 157 0
132 152 0
132 152 0
137 156 0
131 151 0
125 144 0
131 150 0
131 151 0
110 130 0
122 139 0
119 137 0
118 137 0
117 134 0
107 125 0
101 118 0
105 122 0
109 125 0
112 128 0
94 110 0
68 86 36
59 81 54
43 69 67
47 76 67
47 75 74
50 79 78
46 73 82
47 75 74
49 78 72
50 80 76
51 80 78
50 80 62
52 82 84
51 80 76
45 72 67
50 79 65
50 79 86
47 75 67
48 76 80
48 77 72
48 76 74
46 74 65
46 73 70
49 77 72
49 77 80
46 73 74
48 76 67
47 75 76
49 78 76
47 75 76
47 75 65
49 78 74
49 77 80
46 73 70
46 73 65
48 76 72
44 70 54
43 69 44
43 69 54
47 74 65
41 66 51
43 68 60
50 73 67
76 87 31
84 95 0
88 98 0
101 114 0
84 94 0
90 102 0
89 99 0
104 116 0
96 108 0
93 106 0
102 115 0
106 118 0
110 122 0
110 123 0
116 129 0
104 116 0
109 124 0
116 128 0
109 120 0
121 134 0
112 121 0
114 129 0
123 135 0
114 127 0
112 124 0
123 137 0
122 136 0
128 140 0
114 127 0
121 132 0
118 127 0
129 141 0
121 134 0
129 138 0
126 137 0
127 137 0
127 138 0
123 135 0
127 137 0
123 133 0
118 127 0
123 130 0
128 136 0
125 133 0
127 134 0
120 127 0
133 139 0
119 124 0
125 132 0
129 135 0
128 133 0
129 135 0
128 129 0
126 126 0
125 127 0
111 114 0
129 131 0
124 128 0
120 117 0
116 118 0
97 93 0
87 79 0
88 78 0
99 88 0
90 80 0
93 85 0
87 79 0
106 95 0
107 97 0
104 94 0
109 100 0
110 99 0
103 93 0
105 94 0
115 104 0
110 100 0
117 104 0
113 103 0
118 111 0
110 99 0
116 105 0
119 110 0
116 107 0
123 113 0
125 113 0
126 118 0
127 116 0
128 120 0
129 119 0
133 125 0
136 126 0
128 119 0
133 125 0
132 121 0
130 123 0
125 117 0
131 121 0
139 129 0
136 124 0
129 122 0
129 121 0
130 119 0
134 124 0
132 122 0
135 127 0
133 124 0
135 126 0
140 130 0
133 124 0
136 127 0
138 128 0
137 128 0
138 131 0
140 130 0
142 132 0
136 125 0
142 135 0
136 127 0
144 132 0
141 132 0
140 133 0
138 131 0
142 134 0
139 132 0
142 132 0
140 131 0
139 131 0
145 137 0
144 136 0
143 135 0
143 134 0
141 132 0
144 136 0
148 140 0
145 138 0
143 135 0
148 140 0
145 137 0
143 135 0
143 134 0
142 133 0
141 133 0
144 138 0
145 136 0
142 136 0
148 141 0
143 135 0
146 139 0
145 139 0
142 134 0
145 140 0
146 138 0
146 138 0
145 138 0
148 141 0
145 138 0
150 144 0
146 139 0
150 145 0
150 142 0
151 144 0
138 132 0
142 135 0
146 140 0
146 141 0
144 137 0
146 142 0
140 133 0
146 140 0
150 143 0
145 138 0
146 140 0
138 134 0
148 140 0
139 133 0
144 138 16
142 137 11
142 137 25
139 134 16
205 226 255
205 227 255
205 227 255
205 227 255
205 227 255
205 227 255
205 227 255
206 227 255
206 227 255
206 227 255
206 227 255
206 227 255
206 227 255
206 227 255
206 227 255
206 227 255
206 227 255
206 227 255
206 227 255
206 227 255
206 227 255
206 227 255
206 227 255
206 227 255
207 227 255
207 227 255
207 227 255
207 227 255
207 227 255
207 227 255
207 227 255
207 227 255
207 228 255
207 228 255
207 228 255
207 228 255
207 228 255
207 228 255
207 228 255
207 228 255
207 228 255
207 228 255
207 228 255
207 228 255
207 228 255
207 228 255
207 228 255
207 228 255
207 228 255
207 228 255
207 228 255
207 228 255
207 228 255
207 228 255
207 227 255
207 227 255
207 227 255
207 227 255
207 227 255
207 227 255
207 227 255
207 227 255
206 227 255
206 227 255
206 227 255
206 227 255
206 227 255
206 227 255
206 227 255
206 227 255
206 227 255
206 227 255
206 227 255
206 227 255
206 227 255
206 227 255
205 227 255
205 227 255
205 227 255
205 227 255
205 227 255
205 226 255
205 226 255
204 226 255
204 226 255
204 226 255
204 226 255
204 226 255
204 226 255
204 226 255
203 226 255
203 226 255
203 225 255
203 225 255
202 225 255
202 225 255
202 225 255
202 225 255
201 224 255
201 224 255
201 224 255
200 224 255
200 224 255
199 223 255
199 223 255
198 223 255
198 223 255
197 222 255
197 222 255
196 222 255
195 221 255
194 221 255
193 220 255
192 220 255
191 219 255
189 218 255
182 211 218
164 190 95
165 190 0
162 188 0
160 186 0
161 186 0
162 187 0
163 188 0
158 183 0
164 189 0
159 184 0
153 178 0
162 186 0
156 180 0
159 182 0
159 182 0
155 178 0
152 176 0
160 183 0
157 181 0
156 179 0
155 178 0
154 177 0
160 182 0
151 173 0
158 180 0
154 177 0
151 173 0
156 178 0
151 173 0
149 171 0
152 174 0
146 168 0
152 173 0
153 175 0
149 170 0
135 156 0
143 165 0
152 172 0
155 176 0
137 157 0
137 157 0
136 156 0
139 160 0
138 158 0
136 155 0
124 144 0
116 135 0
126 146 0
118 138 0
131 150 0
111 129 0
123 141 0
117 135 0
99 117 0
112 129 0
96 113 0
107 122 0
88 104 0
102 119 0
114 131 0
97 114 0
98 114 0
97 113 0
89 104 0
64 85 57
45 72 65
48 75 86
44 71 78
43 69 57
47 76 80
47 75 65
46 74 74
46 75 60
47 76 67
47 75 74
50 79 82
50 79 74
47 76 65
48 78 67
45 73 62
49 79 78
48 77 65
43 70 62
47 74 67
46 74 57
42 68 54
45 72 65
48 77 62
48 76 74
48 76 60
50 79 72
46 73 78
46 72 74
48 76 72
43 69 65
45 72 72
44 71 60
45 72 54
39 63 51
44 70 62
50 74 54
43 60 31
61 74 36
83 90 0
78 88 0
98 109 0
84 96 0
69 80 0
85 95 0
92 103 0
90 100 0
99 113 0
96 106 0
107 120 0
91 103 0
104 117 0
102 116 0
106 119 0
114 126 0
100 111 0
103 114 0
110 122 0
120 134 0
119 131 0
119 130 0
114 128 0
107 121 0
119 133 0
120 131 0
124 134 0
108 120 0
123 134 0
124 137 0
122 134 0
122 132 0
126 137 0
127 138 0
124 138 0
119 128 0
111 123 0
120 130 0
125 136 0
123 130 0
111 121 0
135 145 0
118 126 0
120 128 0
123 132 0
134 142 0
118 126 0
122 129 0
121 125 0
118 122 0
123 128 0
122 128 0
129 131 0
124 127 0
119 123 0
124 131 0
125 127 0
125 127 0
123 122 0
120 121 0
126 124 0
121 120 0
117 118 0
93 92 0
85 74 0
85 73 0
92 84 0
87 78 0
102 91 0
97 87 0
96 86 0
100 89 0
116 105 0
107 96 0
108 98 0
105 93 0
115 103 0
111 102 0
116 106 0
112 102 0
125 114 0
117 107 0
126 115 0
117 106 0
112 102 0
124 115 0
124 115 0
123 113 0
125 116 0
121 109 0
120 110 0
125 114 0
132 122 0
118 108 0
128 117 0
133 124 0
125 116 0
128 118 0
132 122 0
122 113 0
137 129 0
131 121 0
132 123 0
135 126 0
139 130 0
132 123 0
132 125 0
136 128 0
138 128 0
136 127 0
143 135 0
138 128 0
136 127 0
137 126 0
137 128 0
139 131 0
144 137 0
136 127 0
140 134 0
142 134 0
142 133 0
144 134 0
138 129 0
140 132 0
140 131 0
145 136 0
140 131 0
139 129 0
143 134 0
143 136 0
145 138 0
141 133 0
143 136 0
144 137 0
146 139 0
143 134 0
146 138 0
142 134 0
145 136 0
144 138 0
143 133 0
147 138 0
148 142 0
147 139 0
145 140 0
145 137 0
147 138 0
145 138 0
144 135 0
146 139 0
149 142 0
149 141 0
148 140 0
148 141 0
147 141 0
145 137 0
144 137 0
149 141 0
146 138 0
142 137 0
148 141 0
146 139 0
147 140 0
145 138 0
149 142 0
142 135 0
144 138 0
147 142 0
137 134 0
150 143 0
138 132 0
137 131 0
144 138 0
138 132 0
145 138 0
142 136 0
135 128 11
134 130 0
143 138 28
144 138 22
204 226 255
204 226 255
204 226 255
205 226 255
205 226 255
205 226 255
205 226 255
205 226 255
205 227 255
205 227 255
205 227 255
205 227 255
205 227 255
205 227 255
205 227 255
205 227 255
206 227 255
206 227 255
206 227 255
206 227 255
206 227 255
206 227 255
206 227 255
206 227 255
206 227 255
206 227 255
206 227 255
206 227 255
206 227 255
206 227 255
206 227 255
206 227 255
206 227 255
206 227 255
206 227 255
206 227 255
206 227 255
206 227 255
206 227 255
206 227 255
206 227 255
206 227 255
206 227 255
206 227 255
206 227 255
206 227 255
206 227 255
206 227 255
206 227 255
206 227 255
206 227 255
206 227 255
206 227 255
206 227 255
206 227 255
206 227 255
206 227 255
206 227 255
206 227 255
206 227 255
206 227 255
206 227 255
206 227 255
206 227 255
206 227 255
206 227 255
206 227 255
205 227 255
205 227 255
205 227 255
205 227 255
205 227 255
205 227 255
205 227 255
205 226 255
205 226 255
205 226 255
205 226 255
204 226 255
204 226 255
204 226 255
204 226 255
204 226 255
204 226 255
204 226 255
203 226 255
203 226 255
203 225 255
203 225 255
203 225 255
202 225 255
202 225 255
202 225 255
202 225 255
201 225 255
201 224 255
201 224 255
200 224 255
200 224 255
200 224 255
199 223 255
199 223 255
198 223 255
198 223 255
197 223 255
197 222 255
196 222 255
196 221 255
195 221 255
194 221 255
193 220 255
192 220 255
191 219 255
189 218 255
183 212 230
169 196 128
158 185 0
163 188 0
159 184 0
162 188 0
160 185 0
158 183 0
164 190 0
163 188 0
164 188 0
156 180 0
162 186 0
161 185 0
154 179 0
153 177 0
156 181 0
156 179 0
156 179 0
157 180 0
160 185 0
165 189 0
148 171 0
154 177 0
152 174 0
158 181 0
151 174 0
145 167 0
155 177 0
154 176 0
156 178 0
147 169 0
153 176 0
151 173 0
149 170 0
150 172 0
146 168 0
144 165 0
155 177 0
147 168 0
142 163 0
134 154 0
139 159 0
134 155 0
139 160 0
130 150 0
132 152 0
129 148 0
116 135 0
144 163 0
131 150 0
124 144 0
110 128 0
131 149 0
126 145 0
115 134 0
110 128 0
112 130 0
114 132 0
106 123 0
106 123 0
120 137 0
123 140 0
96 113 0
86 100 0
93 109 0
78 93 0
77 91 0
73 87 0
63 80 40
58 79 54
42 68 72
46 73 54
45 72 67
44 70 54
45 72 65
43 70 60
44 70 67
46 74 72
46 74 65
49 78 76
47 76 67
48 76 72
42 68 54
48 76 80
46 73 74
46 73 76
50 78 78
46 73 65
48 76 72
47 74 74
46 74 57
44 70 60
45 72 62
44 70 57
45 72 65
44 70 60
43 68 60
45 71 67
43 68 62
39 63 51
48 66 44
48 60 31
60 71 0
65 75 0
72 81 0
87 96 0
79 90 0
88 96 0
86 97 0
89 99 0
78 89 0
100 111 0
94 106 0
103 115 0
107 119 0
103 115 0
102 114 0
87 99 0
106 117 0
107 120 0
117 127 0
116 125 0
105 117 0
124 137 0
113 126 0
116 130 0
102 115 0
119 130 0
120 134 0
120 132 0
108 118 0
123 134 0
101 111 0
125 134 0
129 140 0
111 122 0
133 145 0
113 120 0
107 120 0
120 132 0
115 126 0
122 133 0
109 119 0
113 121 0
118 127 0
117 123 0
126 135 0
122 130 0
122 132 0
123 128 0
111 118 0
118 127 0
123 131 0
115 121 0
118 126 0
126 133 0
126 131 0
101 103 0
116 120 0
118 120 0
123 128 0
109 110 0
120 120 0
127 129 0
114 114 0
116 115 0
116 112 0
105 103 0
108 108 0
107 106 0
77 70 0
88 77 0
91 79 0
91 80 0
99 88 0
88 77 0
99 89 0
101 91 0
100 90 0
103 90 0
108 98 0
109 97 0
112 100 0
105 93 0
114 101 0
124 113 0
122 112 0
113 102 0
122 112 0
114 103 0
118 109 0
119 110 0
115 106 0
131 121 0
132 122 0
129 118 0
128 117 0
125 113 0
131 121 0
130 121 0
130 120 0
123 114 0
137 128 0
132 120 0
135 125 0
137 127 0
126 117 0
123 114 0
134 123 0
135 125 0
141 132 0
130 120 0
139 128 0
137 128 0
134 125 0
138 128 0
141 131 0
136 127 0
133 125 0
132 123 0
135 124 0
140 129 0
139 131 0
143 133 0
140 132 0
140 129 0
135 127 0
137 128 0
143 134 0
145 136 0
143 132 0
144 136 0
140 130 0
135 129 0
140 131 0
144 134 0
139 129 0
143 134 0
145 137 0
145 136 0
140 130 0
144 136 0
141 132 0
144 133 0
146 137 0
144 136 0
143 135 0
142 133 0
144 134 0
143 135 0
141 134 0
145 137 0
144 136 0
143 135 0
146 138 0
147 139 0
144 137 0
145 139 0
149 141 0
145 137 0
144 137 0
138 130 0
148 141 0
142 134 0
145 139 0
146 137 0
148 140 0
146 138 0
146 139 0
142 133 0
143 136 0
141 135 0
142 137 0
139 133 0
142 135 0
139 130 0
142 138 0
149 142 0
141 134 0
130 124 11
135 127 0
141 133 19
136 131 19
133 127 16
138 131 22
203 226 255
204 226 255
204 226 255
204 226 255
204 226 255
204 226 255
204 226 255
204 226 255
204 226 255
204 226 255
204 226 255
205 226 255
205 226 255
205 226 255
205 226 255
205 226 255
205 227 255
205 227 255
205 227 255
205 227 255
205 227 255
205 227 255
205 227 255
205 227 255
205 227 255
205 227 255
205 227 255
205 227 255
205 227 255
206 227 255
206 227 255
206 227 255
206 227 255
206 227 255
206 227 255
206 227 255
206 227 255
206 227 255
206 227 255
206 227 255
206 227 255
206 227 255
206 227 255
206 227 255
206 227 255
206 227 255
206 227 255
206 227 255
206 227 255
206 227 255
206 227 255
206 227 255
206 227 255
205 227 255
205 227 255
205 227 255
205 227 255
205 227 255
205 227 255
205 227 255
205 227 255
205 227 255
205 227 255
205 227 255
205 227 255
205 226 255
205 226 255
205 226 255
205 226 255
205 226 255
205 226 255
204 226 255
204 226 255
204 226 255
204 226 255
204 226 255
204 226 255
204 226 255
204 226 255
204 226 255
203 226 255
203 226 255
203 225 255
203 225 255
203 225 255
202 225 255
202 225 255
202 225 255
202 225 255
202 225 255
201 225 255
201 224 255
201 224 255
201 224 255
200 224 255
200 224 255
200 224 255
199 223 255
199 223 255
198 223 255
198 223 255
198 223 255
197 222 255
196 222 255
196 222 255
195 221 255
194 221 255
194 221 255
193 220 255
192 220 255
191 219 255
189 218 255
185 214 238
171 199 151
163 190 25
163 188 0
162 187 0
161 188 0
161 187 0
164 189 0
160 185 0
165 190 0
158 184 0
159 184 0
161 185 0
162 187 0
161 186 0
159 183 0
156 179 0
162 186 0
151 174 0
153 176 0
153 176 0
154 178 0
157 180 0
154 176 0
156 179 0
151 174 0
162 185 0
154 176 0
149 172 0
148 170 0
155 178 0
149 171 0
157 179 0
151 173 0
148 170 0
143 164 0
147 168 0
141 163 0
151 173 0
138 159 0
141 162 0
143 165 0
138 158 0
142 162 0
141 161 0
147 168 0
139 159 0
139 159 0
137 157 0
132 152 0
120 140 0
139 158 0
132 151 0
133 152 0
129 147 0
127 145 0
117 135 0
104 121 0
112 130 0
110 127 0
104 120 0
120 138 0
113 130 0
103 120 0
100 116 0
95 111 0
98 114 0
84 97 0
87 101 0
77 90 0
89 103 0
94 108 0
79 91 0
70 81 0
77 91 44
54 72 36
45 69 54
44 71 60
44 71 62
43 68 54
48 77 67
44 71 54
46 73 62
44 70 60
43 70 60
42 67 51
47 75 74
44 72 65
44 71 67
47 74 65
42 68 60
45 72 62
41 66 51
46 73 65
40 64 57
45 71 57
35 57 51
44 69 62
42 65 47
38 60 31
46 59 18
63 76 18
58 68 18
67 75 0
75 84 0
71 79 0
84 93 0
68 78 0
85 94 0
84 94 0
79 89 0
93 105 0
93 105 0
86 97 0
93 105 0
95 107 0
81 94 0
102 115 0
98 107 0
99 111 0
97 109 0
101 112 0
113 127 0
99 112 0
105 116 0
103 114 0
105 119 0
111 124 0
121 133 0
113 125 0
120 131 0
115 125 0
120 131 0
112 124 0
118 130 0
122 137 0
113 125 0
110 122 0
110 121 0
113 123 0
118 130 0
114 123 0
113 124 0
116 126 0
122 132 0
116 125 0
108 117 0
123 133 0
122 134 0
116 124 0
124 133 0
123 131 0
125 133 0
127 136 0
117 124 0
130 136 0
122 128 0
107 112 0
110 114 0
107 112 0
125 131 0
116 123 0
126 130 0
125 131 0
119 122 0
115 119 0
118 122 0
115 117 0
109 110 0
109 109 0
117 116 0
115 112 0
110 106 0
123 120 0
97 95 0
78 70 0
68 59 0
93 82 0
91 79 0
92 83 0
92 80 0
101 90 0
100 88 0
100 89 0
107 94 0
108 96 0
106 97 0
98 88 0
117 103 0
117 107 0
112 100 0
116 105 0
110 100 0
113 99 0
122 110 0
127 116 0
124 112 0
123 113 0
121 109 0
123 110 0
122 112 0
129 119 0
129 119 0
130 120 0
125 113 0
131 120 0
127 116 0
131 123 0
124 112 0
136 128 0
131 120 0
136 125 0
135 123 0
132 123 0
140 129 0
135 124 0
139 127 0
135 124 0
138 130 0
136 125 0
137 126 0
135 124 0
135 127 0
134 125 0
136 125 0
139 130 0
134 125 0
140 132 0
140 129 0
138 129 0
133 123 0
133 122 0
139 131 0
138 129 0
140 130 0
137 128 0
142 131 0
144 134 0
142 133 0
139 129 0
142 134 0
144 134 0
145 136 0
144 136 0
139 129 0
143 135 0
145 138 0
145 135 0
144 133 0
143 136 0
148 141 0
144 137 0
144 136 0
147 139 0
144 136 0
144 135 0
147 139 0
143 134 0
147 140 0
148 140 0
143 136 0
149 142 0
143 137 0
143 136 0
145 137 0
140 133 0
142 134 0
142 134 0
145 138 0
145 137 0
144 136 0
142 135 0
140 132 0
140 134 0
144 138 0
137 132 0
144 138 0
137 132 0
139 133 0
133 127 0
134 128 0
131 125 0
138 133 0
138 133 19
141 135 22
135 128 0
137 131 16
142 133 37
203 225 255
203 225 255
203 225 255
203 225 255
203 226 255
203 226 255
203 226 255
203 226 255
204 226 255
204 226 255
204 226 255
204 226 255
204 226 255
204 226 255
204 226 255
204 226 255
204 226 255
204 226 255
204 226 255
204 226 255
204 226 255
204 226 255
205 226 255
205 226 255
205 226 255
205 226 255
205 226 255
205 226 255
205 226 255
205 226 255
205 226 255
205 226 255
205 227 255
205 227 255
205 227 255
205 227 255
205 227 255
205 227 255
205 227 255
205 227 255
205 227 255
205 227 255
205 227 255
205 227 255
205 227 255
205 227 255
205 227 255
205 227 255
205 227 255
205 227 255
205 226 255
205 227 255
205 226 255
205 226 255
205 226 255
205 226 255
205 226 255
205 226 255
205 226 255
205 226 255
205 226 255
204 226 255
204 226 255
204 226 255
204 226 255
204 226 255
204 226 255
204 226 255
204 226 255
204 226 255
204 226 255
204 226 255
204 226 255
203 226 255
203 226 255
203 226 255
203 226 255
203 225 255
203 225 255
203 225 255
202 225 255
202 225 255
202 225 255
202 225 255
202 225 255
202 225 255
201 225 255
201 224 255
201 224 255
201 224 255
200 224 255
200 224 255
200 224 255
199 224 255
199 223 255
199 223 255
198 223 255
198 223 255
197 222 255
197 222 255
196 222 255
196 222 255
195 221 255
195 221 255
194 221 255
193 220 255
192 220 255
191 219 255
190 219 255
189 218 255
185 215 242
174 203 189
162 189 51
163 190 0
163 189 0
161 188 0
159 185 0
159 186 0
162 187 0
158 184 0
157 183 0
159 184 0
158 182 0
154 178 0
162 188 0
160 184 0
159 183 0
154 179 0
160 184 0
158 181 0
153 177 0
152 176 0
158 182 0
157 180 0
154 177 0
155 179 0
151 174 0
155 178 0
152 175 0
158 180 0
157 179 0
150 173 0
147 170 0
153 175 0
155 178 0
155 178 0
154 176 0
148 171 0
148 169 0
148 170 0
147 168 0
149 171 0
141 162 0
146 167 0
139 160 0
139 160 0
133 153 0
133 153 0
131 150 0
144 165 0
128 147 0
124 143 0
146 166 0
132 151 0
127 146 0
123 142 0
125 143 0
125 144 0
115 132 0
125 143 0
122 139 0
90 108 0
106 123 0
109 126 0
113 130 0
116 134 0
107 124 0
100 115 0
106 121 0
98 114 0
80 94 0
90 104 0
97 110 0
78 93 0
90 103 0
74 87 0
71 82 0
79 91 0
77 89 0
58 69 0
53 65 0
41 56 31
44 59 51
41 62 36
44 64 44
44 65 44
42 67 40
39 63 44
41 66 51
41 66 51
38 61 54
40 66 47
38 62 40
42 67 60
37 59 60
50 67 31
40 61 40
58 74 60
42 58 36
55 65 0
60 66 18
55 62 0
70 79 0
59 66 0
72 82 0
61 69 0
81 90 0
68 78 0
91 100 0
64 74 0
79 89 0
85 97 0
80 90 0
106 119 0
85 95 0
82 92 0
93 103 0
104 115 0
109 121 0
100 113 0
97 108 0
97 107 0
105 115 0
111 122 0
96 109 0
110 121 0
92 106 0
102 112 0
107 120 0
102 112 0
112 122 0
95 106 0
117 130 0
114 126 0
107 118 0
119 131 0
114 129 0
111 121 0
114 126 0
112 123 0
110 120 0
122 132 0
110 122 0
122 130 0
126 138 0
114 123 0
120 133 0
125 135 0
115 126 0
129 139 0
123 132 0
127 139 0
125 134 0
129 140 0
123 132 0
128 137 0
118 125 0
118 126 0
126 134 0
120 122 0
116 122 0
119 126 0
127 129 0
117 119 0
115 120 0
122 129 0
110 109 0
118 118 0
117 117 0
114 115 0
116 120 0
122 124 0
110 110 0
112 111 0
115 114 0
116 117 0
105 100 0
112 110 0
96 90 0
80 70 0
78 69 0
73 66 0
87 75 0
95 86 0
92 81 0
103 92 0
105 93 0
97 84 0
112 101 0
109 97 0
112 102 0
104 93 0
112 99 0
116 104 0
112 102 0
117 102 0
122 110 0
126 115 0
111 100 0
122 110 0
127 114 0
129 117 0
126 114 0
114 102 0
124 113 0
124 110 0
129 118 0
126 115 0
133 122 0
122 110 0
124 111 0
124 111 0
129 117 0
134 123 0
136 127 0
132 121 0
129 117 0
132 121 0
135 126 0
133 121 0
133 123 0
131 120 0
134 124 0
133 123 0
136 128 0
135 123 0
136 126 0
139 130 0
131 121 0
140 132 0
135 125 0
141 130 0
135 128 0
144 133 0
143 132 0
137 127 0
134 123 0
137 126 0
135 127 0
142 132 0
141 130 0
144 133 0
144 133 0
137 127 0
143 134 0
143 135 0
141 131 0
146 138 0
142 132 0
140 130 0
148 138 0
146 136 0
140 130 0
146 137 0
145 136 0
145 134 0
141 132 0
144 135 0
141 133 0
143 135 0
142 134 0
144 138 0
142 133 0
143 134 0
146 138 0
148 141 0
146 138 0
145 138 0
142 135 0
138 131 0
144 137 0
141 133 0
140 133 0
140 132 0
144 137 0
140 134 0
141 136 0
136 130 0
145 140 0
136 130 0
135 130 0
140 134 0
148 141 11
134 128 0
134 128 11
138 131 16
136 129 16
135 130 19
135 129 22
139 132 25
202 225 255
202 225 255
202 225 255
202 225 255
202 225 255
202 225 255
203 225 255
203 225 255
203 225 255
203 225 255
203 225 255
203 226 255
203 226 255
203 226 255
203 226 255
203 226 255
203 226 255
204 226 255
204 226 255
204 226 255
204 226 255
204 226 255
204 226 255
204 226 255
204 226 255
204 226 255
204 226 255
204 226 255
204 226 255
204 226 255
204 226 255
204 226 255
204 226 255
204 226 255
204 226 255
204 226 255
204 226 255
204 226 255
204 226 255
204 226 255
204 226 255
204 226 255
204 226 255
204 226 255
204 226 255
204 226 255
204 226 255
204 226 255
204 226 255
204 226 255
204 226 255
204 226 255
204 226 255
204 226 255
204 226 255
204 226 255
204 226 255
204 226 255
204 226 255
204 226 255
204 226 255
204 226 255
204 226 255
204 226 255
203 226 255
203 226 255
203 226 255
203 226 255
203 226 255
203 226 255
203 225 255
203 225 255
203 225 255
203 225 255
202 225 255
202 225 255
202 225 255
202 225 255
202 225 255
202 225 255
202 225 255
201 225 255
201 224 255
201 224 255
201 224 255
201 224 255
200 224 255
200 224 255
200 224 255
199 224 255
199 223 255
199 223 255
198 223 255
198 223 255
198 223 255
197 222 255
197 222 255
196 222 255
196 222 255
195 221 255
195 221 255
194 221 255
193 220 255
193 220 255
192 219 255
191 219 255
190 219 255
189 218 255
185 215 246
173 202 175
163 191 51
163 189 0
164 190 0
160 187 0
165 191 0
163 189 0
164 190 0
161 187 0
158 184 0
161 187 0
159 184 0
164 189 0
156 180 0
158 184 0
158 183 0
163 188 0
163 188 0
158 181 0
157 182 0
154 177 0
153 177 0
154 178 0
156 179 0
152 176 0
159 182 0
148 171 0
159 183 0
153 176 0
149 171 0
156 178 0
148 171 0
157 180 0
151 173 0
150 172 0
146 168 0
145 167 0
151 173 0
145 167 0
151 173 0
147 168 0
138 160 0
150 171 0
144 165 0
135 156 0
141 162 0
131 152 0
132 152 0
149 169 0
139 158 0
137 156 0
138 157 0
132 153 0
135 155 0
128 147 0
126 145 0
127 145 0
121 140 0
117 135 0
124 143 0
115 132 0
114 132 0
115 132 0
106 123 0
113 130 0
96 113 0
97 114 0
102 118 0
101 116 0
100 115 0
94 110 0
101 116 0
80 96 0
93 109 0
95 110 0
92 107 0
90 102 0
67 79 0
68 80 0
71 84 0
71 84 0
57 67 0
62 73 0
62 74 0
64 75 0
63 72 0
58 68 0
43 52 0
65 73 0
48 56 18
48 57 0
64 73 18
66 76 18
53 61 0
44 52 0
60 70 0
45 53 0
54 64 0
63 73 0
55 64 0
77 84 0
81 90 0
79 88 0
71 79 0
77 87 0
69 79 0
67 78 0
72 83 0
60 71 0
79 88 0
87 100 0
77 89 0
87 97 0
85 95 0
108 119 0
91 104 0
87 97 0
102 112 0
92 104 0
92 104 0
98 111 0
102 115 0
90 103 0
102 115 0
96 107 0
106 120 0
107 119 0
106 119 0
110 123 0
108 119 0
114 126 0
110 123 0
97 107 0
111 123 0
115 129 0
112 124 0
107 117 0
123 135 0
116 129 0
120 131 0
117 129 0
119 130 0
129 139 0
132 146 0
102 113 0
104 114 0
120 130 0
129 140 0
128 139 0
118 126 0
120 130 0
122 133 0
112 122 0
123 130 0
128 139 0
107 114 0
122 129 0
128 137 0
121 128 0
117 126 0
116 121 0
118 123 0
126 131 0
124 127 0
114 119 0
117 121 0
121 124 0
126 130 0
115 118 0
125 128 0
115 114 0
122 126 0
101 98 0
114 113 0
100 97 0
116 116 0
100 97 0
104 103 0
105 102 0
114 111 0
113 109 0
92 86 0
81 72 0
81 69 0
79 67 0
85 74 0
97 85 0
94 83 0
102 89 0
98 88 0
103 93 0
108 98 0
105 95 0
100 86 0
110 97 0
107 95 0
100 89 0
113 102 0
116 105 0
112 99 0
109 100 0
123 112 0
118 107 0
122 108 0
116 105 0
120 108 0
120 107 0
122 109 0
130 117 0
125 110 0
132 122 0
128 118 0
125 115 0
132 121 0
127 116 0
137 124 0
129 117 0
129 119 0
129 118 0
135 123 0
132 120 0
131 121 0
127 115 0
139 128 0
133 123 0
129 117 0
137 126 0
138 129 0
145 135 0
140 131 0
132 120 0
137 125 0
138 128 0
143 131 0
135 124 0
138 128 0
143 132 0
138 130 0
137 126 0
143 135 0
141 132 0
139 128 0
136 127 0
145 135 0
143 133 0
142 134 0
140 128 0
143 133 0
143 134 0
144 134 0
142 129 0
141 129 0
145 135 0
143 133 0
146 137 0
146 136 0
139 131 0
138 127 0
143 135 0
146 136 0
140 132 0
139 132 0
140 132 0
144 137 0
142 132 0
145 137 0
138 132 0
141 134 0
141 132 0
146 137 0
141 133 0
140 133 0
136 128 0
142 136 0
138 131 0
143 136 0
138 130 0
143 136 0
131 126 0
137 129 0
134 128 0
129 122 0
139 132 0
139 133 0
129 123 0
140 134 11
137 130 11
127 119 22
141 134 19
133 126 25
135 129 25
201 224 255
201 224 255
201 224 255
201 225 255
201 225 255
202 225 255
202 225 255
202 225 255
202 225 255
202 225 255
202 225 255
202 225 255
202 225 255
202 225 255
203 225 255
203 225 255
203 225 255
203 225 255
203 225 255
203 225 255
203 225 255
203 225 255
203 226 255
203 226 255
203 226 255
203 226 255
203 226 255
203 226 255
203 226 255
203 226 255
203 226 255
203 226 255
203 226 255
204 226 255
204 226 255
204 226 255
204 226 255
204 226 255
204 226 255
204 226 255
204 226 255
204 226 255
204 226 255
204 226 255
204 226 255
204 226 255
204 226 255
204 226 255
204 226 255
203 226 255
203 226 255
203 226 255
203 226 255
203 226 255
203 226 255
203 226 255
203 226 255
203 226 255
203 226 255
203 225 255
203 225 255
203 225 255
203 225 255
203 225 255
203 225 255
203 225 255
202 225 255
202 225 255
202 225 255
202 225 255
202 225 255
202 225 255
202 225 255
202 225 255
202 225 255
201 225 255
201 225 255
201 224 255
201 224 255
201 224 255
200 224 255
200 224 255
200 224 255
200 224 255
200 224 255
199 224 255
199 223 255
199 223 255
198 223 255
198 223 255
198 223 255
197 222 255
197 222 255
197 222 255
196 222 255
196 222 255
195 221 255
195 221 255
194 221 255
194 220 255
193 220 255
192 220 255
191 219 255
190 219 255
189 218 255
188 218 255
183 213 234
177 205 181
164 191 67
161 188 0
162 189 0
160 187 0
158 186 0
162 189 0
165 191 0
163 189 0
164 190 0
162 189 0
158 184 0
163 188 0
157 181 0
161 186 0
156 181 0
156 181 0
160 185 0
153 178 0
159 183 0
152 176 0
159 183 0
153 177 0
159 181 0
155 179 0
157 180 0
158 180 0
150 173 0
151 175 0
158 181 0
148 170 0
151 173 0
151 173 0
162 184 0
156 179 0
154 176 0
152 174 0
153 174 0
147 169 0
151 173 0
136 157 0
134 155 0
137 158 0
136 156 0
143 163 0
137 158 0
144 165 0
136 157 0
144 163 0
136 155 0
136 155 0
136 155 0
135 155 0
135 154 0
131 151 0
130 150 0
127 147 0
135 154 0
128 147 0
134 152 0
116 134 0
119 138 0
114 131 0
119 136 0
116 133 0
113 130 0
110 128 0
109 127 0
104 121 0
99 116 0
97 113 0
97 114 0
105 119 0
98 114 0
86 101 0
93 109 0
92 107 0
89 103 0
92 106 0
68 83 0
86 99 0
75 89 0
88 100 0
75 87 0
67 80 0
66 78 0
78 90 0
66 77 0
67 78 0
61 71 0
56 64 0
68 78 0
76 87 0
53 63 0
64 74 0
58 67 0
68 77 0
55 65 0
59 69 0
65 77 0
63 71 0
65 74 0
74 83 0
58 69 0
64 73 0
62 70 0
81 92 0
79 89 0
75 85 0
86 96 0
90 100 0
87 99 0
81 92 0
89 101 0
93 104 0
92 103 0
92 104 0
94 107 0
100 111 0
90 101 0
95 106 0
110 122 0
106 117 0
101 112 0
106 118 0
96 109 0
97 108 0
115 128 0
104 117 0
119 133 0
95 108 0
121 135 0
112 125 0
116 130 0
111 123 0
105 118 0
114 127 0
124 136 0
121 133 0
117 129 0
119 129 0
107 117 0
127 138 0
122 134 0
110 122 0
122 130 0
122 138 0
114 125 0
118 130 0
127 138 0
124 132 0
114 125 0
135 146 0
122 134 0
120 129 0
119 126 0
127 137 0
115 122 0
120 126 0
120 128 0
128 135 0
123 129 0
131 139 0
128 135 0
119 127 0
115 121 0
125 131 0
123 129 0
119 123 0
113 116 0
116 119 0
112 115 0
119 118 0
123 126 0
108 108 0
105 100 0
105 99 0
115 115 0
106 105 0
94 86 0
102 96 0
97 93 0
92 85 0
96 91 0
91 85 0
84 77 0
88 76 0
74 63 0
84 73 0
86 75 0
87 77 0
80 69 0
103 89 0
100 90 0
100 90 0
97 85 0
109 100 0
107 95 0
108 96 0
106 91 0
108 95 0
118 108 0
109 98 0
118 106 0
122 108 0
116 104 0
114 103 0
120 108 0
122 108 0
130 118 0
124 114 0
122 110 0
129 115 0
130 117 0
130 119 0
136 124 0
129 118 0
127 115 0
133 122 0
122 111 0
134 122 0
129 118 0
131 119 0
136 123 0
136 124 0
132 121 0
141 127 0
137 127 0
130 117 0
135 126 0
135 124 0
134 124 0
133 123 0
134 123 0
137 127 0
139 130 0
135 126 0
140 128 0
141 130 0
139 127 0
139 128 0
141 132 0
141 130 0
142 133 0
140 130 0
135 125 0
143 131 0
142 132 0
142 132 0
139 129 0
141 131 0
145 135 0
143 132 0
134 124 0
147 136 0
136 128 0
139 128 0
139 129 0
138 128 0
136 129 0
140 132 0
141 132 0
138 129 0
139 130 0
144 136 0
139 129 0
140 132 0
140 132 0
141 134 0
138 131 0
135 126 0
135 128 0
134 126 0
141 132 0
139 131 0
139 131 0
136 128 0
138 130 0
136 128 0
139 133 0
140 131 0
136 129 0
138 130 0
125 120 0
131 125 0
138 129 19
133 126 11
136 130 16
133 126 22
123 118 0
134 127 19
138 132 28
127 122 22
200 224 255
200 224 255
200 224 255
200 224 255
201 224 255
201 224 255
201 224 255
201 224 255
201 224 255
201 224 255
201 225 255
201 225 255
202 225 255
202 225 255
202 225 255
202 225 255
202 225 255
202 225 255
202 225 255
202 225 255
202 225 255
202 225 255
202 225 255
202 225 255
202 225 255
202 225 255
203 225 255
203 225 255
203 225 255
203 225 255
203 225 255
203 225 255
203 225 255
203 225 255
203 225 255
203 225 255
203 225 255
203 225 255
203 225 255
203 225 255
203 225 255
203 225 255
203 225 255
203 225 255
203 225 255
203 225 255
203 225 255
203 225 255
203 225 255
203 225 255
203 225 255
203 225 255
203 225 255
203 225 255
203 225 255
202 225 255
202 225 255
202 225 255
202 225 255
202 225 255
202 225 255
202 225 255
202 225 255
202 225 255
202 225 255
202 225 255
202 225 255
202 225 255
201 225 255
201 225 255
201 224 255
201 224 255
201 224 255
201 224 255
200 224 255
200 224 255
200 224 255
200 224 255
200 224 255
200 224 255
199 224 255
199 223 255
199 223 255
199 223 255
198 223 255
198 223 255
198 223 255
198 223 255
197 222 255
197 222 255
196 222 255
196 222 255
196 221 255
195 221 255
195 221 255
194 221 255
194 220 255
193 220 255
192 220 255
191 219 255
190 219 255
190 218 255
188 218 255
187 217 255
182 212 228
171 199 142
163 191 25
160 187 0
164 190 0
164 190 0
162 189 0
164 191 0
159 185 0
160 186 0
162 188 0
161 187 0
156 181 0
162 188 0
157 183 0
156 180 0
153 178 0
159 185 0
159 184 0
158 183 0
153 177 0
162 187 0
157 180 0
154 178 0
156 180 0
157 181 0
160 184 0
158 181 0
152 176 0
150 174 0
162 185 0
156 179 0
152 175 0
151 173 0
148 171 0
148 170 0
157 179 0
152 175 0
147 168 0
149 171 0
147 169 0
149 170 0
154 175 0
149 171 0
145 166 0
143 163 0
148 170 0
141 162 0
140 161 0
145 165 0
138 159 0
143 163 0
145 165 0
134 155 0
142 162 0
133 152 0
131 151 0
130 150 0
132 151 0
115 135 0
127 146 0
130 149 0
117 136 0
130 149 0
131 150 0
108 127 0
125 142 0
114 132 0
116 133 0
111 127 0
111 128 0
111 128 0
99 115 0
101 117 0
114 130 0
101 116 0
94 109 0
98 115 0
105 122 0
96 111 0
83 98 0
97 112 0
78 92 0
75 89 0
85 97 0
70 84 0
80 92 0
88 102 0
84 97 0
77 89 0
72 85 0
54 66 0
64 76 0
69 80 0
63 75 0
68 78 0
65 74 0
66 76 0
51 63 0
79 92 0
54 64 0
68 77 0
68 78 0
65 76 0
65 75 0
88 100 0
68 76 0
65 73 0
79 88 0
77 88 0
73 81 0
82 94 0
93 105 0
85 96 0
80 94 0
93 104 0
105 119 0
83 96 0
86 100 0
94 105 0
101 114 0
91 104 0
94 106 0
89 101 0
98 112 0
115 128 0
95 109 0
109 120 0
100 113 0
112 126 0
101 114 0
103 116 0
114 127 0
115 127 0
114 125 0
111 126 0
116 129 0
108 122 0
126 139 0
108 118 0
118 129 0
128 143 0
121 134 0
113 123 0
118 130 0
109 119 0
126 140 0
105 116 0
119 128 0
116 125 0
118 131 0
119 128 0
119 132 0
116 125 0
133 142 0
119 130 0
122 130 0
119 128 0
110 122 0
121 129 0
119 127 0
121 130 0
106 115 0
119 127 0
119 127 0
123 129 0
114 116 0
111 116 0
109 114 0
118 122 0
107 111 0
121 126 0
122 128 0
113 116 0
117 120 0
107 106 0
114 118 0
115 116 0
118 120 0
103 100 0
110 111 0
111 108 0
100 98 0
107 104 0
107 102 0
100 97 0
102 98 0
89 83 0
84 76 0
100 93 0
82 74 0
72 62 0
78 67 0
82 68 0
82 71 0
94 82 0
91 80 0
102 90 0
91 80 0
106 92 0
104 93 0
108 96 0
104 92 0
104 92 0
114 102 0
114 103 0
108 96 0
113 99 0
112 101 0
113 101 0
120 109 0
123 110 0
116 104 0
123 112 0
122 110 0
126 113 0
129 115 0
125 114 0
123 111 0
121 110 0
127 115 0
131 118 0
130 118 0
121 110 0
135 124 0
127 113 0
133 122 0
132 121 0
137 126 0
135 126 0
134 123 0
133 123 0
131 119 0
133 123 0
132 120 0
136 124 0
135 125 0
140 130 0
136 124 0
133 125 0
135 123 0
137 126 0
137 127 0
138 127 0
142 131 0
142 133 0
137 127 0
143 131 0
133 122 0
141 131 0
146 135 0
140 130 0
140 130 0
138 128 0
137 128 0
135 123 0
138 130 0
141 130 0
144 134 0
138 129 0
141 132 0
144 135 0
139 131 0
143 132 0
135 126 0
143 133 0
133 126 0
138 128 0
136 126 0
140 133 0
138 130 0
130 123 0
139 131 0
137 127 0
138 129 0
131 122 0
139 130 0
132 124 0
138 131 0
134 128 0
132 124 0
135 129 0
140 133 0
126 119 0
137 129 0
133 127 0
130 122 0
136 129 0
123 115 16
124 116 19
133 127 19
137 129 22
135 127 22
132 126 19
123 117 19
125 118 16
198 223 255
199 223 255
199 223 255
199 223 255
199 224 255
200 224 255
200 224 255
200 224 255
200 224 255
200 224 255
200 224 255
201 224 255
201 224 255
201 224 255
201 224 255
201 224 255
201 224 255
201 224 255
201 225 255
201 225 255
201 225 255
201 225 255
201 225 255
202 225 255
202 225 255
202 225 255
202 225 255
202 225 255
202 225 255
202 225 255
202 225 255
202 225 255
202 225 255
202 225 255
202 225 255
202 225 255
202 225 255
202 225 255
202 225 255
202 225 255
202 225 255
202 225 255
202 225 255
202 225 255
202 225 255
202 225 255
202 225 255
202 225 255
202 225 255
202 225 255
202 225 255
202 225 255
202 225 255
202 225 255
202 225 255
202 225 255
201 225 255
201 225 255
201 225 255
201 225 255
201 225 255
201 224 255
201 224 255
201 224 255
201 224 255
201 224 255
201 224 255
201 224 255
200 224 255
200 224 255
200 224 255
200 224 255
200 224 255
200 224 255
199 224 255
199 223 255
199 223 255
199 223 255
199 223 255
198 223 255
198 223 255
198 223 255
198 223 255
197 222 255
197 222 255
197 222 255
196 222 255
196 222 255
196 222 255
195 221 255
195 221 255
194 221 255
194 221 255
193 220 255
193 220 255
192 220 255
191 219 255
191 219 255
190 218 255
189 218 255
187 217 255
185 215 246
177 207 204
164 193 111
162 189 0
162 190 0
163 190 0
163 190 0
163 190 0
160 187 0
162 189 0
161 187 0
163 189 0
160 186 0
159 185 0
160 186 0
164 189 0
158 184 0
158 183 0
160 186 0
160 185 0
158 183 0
162 186 0
160 185 0
161 185 0
154 177 0
158 181 0
155 178 0
163 186 0
152 175 0
158 181 0
156 180 0
157 180 0
152 175 0
151 174 0
151 173 0
157 179 0
151 173 0
148 170 0
156 179 0
143 166 0
151 173 0
153 175 0
154 175 0
152 174 0
153 174 0
148 171 0
137 159 0
149 170 0
150 170 0
147 168 0
144 165 0
135 156 0
137 157 0
140 160 0
145 166 0
143 163 0
130 149 0
134 154 0
131 151 0
133 153 0
121 141 0
124 145 0
126 146 0
132 151 0
122 142 0
120 139 0
130 149 0
118 136 0
125 143 0
120 139 0
118 136 0
121 139 0
106 124 0
113 130 0
124 142 0
116 132 0
93 110 0
107 124 0
111 127 0
93 110 0
103 119 0
92 108 0
95 111 0
91 105 0
93 107 0
88 103 0
89 104 0
92 106 0
77 93 0
67 80 0
75 89 0
88 101 0
68 81 0
84 99 0
73 87 0
80 91 0
81 95 0
79 91 0
70 81 0
70 81 0
80 91 0
69 80 0
77 90 0
77 89 0
69 80 0
81 93 0
88 99 0
79 90 0
83 93 0
76 86 0
81 93 0
84 96 0
89 101 0
70 82 0
77 90 0
85 98 0
89 102 0
85 96 0
99 111 0
92 104 0
105 118 0
82 95 0
96 109 0
95 108 0
102 115 0
95 106 0
105 116 0
103 116 0
106 118 0
120 134 0
109 123 0
105 119 0
101 115 0
100 114 0
103 117 0
117 133 0
110 123 0
110 124 0
118 129 0
116 130 0
119 132 0
113 128 0
101 114 0
115 128 0
122 136 0
119 133 0
128 141 0
124 135 0
111 124 0
115 127 0
117 129 0
119 130 0
122 136 0
127 137 0
115 126 0
128 140 0
112 124 0
129 141 0
118 130 0
128 139 0
125 134 0
123 130 0
122 132 0
121 131 0
119 126 0
114 123 0
120 126 0
123 135 0
128 136 0
129 138 0
104 110 0
116 125 0
115 121 0
115 123 0
107 110 0
124 126 0
130 135 0
125 126 0
117 121 0
115 116 0
115 118 0
114 118 0
118 119 0
112 111 0
108 109 0
109 108 0
108 106 0
108 106 0
100 98 0
107 103 0
102 98 0
97 93 0
98 93 0
98 98 0
82 73 0
97 87 0
75 66 0
87 77 0
80 64 0
89 74 0
96 84 0
98 87 0
91 79 0
111 96 0
94 81 0
89 79 0
105 93 0
100 85 0
103 92 0
108 96 0
107 95 0
118 105 0
105 92 0
111 97 0
117 103 0
112 98 0
128 115 0
122 110 0
116 103 0
121 106 0
131 118 0
113 101 0
117 106 0
122 107 0
127 115 0
126 113 0
127 115 0
128 117 0
120 108 0
134 120 0
133 119 0
127 116 0
129 116 0
131 118 0
130 118 0
134 121 0
133 121 0
137 125 0
132 121 0
133 121 0
136 122 0
138 125 0
133 121 0
133 121 0
130 119 0
135 124 0
136 124 0
135 123 0
133 121 0
131 120 0
140 129 0
141 130 0
134 123 0
133 125 0
139 126 0
139 128 0
139 128 0
136 127 0
136 125 0
138 127 0
142 132 0
141 133 0
131 122 0
137 125 0
138 128 0
139 129 0
137 129 0
129 119 0
137 129 0
134 125 0
145 135 0
135 125 0
134 125 0
139 132 0
127 119 0
138 130 0
142 134 0
129 120 0
135 128 0
138 131 0
137 127 0
123 115 0
129 122 0
137 130 0
133 126 0
132 124 0
126 119 0
131 122 0
126 120 11
132 126 11
124 117 11
126 118 11
132 125 11
130 123 19
128 119 11
129 122 25
124 117 16
128 121 28
120 114 32
193 218 227
197 222 255
197 223 255
198 223 255
198 223 255
198 223 255
199 223 255
199 223 255
199 223 255
199 223 255
199 223 255
199 224 255
200 224 255
200 224 255
200 224 255
200 224 255
200 224 255
200 224 255
200 224 255
200 224 255
200 224 255
200 224 255
201 224 255
201 224 255
201 224 255
201 224 255
201 224 255
201 224 255
201 224 255
201 224 255
201 224 255
201 224 255
201 224 255
201 224 255
201 224 255
201 224 255
201 224 255
201 224 255
201 224 255
201 224 255
201 224 255
201 224 255
201 224 255
201 224 255
201 224 255
201 224 255
201 224 255
201 224 255
201 224 255
201 224 255
201 224 255
201 224 255
201 224 255
201 224 255
201 224 255
201 224 255
201 224 255
200 224 255
200 224 255
200 224 255
200 224 255
200 224 255
200 224 255
200 224 255
200 224 255
200 224 255
200 224 255
199 224 255
199 224 255
199 223 255
199 223 255
199 223 255
199 223 255
198 223 255
198 223 255
198 223 255
198 223 255
198 223 255
197 222 255
197 222 255
197 222 255
197 222 255
196 222 255
196 222 255
196 222 255
195 221 255
195 221 255
194 221 255
194 221 255
193 220 255
193 220 255
192 220 255
192 220 255
191 219 255
190 219 255
190 218 255
189 218 255
188 217 255
186 217 255
180 211 223
172 201 159
163 191 57
156 184 0
163 190 0
163 190 0
163 191 0
159 186 0
161 188 0
161 188 0
163 189 0
165 191 0
160 186 0
160 186 0
158 184 0
160 185 0
164 190 0
159 184 0
161 186 0
159 183 0
160 185 0
159 183 0
158 183 0
157 181 0
160 183 0
162 185 0
152 175 0
152 176 0
156 180 0
154 178 0
154 177 0
154 177 0
154 177 0
155 177 0
150 173 0
153 176 0
147 170 0
148 170 0
156 178 0
146 168 0
149 171 0
158 180 0
147 168 0
153 174 0
152 173 0
150 172 0
147 168 0
147 168 0
148 170 0
142 163 0
148 169 0
151 173 0
145 166 0
137 158 0
147 168 0
137 157 0
144 164 0
139 159 0
127 148 0
122 141 0
136 157 0
132 152 0
132 152 0
124 143 0
124 143 0
137 156 0
134 154 0
128 147 0
129 148 0
126 144 0
121 141 0
109 126 0
120 138 0
120 138 0
121 139 0
108 126 0
112 131 0
107 125 0
109 126 0
112 129 0
98 113 0
91 107 0
96 111 0
106 123 0
109 125 0
101 117 0
84 98 0
91 106 0
94 108 0
86 100 0
102 117 0
74 88 0
98 113 0
80 94 0
85 99 0
80 93 0
93 107 0
84 96 0
87 102 0
76 88 0
88 102 0
75 86 0
82 94 0
81 91 0
93 104 0
91 104 0
78 91 0
79 91 0
94 107 0
85 98 0
90 104 0
80 95 0
76 89 0
82 95 0
79 93 0
100 111 0
98 111 0
80 93 0
85 98 0
93 106 0
93 104 0
99 112 0
94 108 0
93 107 0
90 102 0
95 107 0
109 122 0
97 109 0
102 115 0
105 118 0
115 129 0
95 108 0
98 111 0
100 115 0
111 125 0
113 127 0
115 129 0
113 125 0
112 125 0
118 131 0
109 122 0
111 124 0
115 128 0
113 127 0
121 134 0
125 137 0
124 138 0
122 132 0
124 136 0
115 127 0
120 132 0
127 138 0
130 146 0
124 136 0
117 129 0
120 131 0
122 135 0
131 142 0
119 131 0
131 142 0
120 132 0
119 128 0
132 145 0
116 126 0
123 133 0
122 132 0
126 135 0
108 117 0
128 139 0
113 119 0
123 132 0
113 116 0
126 133 0
127 135 0
131 137 0
112 117 0
114 115 0
119 126 0
111 117 0
121 125 0
116 122 0
122 126 0
112 114 0
107 107 0
110 109 0
112 115 0
107 106 0
117 116 0
111 110 0
106 104 0
104 101 0
110 106 0
96 90 0
110 103 0
106 99 0
101 96 0
92 87 0
92 86 0
90 85 0
89 77 0
71 62 0
78 66 0
83 70 0
81 69 0
95 82 0
93 78 0
97 82 0
97 81 0
103 91 0
103 89 0
105 90 0
104 92 0
114 101 0
109 97 0
104 92 0
111 97 0
117 104 0
114 103 0
113 101 0
120 107 0
118 104 0
123 111 0
124 111 0
115 102 0
125 110 0
131 119 0
123 109 0
124 110 0
124 111 0
129 118 0
127 117 0
123 111 0
134 120 0
123 112 0
132 119 0
127 113 0
130 119 0
132 119 0
129 118 0
133 122 0
135 123 0
135 126 0
132 121 0
131 119 0
134 121 0
130 119 0
135 126 0
134 124 0
133 120 0
129 118 0
129 119 0
134 122 0
133 122 0
138 130 0
136 125 0
133 121 0
137 127 0
130 120 0
129 116 0
135 126 0
137 129 0
137 128 0
136 125 0
132 123 0
138 129 0
143 132 0
133 121 0
135 125 0
135 126 0
140 131 0
127 117 0
134 126 0
138 127 0
131 124 0
134 126 0
134 125 0
133 125 0
130 124 0
134 127 0
126 118 0
132 126 0
138 130 0
126 118 0
134 127 0
126 118 0
122 116 0
127 120 0
123 115 0
127 119 0
128 119 11
124 116 0
122 114 0
129 121 11
129 123 19
115 110 11
125 119 16
121 114 22
113 106 0
119 112 16
119 112 22
125 124 25
173 195 0
177 200 84
186 210 184
193 218 233
197 222 255
197 222 255
197 222 255
198 223 255
198 223 255
198 223 255
198 223 255
198 223 255
198 223 255
199 223 255
199 223 255
199 223 255
199 223 255
199 223 255
199 223 255
199 223 255
199 224 255
199 224 255
200 224 255
200 224 255
200 224 255
200 224 255
200 224 255
200 224 255
200 224 255
200 224 255
200 224 255
200 224 255
200 224 255
200 224 255
200 224 255
200 224 255
200 224 255
200 224 255
200 224 255
200 224 255
200 224 255
200 224 255
200 224 255
200 224 255
200 224 255
200 224 255
200 224 255
200 224 255
200 224 255
200 224 255
200 224 255
200 224 255
200 224 255
200 224 255
200 224 255
200 224 255
200 224 255
199 224 255
199 224 255
199 224 255
199 223 255
199 223 255
199 223 255
199 223 255
199 223 255
199 223 255
198 223 255
198 223 255
198 223 255
198 223 255
198 223 255
198 223 255
197 222 255
197 222 255
197 222 255
197 222 255
196 222 255
196 222 255
196 222 255
196 222 255
195 221 255
195 221 255
195 221 255
194 221 255
194 221 255
194 220 255
193 220 255
193 220 255
192 220 255
191 219 255
191 219 255
190 219 255
189 218 255
189 218 255
188 217 255
187 217 255
182 212 233
174 204 188
166 194 92
161 190 0
162 190 0
161 189 0
163 191 0
162 190 0
163 191 0
165 192 0
159 186 0
159 186 0
163 190 0
162 188 0
161 188 0
161 187 0
162 187 0
165 191 0
161 186 0
161 186 0
154 179 0
161 186 0
161 186 0
167 191 0
160 185 0
161 185 0
156 180 0
161 185 0
162 185 0
159 183 0
148 172 0
148 172 0
155 179 0
158 183 0
163 185 0
145 168 0
153 175 0
163 187 0
154 176 0
151 174 0
145 168 0
144 166 0
149 170 0
156 178 0
148 170 0
152 174 0
148 169 0
150 172 0
142 164 0
139 160 0
150 171 0
148 170 0
150 171 0
147 168 0
143 164 0
136 156 0
142 163 0
148 169 0
132 153 0
142 162 0
137 158 0
138 158 0
133 154 0
136 157 0
141 160 0
134 153 0
124 144 0
124 144 0
124 144 0
131 149 0
129 149 0
131 149 0
132 151 0
119 137 0
121 138 0
117 135 0
115 134 0
102 119 0
116 134 0
112 130 0
107 124 0
112 129 0
116 133 0
102 118 0
108 124 0
113 130 0
96 112 0
101 118 0
104 119 0
98 113 0
100 115 0
100 117 0
105 121 0
98 113 0
85 100 0
88 103 0
92 106 0
109 124 0
95 111 0
90 104 0
85 99 0
80 93 0
82 96 0
96 111 0
101 117 0
85 99 0
89 104 0
93 107 0
90 102 0
85 97 0
88 100 0
89 102 0
85 97 0
92 107 0
97 111 0
97 110 0
94 107 0
86 101 0
101 115 0
93 106 0
110 123 0
94 105 0
89 105 0
102 114 0
98 111 0
89 101 0
95 107 0
99 113 0
113 128 0
105 118 0
100 112 0
113 127 0
85 99 0
119 133 0
104 117 0
100 112 0
104 117 0
114 128 0
103 119 0
108 122 0
120 133 0
107 120 0
110 126 0
111 125 0
121 134 0
120 134 0
112 126 0
113 125 0
117 128 0
120 132 0
132 147 0
110 120 0
127 141 0
124 137 0
131 143 0
119 131 0
122 134 0
122 133 0
121 135 0
123 135 0
123 133 0
127 140 0
110 122 0
118 129 0
126 139 0
124 135 0
126 138 0
122 134 0
120 130 0
124 135 0
126 136 0
110 119 0
128 136 0
126 132 0
126 131 0
119 130 0
134 144 0
110 114 0
118 127 0
120 126 0
112 117 0
129 137 0
127 131 0
115 119 0
116 119 0
109 114 0
116 119 0
122 126 0
126 127 0
109 109 0
110 110 0
114 115 0
115 115 0
110 108 0
107 108 0
113 110 0
105 102 0
110 105 0
101 99 0
88 83 0
99 93 0
93 89 0
98 88 0
92 85 0
92 82 0
79 70 0
83 72 0
74 62 0
87 74 0
78 69 0
89 73 0
102 88 0
89 77 0
89 75 0
102 89 0
103 89 0
104 92 0
101 88 0
105 92 0
109 96 0
105 93 0
108 96 0
105 94 0
106 93 0
111 99 0
119 105 0
112 100 0
124 110 0
115 101 0
118 104 0
120 107 0
123 110 0
120 107 0
124 111 0
122 109 0
126 114 0
120 110 0
127 114 0
130 118 0
119 106 0
131 118 0
130 119 0
130 121 0
123 110 0
132 122 0
132 118 0
130 117 0
129 117 0
132 119 0
124 112 0
130 122 0
135 122 0
130 119 0
133 121 0
134 121 0
130 119 0
132 120 0
130 120 0
128 119 0
131 120 0
135 124 0
129 121 0
138 129 0
125 115 0
129 119 0
136 126 0
131 122 0
136 125 0
140 129 0
126 117 0
131 119 0
126 115 0
134 126 0
134 125 0
134 126 0
130 118 0
129 118 0
129 120 0
127 121 0
123 114 0
126 116 0
125 116 0
124 114 0
136 129 0
119 111 0
127 120 0
128 120 0
127 118 0
123 114 0
129 122 0
127 119 11
123 117 11
126 119 0
119 113 16
129 122 16
112 104 19
122 116 16
122 114 16
115 107 16
115 109 22
123 123 16
156 167 25
161 179 0
171 190 0
169 192 0
174 197 0
175 197 0
174 197 0
180 203 125
186 211 196
193 219 245
196 222 255
196 222 255
196 222 255
197 222 255
197 222 255
197 222 255
197 222 255
198 223 255
198 223 255
198 223 255
198 223 255
198 223 255
198 223 255
198 223 255
198 223 255
198 223 255
199 223 255
199 223 255
199 223 255
199 223 255
199 223 255
199 223 255
199 223 255
199 223 255
199 223 255
199 223 255
199 223 255
199 223 255
199 223 255
199 223 255
199 223 255
199 223 255
199 223 255
199 223 255
199 223 255
199 223 255
199 223 255
199 223 255
199 223 255
199 223 255
199 223 255
199 223 255
199 223 255
199 223 255
199 223 255
199 223 255
199 223 255
199 223 255
198 223 255
198 223 255
198 223 255
198 223 255
198 223 255
198 223 255
198 223 255
198 223 255
198 223 255
198 223 255
197 222 255
197 222 255
197 222 255
197 222 255
197 222 255
196 222 255
196 222 255
196 222 255
196 222 255
196 221 255
195 221 255
195 221 255
195 221 255
194 221 255
194 221 255
194 221 255
193 220 255
193 220 255
193 220 255
192 220 255
192 219 255
191 219 255
190 219 255
190 218 255
189 218 255
188 218 255
187 217 255
186 217 255
181 211 228
175 204 175
167 196 117
164 192 25
163 191 0
159 187 0
163 191 0
160 188 0
160 188 0
162 189 0
160 187 0
160 187 0
162 189 0
159 186 0
161 188 0
166 192 0
164 190 0
158 184 0
161 186 0
158 183 0
159 184 0
156 181 0
164 189 0
157 182 0
166 189 0
157 182 0
150 173 0
159 183 0
157 181 0
155 179 0
157 181 0
153 177 0
160 183 0
152 176 0
150 173 0
156 179 0
160 183 0
163 185 0
152 174 0
145 168 0
154 176 0
153 175 0
157 179 0
150 173 0
148 171 0
153 175 0
153 174 0
150 172 0
154 176 0
160 182 0
149 171 0
151 173 0
146 167 0
147 168 0
143 165 0
141 162 0
152 173 0
141 162 0
146 167 0
145 166 0
142 164 0
135 155 0
137 157 0
144 164 0
144 165 0
135 155 0
142 162 0
123 143 0
138 157 0
137 157 0
134 153 0
137 156 0
124 144 0
117 135 0
124 142 0
117 135 0
115 134 0
125 144 0
108 127 0
123 141 0
111 130 0
118 135 0
109 126 0
115 134 0
119 137 0
108 126 0
108 124 0
113 130 0
102 119 0
115 133 0
108 125 0
112 129 0
115 132 0
95 110 0
114 131 0
100 115 0
88 103 0
96 111 0
95 111 0
97 113 0
96 111 0
99 115 0
93 109 0
92 106 0
91 105 0
98 112 0
93 108 0
89 104 0
88 101 0
86 101 0
80 93 0
91 107 0
93 108 0
93 107 0
100 113 0
96 110 0
93 107 0
98 112 0
87 100 0
97 109 0
105 118 0
97 110 0
83 96 0
95 109 0
95 108 0
95 108 0
94 107 0
98 112 0
91 105 0
92 107 0
87 97 0
100 114 0
108 122 0
107 122 0
97 112 0
110 123 0
112 124 0
107 122 0
111 125 0
107 121 0
123 136 0
126 138 0
110 124 0
114 128 0
115 128 0
105 116 0
125 141 0
116 128 0
118 132 0
117 128 0
126 140 0
119 131 0
112 124 0
125 140 0
125 141 0
134 148 0
129 144 0
115 128 0
123 136 0
127 140 0
135 149 0
128 140 0
126 138 0
135 148 0
119 132 0
118 129 0
113 121 0
123 132 0
119 130 0
116 126 0
130 138 0
121 130 0
122 132 0
110 117 0
117 125 0
126 136 0
115 122 0
136 145 0
114 121 0
121 129 0
123 132 0
118 123 0
126 132 0
117 125 0
118 123 0
124 130 0
135 141 0
114 118 0
121 123 0
122 127 0
122 125 0
115 117 0
118 122 0
122 127 0
120 122 0
117 123 0
119 117 0
100 98 0
113 113 0
109 105 0
105 100 0
100 95 0
103 99 0
109 103 0
101 98 0
89 79 0
93 89 0
107 103 0
91 84 0
87 80 0
96 90 0
83 73 0
76 67 0
80 67 0
85 71 0
89 75 0
87 73 0
101 87 0
91 78 0
94 80 0
94 79 0
106 92 0
103 88 0
108 93 0
109 96 0
116 101 0
103 88 0
113 98 0
113 102 0
107 92 0
118 106 0
118 104 0
117 103 0
112 99 0
114 101 0
113 99 0
116 103 0
125 111 0
118 105 0
117 104 0
123 108 0
128 113 0
121 109 0
130 116 0
117 103 0
125 113 0
129 115 0
126 114 0
130 118 0
135 123 0
124 112 0
125 116 0
131 119 0
131 117 0
135 125 0
132 121 0
134 122 0
128 118 0
133 121 0
133 122 0
130 118 0
122 110 0
135 124 0
134 123 0
133 124 0
136 125 0
130 119 0
124 114 0
128 117 0
131 119 0
121 113 0
134 123 0
134 123 0
137 126 0
129 121 0
124 114 0
121 111 0
129 118 0
135 126 0
128 118 0
128 119 0
128 120 0
130 121 0
129 120 0
129 119 0
122 114 0
128 119 0
123 113 0
123 114 0
127 120 0
126 120 0
127 120 0
121 115 11
124 116 11
119 112 0
124 117 19
115 107 25
129 121 16
120 112 25
114 106 28
129 125 11
140 148 19
161 176 0
168 187 0
169 188 0
173 193 0
170 189 0
173 197 0
174 197 0
174 197 0
174 197 0
174 196 0
172 195 0
175 198 0
179 203 133
186 211 196
191 217 231
195 221 255
195 221 255
196 221 255
196 222 255
196 222 255
196 222 255
197 222 255
197 222 255
197 222 255
197 222 255
197 222 255
197 222 255
197 222 255
197 222 255
197 222 255
198 223 255
198 223 255
198 223 255
198 223 255
198 223 255
198 223 255
198 223 255
198 223 255
198 223 255
198 223 255
198 223 255
198 223 255
198 223 255
198 223 255
198 223 255
198 223 255
198 223 255
198 223 255
198 223 255
198 223 255
198 223 255
198 223 255
198 223 255
198 223 255
198 223 255
198 223 255
198 223 255
198 223 255
197 223 255
197 223 255
197 222 255
197 222 255
197 222 255
197 222 255
197 222 255
197 222 255
197 222 255
197 222 255
196 222 255
196 222 255
196 222 255
196 222 255
196 222 255
195 221 255
195 221 255
195 221 255
195 221 255
195 221 255
194 221 255
194 221 255
194 221 255
193 220 255
193 220 255
193 220 255
192 220 255
192 220 255
191 219 255
191 219 255
190 219 255
190 218 255
189 218 255
189 218 255
188 217 255
187 217 255
186 216 255
181 211 226
174 204 179
166 195 111
162 190 0
163 191 0
158 187 0
161 189 0
162 189 0
163 190 0
163 190 0
158 185 0
159 186 0
159 186 0
164 190 0
163 188 0
160 187 0
163 189 0
159 186 0
166 191 0
160 186 0
163 189 0
165 191 0
160 186 0
166 190 0
159 184 0
158 182 0
158 182 0
156 180 0
158 182 0
162 185 0
155 178 0
158 182 0
161 185 0
153 176 0
158 181 0
157 181 0
162 185 0
155 178 0
154 178 0
155 178 0
148 171 0
155 179 0
147 168 0
151 174 0
155 177 0
156 178 0
149 171 0
156 177 0
152 174 0
142 164 0
146 167 0
136 159 0
152 173 0
146 168 0
155 176 0
153 174 0
148 169 0
147 169 0
142 163 0
143 165 0
138 159 0
153 174 0
145 165 0
149 170 0
135 156 0
150 170 0
142 162 0
125 144 0
142 163 0
140 161 0
138 158 0
130 150 0
131 150 0
135 155 0
134 154 0
125 144 0
130 150 0
130 150 0
117 135 0
113 132 0
126 145 0
122 141 0
122 141 0
113 131 0
116 134 0
112 129 0
113 130 0
114 132 0
101 118 0
105 123 0
113 131 0
100 116 0
104 121 0
111 127 0
101 118 0
109 125 0
107 122 0
96 113 0
96 113 0
114 130 0
104 120 0
111 128 0
107 120 0
104 118 0
99 114 0
89 105 0
94 109 0
93 108 0
99 115 0
102 113 0
75 90 0
90 103 0
98 113 0
86 101 0
98 112 0
87 101 0
106 122 0
90 105 0
100 115 0
84 99 0
93 107 0
108 122 0
109 124 0
94 108 0
86 102 0
110 125 0
99 113 0
107 120 0
97 112 0
105 118 0
106 121 0
101 116 0
99 112 0
107 121 0
110 124 0
92 108 0
96 109 0
103 115 0
111 124 0
112 128 0
102 117 0
109 124 0
109 123 0
108 122 0
116 129 0
117 131 0
110 125 0
106 118 0
124 136 0
114 126 0
118 133 0
121 135 0
105 119 0
110 125 0
112 124 0
121 134 0
131 143 0
116 129 0
120 135 0
119 131 0
127 141 0
135 149 0
128 143 0
123 133 0
124 137 0
119 130 0
119 133 0
124 137 0
127 141 0
136 151 0
116 127 0
125 136 0
131 144 0
130 142 0
118 128 0
128 141 0
126 135 0
122 132 0
132 143 0
136 147 0
128 140 0
127 134 0
121 128 0
123 130 0
118 126 0
123 131 0
122 130 0
121 127 0
123 128 0
120 125 0
125 130 0
120 124 0
123 128 0
119 125 0
118 123 0
127 131 0
120 122 0
117 117 0
116 118 0
113 113 0
117 116 0
114 112 0
101 98 0
105 104 0
103 98 0
114 110 0
109 105 0
112 108 0
100 91 0
105 105 0
96 90 0
100 93 0
102 96 0
99 91 0
96 92 0
86 78 0
94 88 0
87 78 0
80 69 0
78 69 0
94 78 0
91 77 0
90 78 0
101 87 0
95 80 0
100 84 0
105 93 0
106 94 0
95 82 0
103 88 0
108 95 0
111 97 0
101 86 0
103 89 0
109 97 0
115 103 0
112 99 0
109 97 0
111 96 0
110 96 0
115 100 0
118 107 0
124 111 0
117 103 0
126 111 0
126 114 0
120 108 0
118 104 0
112 101 0
124 110 0
122 111 0
127 113 0
130 118 0
121 108 0
119 107 0
130 119 0
127 114 0
127 114 0
122 110 0
132 120 0
132 120 0
128 117 0
132 120 0
132 121 0
128 118 0
135 122 0
133 121 0
123 112 0
133 123 0
133 121 0
130 121 0
126 114 0
126 116 0
130 122 0
131 122 0
129 120 0
125 116 0
126 117 0
120 111 0
131 122 0
130 119 0
125 114 0
123 115 0
132 124 0
127 120 0
136 127 0
124 115 0
131 122 0
135 125 0
125 116 0
119 112 0
127 118 0
126 119 11
126 115 11
123 114 11
115 107 11
119 111 22
122 115 19
115 108 16
118 110 16
138 139 32
150 157 16
164 179 11
170 189 0
170 190 0
168 188 0
168 185 0
171 191 0
170 190 0
169 189 0
174 197 0
172 195 0
173 196 0
172 196 0
175 198 0
174 198 0
175 198 0
174 197 0
171 195 0
173 196 0
178 202 92
182 207 165
187 213 207
191 218 244
194 221 255
194 221 255
195 221 255
195 221 255
195 221 255
195 221 255
196 222 255
196 222 255
196 222 255
196 222 255
196 222 255
196 222 255
196 222 255
196 222 255
196 222 255
197 222 255
197 222 255
197 222 255
197 222 255
197 222 255
197 222 255
197 222 255
197 222 255
197 222 255
197 222 255
197 222 255
197 222 255
197 222 255
197 222 255
197 222 255
197 222 255
197 222 255
197 222 255
197 222 255
197 222 255
196 222 255
196 222 255
196 222 255
196 222 255
196 222 255
196 222 255
196 222 255
196 222 255
196 222 255
196 222 255
196 222 255
195 221 255
195 221 255
195 221 255
195 221 255
195 221 255
195 221 255
194 221 255
194 221 255
194 221 255
194 221 255
193 220 255
193 220 255
193 220 255
193 220 255
192 220 255
192 220 255
192 219 255
191 219 255
191 219 255
190 219 255
190 218 255
189 218 255
188 218 255
188 217 255
187 217 255
186 216 255
183 214 242
176 206 196
171 201 159
165 193 76
162 191 0
161 189 0
165 193 0
163 190 0
164 192 0
159 187 0
164 191 0
161 189 0
160 187 0
162 189 0
161 188 0
159 186 0
165 191 0
163 189 0
162 187 0
162 189 0
165 191 0
160 186 0
162 187 0
162 188 0
165 191 0
163 188 0
161 186 0
156 180 0
156 181 0
163 188 0
159 184 0
161 185 0
158 182 0
160 185 0
159 183 0
162 185 0
156 180 0
158 180 0
155 178 0
157 179 0
151 175 0
151 174 0
158 181 0
156 179 0
158 181 0
154 177 0
153 175 0
158 180 0
150 172 0
149 171 0
152 175 0
153 176 0
153 174 0
155 178 0
150 171 0
152 174 0
151 173 0
150 172 0
157 178 0
148 169 0
149 171 0
156 177 0
143 165 0
142 164 0
147 168 0
138 159 0
140 161 0
139 159 0
136 156 0
145 165 0
134 154 0
134 154 0
138 157 0
132 153 0
141 161 0
137 157 0
132 151 0
126 146 0
136 155 0
134 153 0
127 146 0
138 158 0
123 142 0
124 144 0
129 148 0
120 138 0
131 149 0
114 132 0
122 140 0
116 135 0
112 131 0
128 145 0
118 136 0
104 120 0
115 134 0
115 132 0
108 125 0
112 128 0
103 120 0
109 127 0
114 130 0
114 131 0
108 124 0
111 127 0
86 102 0
107 122 0
87 103 0
108 126 0
99 115 0
102 117 0
107 122 0
106 122 0
97 112 0
107 121 0
103 120 0
88 103 0
106 124 0
96 112 0
100 117 0
103 118 0
106 121 0
104 119 0
101 117 0
100 115 0
112 129 0
101 117 0
105 121 0
100 114 0
111 126 0
117 133 0
91 103 0
112 127 0
86 100 0
108 122 0
115 128 0
112 125 0
105 118 0
106 121 0
107 122 0
115 131 0
125 140 0
113 127 0
111 127 0
110 125 0
114 130 0
127 142 0
121 134 0
112 126 0
106 119 0
120 135 0
120 136 0
112 126 0
119 133 0
116 128 0
119 133 0
126 139 0
127 142 0
122 134 0
118 133 0
117 132 0
125 141 0
122 135 0
126 139 0
129 141 0
120 135 0
121 137 0
119 131 0
120 133 0
131 142 0
130 146 0
129 141 0
119 132 0
122 134 0
131 141 0
122 135 0
130 141 0
133 144 0
126 139 0
128 138 0
129 141 0
116 126 0
122 133 0
128 140 0
121 130 0
117 128 0
122 131 0
121 130 0
124 128 0
133 143 0
121 129 0
123 129 0
126 135 0
128 135 0
124 130 0
124 129 0
119 124 0
127 133 0
128 133 0
128 130 0
125 129 0
124 127 0
128 130 0
115 114 0
120 123 0
122 122 0
115 116 0
122 121 0
116 116 0
114 111 0
112 109 0
114 113 0
111 108 0
115 110 0
106 101 0
103 99 0
97 90 0
104 98 0
93 85 0
113 109 0
97 91 0
100 92 0
91 80 0
94 86 0
90 82 0
89 79 0
86 77 0
82 71 0
84 72 0
77 64 0
92 78 0
84 70 0
87 73 0
95 82 0
90 74 0
101 86 0
102 89 0
101 86 0
113 99 0
98 86 0
106 91 0
111 96 0
110 98 0
114 99 0
116 102 0
108 94 0
109 96 0
113 100 0
113 101 0
120 108 0
123 109 0
118 105 0
123 111 0
125 112 0
122 107 0
113 100 0
120 109 0
119 107 0
128 115 0
127 113 0
125 111 0
122 111 0
112 100 0
124 112 0
121 110 0
128 115 0
124 114 0
120 109 0
121 111 0
130 119 0
112 103 0
121 109 0
127 115 0
118 107 0
130 119 0
122 112 0
117 108 0
127 116 0
127 117 0
126 117 0
131 120 0
133 124 0
122 113 0
125 114 0
127 115 0
126 116 0
123 113 0
129 120 0
117 110 0
123 115 0
122 113 0
123 116 0
122 113 0
127 121 0
126 117 0
116 106 0
119 112 11
126 118 16
114 106 0
119 110 22
109 103 11
122 119 11
136 139 19
149 161 11
167 183 0
170 188 0
170 187 0
169 186 0
168 188 0
167 184 0
165 182 0
171 191 0
168 187 0
171 190 0
169 185 0
171 194 0
176 198 0
174 196 0
173 196 0
173 195 0
175 198 0
173 196 0
175 198 0
173 197 0
174 197 0
171 195 0
173 196 0
175 198 0
173 196 0
177 201 92
184 208 165
186 212 196
191 218 241
193 220 255
194 220 255
194 221 255
194 221 255
194 221 255
194 221 255
195 221 255
195 221 255
195 221 255
195 221 255
195 221 255
195 221 255
195 221 255
195 221 255
195 221 255
195 221 255
195 221 255
195 221 255
195 221 255
196 221 255
196 221 255
196 221 255
196 221 255
195 221 255
195 221 255
195 221 255
195 221 255
195 221 255
195 221 255
195 221 255
195 221 255
195 221 255
195 221 255
195 221 255
195 221 255
195 221 255
195 221 255
194 221 255
194 221 255
194 221 255
194 221 255
194 221 255
194 221 255
194 220 255
193 220 255
193 220 255
193 220 255
193 220 255
193 220 255
192 220 255
192 220 255
192 219 255
192 219 255
191 219 255
191 219 255
190 219 255
190 219 255
190 218 255
189 218 255
189 218 255
188 218 255
187 217 255
187 217 255
186 216 255
182 212 233
179 209 217
171 200 144
167 196 114
164 192 0
163 190 0
163 191 0
164 192 0
161 189 0
163 191 0
164 191 0
162 190 0
164 191 0
160 187 0
161 188 0
161 189 0
160 187 0
162 189 0
158 185 0
162 187 0
163 190 0
159 185 0
158 184 0
162 188 0
162 188 0
162 187 0
161 186 0
162 187 0
156 180 0
161 186 0
161 186 0
162 187 0
166 190 0
158 182 0
161 185 0
157 182 0
157 181 0
155 179 0
159 182 0
161 184 0
154 176 0
158 181 0
151 175 0
160 184 0
147 169 0
151 175 0
150 172 0
151 174 0
153 175 0
155 178 0
151 173 0
151 173 0
148 170 0
159 181 0
156 178 0
140 161 0
151 174 0
147 169 0
149 171 0
147 168 0
151 172 0
148 169 0
153 173 0
142 162 0
146 167 0
147 168 0
144 165 0
137 158 0
139 161 0
152 173 0
150 171 0
139 160 0
132 153 0
151 172 0
134 154 0
138 158 0
131 151 0
139 158 0
136 156 0
146 166 0
133 152 0
134 153 0
138 158 0
136 156 0
136 156 0
125 145 0
137 157 0
130 150 0
134 153 0
121 139 0
125 144 0
135 154 0
127 145 0
130 148 0
119 137 0
110 130 0
126 144 0
119 137 0
125 143 0
115 132 0
119 136 0
120 137 0
115 132 0
123 141 0
92 111 0
108 126 0
108 125 0
112 130 0
114 131 0
112 130 0
103 120 0
104 120 0
110 127 0
114 132 0
112 128 0
109 126 0
108 125 0
105 120 0
107 124 0
116 132 0
111 127 0
115 131 0
115 132 0
98 114 0
105 120 0
105 120 0
106 123 0
100 115 0
111 126 0
112 127 0
106 119 0
107 120 0
108 123 0
100 113 0
102 118 0
105 121 0
111 126 0
113 128 0
115 130 0
119 134 0
110 125 0
118 134 0
101 117 0
92 106 0
116 130 0
111 125 0
116 133 0
111 125 0
114 128 0
111 126 0
121 134 0
119 135 0
115 132 0
118 132 0
111 127 0
115 129 0
120 135 0
117 133 0
120 134 0
121 136 0
113 125 0
120 133 0
133 150 0
127 142 0
139 154 0
121 135 0
111 124 0
120 133 0
126 139 0
132 145 0
133 147 0
125 140 0
128 142 0
135 150 0
135 149 0
137 151 0
134 146 0
129 142 0
132 147 0
129 144 0
131 143 0
127 141 0
123 135 0
126 135 0
127 139 0
121 131 0
127 139 0
128 137 0
128 139 0
127 138 0
131 141 0
121 130 0
124 133 0
130 138 0
122 130 0
122 128 0
133 140 0
122 127 0
122 129 0
126 134 0
117 122 0
126 127 0
124 129 0
132 136 0
117 122 0
121 126 0
117 121 0
124 124 0
118 122 0
118 121 0
106 107 0
119 118 0
120 118 0
128 129 0
117 115 0
108 105 0
117 113 0
108 104 0
115 114 0
108 104 0
107 102 0
104 101 0
106 101 0
110 104 0
107 100 0
98 90 0
103 96 0
95 88 0
96 87 0
98 90 0
88 83 0
83 72 0
82 70 0
76 65 0
76 63 0
93 79 0
79 67 0
94 81 0
93 81 0
92 78 0
101 88 0
103 89 0
104 91 0
95 81 0
105 92 0
101 86 0
104 88 0
103 91 0
109 96 0
105 93 0
112 99 0
112 96 0
114 100 0
106 92 0
124 111 0
116 104 0
112 99 0
117 106 0
110 99 0
120 107 0
112 99 0
126 113 0
121 107 0
121 108 0
111 97 0
115 104 0
123 110 0
120 107 0
117 104 0
124 114 0
123 111 0
120 109 0
124 113 0
129 116 0
124 112 0
128 117 0
123 112 0
122 112 0
131 120 0
120 109 0
126 116 0
120 110 0
118 107 0
120 110 0
117 106 0
121 110 0
116 105 0
123 112 0
117 107 0
124 114 0
124 114 0
111 102 0
125 117 0
122 112 0
119 109 0
119 109 0
109 99 16
108 100 11
109 101 0
111 101 0
117 113 11
140 142 16
148 157 11
161 174 0
166 181 0
166 180 0
168 184 0
170 190 0
166 183 0
166 183 0
166 183 0
169 189 0
166 184 0
169 186 0
171 188 0
166 185 0
169 187 0
168 186 0
172 195 0
173 196 0
174 197 0
174 197 0
174 198 0
176 199 0
174 197 0
176 198 0
173 197 0
175 198 0
173 195 0
172 196 0
174 197 0
174 197 0
172 195 0
172 195 0
174 197 0
172 196 0
177 201 92
180 205 140
183 208 184
188 215 223
190 217 240
192 220 255
193 220 255
193 220 255
193 220 255
193 220 255
193 220 255
194 220 255
193 220 255
194 220 255
194 221 255
194 221 255
194 221 255
194 221 255
194 221 255
194 221 255
194 221 255
194 221 255
194 221 255
194 221 255
194 221 255
194 221 255
194 221 255
194 221 255
194 221 255
194 221 255
194 220 255
194 220 255
193 220 255
193 220 255
193 220 255
193 220 255
193 220 255
193 220 255
193 220 255
193 220 255
192 220 255
192 220 255
192 220 255
192 220 255
192 219 255
191 219 255
191 219 255
191 219 255
191 219 255
190 219 255
190 219 255
190 218 255
189 218 255
189 218 255
188 218 255
188 217 255
187 217 255
187 217 255
186 217 255
183 213 238
179 209 212
173 203 173
171 201 153
164 193 76
163 192 0
164 192 0
162 190 0
165 191 0
162 190 0
163 192 0
164 192 0
164 193 0
163 190 0
164 192 0
164 190 0
164 191 0
165 191 0
162 189 0
164 192 0
164 190 0
162 189 0
162 189 0
161 187 0
160 187 0
164 190 0
163 189 0
163 188 0
158 184 0
159 184 0
163 189 0
163 189 0
161 186 0
159 184 0
162 186 0
159 184 0
160 185 0
161 185 0
159 183 0
157 180 0
158 182 0
161 184 0
165 188 0
157 180 0
156 179 0
164 187 0
153 177 0
160 183 0
154 177 0
159 181 0
157 180 0
155 176 0
155 178 0
147 170 0
151 173 0
153 174 0
158 180 0
152 174 0
155 176 0
147 170 0
158 179 0
143 165 0
146 168 0
147 168 0
155 177 0
154 176 0
152 175 0
145 165 0
138 158 0
147 168 0
139 159 0
148 169 0
152 173 0
143 164 0
149 169 0
153 174 0
145 166 0
139 160 0
143 164 0
141 162 0
145 165 0
127 148 0
144 164 0
141 163 0
137 157 0
139 160 0
133 152 0
134 153 0
135 155 0
136 157 0
122 141 0
128 148 0
127 147 0
127 146 0
134 154 0
125 144 0
128 148 0
130 149 0
125 144 0
126 144 0
132 151 0
122 140 0
115 133 0
120 137 0
118 137 0
120 138 0
120 137 0
108 126 0
113 131 0
121 139 0
120 137 0
114 132 0
115 131 0
101 117 0
107 124 0
97 113 0
113 128 0
112 130 0
113 129 0
105 122 0
96 113 0
114 131 0
98 117 0
102 119 0
108 124 0
117 133 0
110 126 0
96 113 0
101 116 0
118 135 0
114 129 0
105 121 0
86 103 0
106 122 0
99 115 0
113 129 0
125 141 0
101 116 0
110 127 0
102 117 0
97 113 0
118 136 0
98 112 0
119 134 0
108 122 0
110 124 0
114 131 0
107 123 0
117 134 0
106 120 0
115 132 0
120 136 0
123 137 0
114 130 0
120 135 0
119 133 0
114 128 0
122 137 0
114 130 0
112 127 0
117 130 0
120 137 0
119 134 0
111 128 0
121 133 0
118 133 0
116 131 0
123 136 0
122 136 0
126 139 0
131 145 0
120 134 0
119 131 0
129 141 0
117 131 0
129 144 0
136 149 0
125 138 0
125 135 0
130 146 0
121 133 0
135 148 0
135 149 0
122 131 0
125 138 0
126 141 0
118 130 0
122 131 0
126 137 0
131 144 0
119 129 0
132 145 0
126 137 0
133 142 0
126 136 0
126 136 0
130 137 0
129 137 0
126 135 0
122 130 0
127 137 0
131 140 0
128 135 0
130 136 0
130 137 0
125 132 0
126 132 0
132 138 0
124 126 0
127 131 0
125 132 0
130 134 0
124 126 0
124 128 0
122 124 0
123 126 0
131 132 0
129 132 0
115 118 0
118 120 0
121 119 0
123 121 0
123 123 0
122 121 0
114 111 0
111 109 0
107 101 0
118 114 0
105 102 0
116 115 0
99 93 0
103 92 0
105 98 0
106 98 0
103 93 0
100 92 0
101 95 0
96 88 0
89 81 0
91 82 0
94 85 0
96 90 0
87 75 0
90 78 0
90 75 0
78 66 0
89 76 0
90 76 0
106 94 0
90 77 0
103 89 0
99 84 0
101 87 0
106 89 0
110 96 0
104 90 0
101 88 0
105 91 0
105 92 0
109 96 0
107 94 0
116 104 0
116 103 0
113 99 0
110 98 0
114 100 0
123 109 0
115 99 0
118 104 0
111 100 0
121 108 0
118 104 0
114 100 0
110 98 0
114 102 0
121 110 0
120 108 0
125 114 0
113 103 0
107 95 0
116 102 0
111 101 0
119 107 0
112 102 0
110 99 0
123 110 0
126 114 0
126 118 0
120 109 0
120 110 0
116 106 0
119 106 0
115 105 0
116 107 0
119 110 0
118 109 0
114 105 0
113 104 0
110 103 0
110 102 0
120 118 11
115 112 16
139 145 0
143 149 11
161 174 0
168 182 0
165 180 0
168 182 0
169 184 0
167 183 0
169 186 0
164 179 0
169 187 0
167 184 0
170 187 0
168 183 0
166 183 0
166 183 0
168 186 0
168 185 0
166 182 0
167 185 0
169 187 0
174 197 0
176 198 0
175 198 0
174 197 0
175 197 0
174 196 0
175 198 0
174 197 0
174 197 0
173 196 0
174 197 0
175 198 0
173 197 0
175 198 0
173 195 0
173 197 0
175 198 0
175 198 0
174 197 0
175 198 0
173 196 0
176 199 0
173 197 0
176 200 84
177 202 142
182 207 163
186 213 217
187 215 230
190 218 248
191 219 255
191 219 255
191 219 255
192 219 255
192 219 255
192 220 255
192 220 255
192 220 255
192 220 255
192 220 255
192 220 255
192 220 255
192 220 255
192 220 255
192 220 255
192 220 255
192 220 255
192 220 255
192 220 255
192 220 255
192 219 255
192 219 255
192 219 255
191 219 255
191 219 255
191 219 255
191 219 255
191 219 255
191 219 255
190 219 255
190 219 255
190 219 255
190 218 255
189 218 255
189 218 255
189 218 255
188 218 255
188 218 255
188 217 255
187 217 255
187 217 255
186 216 255
184 215 246
181 212 228
179 209 211
175 204 175
170 199 137
168 196 92
164 192 0
164 192 0
163 191 0
161 190 0
162 191 0
163 192 0
165 192 0
162 190 0
161 188 0
164 191 0
165 193 0
165 192 0
164 190 0
163 190 0
160 187 0
161 189 0
162 188 0
163 190 0
162 188 0
164 191 0
160 186 0
161 187 0
162 188 0
165 191 0
163 189 0
161 187 0
160 185 0
160 186 0
164 189 0
163 188 0
165 190 0
162 186 0
159 183 0
161 186 0
160 184 0
156 180 0
160 184 0
160 183 0
163 186 0
159 183 0
158 182 0
160 183 0
159 182 0
154 177 0
155 178 0
159 182 0
157 180 0
153 175 0
154 177 0
153 175 0
153 176 0
156 179 0
165 188 0
153 176 0
157 179 0
153 174 0
152 174 0
152 174 0
150 173 0
154 176 0
152 174 0
146 168 0
157 179 0
155 176 0
149 171 0
149 170 0
150 172 0
146 167 0
147 169 0
148 169 0
147 169 0
143 164 0
143 165 0
151 171 0
142 163 0
150 171 0
149 170 0
150 171 0
143 164 0
136 156 0
131 150 0
130 149 0
131 151 0
135 155 0
132 152 0
133 153 0
139 160 0
130 150 0
146 165 0
125 145 0
129 149 0
129 148 0
122 141 0
130 148 0
121 140 0
123 142 0
122 140 0
129 148 0
125 143 0
122 141 0
112 131 0
113 131 0
125 144 0
122 140 0
114 132 0
112 130 0
110 129 0
111 127 0
118 136 0
128 147 0
108 125 0
118 135 0
109 126 0
119 136 0
124 141 0
116 133 0
98 116 0
118 136 0
121 137 0
111 129 0
114 131 0
108 125 0
98 115 0
98 114 0
112 129 0
107 122 0
119 135 0
101 115 0
121 138 0
107 124 0
109 123 0
110 126 0
104 121 0
119 134 0
106 125 0
117 133 0
116 133 0
111 129 0
107 123 0
122 137 0
121 137 0
101 117 0
110 126 0
112 126 0
118 133 0
113 128 0
118 134 0
108 124 0
120 137 0
113 128 0
115 131 0
123 140 0
123 139 0
106 121 0
134 149 0
124 140 0
113 127 0
121 136 0
123 138 0
132 151 0
119 136 0
119 135 0
127 142 0
117 132 0
122 138 0
124 140 0
125 139 0
116 131 0
127 142 0
121 134 0
130 144 0
123 136 0
134 150 0
127 141 0
126 140 0
132 148 0
130 145 0
121 138 0
126 142 0
135 152 0
127 142 0
123 136 0
120 133 0
127 139 0
129 142 0
138 150 0
127 138 0
126 138 0
126 140 0
132 145 0
133 142 0
143 155 0
128 141 0
129 140 0
128 138 0
135 149 0
138 148 0
133 142 0
133 141 0
130 138 0
128 138 0
121 131 0
134 143 0
122 130 0
125 134 0
131 140 0
127 133 0
133 141 0
130 138 0
129 139 0
120 123 0
113 118 0
118 121 0
125 131 0
126 130 0
115 119 0
121 122 0
122 124 0
120 125 0
125 125 0
128 133 0
113 110 0
119 119 0
117 116 0
124 122 0
114 112 0
123 122 0
109 105 0
117 114 0
118 112 0
116 111 0
110 107 0
104 96 0
106 97 0
117 112 0
109 103 0
117 112 0
102 92 0
114 106 0
104 96 0
110 101 0
102 94 0
104 100 0
98 92 0
103 98 0
98 87 0
95 82 0
92 79 0
91 84 0
74 61 0
85 69 0
89 73 0
93 77 0
89 77 0
92 77 0
93 79 0
98 82 0
98 84 0
107 91 0
102 88 0
97 84 0
99 85 0
96 82 0
106 93 0
105 91 0
114 101 0
114 99 0
115 102 0
110 97 0
107 93 0
104 91 0
118 107 0
108 97 0
120 109 0
101 88 0
115 103 0
116 103 0
116 103 0
114 102 0
115 102 0
98 90 0
120 110 0
116 103 0
115 101 0
97 88 0
118 108 0
109 98 0
111 100 0
107 96 0
109 97 0
111 102 0
109 98 0
111 102 0
105 94 0
116 108 0
113 108 0
120 119 0
137 141 0
147 154 0
157 168 0
163 176 0
165 177 0
166 180 0
167 181 0
165 179 0
163 177 0
163 179 0
165 181 0
166 182 0
164 178 0
163 176 0
168 183 0
165 181 0
167 185 0
167 183 0
166 183 0
169 184 0
166 180 0
167 184 0
167 185 0
170 186 0
170 186 0
168 184 0
171 194 0
175 198 0
174 197 0
172 195 0
175 197 0
173 196 0
173 195 0
173 196 0
173 195 0
175 198 0
174 197 0
175 198 0
175 198 0
172 195 0
174 196 0
175 198 0
174 197 0
174 197 0
175 198 0
171 195 0
174 197 0
174 198 0
177 199 0
173 196 0
173 196 0
174 197 0
172 196 0
173 197 0
172 196 0
174 198 57
177 202 125
178 203 137
177 204 167
180 207 181
183 210 196
184 211 215
187 215 236
189 218 252
189 218 255
190 218 255
190 218 255
190 218 255
190 218 255
190 218 255
190 218 255
190 218 255
190 218 255
190 218 255
189 218 255
189 218 255
189 218 255
189 218 255
189 218 255
189 218 255
189 218 255
188 218 255
188 218 255
188 217 255
188 217 255
187 217 255
187 217 255
186 217 254
185 215 249
183 213 236
180 210 217
179 209 206
178 208 203
174 203 167
170 199 130
169 198 117
166 193 51
166 193 0
165 193 0
165 193 0
164 192 0
165 193 0
163 191 0
166 194 0
163 191 0
165 193 0
163 191 0
165 193 0
166 194 0
161 188 0
162 190 0
163 191 0
165 193 0
163 191 0
166 193 0
166 193 0
165 191 0
163 189 0
166 193 0
168 193 0
165 192 0
164 190 0
159 185 0
162 188 0
163 187 0
160 186 0
158 183 0
167 192 0
163 188 0
162 187 0
160 184 0
159 184 0
161 185 0
164 188 0
159 184 0
161 186 0
161 184 0
160 184 0
156 180 0
160 184 0
155 178 0
160 183 0
163 187 0
163 187 0
161 184 0
152 175 0
164 188 0
161 184 0
159 181 0
156 178 0
155 178 0
156 179 0
161 184 0
154 176 0
158 181 0
159 182 0
164 187 0
160 183 0
151 173 0
157 179 0
144 166 0
158 180 0
152 173 0
152 174 0
147 169 0
149 170 0
147 168 0
148 170 0
148 169 0
149 171 0
152 174 0
158 180 0
140 161 0
148 169 0
144 166 0
157 178 0
147 166 0
137 158 0
138 159 0
135 156 0
144 165 0
141 162 0
144 164 0
144 165 0
144 164 0
125 145 0
133 153 0
133 152 0
132 152 0
143 164 0
142 161 0
138 157 0
144 164 0
133 152 0
134 154 0
127 147 0
136 155 0
131 151 0
132 151 0
127 147 0
125 143 0
125 144 0
113 131 0
118 137 0
129 149 0
127 146 0
116 135 0
124 143 0
137 156 0
124 143 0
115 135 0
121 139 0
117 136 0
125 144 0
127 144 0
123 142 0
119 137 0
121 137 0
113 131 0
112 130 0
116 134 0
116 132 0
110 127 0
112 130 0
110 129 0
116 134 0
113 129 0
114 130 0
122 139 0
124 141 0
116 131 0
107 123 0
119 138 0
113 127 0
124 141 0
121 138 0
120 135 0
121 137 0
112 129 0
115 133 0
123 138 0
114 128 0
114 131 0
113 130 0
130 147 0
108 124 0
118 133 0
108 123 0
114 128 0
123 138 0
123 140 0
107 122 0
121 136 0
113 130 0
120 136 0
133 149 0
114 131 0
115 132 0
124 140 0
122 139 0
117 134 0
130 145 0
127 141 0
125 140 0
127 142 0
134 149 0
122 139 0
132 148 0
126 141 0
128 145 0
117 131 0
131 148 0
131 146 0
123 136 0
140 155 0
135 152 0
130 145 0
132 145 0
126 142 0
131 145 0
132 146 0
136 152 0
129 143 0
127 142 0
118 133 0
133 146 0
129 141 0
131 143 0
136 149 0
131 143 0
135 147 0
137 150 0
136 153 0
130 144 0
127 139 0
131 143 0
133 146 0
134 147 0
138 150 0
129 138 0
124 133 0
131 141 0
152 163 0
133 142 0
136 149 0
131 142 0
127 133 0
129 138 0
132 138 0
124 131 0
129 135 0
126 130 0
120 126 0
122 127 0
123 130 0
128 134 0
133 138 0
121 126 0
132 136 0
127 131 0
119 123 0
133 140 0
127 130 0
125 126 0
124 124 0
114 109 0
112 111 0
113 109 0
128 128 0
122 121 0
120 120 0
111 107 0
118 114 0
118 115 0
120 118 0
107 102 0
126 121 0
110 103 0
113 108 0
101 94 0
114 110 0
106 98 0
101 92 0
110 103 0
103 97 0
103 97 0
105 99 0
108 97 0
109 101 0
107 98 0
100 90 0
92 81 0
112 104 0
96 81 0
109 101 0
107 96 0
103 93 0
100 87 0
96 85 0
103 92 0
97 85 0
98 84 0
101 90 0
99 84 0
107 94 0
90 78 0
100 87 0
98 83 0
94 82 0
97 84 0
104 90 0
106 94 0
108 95 0
104 91 0
109 96 0
99 88 0
109 95 0
105 93 0
99 86 0
99 86 0
108 95 0
108 96 0
111 97 0
104 93 0
107 95 0
100 88 0
109 98 0
109 97 0
109 96 0
114 105 0
111 107 0
128 127 0
127 126 0
131 134 0
141 144 0
144 149 0
162 171 0
161 170 0
160 167 0
158 167 0
161 172 0
164 175 0
161 170 0
164 176 0
164 176 0
162 172 0
163 174 0
165 179 0
163 173 0
161 172 0
169 185 0
163 177 0
167 181 0
163 178 0
170 184 0
164 179 0
165 181 0
166 180 0
168 184 0
167 183 0
167 184 0
167 183 0
166 184 0
166 181 0
169 186 0
168 184 0
175 198 0
174 197 0
175 198 0
176 199 0
176 199 0
173 196 0
175 198 0
175 198 0
171 195 0
176 198 0
173 196 0
174 197 0
175 197 0
175 198 0
172 196 0
173 196 0
173 196 0
174 198 0
174 197 0
174 197 0
173 196 0
175 198 0
174 197 0
172 195 0
174 198 0
173 197 0
173 196 0
173 196 0
174 197 0
173 197 0
173 197 0
173 197 0
175 198 0
172 197 0
173 197 0
172 196 0
172 196 0
172 196 0
171 196 25
173 198 72
173 199 88
173 199 105
174 200 120
177 204 151
178 205 165
175 202 135
177 204 159
178 205 167
179 207 182
177 205 171
178 206 175
179 207 181
176 205 173
177 205 175
174 202 147
175 203 161
173 201 142
173 201 133
170 197 99
169 196 84
169 197 102
166 193 44
167 194 0
167 194 0
166 194 0
165 193 0
164 192 0
166 194 0
164 192 0
166 193 0
166 194 0
164 192 0
165 192 0
166 193 0
166 193 0
166 193 0
164 190 0
166 192 0
166 194 0
163 191 0
165 192 0
164 191 0
161 189 0
161 188 0
168 194 0
163 190 0
166 193 0
163 190 0
165 192 0
159 185 0
162 188 0
165 191 0
162 188 0
164 191 0
158 184 0
163 188 0
162 188 0
164 190 0
165 189 0
166 190 0
160 185 0
162 188 0
159 184 0
162 187 0
156 181 0
164 189 0
160 184 0
161 185 0
164 188 0
160 183 0
163 187 0
163 187 0
155 179 0
157 180 0
157 181 0
157 181 0
164 187 0
153 176 0
156 180 0
162 186 0
164 188 0
162 185 0
162 185 0
160 183 0
161 184 0
159 181 0
155 177 0
158 181 0
158 181 0
161 183 0
142 164 0
152 174 0
158 180 0
152 174 0
159 181 0
151 173 0
154 176 0
153 174 0
152 174 0
149 171 0
150 171 0
157 179 0
151 173 0
149 170 0
142 163 0
154 175 0
144 165 0
141 162 0
152 172 0
141 163 0
142 163 0
151 171 0
150 171 0
136 156 0
146 167 0
137 158 0
145 166 0
147 167 0
134 154 0
132 153 0
129 149 0
145 164 0
138 159 0
141 160 0
136 157 0
137 156 0
142 162 0
134 153 0
144 163 0
124 144 0
127 146 0
126 145 0
132 151 0
138 158 0
125 144 0
122 141 0
124 144 0
129 149 0
136 157 0
122 141 0
119 138 0
128 148 0
131 148 0
120 138 0
125 144 0
117 136 0
123 143 0
125 145 0
116 134 0
111 129 0
119 136 0
122 141 0
109 128 0
127 146 0
120 138 0
108 127 0
119 136 0
119 138 0
114 132 0
120 138 0
118 135 0
108 125 0
103 121 0
111 128 0
110 127 0
120 138 0
114 131 0
118 134 0
110 126 0
119 136 0
117 135 0
114 132 0
118 137 0
117 135 0
117 136 0
117 135 0
125 141 0
112 129 0
119 135 0
113 129 0
107 124 0
110 128 0
128 144 0
111 127 0
112 128 0
125 142 0
106 124 0
109 125 0
122 139 0
127 144 0
117 133 0
121 136 0
126 142 0
116 133 0
118 134 0
120 135 0
122 138 0
126 144 0
123 139 0
126 142 0
138 154 0
136 151 0
134 150 0
132 147 0
127 144 0
132 148 0
130 145 0
136 153 0
129 146 0
126 139 0
133 150 0
122 137 0
129 144 0
130 146 0
130 145 0
127 142 0
129 141 0
124 139 0
128 142 0
128 143 0
130 144 0
128 139 0
132 145 0
135 147 0
139 152 0
133 144 0
136 150 0
130 141 0
129 141 0
134 144 0
123 135 0
136 149 0
126 139 0
132 142 0
128 139 0
127 137 0
128 141 0
133 144 0
135 144 0
141 149 0
131 142 0
139 148 0
126 135 0
120 129 0
118 125 0
133 141 0
129 137 0
139 144 0
128 135 0
134 141 0
127 130 0
127 132 0
132 138 0
131 132 0
133 141 0
127 130 0
129 132 0
125 130 0
127 131 0
137 140 0
121 121 0
123 125 0
121 121 0
123 120 0
129 130 0
111 110 0
125 125 0
122 120 0
119 120 0
124 122 0
125 121 0
111 107 0
116 111 0
117 112 0
114 112 0
122 119 0
114 106 0
112 108 0
117 109 0
113 107 0
117 109 0
123 117 0
109 101 0
114 108 0
115 109 0
119 113 0
111 102 0
112 102 0
115 108 0
108 100 0
114 107 0
112 104 0
115 107 0
119 110 0
113 103 0
122 115 0
123 118 0
119 110 0
126 120 0
124 118 0
119 112 0
122 115 0
123 118 0
116 107 0
112 105 0
130 125 0
116 109 0
116 112 0
121 117 0
117 112 0
118 111 0
125 121 0
127 119 0
128 128 0
140 138 0
132 129 0
128 123 0
141 139 0
137 141 0
140 137 0
147 149 0
150 155 0
154 157 0
157 164 0
158 162 0
161 168 0
159 168 0
157 165 0
156 162 0
150 156 0
162 170 0
161 170 0
164 174 0
159 169 0
160 168 0
163 175 0
165 176 0
156 167 0
160 169 0
158 168 0
162 173 0
158 167 0
163 174 0
165 177 0
164 176 0
167 180 0
166 182 0
167 182 0
165 179 0
162 177 0
166 180 0
163 178 0
164 179 0
164 180 0
165 181 0
166 181 0
165 179 0
166 182 0
165 181 0
171 187 0
176 199 0
174 197 0
173 196 0
175 198 0
173 196 0
176 199 0
177 199 0
174 197 0
176 198 0
174 197 0
173 197 0
175 198 0
173 196 0
175 197 0
173 196 0
175 198 0
174 197 0
172 195 0
175 198 0
175 198 0
174 197 0
171 195 0
172 195 0
175 197 0
174 197 0
172 196 0
173 197 0
170 194 0
173 197 0
173 197 0
173 197 0
173 197 0
174 197 0
173 197 0
172 197 0
172 196 0
172 196 0
172 197 0
171 196 0
171 196 0
171 196 0
171 196 0
171 196 0
170 195 0
171 196 0
170 195 0
171 196 0
169 195 0
169 195 0
170 195 0
168 194 0
169 195 0
169 195 0
169 195 0
167 194 0
168 194 0
167 194 0
167 194 0
166 194 0
167 194 0
166 193 0
167 194 0
165 193 0
169 195 0
165 192 0
169 195 0
167 194 0
166 193 0
165 193 0
165 193 0
166 194 0
166 193 0
165 192 0
164 191 0
164 191 0
163 191 0
163 190 0
165 192 0
164 192 0
164 191 0
163 189 0
166 193 0
168 194 0
165 192 0
164 191 0
168 194 0
163 190 0
163 190 0
165 192 0
164 190 0
165 191 0
164 190 0
164 190 0
163 189 0
165 191 0
161 186 0
166 192 0
164 189 0
167 192 0
162 188 0
158 183 0
161 186 0
162 187 0
158 182 0
160 185 0
164 188 0
161 185 0
159 182 0
157 180 0
162 186 0
159 182 0
164 188 0
163 187 0
158 182 0
163 186 0
162 186 0
157 180 0
159 182 0
152 175 0
160 183 0
159 182 0
159 182 0
161 184 0
157 180 0
155 177 0
158 180 0
159 182 0
158 180 0
154 176 0
158 181 0
159 181 0
152 174 0
157 180 0
149 170 0
144 166 0
145 166 0
153 175 0
153 175 0
158 179 0
149 171 0
150 172 0
147 169 0
153 175 0
148 169 0
150 171 0
148 170 0
149 170 0
154 176 0
150 171 0
147 168 0
143 164 0
150 171 0
140 160 0
150 171 0
147 168 0
135 156 0
143 165 0
145 166 0
139 160 0
145 167 0
140 161 0
139 159 0
144 164 0
135 155 0
137 157 0
133 152 0
143 164 0
140 160 0
134 153 0
140 160 0
129 148 0
129 149 0
140 159 0
119 138 0
122 142 0
130 148 0
124 145 0
124 142 0
127 146 0
130 149 0
119 139 0
138 158 0
129 147 0
119 138 0
122 140 0
114 134 0
122 140 0
132 151 0
127 145 0
108 127 0
120 139 0
116 133 0
126 145 0
122 138 0
129 147 0
119 137 0
120 138 0
117 136 0
124 144 0
125 142 0
121 140 0
120 138 0
117 135 0
124 143 0
119 137 0
124 141 0
127 143 0
115 132 0
121 137 0
118 133 0
124 140 0
115 132 0
121 137 0
129 148 0
118 135 0
119 136 0
111 130 0
118 135 0
124 141 0
130 147 0
110 126 0
122 140 0
123 140 0
115 130 0
119 135 0
124 140 0
113 130 0
121 139 0
127 143 0
131 148 0
117 131 0
116 134 0
121 137 0
122 138 0
138 155 0
118 133 0
118 135 0
127 143 0
124 139 0
127 144 0
141 156 0
119 135 0
130 147 0
119 133 0
130 146 0
128 142 0
134 149 0
122 136 0
140 157 0
124 139 0
126 140 0
128 142 0
134 151 0
122 139 0
118 131 0
128 142 0
127 141 0
128 141 0
130 145 0
128 142 0
129 142 0
135 147 0
133 147 0
137 154 0
125 139 0
134 148 0
138 152 0
130 143 0
139 153 0
144 156 0
141 155 0
140 152 0
133 143 0
133 145 0
136 147 0
134 144 0
127 138 0
134 145 0
128 138 0
130 142 0
131 141 0
130 139 0
126 132 0
135 145 0
137 143 0
120 130 0
127 137 0
125 132 0
134 140 0
129 135 0
130 137 0
124 131 0
141 147 0
129 136 0
136 142 0
123 128 0
128 134 0
128 135 0
126 129 0
133 136 0
126 130 0
128 133 0
135 137 0
123 128 0
123 126 0
122 122 0
119 119 0
128 130 0
130 132 0
122 119 0
114 114 0
122 116 0
130 133 0
125 121 0
119 117 0
119 117 0
121 116 0
119 118 0
111 107 0
117 110 0
115 106 0
118 110 0
120 117 0
107 96 0
112 105 0
121 117 0
119 112 0
121 115 0
116 108 0
113 107 0
115 107 0
123 114 0
126 120 0
112 105 0
123 117 0
116 107 0
121 114 0
128 123 0
121 115 0
124 119 0
124 117 0
127 121 0
123 117 0
133 125 0
134 129 0
133 130 0
137 134 0
141 139 0
141 138 0
139 137 0
140 136 0
141 139 0
145 145 0
143 144 0
147 145 0
146 149 0
144 146 0
152 154 0
143 143 0
152 156 0
145 145 0
154 157 0
153 156 0
150 153 0
154 160 0
150 154 0
150 153 0
151 157 0
155 163 0
156 162 0
163 172 0
159 168 0
162 172 0
154 159 0
158 167 0
160 168 0
162 175 0
160 167 0
162 170 0
162 171 0
166 177 0
161 174 0
161 168 0
164 177 0
165 176 0
161 173 0
163 172 0
167 179 0
168 183 0
165 179 0
169 184 0
167 183 0
166 182 0
167 182 0
167 183 0
168 185 0
164 178 0
164 180 0
166 181 0
167 180 0
176 198 0
175 198 0
175 198 0
175 198 0
177 199 0
173 196 0
175 198 0
175 198 0
174 197 0
174 198 0
176 198 0
176 199 0
174 197 0
174 197 0
175 198 0
174 198 0
175 198 0
172 196 0
174 198 0
175 198 0
172 196 0
174 198 0
173 197 0
175 198 0
172 196 0
173 197 0
172 196 0
172 196 0
174 197 0
174 197 0
173 197 0
173 197 0
172 196 0
173 197 0
170 195 0
172 196 0
171 196 0
172 197 0
171 196 0
172 196 0
169 195 0
170 195 0
171 196 0
170 195 0
170 196 0
170 195 0
170 195 0
169 195 0
170 196 0
170 196 0
167 194 0
169 195 0
167 194 0
168 194 0
166 193 0
167 194 0
166 194 0
169 195 0
168 194 0
168 195 0
165 193 0
168 194 0
167 194 0
167 194 0
166 193 0
165 192 0
165 193 0
164 192 0
165 192 0
165 192 0
166 194 0
167 194 0
164 191 0
165 193 0
165 192 0
165 192 0
164 191 0
166 194 0
163 190 0
165 192 0
166 192 0
168 194 0
165 193 0
162 188 0
165 191 0
164 189 0
163 189 0
159 185 0
163 189 0
165 191 0
168 193 0
160 185 0
160 186 0
162 187 0
167 191 0
164 190 0
167 192 0
165 189 0
163 188 0
163 188 0
160 184 0
163 187 0
162 186 0
159 183 0
166 189 0
163 187 0
163 186 0
158 182 0
161 184 0
160 183 0
161 185 0
156 180 0
165 190 0
154 177 0
160 184 0
153 176 0
159 182 0
160 183 0
158 181 0
161 184 0
163 186 0
157 180 0
156 179 0
157 180 0
160 182 0
146 169 0
153 176 0
157 180 0
156 178 0
151 173 0
152 173 0
154 177 0
153 176 0
154 176 0
157 179 0
159 181 0
151 172 0
152 173 0
150 172 0
154 176 0
148 170 0
151 172 0
145 166 0
151 172 0
155 176 0
150 171 0
151 173 0
140 160 0
151 172 0
151 173 0
139 161 0
149 171 0
148 168 0
146 166 0
144 166 0
149 169 0
143 163 0
145 167 0
143 164 0
140 159 0
131 150 0
138 158 0
136 156 0
140 160 0
130 150 0
137 156 0
144 165 0
142 162 0
144 164 0
139 159 0
141 160 0
140 160 0
129 150 0
131 152 0
128 149 0
129 148 0
130 151 0
120 140 0
118 138 0
121 140 0
132 152 0
141 160 0
129 148 0
122 140 0
127 146 0
123 142 0
127 147 0
119 138 0
119 138 0
119 139 0
122 140 0
134 153 0
129 148 0
128 146 0
120 138 0
121 139 0
128 148 0
127 144 0
114 133 0
123 141 0
116 135 0
112 130 0
120 139 0
118 137 0
119 137 0
122 137 0
119 138 0
125 143 0
129 145 0
123 140 0
116 133 0
116 132 0
114 131 0
113 130 0
118 136 0
115 133 0
126 144 0
126 143 0
116 134 0
118 134 0
120 137 0
122 140 0
127 144 0
129 146 0
120 137 0
124 141 0
123 140 0
124 142 0
131 149 0
123 140 0
131 149 0
124 140 0
128 145 0
121 138 0
118 135 0
131 148 0
138 155 0
123 140 0
132 149 0
126 142 0
130 145 0
118 135 0
130 144 0
134 150 0
124 139 0
132 149 0
137 154 0
137 152 0
132 150 0
127 141 0
127 142 0
138 155 0
132 147 0
135 149 0
134 148 0
132 147 0
124 139 0
122 139 0
135 149 0
129 144 0
133 147 0
126 140 0
136 151 0
132 146 0
134 147 0
134 145 0
131 147 0
134 149 0
121 133 0
133 146 0
126 138 0
132 146 0
134 147 0
134 147 0
135 147 0
133 145 0
136 148 0
129 142 0
146 157 0
132 140 0
133 146 0
133 141 0
134 144 0
128 140 0
138 146 0
127 136 0
131 140 0
141 150 0
137 146 0
140 148 0
133 141 0
138 146 0
138 148 0
136 144 0
130 134 0
129 133 0
121 126 0
135 140 0
137 143 0
131 136 0
139 147 0
132 136 0
122 124 0
135 136 0
124 125 0
117 119 0
130 130 0
124 126 0
126 127 0
133 134 0
120 121 0
130 131 0
133 132 0
135 133 0
115 112 0
120 119 0
128 127 0
127 126 0
115 112 0
123 121 0
114 107 0
119 113 0
116 110 0
118 113 0
123 119 0
119 115 0
117 109 0
117 108 0
121 114 0
123 117 0
124 118 0
119 114 0
119 113 0
112 104 0
124 117 0
115 108 0
111 103 0
132 128 0
126 119 0
128 122 0
135 131 0
131 126 0
135 130 0
123 116 0
137 134 0
134 130 0
142 140 0
132 131 0
138 136 0
144 142 0
141 142 0
143 141 0
139 140 0
143 142 0
150 148 0
144 144 0
152 156 0
148 149 0
151 154 0
152 152 0
152 155 0
154 158 0
143 144 0
155 160 0
154 157 0
151 155 0
151 157 0
155 159 0
160 167 0
154 160 0
159 168 0
161 169 0
158 165 0
158 168 0
162 170 0
164 175 0
160 167 0
157 166 0
161 172 0
159 170 0
169 183 0
161 171 0
159 170 0
161 171 0
162 174 0
167 182 0
161 172 0
164 175 0
165 179 0
165 175 0
168 181 0
160 171 0
160 173 0
165 179 0
167 181 0
164 178 0
166 181 0
168 185 0
166 182 0
168 182 0
175 198 0
174 197 0
174 197 0
173 196 0
176 198 0
173 196 0
175 198 0
175 198 0
175 198 0
173 196 0
175 198 0
175 198 0
174 197 0
173 197 0
175 198 0
175 197 0
171 195 0
173 196 0
173 197 0
174 197 0
172 195 0
173 196 0
174 198 0
174 198 0
174 197 0
174 198 0
172 196 0
173 197 0
174 198 0
172 196 0
172 197 0
173 197 0
173 197 0
172 196 0
172 196 0
172 196 0
173 197 0
171 195 0
173 197 0
172 196 0
170 195 0
170 196 0
171 196 0
170 195 0
170 195 0
170 196 0
170 195 0
170 195 0
169 195 0
169 195 0
168 195 0
168 194 0
169 195 0
166 193 0
167 194 0
168 194 0
168 194 0
167 194 0
167 194 0
167 194 0
166 193 0
167 194 0
167 194 0
168 194 0
167 194 0
167 194 0
168 194 0
167 194 0
166 194 0
167 192 0
167 193 0
165 191 0
166 192 0
167 194 0
167 193 0
166 192 0
163 189 0
164 192 0
167 193 0
165 192 0
166 191 0
165 191 0
165 191 0
164 190 0
166 192 0
164 190 0
159 185 0
162 188 0
165 190 0
166 190 0
167 193 0
165 191 0
167 192 0
165 190 0
163 188 0
164 189 0
162 187 0
157 180 0
163 188 0
160 185 0
161 185 0
163 187 0
167 191 0
164 188 0
160 184 0
162 186 0
157 181 0
159 183 0
157 180 0
159 182 0
156 179 0
157 180 0
160 183 0
160 183 0
157 180 0
157 180 0
156 179 0
150 173 0
155 178 0
163 185 0
155 178 0
156 179 0
153 176 0
155 177 0
148 170 0
149 172 0
159 181 0
151 172 0
156 178 0
157 179 0
150 172 0
157 179 0
157 179 0
155 178 0
151 172 0
160 181 0
155 176 0
153 176 0
149 170 0
156 177 0
151 173 0
152 174 0
151 173 0
143 165 0
153 175 0
150 172 0
147 168 0
149 171 0
150 171 0
145 166 0
138 159 0
152 174 0
150 172 0
138 158 0
140 161 0
139 161 0
144 164 0
139 159 0
138 161 0
148 168 0
135 156 0
139 160 0
139 159 0
146 167 0
137 157 0
144 163 0
136 155 0
141 160 0
146 165 0
134 153 0
136 155 0
141 162 0
140 161 0
125 143 0
131 152 0
134 153 0
126 145 0
135 155 0
131 152 0
140 158 0
137 156 0
132 152 0
135 153 0
127 147 0
128 149 0
128 148 0
120 139 0
125 144 0
125 144 0
135 153 0
119 138 0
106 123 0
122 140 0
131 151 0
126 146 0
121 140 0
126 145 0
123 142 0
110 128 0
123 142 0
117 135 0
123 141 0
121 139 0
120 138 0
125 144 0
134 152 0
131 148 0
119 136 0
126 145 0
123 142 0
125 143 0
125 142 0
125 142 0
122 139 0
108 125 0
127 146 0
125 143 0
116 133 0
126 143 0
121 137 0
117 133 0
128 146 0
124 141 0
118 136 0
130 145 0
123 139 0
124 140 0
132 147 0
122 140 0
123 139 0
128 144 0
132 150 0
135 153 0
131 148 0
118 134 0
127 144 0
135 151 0
122 138 0
128 145 0
135 151 0
126 143 0
128 145 0
132 150 0
137 154 0
121 137 0
114 130 0
132 149 0
127 141 0
134 150 0
135 152 0
136 150 0
137 152 0
142 158 0
130 143 0
131 146 0
142 157 0
133 149 0
136 152 0
122 138 0
135 152 0
136 151 0
140 156 0
137 152 0
135 150 0
136 148 0
129 144 0
130 145 0
142 156 0
140 155 0
140 155 0
128 142 0
135 149 0
140 153 0
132 144 0
121 130 0
141 153 0
130 143 0
143 152 0
123 135 0
131 142 0
141 152 0
135 147 0
128 136 0
132 144 0
132 143 0
135 143 0
140 150 0
135 147 0
128 136 0
139 152 0
144 151 0
137 147 0
124 130 0
133 143 0
131 138 0
127 129 0
132 137 0
138 144 0
138 143 0
139 144 0
142 146 0
130 135 0
137 144 0
129 130 0
124 128 0
128 130 0
124 128 0
129 131 0
128 129 0
132 133 0
129 131 0
137 140 0
134 135 0
127 129 0
132 132 0
122 122 0
123 122 0
121 120 0
133 133 0
127 124 0
135 132 0
124 123 0
128 124 0
116 115 0
123 120 0
124 120 0
123 120 0
124 119 0
118 111 0
127 122 0
121 115 0
131 127 0
126 121 0
115 105 0
126 122 0
127 125 0
121 117 0
132 128 0
121 112 0
122 115 0
125 120 0
135 131 0
126 123 0
127 124 0
129 127 0
129 125 0
134 131 0
137 137 0
135 130 0
137 134 0
142 142 0
141 137 0
143 141 0
141 139 0
146 147 0
149 149 0
141 142 0
143 145 0
147 148 0
145 143 0
150 152 0
153 154 0
141 141 0
151 156 0
153 154 0
152 155 0
158 166 0
150 153 0
152 158 0
156 161 0
157 163 0
153 161 0
154 161 0
159 166 0
158 166 0
156 162 0
164 173 0
154 160 0
157 166 0
160 170 0
163 171 0
160 171 0
162 173 0
163 173 0
162 173 0
165 174 0
162 174 0
162 173 0
159 170 0
164 178 0
165 178 0
167 179 0
166 179 0
162 175 0
163 176 0
166 178 0
167 182 0
167 180 0
162 177 0
167 181 0
175 198 0
174 197 0
174 197 0
176 198 0
174 197 0
175 198 0
172 195 0
175 198 0
173 196 0
174 197 0
174 198 0
173 197 0
174 198 0
174 198 0
173 197 0
173 196 0
175 198 0
172 196 0
174 198 0
172 196 0
173 197 0
174 198 0
171 195 0
174 197 0
174 197 0
173 196 0
173 197 0
172 197 0
172 197 0
173 197 0
173 197 0
172 196 0
172 196 0
172 197 0
172 196 0
171 196 0
170 196 0
170 195 0
171 196 0
170 196 0
170 195 0
170 195 0
170 196 0
169 194 0
171 196 0
169 195 0
170 195 0
172 196 0
171 196 0
166 193 0
169 195 0
169 195 0
168 194 0
169 195 0
168 195 0
167 193 0
167 194 0
165 192 0
169 195 0
167 194 0
168 194 0
168 195 0
169 195 0
168 195 0
168 194 0
167 193 0
167 194 0
166 193 0
165 191 0
164 191 0
168 194 0
165 191 0
167 193 0
165 192 0
164 190 0
164 191 0
167 194 0
164 191 0
167 193 0
166 192 0
166 191 0
165 190 0
165 191 0
163 188 0
166 191 0
165 190 0
161 186 0
164 189 0
164 189 0
165 190 0
166 191 0
167 192 0
165 190 0
167 192 0
166 191 0
161 186 0
165 189 0
162 185 0
163 186 0
162 185 0
160 184 0
156 180 0
161 185 0
159 182 0
157 180 0
157 180 0
164 188 0
157 180 0
156 179 0
158 181 0
161 185 0
156 180 0
167 190 0
154 177 0
160 181 0
162 186 0
156 178 0
163 186 0
166 188 0
160 183 0
159 182 0
154 176 0
158 181 0
160 183 0
156 179 0
159 182 0
161 184 0
150 173 0
156 179 0
155 177 0
145 168 0
154 176 0
157 179 0
152 173 0
149 170 0
155 176 0
157 178 0
157 179 0
159 181 0
157 178 0
152 175 0
154 176 0
151 172 0
147 167 0
148 168 0
155 176 0
148 170 0
152 174 0
150 171 0
153 174 0
149 171 0
144 166 0
137 159 0
144 165 0
155 176 0
148 169 0
145 166 0
143 164 0
146 167 0
139 160 0
137 157 0
133 153 0
133 153 0
149 169 0
135 156 0
138 158 0
135 155 0
133 154 0
133 153 0
145 165 0
131 151 0
133 153 0
127 148 0
133 152 0
135 154 0
138 158 0
133 151 0
119 137 0
135 155 0
140 159 0
132 150 0
139 158 0
132 151 0
138 157 0
124 143 0
133 152 0
132 150 0
130 148 0
120 139 0
127 147 0
129 147 0
137 156 0
121 139 0
120 137 0
128 148 0
121 139 0
135 153 0
125 142 0
125 144 0
126 144 0
124 141 0
127 148 0
125 143 0
121 138 0
123 141 0
126 143 0
118 137 0
133 152 0
124 142 0
129 145 0
122 140 0
132 149 0
129 146 0
117 134 0
119 137 0
122 142 0
111 129 0
123 140 0
126 143 0
126 143 0
129 147 0
125 141 0
136 155 0
114 130 0
121 140 0
114 132 0
129 148 0
121 139 0
111 128 0
131 147 0
125 142 0
123 139 0
134 152 0
135 151 0
128 146 0
129 147 0
128 147 0
127 145 0
135 151 0
130 145 0
135 154 0
128 147 0
128 143 0
124 141 0
140 154 0
132 149 0
137 152 0
130 145 0
139 157 0
123 140 0
136 150 0
138 156 0
135 150 0
139 152 0
120 135 0
130 146 0
137 154 0
134 148 0
136 152 0
136 152 0
126 141 0
137 151 0
132 147 0
136 152 0
130 147 0
139 152 0
133 149 0
142 157 0
125 139 0
130 143 0
135 149 0
139 153 0
127 140 0
131 145 0
138 151 0
141 155 0
132 145 0
131 144 0
137 148 0
132 143 0
142 154 0
137 148 0
140 154 0
133 144 0
135 144 0
132 144 0
138 148 0
144 154 0
138 147 0
135 147 0
137 148 0
124 133 0
133 142 0
128 134 0
130 140 0
134 141 0
132 136 0
136 141 0
132 140 0
132 141 0
134 140 0
132 137 0
130 137 0
136 142 0
133 139 0
132 134 0
125 129 0
132 135 0
129 132 0
138 141 0
128 134 0
120 117 0
135 137 0
130 132 0
131 129 0
124 124 0
125 125 0
129 125 0
131 131 0
134 135 0
136 136 0
127 124 0
133 135 0
128 124 0
127 125 0
124 119 0
132 130 0
114 110 0
120 115 0
122 119 0
127 122 0
123 115 0
129 124 0
119 113 0
126 124 0
127 121 0
128 122 0
126 119 0
127 120 0
130 123 0
132 126 0
125 121 0
138 135 0
134 127 0
131 126 0
141 138 0
131 128 0
138 133 0
142 142 0
142 142 0
138 133 0
144 142 0
132 129 0
147 147 0
143 143 0
145 146 0
153 155 0
146 146 0
141 137 0
146 147 0
149 152 0
149 150 0
150 152 0
145 148 0
143 144 0
151 155 0
151 156 0
155 160 0
153 159 0
151 153 0
153 158 0
152 155 0
154 158 0
159 168 0
152 160 0
154 161 0
155 164 0
157 164 0
159 166 0
164 176 0
155 163 0
159 167 0
155 164 0
163 174 0
161 172 0
161 171 0
163 175 0
164 174 0
160 171 0
163 175 0
160 172 0
161 173 0
166 178 0
165 177 0
166 179 0
165 179 0
165 176 0
163 177 0
165 178 0
167 179 0
175 198 0
175 198 0
175 198 0
176 198 0
173 197 0
176 198 0
174 197 0
175 198 0
172 196 0
174 197 0
171 195 0
172 195 0
175 197 0
174 198 0
175 198 0
172 196 0
174 197 0
172 196 0
174 198 0
173 197 0
170 195 0
174 198 0
172 196 0
172 196 0
172 196 0
173 197 0
172 196 0
173 197 0
173 197 0
172 196 0
172 196 0
173 197 0
171 196 0
172 197 0
173 197 0
171 196 0
171 196 0
171 196 0
170 196 0
170 196 0
170 196 0
170 195 0
171 196 0
170 195 0
171 196 0
169 195 0
169 195 0
169 195 0
168 195 0
168 195 0
169 195 0
167 194 0
170 196 0
169 195 0
167 194 0
168 195 0
167 194 0
166 193 0
168 194 0
168 195 0
168 194 0
165 193 0
168 194 0
166 193 0
167 193 0
167 193 0
166 192 0
168 194 0
164 191 0
168 193 0
166 191 0
166 193 0
166 192 0
166 192 0
167 192 0
162 188 0
165 191 0
166 192 0
167 192 0
166 191 0
163 189 0
166 192 0
163 188 0
165 190 0
162 187 0
164 189 0
163 189 0
167 192 0
162 187 0
167 192 0
165 190 0
164 188 0
164 189 0
164 188 0
165 190 0
166 190 0
164 188 0
163 187 0
163 187 0
162 186 0
160 184 0
163 188 0
162 186 0
164 188 0
164 187 0
163 186 0
159 183 0
164 188 0
161 185 0
161 184 0
157 181 0
163 186 0
163 185 0
163 185 0
157 179 0
163 186 0
163 186 0
158 181 0
157 179 0
154 176 0
152 174 0
156 178 0
160 181 0
151 173 0
157 180 0
161 184 0
156 179 0
156 178 0
161 183 0
153 175 0
158 180 0
156 179 0
153 174 0
161 182 0
151 172 0
155 178 0
147 168 0
155 177 0
152 174 0
153 174 0
150 172 0
153 174 0
157 178 0
153 174 0
146 167 0
147 168 0
155 176 0
150 171 0
147 169 0
155 176 0
139 160 0
150 171 0
147 169 0
146 168 0
137 158 0
147 168 0
147 168 0
146 166 0
147 168 0
147 168 0
143 164 0
144 164 0
143 164 0
137 158 0
130 151 0
144 165 0
139 160 0
144 165 0
137 157 0
133 154 0
134 154 0
139 160 0
135 155 0
143 163 0
119 139 0
139 159 0
137 156 0
133 153 0
139 159 0
130 149 0
140 159 0
136 157 0
124 143 0
138 156 0
128 148 0
134 152 0
135 155 0
140 160 0
127 146 0
131 151 0
128 148 0
139 158 0
138 158 0
123 143 0
129 147 0
130 149 0
130 149 0
122 140 0
123 142 0
128 145 0
126 145 0
119 138 0
123 142 0
130 150 0
123 142 0
122 141 0
120 138 0
123 140 0
120 138 0
128 146 0
123 142 0
125 145 0
126 143 0
123 140 0
128 145 0
122 140 0
128 146 0
124 142 0
131 148 0
129 148 0
125 144 0
134 153 0
129 149 0
127 144 0
126 143 0
123 140 0
122 139 0
130 149 0
135 152 0
139 154 0
129 147 0
127 140 0
132 149 0
124 141 0
133 150 0
124 141 0
128 144 0
131 149 0
135 152 0
133 149 0
131 149 0
132 149 0
139 156 0
133 150 0
121 137 0
143 162 0
144 163 0
129 146 0
122 135 0
139 154 0
132 146 0
131 149 0
126 141 0
130 145 0
144 160 0
129 146 0
130 145 0
143 158 0
132 145 0
123 137 0
133 149 0
134 151 0
144 159 0
138 152 0
135 150 0
129 142 0
124 138 0
132 148 0
137 153 0
128 143 0
134 146 0
137 150 0
139 151 0
135 150 0
137 149 0
138 154 0
143 154 0
142 155 0
139 150 0
139 151 0
142 157 0
128 136 0
130 142 0
139 150 0
137 149 0
134 143 0
135 146 0
145 154 0
136 146 0
132 141 0
140 150 0
144 155 0
130 138 0
138 147 0
122 129 0
135 141 0
141 151 0
130 137 0
135 141 0
132 142 0
141 146 0
148 155 0
141 146 0
138 144 0
128 131 0
134 141 0
142 150 0
130 132 0
133 138 0
133 134 0
134 137 0
129 128 0
129 132 0
143 148 0
134 137 0
138 142 0
128 130 0
133 133 0
134 136 0
126 124 0
130 127 0
128 129 0
137 137 0
136 136 0
136 134 0
127 124 0
134 131 0
131 128 0
132 129 0
133 130 0
131 129 0
124 123 0
131 129 0
128 123 0
126 121 0
129 127 0
133 131 0
125 120 0
134 128 0
134 130 0
130 125 0
132 128 0
128 123 0
137 136 0
131 126 0
138 136 0
137 132 0
134 130 0
139 135 0
137 134 0
141 140 0
136 136 0
140 136 0
134 131 0
142 138 0
139 136 0
148 150 0
139 137 0
144 144 0
146 145 0
146 145 0
150 149 0
139 138 0
149 153 0
150 150 0
146 151 0
152 156 0
155 160 0
148 151 0
152 156 0
154 160 0
154 159 0
146 148 0
158 166 0
160 169 0
154 159 0
151 156 0
161 169 0
160 169 0
157 164 0
158 165 0
157 167 0
163 171 0
161 171 0
157 165 0
163 174 0
161 171 0
161 172 0
163 175 0
163 176 0
163 176 0
164 177 0
165 178 0
164 176 0
167 179 0
167 180 0
164 176 0
164 177 0
164 178 0
166 179 0
175 198 0
174 198 0
174 198 0
173 197 0
176 198 0
172 195 0
175 198 0
176 198 0
175 198 0
175 198 0
174 198 0
174 198 0
172 196 0
175 198 0
174 197 0
174 197 0
174 197 0
173 197 0
172 197 0
173 197 0
173 196 0
172 196 0
171 194 0
173 197 0
172 196 0
172 196 0
171 195 0
172 197 0
172 197 0
172 197 0
173 197 0
171 196 0
172 197 0
172 196 0
173 197 0
171 196 0
169 195 0
172 196 0
171 196 0
170 195 0
171 196 0
169 195 0
169 194 0
170 195 0
171 196 0
169 195 0
169 195 0
169 195 0
169 195 0
168 194 0
170 195 0
167 194 0
168 194 0
167 194 0
168 194 0
168 194 0
167 193 0
168 193 0
168 194 0
168 193 0
168 194 0
167 194 0
168 194 0
165 191 0
166 192 0
168 194 0
166 192 0
168 194 0
166 192 0
169 194 0
165 190 0
168 194 0
168 194 0
165 190 0
167 192 0
169 194 0
167 192 0
167 191 0
165 191 0
165 190 0
167 192 0
167 192 0
164 189 0
159 184 0
167 192 0
165 191 0
160 185 0
166 191 0
162 186 0
163 188 0
162 187 0
162 186 0
168 191 0
160 184 0
170 194 0
164 188 0
163 187 0
167 191 0
155 179 0
165 189 0
162 186 0
160 183 0
165 190 0
168 191 0
162 185 0
162 185 0
159 183 0
165 189 0
157 180 0
164 187 0
159 182 0
160 183 0
157 179 0
153 176 0
158 181 0
161 184 0
160 183 0
159 182 0
160 183 0
159 182 0
156 179 0
152 175 0
155 177 0
155 177 0
150 172 0
163 186 0
149 170 0
153 175 0
157 178 0
153 175 0
158 179 0
153 174 0
157 180 0
154 176 0
154 176 0
154 175 0
149 171 0
153 174 0
157 179 0
145 167 0
152 173 0
147 168 0
150 172 0
146 166 0
149 171 0
151 173 0
153 173 0
138 160 0
151 172 0
144 165 0
152 173 0
148 170 0
147 168 0
154 175 0
149 170 0
142 162 0
146 168 0
145 166 0
148 169 0
139 160 0
146 167 0
144 164 0
143 163 0
146 167 0
152 173 0
147 166 0
136 156 0
148 168 0
140 161 0
139 160 0
139 159 0
139 159 0
139 159 0
148 169 0
133 154 0
126 146 0
140 160 0
143 163 0
131 151 0
132 152 0
135 155 0
131 150 0
122 142 0
136 156 0
127 147 0
127 146 0
137 156 0
128 147 0
138 158 0
126 147 0
133 151 0
126 145 0
132 151 0
128 146 0
131 151 0
139 159 0
135 155 0
132 152 0
127 147 0
128 146 0
125 144 0
125 143 0
119 137 0
127 146 0
128 147 0
121 140 0
130 148 0
131 149 0
131 151 0
127 146 0
119 136 0
119 137 0
122 142 0
125 144 0
121 138 0
130 149 0
126 145 0
119 138 0
122 141 0
122 141 0
129 146 0
126 144 0
133 153 0
135 154 0
134 152 0
136 153 0
130 147 0
133 150 0
136 154 0
135 152 0
127 143 0
128 146 0
135 154 0
127 143 0
123 140 0
134 153 0
137 155 0
138 155 0
136 153 0
134 152 0
127 144 0
130 146 0
139 156 0
140 155 0
130 148 0
142 158 0
136 152 0
137 154 0
130 148 0
133 149 0
144 161 0
141 157 0
133 150 0
147 164 0
135 152 0
132 147 0
130 147 0
131 145 0
145 161 0
141 156 0
136 151 0
129 142 0
139 155 0
141 155 0
130 146 0
130 144 0
143 158 0
134 148 0
136 152 0
138 152 0
131 147 0
148 164 0
134 147 0
145 159 0
126 140 0
141 153 0
136 152 0
143 157 0
133 147 0
142 155 0
138 150 0
137 149 0
144 154 0
137 147 0
145 158 0
139 150 0
131 143 0
138 148 0
145 158 0
135 145 0
139 147 0
131 140 0
139 151 0
127 139 0
126 134 0
142 150 0
135 144 0
133 143 0
136 143 0
145 156 0
135 145 0
130 135 0
138 145 0
131 138 0
135 141 0
135 139 0
128 135 0
138 146 0
132 136 0
141 146 0
142 147 0
135 141 0
146 150 0
125 129 0
129 134 0
131 131 0
139 140 0
130 131 0
138 139 0
126 123 0
138 142 0
134 137 0
133 131 0
132 133 0
134 136 0
134 135 0
132 131 0
136 133 0
128 125 0
134 132 0
137 134 0
134 132 0
134 132 0
130 127 0
126 124 0
137 135 0
129 126 0
131 128 0
136 135 0
137 137 0
138 135 0
129 128 0
131 127 0
138 135 0
128 124 0
129 125 0
133 130 0
139 137 0
144 145 0
137 133 0
137 137 0
146 146 0
146 147 0
136 135 0
138 137 0
147 148 0
149 149 0
144 146 0
146 146 0
148 151 0
143 142 0
152 154 0
142 143 0
154 159 0
147 148 0
156 159 0
155 160 0
146 150 0
150 153 0
150 154 0
154 159 0
149 153 0
151 154 0
156 160 0
151 154 0
157 161 0
158 165 0
158 165 0
157 165 0
157 162 0
157 165 0
157 164 0
160 167 0
158 167 0
164 176 0
162 171 0
157 167 0
159 167 0
162 172 0
159 169 0
163 173 0
160 171 0
163 172 0
168 182 0
161 172 0
161 172 0
162 174 0
166 180 0
160 173 0
164 177 0
175 198 0
174 198 0
173 196 0
173 197 0
175 198 0
174 198 0
174 197 0
174 197 0
173 196 0
174 197 0
174 198 0
172 195 0
173 196 0
171 194 0
175 198 0
174 198 0
173 197 0
174 198 0
172 196 0
174 198 0
173 196 0
173 197 0
171 195 0
172 197 0
174 197 0
172 196 0
172 196 0
173 197 0
172 197 0
172 197 0
171 196 0
172 196 0
173 197 0
172 196 0
169 195 0
173 197 0
170 195 0
171 196 0
169 195 0
170 196 0
170 195 0
171 196 0
171 196 0
170 195 0
170 196 0
171 196 0
169 195 0
169 195 0
168 193 0
167 193 0
167 193 0
169 194 0
169 194 0
167 192 0
168 195 0
169 195 0
168 194 0
166 193 0
168 195 0
168 194 0
169 193 0
166 192 0
166 192 0
167 193 0
167 192 0
169 195 0
168 193 0
167 193 0
164 190 0
165 190 0
167 194 0
166 192 0
165 190 0
164 189 0
168 194 0
166 192 0
167 192 0
167 192 0
168 193 0
165 189 0
169 194 0
165 190 0
168 193 0
164 189 0
161 186 0
163 188 0
162 187 0
165 189 0
164 188 0
160 185 0
168 192 0
164 189 0
160 184 0
162 186 0
165 190 0
164 188 0
160 184 0
165 189 0
157 181 0
163 187 0
163 187 0
163 186 0
162 185 0
159 182 0
161 184 0
166 189 0
158 181 0
166 188 0
162 185 0
161 185 0
161 183 0
152 175 0
160 183 0
162 185 0
158 181 0
153 175 0
152 174 0
162 186 0
158 181 0
160 182 0
161 183 0
161 184 0
165 187 0
159 181 0
159 181 0
157 179 0
153 175 0
158 180 0
158 179 0
154 175 0
160 183 0
154 176 0
151 173 0
152 175 0
159 181 0
151 173 0
158 179 0
155 177 0
146 167 0
153 174 0
152 174 0
145 166 0
152 174 0
153 175 0
155 177 0
159 181 0
151 172 0
152 175 0
150 172 0
150 171 0
139 160 0
144 165 0
147 168 0
147 168 0
152 174 0
148 170 0
147 169 0
146 167 0
139 160 0
145 166 0
153 173 0
149 170 0
133 153 0
150 171 0
149 169 0
125 146 0
138 158 0
143 165 0
146 167 0
141 160 0
139 159 0
141 161 0
134 154 0
131 152 0
146 166 0
132 151 0
136 155 0
130 150 0
148 168 0
129 148 0
138 159 0
134 152 0
135 155 0
128 147 0
135 156 0
127 147 0
134 154 0
129 147 0
134 154 0
125 145 0
134 153 0
135 154 0
124 144 0
145 165 0
130 148 0
127 146 0
135 154 0
131 149 0
120 137 0
135 153 0
133 151 0
132 152 0
123 142 0
127 146 0
131 149 0
121 140 0
136 155 0
132 151 0
139 158 0
128 147 0
123 141 0
124 144 0
130 149 0
135 155 0
121 139 0
132 152 0
133 152 0
135 153 0
138 158 0
139 156 0
124 143 0
128 147 0
131 150 0
140 159 0
128 147 0
132 150 0
134 152 0
127 143 0
137 155 0
130 149 0
135 154 0
132 150 0
127 144 0
118 134 0
128 145 0
132 150 0
131 148 0
130 148 0
133 153 0
132 150 0
130 148 0
136 156 0
136 154 0
142 161 0
136 154 0
129 145 0
130 148 0
129 145 0
135 152 0
132 148 0
142 158 0
134 151 0
138 156 0
138 154 0
134 149 0
134 151 0
133 151 0
142 159 0
137 153 0
139 154 0
140 156 0
137 154 0
144 158 0
135 152 0
147 162 0
143 161 0
139 153 0
142 157 0
138 152 0
127 142 0
133 145 0
135 150 0
136 149 0
142 155 0
136 149 0
142 157 0
127 138 0
126 139 0
135 148 0
133 145 0
132 145 0
136 150 0
140 151 0
133 147 0
134 148 0
145 159 0
142 156 0
138 151 0
135 146 0
138 148 0
145 157 0
139 148 0
142 152 0
135 145 0
145 156 0
140 151 0
136 146 0
132 141 0
137 147 0
141 152 0
129 137 0
136 143 0
135 142 0
137 141 0
130 136 0
138 146 0
139 148 0
132 139 0
135 139 0
135 140 0
135 141 0
138 142 0
143 149 0
141 147 0
139 143 0
131 133 0
143 150 0
126 130 0
129 133 0
130 132 0
135 141 0
141 145 0
137 140 0
134 137 0
134 135 0
138 138 0
134 135 0
137 138 0
132 133 0
138 141 0
136 136 0
132 132 0
136 136 0
138 138 0
139 140 0
130 129 0
132 129 0
132 130 0
142 143 0
137 135 0
129 123 0
132 129 0
138 138 0
139 139 0
134 132 0
134 131 0
143 143 0
133 131 0
146 147 0
133 129 0
138 136 0
134 132 0
140 137 0
142 140 0
142 142 0
143 144 0
138 136 0
139 141 0
148 149 0
143 143 0
147 148 0
144 143 0
145 146 0
150 152 0
149 154 0
154 159 0
148 151 0
148 152 0
145 148 0
153 156 0
155 161 0
152 155 0
148 152 0
154 160 0
163 172 0
156 162 0
161 171 0
157 165 0
159 167 0
153 159 0
157 163 0
156 164 0
158 166 0
155 163 0
163 172 0
163 171 0
159 168 0
158 168 0
161 169 0
161 172 0
161 171 0
157 168 0
157 169 0
160 168 0
163 174 0
158 168 0
160 170 0
162 175 0
163 174 0
165 178 0
175 198 0
174 197 0
174 198 0
172 196 0
175 198 0
174 197 0
174 198 0
175 198 0
175 198 0
174 198 0
174 197 0
174 198 0
175 198 0
174 197 0
174 198 0
172 196 0
173 197 0
174 197 0
174 197 0
173 197 0
172 197 0
173 197 0
173 197 0
172 196 0
173 197 0
173 197 0
172 197 0
173 197 0
172 196 0
173 197 0
172 196 0
172 196 0
171 196 0
171 196 0
169 195 0
172 196 0
172 197 0
171 195 0
170 195 0
171 196 0
170 195 0
171 195 0
170 195 0
170 196 0
170 195 0
169 194 0
168 194 0
169 194 0
171 196 0
170 195 0
170 196 0
167 193 0
169 195 0
169 195 0
169 194 0
170 195 0
169 195 0
166 192 0
168 193 0
170 195 0
169 195 0
167 193 0
169 194 0
168 193 0
168 193 0
165 192 0
168 193 0
169 194 0
169 195 0
165 191 0
165 191 0
162 188 0
167 193 0
166 192 0
168 193 0
164 191 0
165 190 0
167 193 0
167 192 0
168 193 0
162 187 0
167 192 0
165 190 0
166 191 0
162 185 0
165 189 0
165 189 0
160 185 0
170 194 0
163 188 0
167 190 0
168 192 0
166 190 0
166 190 0
166 189 0
167 190 0
166 189 0
169 193 0
165 188 0
166 190 0
162 185 0
167 190 0
164 187 0
158 182 0
163 187 0
161 184 0
161 184 0
155 178 0
161 184 0
166 188 0
157 180 0
157 180 0
162 184 0
158 180 0
157 179 0
163 185 0
157 180 0
160 182 0
158 180 0
155 178 0
159 181 0
157 180 0
161 183 0
154 177 0
155 177 0
154 176 0
159 180 0
157 179 0
151 173 0
158 180 0
158 181 0
161 184 0
154 176 0
153 175 0
148 171 0
151 173 0
150 172 0
155 177 0
152 173 0
150 171 0
149 170 0
145 167 0
152 173 0
144 165 0
154 175 0
146 167 0
142 164 0
154 175 0
146 167 0
155 176 0
145 167 0
153 174 0
149 170 0
149 171 0
141 161 0
152 172 0
144 165 0
146 167 0
151 171 0
139 160 0
141 162 0
146 166 0
143 164 0
147 168 0
139 159 0
139 160 0
148 167 0
150 171 0
139 160 0
140 162 0
144 166 0
142 161 0
131 152 0
133 152 0
144 164 0
131 151 0
142 162 0
133 153 0
135 155 0
147 167 0
134 153 0
141 161 0
130 149 0
138 157 0
139 159 0
131 151 0
129 148 0
145 163 0
128 148 0
136 156 0
137 157 0
124 143 0
120 139 0
139 159 0
141 161 0
122 142 0
134 155 0
146 165 0
127 145 0
134 153 0
133 151 0
134 154 0
127 148 0
129 148 0
138 157 0
125 143 0
125 146 0
135 154 0
127 146 0
140 158 0
131 149 0
131 149 0
130 149 0
128 148 0
129 146 0
120 137 0
128 147 0
134 154 0
127 145 0
133 151 0
130 149 0
131 150 0
130 147 0
131 149 0
129 148 0
142 161 0
133 150 0
130 149 0
138 156 0
136 156 0
126 144 0
136 152 0
131 150 0
132 150 0
131 147 0
130 147 0
126 146 0
137 155 0
131 149 0
125 143 0
130 148 0
137 156 0
131 147 0
133 149 0
132 149 0
136 153 0
144 161 0
137 152 0
138 157 0
135 152 0
132 146 0
132 146 0
136 155 0
136 153 0
130 148 0
136 154 0
132 147 0
135 151 0
143 161 0
127 143 0
148 165 0
130 145 0
139 153 0
142 157 0
134 148 0
132 151 0
141 156 0
138 154 0
135 149 0
139 153 0
150 168 0
142 156 0
136 150 0
142 157 0
133 147 0
135 150 0
132 145 0
134 147 0
138 151 0
142 157 0
136 151 0
143 157 0
143 155 0
133 146 0
132 145 0
129 141 0
132 146 0
143 154 0
137 151 0
138 149 0
145 158 0
129 140 0
135 143 0
137 145 0
145 157 0
140 150 0
147 154 0
134 145 0
135 140 0
141 147 0
139 146 0
136 143 0
147 157 0
138 147 0
136 146 0
139 147 0
133 143 0
134 139 0
142 148 0
137 144 0
133 137 0
143 146 0
139 147 0
142 148 0
138 144 0
140 147 0
135 139 0
143 146 0
138 143 0
139 144 0
137 140 0
133 134 0
132 136 0
141 142 0
141 143 0
133 133 0
143 145 0
140 141 0
143 144 0
137 136 0
147 152 0
130 128 0
136 139 0
145 150 0
131 133 0
135 134 0
142 142 0
137 135 0
127 122 0
139 137 0
141 141 0
139 135 0
136 135 0
142 141 0
139 139 0
132 128 0
139 136 0
135 132 0
140 140 0
142 143 0
143 142 0
140 139 0
134 131 0
142 142 0
139 138 0
144 145 0
137 135 0
145 143 0
147 149 0
143 142 0
148 148 0
151 150 0
147 147 0
144 144 0
149 149 0
151 157 0
151 153 0
150 152 0
154 158 0
144 147 0
156 161 0
151 156 0
152 155 0
150 154 0
153 160 0
161 167 0
156 161 0
157 163 0
160 167 0
163 171 0
152 157 0
156 162 0
158 165 0
154 159 0
161 170 0
157 163 0
158 170 0
161 170 0
157 166 0
161 168 0
159 170 0
161 171 0
163 174 0
160 171 0
158 167 0
159 171 0
165 180 0
163 174 0
161 174 0
164 175 0
175 198 0
174 196 0
174 197 0
174 197 0
174 198 0
173 197 0
173 197 0
174 197 0
173 197 0
173 196 0
174 197 0
171 195 0
173 196 0
173 197 0
174 198 0
174 197 0
173 197 0
173 197 0
173 197 0
173 197 0
174 198 0
172 197 0
173 197 0
173 197 0
172 197 0
173 197 0
171 196 0
169 195 0
170 195 0
172 196 0
170 195 0
174 197 0
172 196 0
170 195 0
171 196 0
171 196 0
171 196 0
170 195 0
170 195 0
171 196 0
171 196 0
171 196 0
168 193 0
170 195 0
170 195 0
171 196 0
170 196 0
170 195 0
169 195 0
167 193 0
169 194 0
170 195 0
167 193 0
168 193 0
168 194 0
166 192 0
170 196 0
166 192 0
166 192 0
168 193 0
168 194 0
169 194 0
167 193 0
168 193 0
168 192 0
167 193 0
167 192 0
166 192 0
165 190 0
168 192 0
165 190 0
164 188 0
165 191 0
165 191 0
164 189 0
169 194 0
161 186 0
166 190 0
169 194 0
166 190 0
168 193 0
167 192 0
166 189 0
161 185 0
161 185 0
161 186 0
169 193 0
169 192 0
165 190 0
164 188 0
169 194 0
167 191 0
165 188 0
162 186 0
163 186 0
160 183 0
165 188 0
159 183 0
163 185 0
159 183 0
168 191 0
167 191 0
161 184 0
162 185 0
162 185 0
158 182 0
154 178 0
163 186 0
163 186 0
159 181 0
165 188 0
164 186 0
153 176 0
160 182 0
163 185 0
152 175 0
160 182 0
154 176 0
158 179 0
166 188 0
161 183 0
159 182 0
155 178 0
159 182 0
159 181 0
156 177 0
155 177 0
165 188 0
152 175 0
152 174 0
159 181 0
150 172 0
156 178 0
149 171 0
156 179 0
158 180 0
152 173 0
152 174 0
156 177 0
161 182 0
157 178 0
147 169 0
156 177 0
154 175 0
154 176 0
148 170 0
156 177 0
150 173 0
144 166 0
151 174 0
149 169 0
149 169 0
152 174 0
152 174 0
144 166 0
145 166 0
156 177 0
147 169 0
151 174 0
145 167 0
147 169 0
151 172 0
142 162 0
140 160 0
137 159 0
143 163 0
134 155 0
152 173 0
140 161 0
139 159 0
142 164 0
149 170 0
144 165 0
141 161 0
141 160 0
144 165 0
138 159 0
133 154 0
138 158 0
139 160 0
142 162 0
130 150 0
132 152 0
136 155 0
132 152 0
131 150 0
144 164 0
139 159 0
130 148 0
130 148 0
142 161 0
139 158 0
125 144 0
139 158 0
127 146 0
134 154 0
129 149 0
134 151 0
136 153 0
137 156 0
131 151 0
127 147 0
140 159 0
122 141 0
123 142 0
134 153 0
130 148 0
133 153 0
129 147 0
120 138 0
134 152 0
133 151 0
131 150 0
139 157 0
140 160 0
134 153 0
142 159 0
127 145 0
130 149 0
134 154 0
138 156 0
126 144 0
138 157 0
141 158 0
132 150 0
131 149 0
133 152 0
141 158 0
136 154 0
132 150 0
133 151 0
139 158 0
132 150 0
133 151 0
137 156 0
136 153 0
133 147 0
135 151 0
139 156 0
129 148 0
134 150 0
140 159 0
137 153 0
139 157 0
137 157 0
138 154 0
141 159 0
139 156 0
136 155 0
131 147 0
132 148 0
132 150 0
143 159 0
138 155 0
142 160 0
144 162 0
136 152 0
133 150 0
138 152 0
139 156 0
135 152 0
147 166 0
138 152 0
133 148 0
143 157 0
135 150 0
136 152 0
144 158 0
139 156 0
142 158 0
137 153 0
143 158 0
128 142 0
139 154 0
146 159 0
140 153 0
147 162 0
142 155 0
143 159 0
144 160 0
133 145 0
135 148 0
139 153 0
129 142 0
140 156 0
136 148 0
136 149 0
135 145 0
143 157 0
144 158 0
134 143 0
133 145 0
133 146 0
137 148 0
132 140 0
139 150 0
135 147 0
143 152 0
148 159 0
139 145 0
147 158 0
139 148 0
140 147 0
148 156 0
137 144 0
139 150 0
129 134 0
136 143 0
138 147 0
147 153 0
130 136 0
141 149 0
150 157 0
142 148 0
143 154 0
133 138 0
138 143 0
150 156 0
132 135 0
148 154 0
136 140 0
133 135 0
136 138 0
136 139 0
135 137 0
138 142 0
137 139 0
144 149 0
138 143 0
141 143 0
136 138 0
136 137 0
134 131 0
147 151 0
136 136 0
137 137 0
142 144 0
137 139 0
143 144 0
145 147 0
137 137 0
136 134 0
140 139 0
146 150 0
140 139 0
141 139 0
142 142 0
138 136 0
138 137 0
142 139 0
142 142 0
139 138 0
141 140 0
144 145 0
141 139 0
142 146 0
150 154 0
143 144 0
146 150 0
143 144 0
145 146 0
153 158 0
146 150 0
146 148 0
152 154 0
143 143 0
148 151 0
153 158 0
146 147 0
151 156 0
158 163 0
152 157 0
156 160 0
145 148 0
155 159 0
155 161 0
151 154 0
154 158 0
156 163 0
151 153 0
155 159 0
154 160 0
152 157 0
160 170 0
157 164 0
161 169 0
157 166 0
159 167 0
161 169 0
160 169 0
161 174 0
162 173 0
158 168 0
161 168 0
163 174 0
162 174 0
163 173 0
162 172 0
164 178 0
162 175 0
172 196 0
174 198 0
173 197 0
175 198 0
175 198 0
174 197 0
174 198 0
173 197 0
172 196 0
175 198 0
174 197 0
174 197 0
173 197 0
174 198 0
174 198 0
173 196 0
174 198 0
172 197 0
174 197 0
173 197 0
170 195 0
172 197 0
173 197 0
173 197 0
172 196 0
172 196 0
173 197 0
171 196 0
172 196 0
171 196 0
172 197 0
173 197 0
170 195 0
171 196 0
172 196 0
171 196 0
169 195 0
171 196 0
170 195 0
169 195 0
170 194 0
170 195 0
170 195 0
170 196 0
170 194 0
169 194 0
168 193 0
171 196 0
172 196 0
169 194 0
170 195 0
171 196 0
170 195 0
168 194 0
169 194 0
170 195 0
169 194 0
169 193 0
167 192 0
169 194 0
169 195 0
164 189 0
164 190 0
169 194 0
166 191 0
170 195 0
165 190 0
169 194 0
170 195 0
167 192 0
166 191 0
169 194 0
170 194 0
166 191 0
166 191 0
167 191 0
164 188 0
168 192 0
160 184 0
162 186 0
162 187 0
164 188 0
162 186 0
170 195 0
163 187 0
167 191 0
165 188 0
168 192 0
169 192 0
162 185 0
164 188 0
167 190 0
167 191 0
164 188 0
166 189 0
162 186 0
153 176 0
164 188 0
161 184 0
158 181 0
166 189 0
162 185 0
159 181 0
163 186 0
161 184 0
162 186 0
163 185 0
158 181 0
158 181 0
160 183 0
166 188 0
163 186 0
151 173 0
162 184 0
162 185 0
160 182 0
161 185 0
158 181 0
154 176 0
154 177 0
161 183 0
162 186 0
155 178 0
158 180 0
162 184 0
159 181 0
152 174 0
159 181 0
160 183 0
159 181 0
157 179 0
158 180 0
156 178 0
151 173 0
150 173 0
156 178 0
152 173 0
157 179 0
148 170 0
159 181 0
153 175 0
148 169 0
152 174 0
148 170 0
152 174 0
151 172 0
152 174 0
142 164 0
148 170 0
158 180 0
145 166 0
154 175 0
154 174 0
149 170 0
143 165 0
145 166 0
148 170 0
148 169 0
161 181 0
142 163 0
145 166 0
149 170 0
146 166 0
140 161 0
144 165 0
138 158 0
141 161 0
143 164 0
148 167 0
145 167 0
145 165 0
141 162 0
128 149 0
139 160 0
141 161 0
143 165 0
140 160 0
136 157 0
141 162 0
142 162 0
141 162 0
139 160 0
137 158 0
137 157 0
132 153 0
140 160 0
128 148 0
133 153 0
148 169 0
141 161 0
142 160 0
133 154 0
141 161 0
132 153 0
144 165 0
137 156 0
131 152 0
132 150 0
143 163 0
141 160 0
135 155 0
142 162 0
144 165 0
136 157 0
133 151 0
125 145 0
129 148 0
140 161 0
133 152 0
127 145 0
126 145 0
134 152 0
140 159 0
134 153 0
131 151 0
128 148 0
133 153 0
125 142 0
136 155 0
134 153 0
145 165 0
131 150 0
142 161 0
132 152 0
126 142 0
132 150 0
145 162 0
144 163 0
128 147 0
134 151 0
133 151 0
134 153 0
132 151 0
132 150 0
141 160 0
136 154 0
129 147 0
138 156 0
145 164 0
140 158 0
124 142 0
146 166 0
126 142 0
134 150 0
136 155 0
144 163 0
132 149 0
140 159 0
125 142 0
145 164 0
128 145 0
141 159 0
144 161 0
138 157 0
133 150 0
139 154 0
131 148 0
139 156 0
142 160 0
141 158 0
134 148 0
140 156 0
130 147 0
146 164 0
143 160 0
138 153 0
139 155 0
136 154 0
139 155 0
137 151 0
138 155 0
142 158 0
146 160 0
143 158 0
138 154 0
144 158 0
136 150 0
137 150 0
149 163 0
136 150 0
138 153 0
143 157 0
145 159 0
143 157 0
143 158 0
133 144 0
144 158 0
144 159 0
139 153 0
133 143 0
151 163 0
138 149 0
136 148 0
140 153 0
141 152 0
136 147 0
140 149 0
136 148 0
142 155 0
141 152 0
133 141 0
138 148 0
143 153 0
139 149 0
140 152 0
133 143 0
142 148 0
143 150 0
144 152 0
139 148 0
145 154 0
137 146 0
146 152 0
144 151 0
142 148 0
143 149 0
137 144 0
134 142 0
140 142 0
136 141 0
142 145 0
135 137 0
142 147 0
141 143 0
146 152 0
140 144 0
137 141 0
143 145 0
142 145 0
144 149 0
135 137 0
142 146 0
144 146 0
141 144 0
135 134 0
134 136 0
143 143 0
147 150 0
135 135 0
137 139 0
138 138 0
133 134 0
139 142 0
142 142 0
148 150 0
133 135 0
144 143 0
142 142 0
149 150 0
142 142 0
148 153 0
142 144 0
148 152 0
139 136 0
146 146 0
141 138 0
140 139 0
149 153 0
141 141 0
149 151 0
148 149 0
149 152 0
152 155 0
152 157 0
144 145 0
150 154 0
159 165 0
143 143 0
150 154 0
152 156 0
151 152 0
148 151 0
153 157 0
148 150 0
159 165 0
146 147 0
155 155 0
158 165 0
153 158 0
162 172 0
155 162 0
156 164 0
154 159 0
156 159 0
155 163 0
163 172 0
159 166 0
155 161 0
160 170 0
160 170 0
161 171 0
170 184 0
160 170 0
165 176 0
158 165 0
159 171 0
164 176 0
165 179 0
162 174 0
161 171 0
174 197 0
176 199 0
173 197 0
173 196 0
173 197 0
173 197 0
174 197 0
173 196 0
174 197 0
174 197 0
175 198 0
174 198 0
173 197 0
174 198 0
172 196 0
175 198 0
173 196 0
173 197 0
172 196 0
173 197 0
172 196 0
172 196 0
172 197 0
172 196 0
173 197 0
171 195 0
172 197 0
172 197 0
173 197 0
172 196 0
173 197 0
171 195 0
172 197 0
171 196 0
170 195 0
170 194 0
171 196 0
169 195 0
171 196 0
170 195 0
171 196 0
171 196 0
171 195 0
171 196 0
168 192 0
172 196 0
173 197 0
172 197 0
169 193 0
171 196 0
168 193 0
169 194 0
172 196 0
165 190 0
167 193 0
168 193 0
170 196 0
170 194 0
170 194 0
167 192 0
168 193 0
167 191 0
166 191 0
170 194 0
169 194 0
166 190 0
170 194 0
170 194 0
166 190 0
168 193 0
172 196 0
164 189 0
170 195 0
168 193 0
165 189 0
168 192 0
168 193 0
170 194 0
168 192 0
165 188 0
165 190 0
159 184 0
164 188 0
169 192 0
162 186 0
165 189 0
163 187 0
164 187 0
164 188 0
168 192 0
162 186 0
166 190 0
161 185 0
161 184 0
167 190 0
161 185 0
163 184 0
159 181 0
164 187 0
166 189 0
162 186 0
165 188 0
166 188 0
164 188 0
166 188 0
157 180 0
164 187 0
162 185 0
159 182 0
162 184 0
161 184 0
159 181 0
154 176 0
163 185 0
163 185 0
167 189 0
161 184 0
163 185 0
158 180 0
163 186 0
162 184 0
165 187 0
155 178 0
151 173 0
161 183 0
160 183 0
159 180 0
147 168 0
158 180 0
155 178 0
157 179 0
155 177 0
158 180 0
152 173 0
157 179 0
150 172 0
155 177 0
157 179 0
153 174 0
157 179 0
154 177 0
145 167 0
141 162 0
152 173 0
153 176 0
154 177 0
145 166 0
153 176 0
143 165 0
158 179 0
152 172 0
151 171 0
153 174 0
141 162 0
156 178 0
142 164 0
147 168 0
142 164 0
153 175 0
157 179 0
150 171 0
146 167 0
145 166 0
142 163 0
144 165 0
146 167 0
150 171 0
137 158 0
143 164 0
146 167 0
148 168 0
149 170 0
149 171 0
139 158 0
153 173 0
138 157 0
144 163 0
149 170 0
139 159 0
132 153 0
143 164 0
140 159 0
135 154 0
138 157 0
134 155 0
125 145 0
130 150 0
137 157 0
132 152 0
129 149 0
138 157 0
134 154 0
138 157 0
140 161 0
145 165 0
134 154 0
135 156 0
138 157 0
140 160 0
134 153 0
141 161 0
132 152 0
143 162 0
133 152 0
141 161 0
130 151 0
127 144 0
134 153 0
130 150 0
137 156 0
134 154 0
133 151 0
139 158 0
135 155 0
130 149 0
134 154 0
137 155 0
147 167 0
138 157 0
131 149 0
142 160 0
138 158 0
124 143 0
136 154 0
133 151 0
137 156 0
127 146 0
134 153 0
140 159 0
139 154 0
135 155 0
135 153 0
134 153 0
134 151 0
132 148 0
143 162 0
134 152 0
135 152 0
136 154 0
139 156 0
132 150 0
145 165 0
148 166 0
139 158 0
142 160 0
143 161 0
137 156 0
141 158 0
133 148 0
125 141 0
128 147 0
142 158 0
139 156 0
140 156 0
136 152 0
137 154 0
138 156 0
142 159 0
138 153 0
139 155 0
142 159 0
132 149 0
140 158 0
134 151 0
144 161 0
137 152 0
144 160 0
146 163 0
144 160 0
145 161 0
138 151 0
147 164 0
146 162 0
137 152 0
142 157 0
148 163 0
137 152 0
145 159 0
146 160 0
138 153 0
148 162 0
144 158 0
147 161 0
147 161 0
146 162 0
144 159 0
136 149 0
145 157 0
128 142 0
139 151 0
147 161 0
142 156 0
136 149 0
140 153 0
138 149 0
139 151 0
138 151 0
143 155 0
145 156 0
146 157 0
146 158 0
136 149 0
142 154 0
142 155 0
144 155 0
142 153 0
145 157 0
138 146 0
146 155 0
147 154 0
142 153 0
142 153 0
143 151 0
133 140 0
140 149 0
142 146 0
140 144 0
144 152 0
136 139 0
135 139 0
146 151 0
137 142 0
142 149 0
142 147 0
147 153 0
148 152 0
136 140 0
134 138 0
149 156 0
134 136 0
139 142 0
141 142 0
139 144 0
141 146 0
143 147 0
137 138 0
141 142 0
138 139 0
139 143 0
139 143 0
137 137 0
140 140 0
139 142 0
142 145 0
133 133 0
142 145 0
140 143 0
146 148 0
146 146 0
145 144 0
140 142 0
145 148 0
142 141 0
145 146 0
150 152 0
138 137 0
147 146 0
141 144 0
146 150 0
149 151 0
143 145 0
152 158 0
146 149 0
149 153 0
144 147 0
153 156 0
148 151 0
154 158 0
149 150 0
150 153 0
146 148 0
152 155 0
154 156 0
150 153 0
153 158 0
151 157 0
156 160 0
153 156 0
158 163 0
156 164 0
156 161 0
158 164 0
153 158 0
153 158 0
164 174 0
152 155 0
157 164 0
154 159 0
156 165 0
154 160 0
157 166 0
160 169 0
159 167 0
157 167 0
158 166 0
160 170 0
162 172 0
161 170 0
161 170 0
158 167 0
174 198 0
175 198 0
174 198 0
173 197 0
174 198 0
174 197 0
172 196 0
174 197 0
174 198 0
173 197 0
173 197 0
173 197 0
174 198 0
175 198 0
173 197 0
173 197 0
173 197 0
172 196 0
174 197 0
173 197 0
173 197 0
172 197 0
173 197 0
172 196 0
173 197 0
169 194 0
170 195 0
172 197 0
171 196 0
172 196 0
171 196 0
171 196 0
172 197 0
171 196 0
170 196 0
171 196 0
171 196 0
170 195 0
171 196 0
173 197 0
170 195 0
173 197 0
168 193 0
168 194 0
171 196 0
168 193 0
169 194 0
169 194 0
170 195 0
170 195 0
169 194 0
167 192 0
170 195 0
169 194 0
168 194 0
166 190 0
171 196 0
170 196 0
169 194 0
167 192 0
168 192 0
168 193 0
164 188 0
168 193 0
168 193 0
168 193 0
167 191 0
167 191 0
166 190 0
169 194 0
165 189 0
164 188 0
171 195 0
164 188 0
169 194 0
169 194 0
166 190 0
167 191 0
165 189 0
167 191 0
164 188 0
170 193 0
166 190 0
164 188 0
163 187 0
168 192 0
162 185 0
166 190 0
166 190 0
160 184 0
167 190 0
166 189 0
164 188 0
160 183 0
169 192 0
168 191 0
157 181 0
159 182 0
162 185 0
166 189 0
159 183 0
167 190 0
155 178 0
167 190 0
157 180 0
158 179 0
162 185 0
166 188 0
159 182 0
159 182 0
162 184 0
155 178 0
164 186 0
155 178 0
157 179 0
160 182 0
160 183 0
160 183 0
155 178 0
160 183 0
150 171 0
163 185 0
156 178 0
154 175 0
158 181 0
157 179 0
157 179 0
159 180 0
151 172 0
155 176 0
157 178 0
152 174 0
153 175 0
158 180 0
147 169 0
156 177 0
153 175 0
153 176 0
153 175 0
158 179 0
152 173 0
158 180 0
146 167 0
152 174 0
158 180 0
148 170 0
153 175 0
149 170 0
149 171 0
153 175 0
149 171 0
146 167 0
154 176 0
154 175 0
147 168 0
154 176 0
154 175 0
154 176 0
150 172 0
147 168 0
147 168 0
145 166 0
146 166 0
147 169 0
134 155 0
148 168 0
147 169 0
149 170 0
137 158 0
152 173 0
141 162 0
136 156 0
143 164 0
143 164 0
145 165 0
140 160 0
140 161 0
145 165 0
142 161 0
145 165 0
147 167 0
152 173 0
143 163 0
141 162 0
143 163 0
137 157 0
133 153 0
150 171 0
142 163 0
136 157 0
135 156 0
128 148 0
137 158 0
136 156 0
144 165 0
149 170 0
130 150 0
142 162 0
137 156 0
140 161 0
144 166 0
141 163 0
144 163 0
135 154 0
142 160 0
126 143 0
143 162 0
132 152 0
136 152 0
136 156 0
129 149 0
139 159 0
137 158 0
134 154 0
137 157 0
125 145 0
138 158 0
135 154 0
131 149 0
134 154 0
131 149 0
129 149 0
131 150 0
136 156 0
138 157 0
143 162 0
131 150 0
138 158 0
138 157 0
139 157 0
142 159 0
135 155 0
136 154 0
137 159 0
139 159 0
135 153 0
135 152 0
139 158 0
145 163 0
134 153 0
135 153 0
141 160 0
143 161 0
134 153 0
135 152 0
142 159 0
136 155 0
133 150 0
137 155 0
141 158 0
146 163 0
140 159 0
135 151 0
132 149 0
126 143 0
143 159 0
138 157 0
141 157 0
131 146 0
139 156 0
139 157 0
140 157 0
144 163 0
145 161 0
135 153 0
137 153 0
143 160 0
142 156 0
136 152 0
143 160 0
145 163 0
140 156 0
145 164 0
146 161 0
146 163 0
146 159 0
136 153 0
144 159 0
139 156 0
137 152 0
139 153 0
132 147 0
141 155 0
144 157 0
135 149 0
147 161 0
136 151 0
146 159 0
145 159 0
140 155 0
147 159 0
137 150 0
143 156 0
149 163 0
146 161 0
137 150 0
136 145 0
133 142 0
138 153 0
141 152 0
142 155 0
129 141 0
143 154 0
152 164 0
132 142 0
136 147 0
147 156 0
143 154 0
143 156 0
150 158 0
141 152 0
142 152 0
137 145 0
149 159 0
137 146 0
144 152 0
136 145 0
142 151 0
146 154 0
137 146 0
143 150 0
133 140 0
145 152 0
142 148 0
144 148 0
144 149 0
140 145 0
146 152 0
143 149 0
146 151 0
136 138 0
135 137 0
141 146 0
138 142 0
144 148 0
143 146 0
145 149 0
142 145 0
152 158 0
138 141 0
141 141 0
139 139 0
142 144 0
150 154 0
138 137 0
150 152 0
143 144 0
147 153 0
147 151 0
147 149 0
145 147 0
146 148 0
150 154 0
147 151 0
145 147 0
146 151 0
142 142 0
140 140 0
147 149 0
146 151 0
154 160 0
146 148 0
145 148 0
145 145 0
151 152 0
149 152 0
148 152 0
148 150 0
150 154 0
153 155 0
151 156 0
154 159 0
145 146 0
146 150 0
158 163 0
152 155 0
151 158 0
152 158 0
145 145 0
155 160 0
155 162 0
156 161 0
151 157 0
156 166 0
157 163 0
160 166 0
162 172 0
159 169 0
163 171 0
157 164 0
159 168 0
162 172 0
156 162 0
159 167 0
159 168 0
160 169 0
161 170 0
163 176 0
158 167 0
163 173 0
173 197 0
174 197 0
174 198 0
172 196 0
174 197 0
173 196 0
174 197 0
172 196 0
173 197 0
172 196 0
174 198 0
174 197 0
173 197 0
173 197 0
173 197 0
174 197 0
173 197 0
173 197 0
173 197 0
172 196 0
173 197 0
172 196 0
173 196 0
174 198 0
172 196 0
172 196 0
173 197 0
173 197 0
171 196 0
172 196 0
172 197 0
172 196 0
171 195 0
172 196 0
171 196 0
172 197 0
171 195 0
170 194 0
170 194 0
171 195 0
171 196 0
172 196 0
169 194 0
167 192 0
173 197 0
169 194 0
171 195 0
169 194 0
170 194 0
168 194 0
168 193 0
168 193 0
169 194 0
168 193 0
169 195 0
171 196 0
170 194 0
171 195 0
170 195 0
166 191 0
165 190 0
168 194 0
169 194 0
166 191 0
168 193 0
167 191 0
166 190 0
167 191 0
168 192 0
171 195 0
165 190 0
170 194 0
170 195 0
172 195 0
168 191 0
167 191 0
166 190 0
165 190 0
167 191 0
163 187 0
161 185 0
167 189 0
169 193 0
162 186 0
168 192 0
161 184 0
165 190 0
167 190 0
159 182 0
164 187 0
168 191 0
165 189 0
162 185 0
168 191 0
163 187 0
163 186 0
162 185 0
163 186 0
164 187 0
155 178 0
159 182 0
166 189 0
163 185 0
157 179 0
161 183 0
153 175 0
162 184 0
158 181 0
165 188 0
158 180 0
163 185 0
163 186 0
160 183 0
161 184 0
160 182 0
157 180 0
161 183 0
160 182 0
162 185 0
161 183 0
159 181 0
154 175 0
156 178 0
156 179 0
152 174 0
155 177 0
159 182 0
159 181 0
155 178 0
158 179 0
156 178 0
147 169 0
155 177 0
160 182 0
158 179 0
154 176 0
153 175 0
152 174 0
154 176 0
149 171 0
146 167 0
149 171 0
161 183 0
151 172 0
147 168 0
147 169 0
157 179 0
150 171 0
150 171 0
141 162 0
150 173 0
149 171 0
152 175 0
149 171 0
145 167 0
153 175 0
154 176 0
149 170 0
152 173 0
151 172 0
152 173 0
150 171 0
147 167 0
144 166 0
148 169 0
141 160 0
145 166 0
139 159 0
139 159 0
143 164 0
141 162 0
142 163 0
148 169 0
151 171 0
138 157 0
146 167 0
135 156 0
141 162 0
144 166 0
136 157 0
144 163 0
135 156 0
135 155 0
147 167 0
145 166 0
155 176 0
145 165 0
140 161 0
141 162 0
139 159 0
139 159 0
144 164 0
137 157 0
142 161 0
143 162 0
135 153 0
139 160 0
139 159 0
130 151 0
134 153 0
140 160 0
141 160 0
134 153 0
145 164 0
140 161 0
136 156 0
135 155 0
135 154 0
131 151 0
144 165 0
140 161 0
132 152 0
144 163 0
131 151 0
135 153 0
140 160 0
140 160 0
137 155 0
139 158 0
133 152 0
135 153 0
141 158 0
134 154 0
135 155 0
139 159 0
134 153 0
142 162 0
133 150 0
133 152 0
136 156 0
141 159 0
136 153 0
134 152 0
126 144 0
136 154 0
135 156 0
141 160 0
145 165 0
142 161 0
141 159 0
142 161 0
131 149 0
146 164 0
148 167 0
144 160 0
140 159 0
136 153 0
138 158 0
136 155 0
136 156 0
141 158 0
140 158 0
136 153 0
139 158 0
143 161 0
135 154 0
136 153 0
140 156 0
139 157 0
141 160 0
144 163 0
141 158 0
143 161 0
140 156 0
140 159 0
141 160 0
148 165 0
150 167 0
138 156 0
140 158 0
143 159 0
138 156 0
140 155 0
137 153 0
141 153 0
143 160 0
142 158 0
138 153 0
141 156 0
141 157 0
138 153 0
142 157 0
149 164 0
146 159 0
137 151 0
136 151 0
140 155 0
140 154 0
144 157 0
140 153 0
141 155 0
141 152 0
144 160 0
143 156 0
144 158 0
146 162 0
141 154 0
148 162 0
149 162 0
140 151 0
142 153 0
143 153 0
149 159 0
135 146 0
140 154 0
144 158 0
143 155 0
138 142 0
139 151 0
141 153 0
146 159 0
147 157 0
137 146 0
143 154 0
143 152 0
139 151 0
146 154 0
144 153 0
140 146 0
147 155 0
149 157 0
137 145 0
153 156 0
140 150 0
152 159 0
136 140 0
144 151 0
140 147 0
147 154 0
157 165 0
142 149 0
143 150 0
145 152 0
149 152 0
149 156 0
141 146 0
142 146 0
146 152 0
147 149 0
145 150 0
140 143 0
148 153 0
143 146 0
150 153 0
143 145 0
143 145 0
151 155 0
143 146 0
143 147 0
142 142 0
143 148 0
141 145 0
144 145 0
147 150 0
140 142 0
146 150 0
151 154 0
148 150 0
154 158 0
154 157 0
142 144 0
151 154 0
149 151 0
144 142 0
149 153 0
151 154 0
154 160 0
149 153 0
150 152 0
154 158 0
148 152 0
153 158 0
150 154 0
150 154 0
160 169 0
148 150 0
153 158 0
154 158 0
155 160 0
155 161 0
158 163 0
155 161 0
153 159 0
158 165 0
154 160 0
156 162 0
153 162 0
155 164 0
156 164 0
155 163 0
160 170 0
160 168 0
156 164 0
160 171 0
162 172 0
160 171 0
164 175 0
161 172 0
162 172 0
160 170 0
174 198 0
174 198 0
175 198 0
174 198 0
174 198 0
175 198 0
174 197 0
172 196 0
173 197 0
174 197 0
174 197 0
175 197 0
175 198 0
174 197 0
174 197 0
173 197 0
171 195 0
175 198 0
173 197 0
172 197 0
171 196 0
172 196 0
172 196 0
172 196 0
171 195 0
172 196 0
172 196 0
170 195 0
173 197 0
171 195 0
173 197 0
173 197 0
172 196 0
169 194 0
171 196 0
173 197 0
170 194 0
171 196 0
169 194 0
171 196 0
172 196 0
169 194 0
172 196 0
169 194 0
170 194 0
169 194 0
171 196 0
167 192 0
171 195 0
167 192 0
170 194 0
166 191 0
168 193 0
165 190 0
169 194 0
166 191 0
171 195 0
170 194 0
171 196 0
168 192 0
170 195 0
163 186 0
166 190 0
163 188 0
171 196 0
165 189 0
166 190 0
165 190 0
168 193 0
166 191 0
164 188 0
168 193 0
169 192 0
165 188 0
169 192 0
164 188 0
166 190 0
168 192 0
169 193 0
169 193 0
164 187 0
166 190 0
166 189 0
162 185 0
165 188 0
167 191 0
166 188 0
162 185 0
164 187 0
168 191 0
169 192 0
167 189 0
164 188 0
164 187 0
163 187 0
158 180 0
165 189 0
166 189 0
163 186 0
163 186 0
161 183 0
157 179 0
151 175 0
161 184 0
161 183 0
164 187 0
161 184 0
163 185 0
157 179 0
159 181 0
161 183 0
162 185 0
162 186 0
159 182 0
161 183 0
162 185 0
149 171 0
164 187 0
163 185 0
156 177 0
158 180 0
165 187 0
153 176 0
160 182 0
162 185 0
153 175 0
161 183 0
164 185 0
157 179 0
157 179 0
153 174 0
157 179 0
163 185 0
152 174 0
153 175 0
156 178 0
151 172 0
153 175 0
146 168 0
153 175 0
154 176 0
152 173 0
155 178 0
150 171 0
157 178 0
151 173 0
149 171 0
149 171 0
160 182 0
149 171 0
154 175 0
149 170 0
155 176 0
150 171 0
158 179 0
146 168 0
144 165 0
141 162 0
147 169 0
144 164 0
146 167 0
146 168 0
143 163 0
150 172 0
152 173 0
152 173 0
149 170 0
145 166 0
144 164 0
141 162 0
138 158 0
152 174 0
145 166 0
141 161 0
139 160 0
151 171 0
146 166 0
144 166 0
142 163 0
143 162 0
143 165 0
139 160 0
141 162 0
143 163 0
134 156 0
142 162 0
144 164 0
147 168 0
149 171 0
142 162 0
135 155 0
152 172 0
140 161 0
145 166 0
133 153 0
146 167 0
142 162 0
141 161 0
135 156 0
148 169 0
142 162 0
140 160 0
133 153 0
146 166 0
141 161 0
141 161 0
136 157 0
141 160 0
125 143 0
132 152 0
146 166 0
145 164 0
132 152 0
133 152 0
140 160 0
137 156 0
146 167 0
132 152 0
139 157 0
142 161 0
132 151 0
136 155 0
135 154 0
139 157 0
130 147 0
138 156 0
139 159 0
145 165 0
140 158 0
141 159 0
129 149 0
133 151 0
144 163 0
141 160 0
146 165 0
132 151 0
149 168 0
135 153 0
136 154 0
139 158 0
144 162 0
137 156 0
137 154 0
140 158 0
142 158 0
146 165 0
138 156 0
142 160 0
143 162 0
138 155 0
150 170 0
137 157 0
145 161 0
138 154 0
142 158 0
147 164 0
136 157 0
143 160 0
136 152 0
146 164 0
139 157 0
144 162 0
141 158 0
138 154 0
143 162 0
131 148 0
135 152 0
144 160 0
140 157 0
147 165 0
145 163 0
143 158 0
141 159 0
143 159 0
143 160 0
148 165 0
140 155 0
148 163 0
145 162 0
136 151 0
142 157 0
144 158 0
142 160 0
146 160 0
141 157 0
140 157 0
142 155 0
147 160 0
146 159 0
139 154 0
141 155 0
139 151 0
146 159 0
145 159 0
145 156 0
145 159 0
147 162 0
148 158 0
145 159 0
146 157 0
145 157 0
133 143 0
143 156 0
139 152 0
136 148 0
149 159 0
141 152 0
141 153 0
144 153 0
150 162 0
145 156 0
143 152 0
147 157 0
144 153 0
145 155 0
139 148 0
144 153 0
145 156 0
148 157 0
135 142 0
133 139 0
149 154 0
138 145 0
147 156 0
143 149 0
140 145 0
142 153 0
143 149 0
146 152 0
146 156 0
146 152 0
146 154 0
149 157 0
154 161 0
149 155 0
134 139 0
144 149 0
149 156 0
150 154 0
145 153 0
144 149 0
141 144 0
148 152 0
143 146 0
144 148 0
145 149 0
145 148 0
146 147 0
150 155 0
148 153 0
146 149 0
153 156 0
146 149 0
148 150 0
149 152 0
143 148 0
147 150 0
146 150 0
146 146 0
144 147 0
146 147 0
147 149 0
149 151 0
150 152 0
149 155 0
152 156 0
152 156 0
151 157 0
152 157 0
153 157 0
145 148 0
152 156 0
154 159 0
147 151 0
154 161 0
149 153 0
153 158 0
152 157 0
150 154 0
153 157 0
154 160 0
163 172 0
150 151 0
155 163 0
151 157 0
157 164 0
153 159 0
157 164 0
159 166 0
156 161 0
160 168 0
158 165 0
163 176 0
161 170 0
159 165 0
162 171 0
165 177 0
163 174 0
160 170 0
166 176 0
174 198 0
174 197 0
173 196 0
174 198 0
175 198 0
174 197 0
174 198 0
174 198 0
174 198 0
174 198 0
172 197 0
173 197 0
172 197 0
172 197 0
173 197 0
172 197 0
172 196 0
173 197 0
172 196 0
173 197 0
172 197 0
173 196 0
172 196 0
173 197 0
171 195 0
172 197 0
170 195 0
171 196 0
172 197 0
169 194 0
171 195 0
172 196 0
171 195 0
173 197 0
171 195 0
173 197 0
168 193 0
171 196 0
170 195 0
171 196 0
168 194 0
171 196 0
169 194 0
166 191 0
165 190 0
170 195 0
169 194 0
170 195 0
170 195 0
172 196 0
166 190 0
168 192 0
165 189 0
166 190 0
167 192 0
167 192 0
170 194 0
169 193 0
171 195 0
173 197 0
166 191 0
167 191 0
168 193 0
165 190 0
163 187 0
172 196 0
167 191 0
170 194 0
169 192 0
164 188 0
167 191 0
160 184 0
166 190 0
161 185 0
169 192 0
167 191 0
166 190 0
166 190 0
164 188 0
164 187 0
167 190 0
170 194 0
166 189 0
167 190 0
165 188 0
168 191 0
163 187 0
164 188 0
161 184 0
165 189 0
168 192 0
165 188 0
163 186 0
165 188 0
165 187 0
168 190 0
166 189 0
161 183 0
156 178 0
160 182 0
168 190 0
161 184 0
161 184 0
164 186 0
161 184 0
161 183 0
163 186 0
161 184 0
158 180 0
163 185 0
160 183 0
162 185 0
154 176 0
166 187 0
166 189 0
158 181 0
162 183 0
157 179 0
154 177 0
165 187 0
158 180 0
160 182 0
159 181 0
154 177 0
158 179 0
165 187 0
157 180 0
156 178 0
157 179 0
153 175 0
159 182 0
156 177 0
153 175 0
155 177 0
152 174 0
151 173 0
161 182 0
159 181 0
157 178 0
159 180 0
152 172 0
160 182 0
157 179 0
145 167 0
152 175 0
155 177 0
146 169 0
156 178 0
158 180 0
153 174 0
155 175 0
154 175 0
155 176 0
158 179 0
145 167 0
151 172 0
150 170 0
157 179 0
157 178 0
153 173 0
150 171 0
153 172 0
148 169 0
147 168 0
140 161 0
150 171 0
146 167 0
144 165 0
146 167 0
150 172 0
150 170 0
152 173 0
141 160 0
149 169 0
152 173 0
143 163 0
145 165 0
141 162 0
144 166 0
140 161 0
143 164 0
144 165 0
142 164 0
134 153 0
137 157 0
135 155 0
150 170 0
142 163 0
148 169 0
146 166 0
139 159 0
132 153 0
144 165 0
144 165 0
142 161 0
134 154 0
144 165 0
144 164 0
144 165 0
142 162 0
142 162 0
145 164 0
132 152 0
141 160 0
143 163 0
140 159 0
143 162 0
147 166 0
131 151 0
134 152 0
139 158 0
129 149 0
136 158 0
145 166 0
137 156 0
126 147 0
146 166 0
133 151 0
139 159 0
137 156 0
138 158 0
139 158 0
145 164 0
139 158 0
143 161 0
140 160 0
134 154 0
148 167 0
130 150 0
138 156 0
139 159 0
135 152 0
144 166 0
147 166 0
140 158 0
135 154 0
142 161 0
142 162 0
135 154 0
143 162 0
144 163 0
137 155 0
135 153 0
136 155 0
151 170 0
144 162 0
144 164 0
141 158 0
135 155 0
151 170 0
147 164 0
138 156 0
146 164 0
138 157 0
142 160 0
141 158 0
134 152 0
140 158 0
154 170 0
148 164 0
141 159 0
144 162 0
136 153 0
141 159 0
131 147 0
144 160 0
152 169 0
151 170 0
145 162 0
144 161 0
144 159 0
146 162 0
150 168 0
147 164 0
150 166 0
141 160 0
145 161 0
144 160 0
142 158 0
145 163 0
136 150 0
144 158 0
142 157 0
146 164 0
139 153 0
137 152 0
142 156 0
140 154 0
143 157 0
147 161 0
148 165 0
139 154 0
146 160 0
145 158 0
142 155 0
143 155 0
147 160 0
146 159 0
143 156 0
148 161 0
146 159 0
151 165 0
148 161 0
147 160 0
157 171 0
143 154 0
146 157 0
138 149 0
151 161 0
140 149 0
146 157 0
143 158 0
149 161 0
145 152 0
145 157 0
152 162 0
148 157 0
143 153 0
138 147 0
150 159 0
143 151 0
142 149 0
140 147 0
141 150 0
143 153 0
145 151 0
141 148 0
144 153 0
153 159 0
147 152 0
150 157 0
143 153 0
147 154 0
150 156 0
138 146 0
142 149 0
143 148 0
142 147 0
150 158 0
144 148 0
150 154 0
146 150 0
140 141 0
152 157 0
152 159 0
149 154 0
143 145 0
143 146 0
152 157 0
137 142 0
145 147 0
153 160 0
152 158 0
144 147 0
147 151 0
152 159 0
151 157 0
150 154 0
145 145 0
150 152 0
146 151 0
155 162 0
150 152 0
151 155 0
152 158 0
153 158 0
147 148 0
150 153 0
148 155 0
150 155 0
150 156 0
157 162 0
144 145 0
156 161 0
151 157 0
146 148 0
155 161 0
154 159 0
153 158 0
158 165 0
157 165 0
157 163 0
154 160 0
151 156 0
158 165 0
152 156 0
157 162 0
158 165 0
155 160 0
155 164 0
163 172 0
155 163 0
163 175 0
158 165 0
158 167 0
156 165 0
162 171 0
164 174 0
159 168 0
161 169 0
173 197 0
175 198 0
174 197 0
174 197 0
173 197 0
173 197 0
174 197 0
173 197 0
172 196 0
173 197 0
174 197 0
173 197 0
173 197 0
171 195 0
171 195 0
173 197 0
171 196 0
171 196 0
171 194 0
173 197 0
173 197 0
173 197 0
170 195 0
174 197 0
173 197 0
172 197 0
171 196 0
172 196 0
171 196 0
173 197 0
172 196 0
171 196 0
171 195 0
172 197 0
172 197 0
173 197 0
170 195 0
170 195 0
171 196 0
171 195 0
170 195 0
170 194 0
172 195 0
168 193 0
170 195 0
168 193 0
164 189 0
168 192 0
171 194 0
171 195 0
171 195 0
171 195 0
168 192 0
170 194 0
168 193 0
169 194 0
171 195 0
167 191 0
171 195 0
168 193 0
166 190 0
167 191 0
166 190 0
166 190 0
168 192 0
169 193 0
168 191 0
172 196 0
161 184 0
164 187 0
165 189 0
171 194 0
167 190 0
165 188 0
167 190 0
170 194 0
169 192 0
168 191 0
166 189 0
167 191 0
162 185 0
160 183 0
165 189 0
165 188 0
167 190 0
158 180 0
162 185 0
165 188 0
169 192 0
167 190 0
163 186 0
168 191 0
160 183 0
162 185 0
163 186 0
162 186 0
167 190 0
160 183 0
167 189 0
166 189 0
163 186 0
163 186 0
164 186 0
162 185 0
163 186 0
162 185 0
159 182 0
164 186 0
160 183 0
163 185 0
166 189 0
155 177 0
163 186 0
159 182 0
166 188 0
158 181 0
158 181 0
163 186 0
154 177 0
154 176 0
164 186 0
160 183 0
155 177 0
156 179 0
154 177 0
165 187 0
162 185 0
157 179 0
156 178 0
154 177 0
156 177 0
157 179 0
153 175 0
156 179 0
159 181 0
154 175 0
154 175 0
156 177 0
159 182 0
155 177 0
158 180 0
149 171 0
153 175 0
156 178 0
154 175 0
151 173 0
142 165 0
157 178 0
153 175 0
150 170 0
151 172 0
156 178 0
151 172 0
137 159 0
143 165 0
157 178 0
140 161 0
148 169 0
149 168 0
149 170 0
146 168 0
148 169 0
148 170 0
142 163 0
135 156 0
140 161 0
141 161 0
139 161 0
151 172 0
151 172 0
146 166 0
151 171 0
149 171 0
150 172 0
146 168 0
148 167 0
135 155 0
142 163 0
152 172 0
149 170 0
145 166 0
134 154 0
141 162 0
138 158 0
135 157 0
141 162 0
142 162 0
140 159 0
142 162 0
147 165 0
144 164 0
133 155 0
145 165 0
143 163 0
138 158 0
136 156 0
149 170 0
144 163 0
138 157 0
146 166 0
138 157 0
138 158 0
145 165 0
146 166 0
133 154 0
148 168 0
142 161 0
145 165 0
143 163 0
121 141 0
138 156 0
138 158 0
133 153 0
135 154 0
125 144 0
146 165 0
143 164 0
137 156 0
152 171 0
140 160 0
138 158 0
140 158 0
140 160 0
141 161 0
146 165 0
135 153 0
136 154 0
138 158 0
137 157 0
140 158 0
141 162 0
150 168 0
143 163 0
141 161 0
140 158 0
128 146 0
150 166 0
143 162 0
144 163 0
133 153 0
146 164 0
141 160 0
139 158 0
142 160 0
143 162 0
144 163 0
137 155 0
142 159 0
139 159 0
142 160 0
147 165 0
134 153 0
138 157 0
142 160 0
139 158 0
143 160 0
137 152 0
147 165 0
143 160 0
135 151 0
146 163 0
141 158 0
139 156 0
144 162 0
147 164 0
146 162 0
150 169 0
147 166 0
146 162 0
143 160 0
145 162 0
128 146 0
151 169 0
139 155 0
140 158 0
149 168 0
149 167 0
151 166 0
153 170 0
144 160 0
148 163 0
143 159 0
145 161 0
150 166 0
147 163 0
147 162 0
147 161 0
146 161 0
138 152 0
144 157 0
147 162 0
145 159 0
141 156 0
151 163 0
133 146 0
142 155 0
141 155 0
142 155 0
150 164 0
144 157 0
145 157 0
146 160 0
146 159 0
147 159 0
149 162 0
152 164 0
142 155 0
129 139 0
141 157 0
145 155 0
144 156 0
148 160 0
137 148 0
143 155 0
142 153 0
151 160 0
144 153 0
151 162 0
154 167 0
145 156 0
146 155 0
147 156 0
148 160 0
143 151 0
140 146 0
149 159 0
150 157 0
146 152 0
141 149 0
139 146 0
152 157 0
147 155 0
148 157 0
151 156 0
145 151 0
147 154 0
148 155 0
148 157 0
146 151 0
144 151 0
152 161 0
147 154 0
143 149 0
146 152 0
149 157 0
148 155 0
139 144 0
150 156 0
148 152 0
146 150 0
148 152 0
154 161 0
150 154 0
144 150 0
155 162 0
141 148 0
144 149 0
155 162 0
151 155 0
153 159 0
153 160 0
153 158 0
146 148 0
151 155 0
153 156 0
151 154 0
158 165 0
151 154 0
149 154 0
152 159 0
151 158 0
154 160 0
155 161 0
148 153 0
150 155 0
156 161 0
151 156 0
156 161 0
150 155 0
151 158 0
151 156 0
157 163 0
159 168 0
156 163 0
154 163 0
158 165 0
161 170 0
157 163 0
156 162 0
152 156 0
159 163 0
155 161 0
158 165 0
159 168 0
157 167 0
160 167 0
159 168 0
158 166 0
162 172 0
161 172 0
175 198 0
175 198 0
173 197 0
174 197 0
173 196 0
175 198 0
172 196 0
174 197 0
173 197 0
173 197 0
173 197 0
173 197 0
172 196 0
172 196 0
174 198 0
170 195 0
171 196 0
173 197 0
174 198 0
173 197 0
172 196 0
172 195 0
170 194 0
172 196 0
173 196 0
171 196 0
171 195 0
171 195 0
170 194 0
171 195 0
171 195 0
172 196 0
170 194 0
173 197 0
173 196 0
173 197 0
172 196 0
171 195 0
173 197 0
170 195 0
170 194 0
170 194 0
171 195 0
170 195 0
169 194 0
170 194 0
172 196 0
166 190 0
170 194 0
169 193 0
171 195 0
167 191 0
171 195 0
170 194 0
171 195 0
170 195 0
168 192 0
166 190 0
164 189 0
169 193 0
170 194 0
170 194 0
167 191 0
161 184 0
169 193 0
169 193 0
169 193 0
167 191 0
162 187 0
169 192 0
163 187 0
170 193 0
164 188 0
162 185 0
165 189 0
169 192 0
163 187 0
168 191 0
169 192 0
167 190 0
164 187 0
167 190 0
165 189 0
167 190 0
160 184 0
164 187 0
166 189 0
167 190 0
158 181 0
161 184 0
163 187 0
165 189 0
160 183 0
162 184 0
163 186 0
163 186 0
161 183 0
162 184 0
166 189 0
161 183 0
165 187 0
163 186 0
161 184 0
163 187 0
164 186 0
163 186 0
163 186 0
163 185 0
164 187 0
164 186 0
155 178 0
163 185 0
165 188 0
157 179 0
153 175 0
160 183 0
155 178 0
165 188 0
158 179 0
159 181 0
156 179 0
161 183 0
162 185 0
153 176 0
161 183 0
156 178 0
154 176 0
161 184 0
160 183 0
153 175 0
154 176 0
152 174 0
157 179 0
158 180 0
160 182 0
163 186 0
154 176 0
156 177 0
149 170 0
158 180 0
154 175 0
149 171 0
153 174 0
147 169 0
157 178 0
157 179 0
151 173 0
152 174 0
149 171 0
149 171 0
151 173 0
150 173 0
157 179 0
153 174 0
155 177 0
152 172 0
152 174 0
147 168 0
145 166 0
144 166 0
156 178 0
144 166 0
147 168 0
148 169 0
153 175 0
151 172 0
154 176 0
150 171 0
136 156 0
152 173 0
155 176 0
152 172 0
145 166 0
145 166 0
149 170 0
150 171 0
146 166 0
145 165 0
153 175 0
150 171 0
144 165 0
138 159 0
134 156 0
137 157 0
149 170 0
143 164 0
148 168 0
140 160 0
136 155 0
144 163 0
137 158 0
149 170 0
141 162 0
141 159 0
143 163 0
140 161 0
144 164 0
141 161 0
144 165 0
135 154 0
140 160 0
139 158 0
144 163 0
141 162 0
149 169 0
148 168 0
140 159 0
147 167 0
128 148 0
142 162 0
143 164 0
143 163 0
150 168 0
147 166 0
138 156 0
141 162 0
138 158 0
141 160 0
151 171 0
143 160 0
140 158 0
140 160 0
136 155 0
143 162 0
140 161 0
142 160 0
138 158 0
135 152 0
149 168 0
138 157 0
151 173 0
140 159 0
144 165 0
135 153 0
148 166 0
143 164 0
141 161 0
140 161 0
137 155 0
142 161 0
138 156 0
137 154 0
142 163 0
138 157 0
142 159 0
149 168 0
142 160 0
142 161 0
140 158 0
146 165 0
144 164 0
133 152 0
144 161 0
137 157 0
142 161 0
133 149 0
140 159 0
139 157 0
140 157 0
146 166 0
139 156 0
133 152 0
142 158 0
145 164 0
143 158 0
144 160 0
143 160 0
145 164 0
145 161 0
149 168 0
136 155 0
138 155 0
128 144 0
144 160 0
146 162 0
149 164 0
145 163 0
151 166 0
147 164 0
151 167 0
146 164 0
141 156 0
145 162 0
142 156 0
145 161 0
143 158 0
141 156 0
145 160 0
142 156 0
139 155 0
145 160 0
149 167 0
149 161 0
146 159 0
151 168 0
145 158 0
142 155 0
147 162 0
147 162 0
145 158 0
146 159 0
140 153 0
141 155 0
147 161 0
146 159 0
146 160 0
150 163 0
137 149 0
147 162 0
144 155 0
148 162 0
148 160 0
148 159 0
144 154 0
145 157 0
138 149 0
150 161 0
143 155 0
148 158 0
141 153 0
143 151 0
149 157 0
142 151 0
137 146 0
146 156 0
146 154 0
148 159 0
140 149 0
136 143 0
148 157 0
148 156 0
152 161 0
148 157 0
153 162 0
147 154 0
146 154 0
148 156 0
148 155 0
150 158 0
147 156 0
145 153 0
155 164 0
146 150 0
149 158 0
150 156 0
144 148 0
152 161 0
148 154 0
152 157 0
149 157 0
142 144 0
146 149 0
147 149 0
150 156 0
143 150 0
150 155 0
150 156 0
147 150 0
155 158 0
151 158 0
151 158 0
151 154 0
143 147 0
150 152 0
149 156 0
151 154 0
150 156 0
149 154 0
143 149 0
157 164 0
149 153 0
154 159 0
152 159 0
153 161 0
154 162 0
153 158 0
158 162 0
147 153 0
154 162 0
159 166 0
159 165 0
150 156 0
155 162 0
156 163 0
157 166 0
152 157 0
152 159 0
159 168 0
162 168 0
159 165 0
158 166 0
153 160 0
160 166 0
162 170 0
158 165 0
160 168 0
154 163 0
161 170 0
159 170 0
158 168 0
172 196 0
173 197 0
172 196 0
173 197 0
173 197 0
174 198 0
173 197 0
172 196 0
173 197 0
173 196 0
173 197 0
173 197 0
174 197 0
173 197 0
173 197 0
173 197 0
172 196 0
172 196 0
172 196 0
170 195 0
169 194 0
171 196 0
171 196 0
172 196 0
170 195 0
169 193 0
172 196 0
171 195 0
170 195 0
171 196 0
170 194 0
172 196 0
172 196 0
172 197 0
171 195 0
170 194 0
171 196 0
170 194 0
171 195 0
172 197 0
171 196 0
171 195 0
168 192 0
170 194 0
171 195 0
168 192 0
170 193 0
169 193 0
169 193 0
166 190 0
169 193 0
167 191 0
168 192 0
169 193 0
169 192 0
166 190 0
171 195 0
169 193 0
171 194 0
170 194 0
166 191 0
169 192 0
169 193 0
170 194 0
169 194 0
168 190 0
168 191 0
162 186 0
169 192 0
167 191 0
163 187 0
170 193 0
165 188 0
169 192 0
168 192 0
167 191 0
164 187 0
170 193 0
165 189 0
167 190 0
164 188 0
167 190 0
165 188 0
167 191 0
166 189 0
160 182 0
164 187 0
164 187 0
169 192 0
168 191 0
166 188 0
163 186 0
162 184 0
164 187 0
163 185 0
164 188 0
159 182 0
161 185 0
164 187 0
159 181 0
166 189 0
157 180 0
164 186 0
158 180 0
164 187 0
162 185 0
165 188 0
162 185 0
161 183 0
154 176 0
164 186 0
159 182 0
162 183 0
162 185 0
159 181 0
158 181 0
161 184 0
156 178 0
152 175 0
158 180 0
156 178 0
157 179 0
160 182 0
163 185 0
151 173 0
161 182 0
155 178 0
159 181 0
155 176 0
163 185 0
162 185 0
157 179 0
154 176 0
157 180 0
156 179 0
158 180 0
153 175 0
155 177 0
155 176 0
157 179 0
151 171 0
154 176 0
150 172 0
160 181 0
157 179 0
145 167 0
152 174 0
152 174 0
154 176 0
152 173 0
149 171 0
156 176 0
151 172 0
149 171 0
146 167 0
151 171 0
149 171 0
143 165 0
149 170 0
142 163 0
149 169 0
152 173 0
152 174 0
152 173 0
150 172 0
154 175 0
145 166 0
149 172 0
146 167 0
138 159 0
144 165 0
147 168 0
149 170 0
145 166 0
144 165 0
144 164 0
153 174 0
148 168 0
147 168 0
140 159 0
136 157 0
141 161 0
145 164 0
142 163 0
137 157 0
138 159 0
136 157 0
144 164 0
146 165 0
138 159 0
137 158 0
148 169 0
142 161 0
144 165 0
138 157 0
145 167 0
143 162 0
144 165 0
139 160 0
138 159 0
129 150 0
143 162 0
136 156 0
141 162 0
144 164 0
145 164 0
141 162 0
145 164 0
140 160 0
136 156 0
150 169 0
141 161 0
146 167 0
149 167 0
145 164 0
137 157 0
141 162 0
134 153 0
134 153 0
136 156 0
138 157 0
140 160 0
142 161 0
149 169 0
144 165 0
143 162 0
148 167 0
136 154 0
145 164 0
130 148 0
141 162 0
152 172 0
138 156 0
139 159 0
142 160 0
141 161 0
151 171 0
143 161 0
132 150 0
141 161 0
142 162 0
141 160 0
130 147 0
139 158 0
148 168 0
139 157 0
140 160 0
147 164 0
139 157 0
142 162 0
141 159 0
143 162 0
140 160 0
140 159 0
139 158 0
151 168 0
143 162 0
139 158 0
145 164 0
139 157 0
142 162 0
138 155 0
148 166 0
143 159 0
146 164 0
140 160 0
147 163 0
144 162 0
145 161 0
145 162 0
146 164 0
148 164 0
153 170 0
147 162 0
142 156 0
142 159 0
150 166 0
146 161 0
143 159 0
142 158 0
151 167 0
146 164 0
141 158 0
140 158 0
144 162 0
150 166 0
137 152 0
138 154 0
147 163 0
150 166 0
148 165 0
147 161 0
143 158 0
144 159 0
152 167 0
151 166 0
144 158 0
149 164 0
145 159 0
144 155 0
141 157 0
141 155 0
141 154 0
145 158 0
142 152 0
150 164 0
148 162 0
145 157 0
156 171 0
146 159 0
149 159 0
148 161 0
146 162 0
147 158 0
145 156 0
146 159 0
142 151 0
138 148 0
150 160 0
155 166 0
150 163 0
154 165 0
158 170 0
148 159 0
144 154 0
146 156 0
150 160 0
148 159 0
145 157 0
144 154 0
147 156 0
146 152 0
148 156 0
147 154 0
148 154 0
142 147 0
149 158 0
138 147 0
145 151 0
149 156 0
141 149 0
151 160 0
148 152 0
149 157 0
145 150 0
143 151 0
145 152 0
149 153 0
147 153 0
148 153 0
154 163 0
149 155 0
151 159 0
148 155 0
152 158 0
152 157 0
150 155 0
151 156 0
153 160 0
148 155 0
145 152 0
154 162 0
155 163 0
156 165 0
153 158 0
154 159 0
155 161 0
148 156 0
153 160 0
151 155 0
150 155 0
158 165 0
158 166 0
151 158 0
155 159 0
147 150 0
152 156 0
150 154 0
157 164 0
156 162 0
157 165 0
157 162 0
152 158 0
156 163 0
160 170 0
153 159 0
157 166 0
153 159 0
156 163 0
160 170 0
157 165 0
162 174 0
159 170 0
159 166 0
160 168 0
163 172 0
158 169 0
156 164 0
159 168 0
156 166 0
175 197 0
173 197 0
172 197 0
174 197 0
173 197 0
174 197 0
173 197 0
173 196 0
174 197 0
172 196 0
173 196 0
172 196 0
172 196 0
174 198 0
174 198 0
173 196 0
171 195 0
171 195 0
173 197 0
173 197 0
172 196 0
172 196 0
171 195 0
171 195 0
173 197 0
170 195 0
170 194 0
175 198 0
171 195 0
171 194 0
169 194 0
173 197 0
170 195 0
173 196 0
169 193 0
173 197 0
168 192 0
171 194 0
169 193 0
171 195 0
172 195 0
168 192 0
169 194 0
168 192 0
168 192 0
171 195 0
164 188 0
170 194 0
170 194 0
169 193 0
169 193 0
166 190 0
170 193 0
167 192 0
170 194 0
166 191 0
166 191 0
166 189 0
170 193 0
169 193 0
166 190 0
168 192 0
169 193 0
169 192 0
168 191 0
167 191 0
169 193 0
169 193 0
165 189 0
167 190 0
165 189 0
166 190 0
170 194 0
169 192 0
163 187 0
167 191 0
166 189 0
165 188 0
168 192 0
163 186 0
164 187 0
169 191 0
164 187 0
168 191 0
167 190 0
167 190 0
167 190 0
163 186 0
161 184 0
167 190 0
169 191 0
158 181 0
166 190 0
160 183 0
164 186 0
168 191 0
166 189 0
164 187 0
165 187 0
160 184 0
158 180 0
166 189 0
161 183 0
167 190 0
162 185 0
165 188 0
160 182 0
164 187 0
159 182 0
159 182 0
161 185 0
156 178 0
165 187 0
155 177 0
157 180 0
161 184 0
161 184 0
162 184 0
157 180 0
159 180 0
159 181 0
160 183 0
164 186 0
153 175 0
152 174 0
155 178 0
160 183 0
158 180 0
156 179 0
151 173 0
152 174 0
157 179 0
158 179 0
158 180 0
158 180 0
152 174 0
153 174 0
151 172 0
151 172 0
156 177 0
156 178 0
156 178 0
166 188 0
152 173 0
155 178 0
151 173 0
152 174 0
156 178 0
148 168 0
158 180 0
150 173 0
154 174 0
156 177 0
148 169 0
153 174 0
149 171 0
145 166 0
156 176 0
154 175 0
152 174 0
142 163 0
149 171 0
158 179 0
147 168 0
151 172 0
148 169 0
143 164 0
144 164 0
148 169 0
154 175 0
153 175 0
150 172 0
147 168 0
149 171 0
148 169 0
139 160 0
157 177 0
152 173 0
147 167 0
152 174 0
152 173 0
141 162 0
137 157 0
146 167 0
151 173 0
141 162 0
137 158 0
147 169 0
148 169 0
135 154 0
144 166 0
150 170 0
139 160 0
134 155 0
154 175 0
144 164 0
147 167 0
155 176 0
143 163 0
144 164 0
138 158 0
140 159 0
139 161 0
138 159 0
135 155 0
141 160 0
136 156 0
140 159 0
144 165 0
145 165 0
142 162 0
140 160 0
147 167 0
146 168 0
139 158 0
135 155 0
135 154 0
146 166 0
139 160 0
139 157 0
147 169 0
139 157 0
137 158 0
143 164 0
136 156 0
135 154 0
144 163 0
151 171 0
147 167 0
146 165 0
145 165 0
145 165 0
148 169 0
142 163 0
142 163 0
146 164 0
144 162 0
140 161 0
142 161 0
145 164 0
140 160 0
148 166 0
144 163 0
145 163 0
144 163 0
135 153 0
136 156 0
149 168 0
143 161 0
149 166 0
145 163 0
144 163 0
145 166 0
143 161 0
142 158 0
133 151 0
142 161 0
145 163 0
141 160 0
138 156 0
152 170 0
146 164 0
146 163 0
138 156 0
149 168 0
147 166 0
145 163 0
137 154 0
150 166 0
143 161 0
145 162 0
134 152 0
148 165 0
148 164 0
148 165 0
149 167 0
150 168 0
143 163 0
147 163 0
144 159 0
150 168 0
149 165 0
145 163 0
151 172 0
144 158 0
147 164 0
143 161 0
152 167 0
146 160 0
142 159 0
141 160 0
147 163 0
143 160 0
152 168 0
146 160 0
153 168 0
144 158 0
145 159 0
143 158 0
151 166 0
146 160 0
140 152 0
144 160 0
152 163 0
148 163 0
138 150 0
142 157 0
150 165 0
152 165 0
143 153 0
147 159 0
152 166 0
149 161 0
142 156 0
145 159 0
150 165 0
148 161 0
142 152 0
151 161 0
146 159 0
149 160 0
149 162 0
146 157 0
143 151 0
150 162 0
145 155 0
148 158 0
143 153 0
149 158 0
144 154 0
154 165 0
144 153 0
146 156 0
156 165 0
144 152 0
151 160 0
149 159 0
147 156 0
143 150 0
148 155 0
152 159 0
144 153 0
149 155 0
143 148 0
151 155 0
146 151 0
146 153 0
147 154 0
153 158 0
155 163 0
152 161 0
147 152 0
156 164 0
148 155 0
147 154 0
150 157 0
152 159 0
155 162 0
153 161 0
158 164 0
154 161 0
142 145 0
148 153 0
152 158 0
142 146 0
152 157 0
146 152 0
151 156 0
156 163 0
153 160 0
161 167 0
153 159 0
150 157 0
156 164 0
154 159 0
155 163 0
155 163 0
147 152 0
154 159 0
153 160 0
157 165 0
154 161 0
153 160 0
150 154 0
156 164 0
160 167 0
158 168 0
157 165 0
160 169 0
156 166 0
153 160 0
148 154 0
161 169 0
159 165 0
159 169 0
156 164 0
160 169 0
164 174 0
155 164 0
158 167 0
175 198 0
174 198 0
173 197 0
173 197 0
173 197 0
174 198 0
172 196 0
169 193 0
173 196 0
173 197 0
171 195 0
173 197 0
171 195 0
173 197 0
174 197 0
172 197 0
174 198 0
173 197 0
171 196 0
170 195 0
172 195 0
170 194 0
172 195 0
170 194 0
173 197 0
170 194 0
172 196 0
171 195 0
172 196 0
170 195 0
170 194 0
171 195 0
171 196 0
172 196 0
169 192 0
170 193 0
171 195 0
170 195 0
169 194 0
171 195 0
167 192 0
169 193 0
169 193 0
170 194 0
171 194 0
173 196 0
169 192 0
170 195 0
166 190 0
172 196 0
168 191 0
167 191 0
169 193 0
172 195 0
171 195 0
166 189 0
169 192 0
170 194 0
170 194 0
169 192 0
171 195 0
172 195 0
168 192 0
169 191 0
166 190 0
169 193 0
165 189 0
167 190 0
165 189 0
169 191 0
167 190 0
170 193 0
166 189 0
162 185 0
164 188 0
164 186 0
165 188 0
166 189 0
166 189 0
162 185 0
162 185 0
166 190 0
166 189 0
162 185 0
165 187 0
169 191 0
168 190 0
163 186 0
168 191 0
163 186 0
169 191 0
166 189 0
162 185 0
169 191 0
161 184 0
160 182 0
162 184 0
163 185 0
161 183 0
165 188 0
161 183 0
159 182 0
163 185 0
161 184 0
158 180 0
162 185 0
158 180 0
160 183 0
162 184 0
162 185 0
165 188 0
153 176 0
169 191 0
162 184 0
157 179 0
162 184 0
161 183 0
151 173 0
159 181 0
164 186 0
160 182 0
159 182 0
162 184 0
157 179 0
163 185 0
151 174 0
153 176 0
155 177 0
152 174 0
163 185 0
159 182 0
163 185 0
162 183 0
159 182 0
156 178 0
152 174 0
152 173 0
160 182 0
155 177 0
163 184 0
154 175 0
153 176 0
158 180 0
157 178 0
148 171 0
152 174 0
155 176 0
155 176 0
147 170 0
160 181 0
151 174 0
151 172 0
145 166 0
147 170 0
150 171 0
153 174 0
152 172 0
161 182 0
156 178 0
155 176 0
154 174 0
158 180 0
144 166 0
153 174 0
155 175 0
156 177 0
145 166 0
144 165 0
143 165 0
153 174 0
138 159 0
141 163 0
151 173 0
141 162 0
142 163 0
144 166 0
147 168 0
148 169 0
145 167 0
146 165 0
146 168 0
154 175 0
147 169 0
141 163 0
148 170 0
150 172 0
145 167 0
148 169 0
147 168 0
141 163 0
154 176 0
145 166 0
136 156 0
144 165 0
133 154 0
143 163 0
142 162 0
137 157 0
148 169 0
155 177 0
144 165 0
142 163 0
146 166 0
145 166 0
146 166 0
143 164 0
141 161 0
142 162 0
138 159 0
146 166 0
139 159 0
142 162 0
132 153 0
141 160 0
147 168 0
146 166 0
143 164 0
132 151 0
130 150 0
149 169 0
136 157 0
142 160 0
144 161 0
148 168 0
142 161 0
134 154 0
134 154 0
147 166 0
142 161 0
142 162 0
137 157 0
139 157 0
142 161 0
143 162 0
146 165 0
137 158 0
147 167 0
148 168 0
149 169 0
147 168 0
148 167 0
146 166 0
143 164 0
141 160 0
141 160 0
143 164 0
142 160 0
150 169 0
140 159 0
148 167 0
149 167 0
143 160 0
142 161 0
143 162 0
140 157 0
147 166 0
143 162 0
148 167 0
145 163 0
155 175 0
149 166 0
145 163 0
142 158 0
151 169 0
149 169 0
145 165 0
138 155 0
154 172 0
139 155 0
141 160 0
143 160 0
145 163 0
148 167 0
144 163 0
147 165 0
150 166 0
150 170 0
147 164 0
155 174 0
154 170 0
148 164 0
155 172 0
147 165 0
145 161 0
148 164 0
151 168 0
143 159 0
143 158 0
143 158 0
149 165 0
143 157 0
150 167 0
144 159 0
144 161 0
146 162 0
149 164 0
141 155 0
146 162 0
148 160 0
149 165 0
151 166 0
137 151 0
143 158 0
150 165 0
151 165 0
140 155 0
147 159 0
148 159 0
154 169 0
154 167 0
145 160 0
145 160 0
140 153 0
147 161 0
153 167 0
149 163 0
153 166 0
147 158 0
145 157 0
148 158 0
142 154 0
150 160 0
148 160 0
143 152 0
149 160 0
152 163 0
152 165 0
148 162 0
143 154 0
145 151 0
155 166 0
146 154 0
148 159 0
152 162 0
151 162 0
151 159 0
144 151 0
149 156 0
146 154 0
148 157 0
148 155 0
154 166 0
152 161 0
150 160 0
148 155 0
152 160 0
148 158 0
144 153 0
152 158 0
159 166 0
147 150 0
149 156 0
144 149 0
151 156 0
151 160 0
149 159 0
158 167 0
149 155 0
144 147 0
154 163 0
151 159 0
155 162 0
151 158 0
157 164 0
147 152 0
151 158 0
155 161 0
152 157 0
150 157 0
150 157 0
143 149 0
153 161 0
155 162 0
154 159 0
150 157 0
150 156 0
152 158 0
156 161 0
155 160 0
148 151 0
158 167 0
152 159 0
158 167 0
155 159 0
160 167 0
154 163 0
157 163 0
157 164 0
153 160 0
160 171 0
154 160 0
163 175 0
158 166 0
157 164 0
161 171 0
156 165 0
161 171 0
155 164 0
163 173 0
159 168 0
173 197 0
173 196 0
173 197 0
173 197 0
172 196 0
173 197 0
173 197 0
172 196 0
174 198 0
173 197 0
173 197 0
171 195 0
173 196 0
172 197 0
170 194 0
172 196 0
172 196 0
172 196 0
172 196 0
174 198 0
172 196 0
170 194 0
173 197 0
173 196 0
172 197 0
173 197 0
170 194 0
170 194 0
171 196 0
171 194 0
170 194 0
172 196 0
172 197 0
169 193 0
169 193 0
173 197 0
174 197 0
169 193 0
171 195 0
171 196 0
171 194 0
168 193 0
170 193 0
168 192 0
170 193 0
173 197 0
170 194 0
167 190 0
168 192 0
169 192 0
170 193 0
165 189 0
168 192 0
170 194 0
169 192 0
169 193 0
167 190 0
167 190 0
172 196 0
168 193 0
167 190 0
166 190 0
170 194 0
170 193 0
170 193 0
170 193 0
166 189 0
166 190 0
170 193 0
167 190 0
167 190 0
164 186 0
165 187 0
165 188 0
166 189 0
167 190 0
167 190 0
159 182 0
164 186 0
162 185 0
164 188 0
171 193 0
165 188 0
167 190 0
167 189 0
162 185 0
167 189 0
160 183 0
164 187 0
167 191 0
169 192 0
163 186 0
161 183 0
165 188 0
164 187 0
163 185 0
160 182 0
165 187 0
157 180 0
159 181 0
164 186 0
160 184 0
158 182 0
154 176 0
159 180 0
166 188 0
160 182 0
164 187 0
159 181 0
160 182 0
152 175 0
158 181 0
163 184 0
160 181 0
167 190 0
156 179 0
158 180 0
164 186 0
161 183 0
163 185 0
164 186 0
156 177 0
155 177 0
161 184 0
155 177 0
156 177 0
163 184 0
163 185 0
150 172 0
154 176 0
157 179 0
158 180 0
166 188 0
151 172 0
160 182 0
153 176 0
158 181 0
158 180 0
157 178 0
150 172 0
147 169 0
153 174 0
151 173 0
161 183 0
157 179 0
154 175 0
154 175 0
153 173 0
150 171 0
158 178 0
152 174 0
156 177 0
155 176 0
148 170 0
153 175 0
150 173 0
150 171 0
156 178 0
157 179 0
157 178 0
150 172 0
151 173 0
147 169 0
148 168 0
156 178 0
153 174 0
152 172 0
151 172 0
151 171 0
149 170 0
145 166 0
152 172 0
146 166 0
143 163 0
145 166 0
155 175 0
149 171 0
153 174 0
146 167 0
147 168 0
149 170 0
149 170 0
149 169 0
145 166 0
151 173 0
150 171 0
143 164 0
149 168 0
134 153 0
138 159 0
142 163 0
141 161 0
140 159 0
145 166 0
144 163 0
149 169 0
142 163 0
145 165 0
143 164 0
141 162 0
146 168 0
144 162 0
149 170 0
147 167 0
141 162 0
139 160 0
140 159 0
150 170 0
134 155 0
130 150 0
154 173 0
148 169 0
141 161 0
148 167 0
144 163 0
138 158 0
138 157 0
141 161 0
144 164 0
140 160 0
148 168 0
146 166 0
140 160 0
145 165 0
139 156 0
143 163 0
133 153 0
143 159 0
140 160 0
140 160 0
146 167 0
147 167 0
146 165 0
143 161 0
149 168 0
153 173 0
146 165 0
145 165 0
144 164 0
138 157 0
148 167 0
147 165 0
138 158 0
146 166 0
147 166 0
151 170 0
144 161 0
154 174 0
143 161 0
148 165 0
142 161 0
142 162 0
148 166 0
151 171 0
145 165 0
151 167 0
147 166 0
146 166 0
148 167 0
146 164 0
144 163 0
149 168 0
151 170 0
147 164 0
151 169 0
143 161 0
140 159 0
151 169 0
149 167 0
149 166 0
152 170 0
147 167 0
151 168 0
144 163 0
145 164 0
142 160 0
141 159 0
149 168 0
146 164 0
143 159 0
147 165 0
152 169 0
152 168 0
151 168 0
141 158 0
146 161 0
152 170 0
153 171 0
150 166 0
150 166 0
147 165 0
150 167 0
148 165 0
147 161 0
148 163 0
148 163 0
146 160 0
152 167 0
146 163 0
141 155 0
152 167 0
149 161 0
148 163 0
144 158 0
144 158 0
142 157 0
155 170 0
156 169 0
144 156 0
150 166 0
151 163 0
147 162 0
153 168 0
146 160 0
153 164 0
148 162 0
138 152 0
149 161 0
147 161 0
152 164 0
150 163 0
149 160 0
152 164 0
153 165 0
150 161 0
142 155 0
149 159 0
150 161 0
148 158 0
152 164 0
148 158 0
144 154 0
145 158 0
147 158 0
148 158 0
152 163 0
157 167 0
149 156 0
151 162 0
142 151 0
152 161 0
146 153 0
140 149 0
154 165 0
149 156 0
151 163 0
151 159 0
155 163 0
148 156 0
151 158 0
145 151 0
147 153 0
149 157 0
151 160 0
150 156 0
143 147 0
154 160 0
154 163 0
152 160 0
146 151 0
149 155 0
148 154 0
152 160 0
153 158 0
153 159 0
152 162 0
152 159 0
152 157 0
156 162 0
150 156 0
150 158 0
154 160 0
156 164 0
149 152 0
153 160 0
157 164 0
151 159 0
151 157 0
162 172 0
157 166 0
158 164 0
156 165 0
154 162 0
150 157 0
155 160 0
158 166 0
162 169 0
152 160 0
152 160 0
152 160 0
153 158 0
153 162 0
156 164 0
155 163 0
157 163 0
158 167 0
158 167 0
159 169 0
159 167 0
158 166 0
174 198 0
174 197 0
173 196 0
172 195 0
174 198 0
171 195 0
173 197 0
173 197 0
170 194 0
172 196 0
174 198 0
173 196 0
172 196 0
173 197 0
174 197 0
170 194 0
171 195 0
170 194 0
171 195 0
171 195 0
171 195 0
172 196 0
173 197 0
173 197 0
173 197 0
172 196 0
172 195 0
173 197 0
172 196 0
171 195 0
172 196 0
172 196 0
172 196 0
172 195 0
171 195 0
170 194 0
169 193 0
173 197 0
170 194 0
171 195 0
172 195 0
172 195 0
173 196 0
170 193 0
168 192 0
173 197 0
171 194 0
170 194 0
167 192 0
171 195 0
167 191 0
167 190 0
170 194 0
167 191 0
166 190 0
171 195 0
171 195 0
169 193 0
169 191 0
167 191 0
171 194 0
168 191 0
167 191 0
166 190 0
169 192 0
169 192 0
165 188 0
167 190 0
167 190 0
167 190 0
169 192 0
167 190 0
166 188 0
166 190 0
162 185 0
168 191 0
162 185 0
164 187 0
165 188 0
165 188 0
164 187 0
164 187 0
163 186 0
172 195 0
170 193 0
160 183 0
167 189 0
159 182 0
161 185 0
165 188 0
168 190 0
166 188 0
165 188 0
165 188 0
164 187 0
163 187 0
168 191 0
165 188 0
165 187 0
165 187 0
154 177 0
163 185 0
158 180 0
165 188 0
162 184 0
164 187 0
162 185 0
162 185 0
162 185 0
163 185 0
161 184 0
160 182 0
163 186 0
159 182 0
154 177 0
162 185 0
163 185 0
162 185 0
159 182 0
161 183 0
153 175 0
158 180 0
162 184 0
157 179 0
155 177 0
159 181 0
150 173 0
158 181 0
157 179 0
158 180 0
162 185 0
158 179 0
160 183 0
153 173 0
164 186 0
159 181 0
149 172 0
159 182 0
158 180 0
154 177 0
159 183 0
160 181 0
157 177 0
155 176 0
163 184 0
158 180 0
154 176 0
156 178 0
153 174 0
151 172 0
155 176 0
148 171 0
151 173 0
160 182 0
155 177 0
148 169 0
157 179 0
150 172 0
146 168 0
153 174 0
158 180 0
152 174 0
156 179 0
147 167 0
147 170 0
154 176 0
147 169 0
152 175 0
144 166 0
152 173 0
148 169 0
151 172 0
144 165 0
154 175 0
145 165 0
152 173 0
150 171 0
150 170 0
148 169 0
150 170 0
144 166 0
147 168 0
145 165 0
146 167 0
147 170 0
134 155 0
143 164 0
146 166 0
157 178 0
145 165 0
154 176 0
146 166 0
145 165 0
144 164 0
149 172 0
144 165 0
143 162 0
147 166 0
145 166 0
143 164 0
141 162 0
153 173 0
148 170 0
147 169 0
146 167 0
155 176 0
143 163 0
142 164 0
145 167 0
147 167 0
141 162 0
139 159 0
144 164 0
149 169 0
144 165 0
148 169 0
151 172 0
138 158 0
141 162 0
152 173 0
147 166 0
148 169 0
141 161 0
144 164 0
147 167 0
142 162 0
142 162 0
154 173 0
147 168 0
147 167 0
146 167 0
139 159 0
147 168 0
141 158 0
142 162 0
143 163 0
139 157 0
147 166 0
140 158 0
144 162 0
141 160 0
146 164 0
141 160 0
153 173 0
146 166 0
145 164 0
145 163 0
150 169 0
147 167 0
142 161 0
142 161 0
149 167 0
145 164 0
145 163 0
148 168 0
144 161 0
142 159 0
142 158 0
144 162 0
141 160 0
151 169 0
145 164 0
151 170 0
149 166 0
144 163 0
148 165 0
140 159 0
144 162 0
153 172 0
154 171 0
152 170 0
153 171 0
143 159 0
149 165 0
146 162 0
148 166 0
147 166 0
144 163 0
147 166 0
143 160 0
150 168 0
149 166 0
150 167 0
149 164 0
144 160 0
150 168 0
142 159 0
146 163 0
149 168 0
151 168 0
149 166 0
145 159 0
149 165 0
147 164 0
146 161 0
153 171 0
147 162 0
139 155 0
152 168 0
150 165 0
147 161 0
148 163 0
143 155 0
150 164 0
150 165 0
140 154 0
149 162 0
144 160 0
141 152 0
148 160 0
150 164 0
146 160 0
156 170 0
145 158 0
153 166 0
150 164 0
147 159 0
148 158 0
136 146 0
155 166 0
154 166 0
142 156 0
153 164 0
142 152 0
154 168 0
146 155 0
150 162 0
148 159 0
149 159 0
149 161 0
145 157 0
149 162 0
151 163 0
150 161 0
143 152 0
154 165 0
147 158 0
146 157 0
145 158 0
151 160 0
152 164 0
153 165 0
148 158 0
151 161 0
146 154 0
150 160 0
154 164 0
154 165 0
150 157 0
154 166 0
148 157 0
148 157 0
149 156 0
157 165 0
151 157 0
155 162 0
151 159 0
153 160 0
150 158 0
158 168 0
156 165 0
146 153 0
157 165 0
153 159 0
156 164 0
153 163 0
147 152 0
154 160 0
151 156 0
154 162 0
158 167 0
151 155 0
154 160 0
153 162 0
154 162 0
152 158 0
154 161 0
150 157 0
155 164 0
160 168 0
159 167 0
157 165 0
161 170 0
149 154 0
159 167 0
154 163 0
160 168 0
156 162 0
160 171 0
154 161 0
161 170 0
155 164 0
156 162 0
155 162 0
162 174 0
158 166 0
157 167 0
159 169 0
159 169 0
159 169 0
175 198 0
172 196 0
173 196 0
172 195 0
175 198 0
173 196 0
175 198 0
173 196 0
173 197 0
173 197 0
172 196 0
172 196 0
173 197 0
172 195 0
173 197 0
173 196 0
174 196 0
172 195 0
171 194 0
172 196 0
172 197 0
171 195 0
172 196 0
170 194 0
169 193 0
172 195 0
172 196 0
173 196 0
171 194 0
169 193 0
172 196 0
168 192 0
168 192 0
170 193 0
170 194 0
168 192 0
167 191 0
169 193 0
170 194 0
168 192 0
169 193 0
170 194 0
170 194 0
169 191 0
172 196 0
165 188 0
168 192 0
170 193 0
173 196 0
170 193 0
170 193 0
171 194 0
173 196 0
168 192 0
168 191 0
168 192 0
167 190 0
167 190 0
169 193 0
164 187 0
167 190 0
162 185 0
169 193 0
167 191 0
165 188 0
166 190 0
172 194 0
165 189 0
167 190 0
171 194 0
163 185 0
165 188 0
166 189 0
164 187 0
162 185 0
168 191 0
162 185 0
165 188 0
159 183 0
169 191 0
168 191 0
167 190 0
162 185 0
164 187 0
160 183 0
162 184 0
167 190 0
165 188 0
164 186 0
167 190 0
161 184 0
158 180 0
163 186 0
163 186 0
162 184 0
162 185 0
163 186 0
161 183 0
163 185 0
164 186 0
164 186 0
161 183 0
160 183 0
162 185 0
164 186 0
165 188 0
161 184 0
161 184 0
162 184 0
160 182 0
161 183 0
157 180 0
160 182 0
162 185 0
153 174 0
157 180 0
160 182 0
161 183 0
156 179 0
154 177 0
161 184 0
167 190 0
161 182 0
161 183 0
161 183 0
153 176 0
154 177 0
157 179 0
158 179 0
159 181 0
162 184 0
157 179 0
155 176 0
156 177 0
155 177 0
155 177 0
151 173 0
156 179 0
152 174 0
153 174 0
156 177 0
155 176 0
164 185 0
159 182 0
160 182 0
152 173 0
156 177 0
148 170 0
162 184 0
156 178 0
153 174 0
153 174 0
149 171 0
150 171 0
155 176 0
154 175 0
150 172 0
154 175 0
160 182 0
149 171 0
156 177 0
149 171 0
154 175 0
156 178 0
147 169 0
152 174 0
148 168 0
158 180 0
155 176 0
151 172 0
153 174 0
145 166 0
147 167 0
150 171 0
149 170 0
146 167 0
157 179 0
135 156 0
145 168 0
154 175 0
149 170 0
145 164 0
153 175 0
144 165 0
151 172 0
145 166 0
142 163 0
154 175 0
145 165 0
147 167 0
144 166 0
145 165 0
143 165 0
148 168 0
144 165 0
135 156 0
149 170 0
137 156 0
148 169 0
142 164 0
145 166 0
143 165 0
142 162 0
147 168 0
144 165 0
137 157 0
142 163 0
139 159 0
144 166 0
143 164 0
143 164 0
151 172 0
150 171 0
145 165 0
143 162 0
142 163 0
135 153 0
142 163 0
148 169 0
145 165 0
148 168 0
146 167 0
137 157 0
149 170 0
148 170 0
146 166 0
151 172 0
143 163 0
145 164 0
146 164 0
153 171 0
136 156 0
140 160 0
153 174 0
153 172 0
146 165 0
139 158 0
144 164 0
143 161 0
141 160 0
144 164 0
151 171 0
149 168 0
141 161 0
141 162 0
144 164 0
151 167 0
147 165 0
150 170 0
144 164 0
149 167 0
143 162 0
151 170 0
144 162 0
138 154 0
140 157 0
146 164 0
145 163 0
145 166 0
154 173 0
138 156 0
141 159 0
143 161 0
147 166 0
149 166 0
152 172 0
153 174 0
142 160 0
149 168 0
150 169 0
138 154 0
146 166 0
152 170 0
146 163 0
145 163 0
153 171 0
153 171 0
150 169 0
145 166 0
154 171 0
152 170 0
151 168 0
149 167 0
146 163 0
139 155 0
150 167 0
148 163 0
151 168 0
138 154 0
142 158 0
150 168 0
146 160 0
142 159 0
148 166 0
157 176 0
153 170 0
151 165 0
144 159 0
147 164 0
148 164 0
148 165 0
150 165 0
148 162 0
142 155 0
144 158 0
150 168 0
155 169 0
148 162 0
148 161 0
148 163 0
144 159 0
148 160 0
147 161 0
153 169 0
151 165 0
149 162 0
147 161 0
147 157 0
155 170 0
145 158 0
150 163 0
149 159 0
148 161 0
153 167 0
154 166 0
149 160 0
145 156 0
152 165 0
150 158 0
155 170 0
155 170 0
152 163 0
156 171 0
146 154 0
149 161 0
146 154 0
148 159 0
154 166 0
145 156 0
146 155 0
151 162 0
150 161 0
149 159 0
149 158 0
145 155 0
148 152 0
155 163 0
151 160 0
150 160 0
155 166 0
154 165 0
155 164 0
153 162 0
151 159 0
149 157 0
153 161 0
151 159 0
151 161 0
151 157 0
152 161 0
157 163 0
151 159 0
151 159 0
150 156 0
154 161 0
162 172 0
158 166 0
148 157 0
153 160 0
149 157 0
152 160 0
157 165 0
155 165 0
158 165 0
149 155 0
151 156 0
151 160 0
154 163 0
158 168 0
154 164 0
155 162 0
156 162 0
155 165 0
156 164 0
154 161 0
158 165 0
155 162 0
153 161 0
158 165 0
154 158 0
157 163 0
155 163 0
158 165 0
156 163 0
161 171 0
158 168 0
159 166 0
163 175 0
161 171 0
164 175 0
173 197 0
172 196 0
171 195 0
173 196 0
174 198 0
172 196 0
172 196 0
173 196 0
171 195 0
171 194 0
171 195 0
173 197 0
174 197 0
173 197 0
173 196 0
173 196 0
171 195 0
170 194 0
171 194 0
173 197 0
170 193 0
171 195 0
173 196 0
171 195 0
171 194 0
172 196 0
170 194 0
171 195 0
171 194 0
168 192 0
173 196 0
168 191 0
170 194 0
173 196 0
171 194 0
173 195 0
169 193 0
171 195 0
172 196 0
171 194 0
168 193 0
172 196 0
167 190 0
166 190 0
167 191 0
164 188 0
171 195 0
168 191 0
168 192 0
167 191 0
168 192 0
169 192 0
171 195 0
168 192 0
169 192 0
168 192 0
166 190 0
169 193 0
166 189 0
168 191 0
166 190 0
168 192 0
170 193 0
168 192 0
167 190 0
171 194 0
168 191 0
167 190 0
160 183 0
168 191 0
171 194 0
161 184 0
165 189 0
168 191 0
165 188 0
169 192 0
165 188 0
166 188 0
170 192 0
166 189 0
169 191 0
165 187 0
163 185 0
164 186 0
165 188 0
164 187 0
164 187 0
167 190 0
164 187 0
168 191 0
166 189 0
172 195 0
164 186 0
163 186 0
163 186 0
164 187 0
166 190 0
164 186 0
159 181 0
162 185 0
163 185 0
161 182 0
161 184 0
160 183 0
163 186 0
162 185 0
159 181 0
164 186 0
162 185 0
163 185 0
166 188 0
156 179 0
163 185 0
166 187 0
165 188 0
163 185 0
162 184 0
156 178 0
161 183 0
162 183 0
155 178 0
162 183 0
159 181 0
160 182 0
163 185 0
161 183 0
161 183 0
159 182 0
157 179 0
162 183 0
152 174 0
159 182 0
159 180 0
155 176 0
156 179 0
157 179 0
157 179 0
162 184 0
155 175 0
150 172 0
152 174 0
146 169 0
153 176 0
156 177 0
149 172 0
159 182 0
156 178 0
158 181 0
161 183 0
152 174 0
151 172 0
161 183 0
156 177 0
153 175 0
159 182 0
153 174 0
152 174 0
152 173 0
150 171 0
156 177 0
154 175 0
149 171 0
151 172 0
150 172 0
145 166 0
148 170 0
152 173 0
150 172 0
144 166 0
151 173 0
154 176 0
151 173 0
154 176 0
152 173 0
156 177 0
149 169 0
152 173 0
147 167 0
148 169 0
146 166 0
147 167 0
149 171 0
144 166 0
148 171 0
150 171 0
148 169 0
148 170 0
152 173 0
148 169 0
145 166 0
146 168 0
144 166 0
141 162 0
139 159 0
151 173 0
146 167 0
146 167 0
150 172 0
154 174 0
153 174 0
143 164 0
144 165 0
148 171 0
143 164 0
144 164 0
147 168 0
156 177 0
144 164 0
147 168 0
150 172 0
149 167 0
139 160 0
155 175 0
145 166 0
138 158 0
146 165 0
152 173 0
145 166 0
145 166 0
147 168 0
145 165 0
149 167 0
142 161 0
149 171 0
147 167 0
155 176 0
138 156 0
138 158 0
146 166 0
152 173 0
141 161 0
142 161 0
140 160 0
148 168 0
155 175 0
146 167 0
158 178 0
139 158 0
147 164 0
148 167 0
145 165 0
143 161 0
146 167 0
139 160 0
141 161 0
152 172 0
147 166 0
141 159 0
138 156 0
147 166 0
143 162 0
144 164 0
141 160 0
144 166 0
142 160 0
141 158 0
154 173 0
149 165 0
142 161 0
148 165 0
138 159 0
150 168 0
139 157 0
148 165 0
148 165 0
145 164 0
147 165 0
147 165 0
149 168 0
143 162 0
149 169 0
145 163 0
144 162 0
148 164 0
150 168 0
154 173 0
143 160 0
150 167 0
146 165 0
142 162 0
146 162 0
153 171 0
151 169 0
157 176 0
145 162 0
142 159 0
146 162 0
147 161 0
153 169 0
150 165 0
149 166 0
144 164 0
150 168 0
154 173 0
145 160 0
145 161 0
152 169 0
146 162 0
151 168 0
150 164 0
146 159 0
146 159 0
142 159 0
150 165 0
142 158 0
141 156 0
142 159 0
148 162 0
144 160 0
150 163 0
156 171 0
147 163 0
143 154 0
150 165 0
147 164 0
151 166 0
140 155 0
140 152 0
150 163 0
153 169 0
154 167 0
143 156 0
153 166 0
153 164 0
150 163 0
151 163 0
155 167 0
147 159 0
154 165 0
152 166 0
148 162 0
149 161 0
152 164 0
146 158 0
148 157 0
152 165 0
150 160 0
155 165 0
159 171 0
152 161 0
150 159 0
153 165 0
148 159 0
150 160 0
151 163 0
147 159 0
153 164 0
155 167 0
150 158 0
157 166 0
151 162 0
158 171 0
145 154 0
155 164 0
152 160 0
154 166 0
155 166 0
155 165 0
149 158 0
150 157 0
151 160 0
156 166 0
149 155 0
150 160 0
154 165 0
156 165 0
156 164 0
154 165 0
153 163 0
152 161 0
160 169 0
152 158 0
155 161 0
150 155 0
158 168 0
155 163 0
157 166 0
156 167 0
155 164 0
155 162 0
155 163 0
152 159 0
161 172 0
150 157 0
160 171 0
155 162 0
157 165 0
159 169 0
157 166 0
156 168 0
155 163 0
156 164 0
158 167 0
156 165 0
158 168 0
157 167 0
156 164 0
161 171 0
163 175 0
150 157 0
173 197 0
174 198 0
171 195 0
172 197 0
172 195 0
174 197 0
172 196 0
173 196 0
174 198 0
171 195 0
172 196 0
173 196 0
173 196 0
170 193 0
171 195 0
172 195 0
171 195 0
173 197 0
173 196 0
171 195 0
169 193 0
171 195 0
173 196 0
171 194 0
169 194 0
171 195 0
169 192 0
171 195 0
171 194 0
169 193 0
170 194 0
171 195 0
171 194 0
172 195 0
169 192 0
170 193 0
170 194 0
171 195 0
168 192 0
169 193 0
166 190 0
166 189 0
171 194 0
166 189 0
173 197 0
171 194 0
167 191 0
169 192 0
167 191 0
172 195 0
164 187 0
170 193 0
167 191 0
164 187 0
169 192 0
169 192 0
166 189 0
166 190 0
173 196 0
172 195 0
170 192 0
168 190 0
169 192 0
169 193 0
166 189 0
167 191 0
167 191 0
170 193 0
166 188 0
171 194 0
169 192 0
165 189 0
163 186 0
168 191 0
168 190 0
166 188 0
163 186 0
162 186 0
167 188 0
164 188 0
163 186 0
168 190 0
165 188 0
163 187 0
167 190 0
167 190 0
167 189 0
163 186 0
166 189 0
158 180 0
165 188 0
163 186 0
164 186 0
161 184 0
162 185 0
170 193 0
165 187 0
165 188 0
161 183 0
167 190 0
161 183 0
164 186 0
158 180 0
157 178 0
162 185 0
164 186 0
159 182 0
157 179 0
159 181 0
159 181 0
160 182 0
155 177 0
153 176 0
160 182 0
155 177 0
159 181 0
169 192 0
157 179 0
164 186 0
156 178 0
158 181 0
159 182 0
156 178 0
150 172 0
160 183 0
159 181 0
160 184 0
158 179 0
160 183 0
157 180 0
158 180 0
151 173 0
157 179 0
158 181 0
159 182 0
156 179 0
159 181 0
157 178 0
155 178 0
159 181 0
154 176 0
155 177 0
164 186 0
158 179 0
154 176 0
160 181 0
157 180 0
159 181 0
151 172 0
156 177 0
154 176 0
158 180 0
161 183 0
158 178 0
145 167 0
146 168 0
151 173 0
147 169 0
156 177 0
153 174 0
151 172 0
154 175 0
157 180 0
151 173 0
142 164 0
146 168 0
152 174 0
151 173 0
159 181 0
152 174 0
150 172 0
148 169 0
150 171 0
150 170 0
146 168 0
147 168 0
150 171 0
152 173 0
147 168 0
145 165 0
146 166 0
139 160 0
152 174 0
147 169 0
144 166 0
153 173 0
151 171 0
148 170 0
150 171 0
156 178 0
146 167 0
143 163 0
145 166 0
145 166 0
146 166 0
148 169 0
148 170 0
154 175 0
143 164 0
148 170 0
146 168 0
150 172 0
141 161 0
150 172 0
146 168 0
146 166 0
154 174 0
147 167 0
137 158 0
155 176 0
150 169 0
141 160 0
148 167 0
144 163 0
135 154 0
149 170 0
139 158 0
146 167 0
140 161 0
146 166 0
144 165 0
146 164 0
152 172 0
147 166 0
149 168 0
148 168 0
144 164 0
146 166 0
148 167 0
144 164 0
151 173 0
143 163 0
143 162 0
146 166 0
137 157 0
141 162 0
144 164 0
147 167 0
145 164 0
149 168 0
145 163 0
139 157 0
151 172 0
145 164 0
138 158 0
136 155 0
143 163 0
146 164 0
146 166 0
147 165 0
145 163 0
145 163 0
156 176 0
151 168 0
141 161 0
140 161 0
148 167 0
145 165 0
145 164 0
145 165 0
148 168 0
138 157 0
155 178 0
138 156 0
153 172 0
150 170 0
142 160 0
146 163 0
144 162 0
138 157 0
151 170 0
141 158 0
146 165 0
146 166 0
146 164 0
148 166 0
155 172 0
149 167 0
146 162 0
153 169 0
144 163 0
146 165 0
145 164 0
149 167 0
157 177 0
152 170 0
148 165 0
148 165 0
151 166 0
148 165 0
152 169 0
154 170 0
150 166 0
143 159 0
144 162 0
150 165 0
152 169 0
149 165 0
149 166 0
153 170 0
152 168 0
149 165 0
154 171 0
150 164 0
148 162 0
148 162 0
144 158 0
149 165 0
152 167 0
151 168 0
145 158 0
149 164 0
143 157 0
154 169 0
150 168 0
150 166 0
160 174 0
152 166 0
148 162 0
148 162 0
147 161 0
151 164 0
156 169 0
151 162 0
152 166 0
152 166 0
150 161 0
156 172 0
149 162 0
152 166 0
155 166 0
152 163 0
150 162 0
148 158 0
151 163 0
148 160 0
153 165 0
155 168 0
146 155 0
150 161 0
144 156 0
156 168 0
152 161 0
154 165 0
157 170 0
150 160 0
157 170 0
154 162 0
154 167 0
155 164 0
151 160 0
147 154 0
152 164 0
150 161 0
152 162 0
149 161 0
154 166 0
154 163 0
152 160 0
157 167 0
152 161 0
148 156 0
153 163 0
156 167 0
152 159 0
151 160 0
150 158 0
154 165 0
154 164 0
154 162 0
156 165 0
156 166 0
154 162 0
155 163 0
157 163 0
154 162 0
157 166 0
153 162 0
155 166 0
157 166 0
155 163 0
151 159 0
151 160 0
162 172 0
154 161 0
157 168 0
159 168 0
155 161 0
159 168 0
158 166 0
155 163 0
155 165 0
151 158 0
157 166 0
159 168 0
162 175 0
158 167 0
159 168 0
159 169 0
159 171 0
173 197 0
173 196 0
173 197 0
168 193 0
172 196 0
173 196 0
173 197 0
170 193 0
174 197 0
172 195 0
170 195 0
174 197 0
173 197 0
170 193 0
171 194 0
172 195 0
173 197 0
173 197 0
172 195 0
169 192 0
169 193 0
173 197 0
173 197 0
169 192 0
171 194 0
171 194 0
172 196 0
170 193 0
171 194 0
170 193 0
170 194 0
172 196 0
172 196 0
171 194 0
169 193 0
167 191 0
171 194 0
171 193 0
171 195 0
171 194 0
168 191 0
170 193 0
168 192 0
165 188 0
170 193 0
170 193 0
172 195 0
171 194 0
166 189 0
170 194 0
169 193 0
167 191 0
168 191 0
170 193 0
169 192 0
170 192 0
169 192 0
169 193 0
168 191 0
171 194 0
165 188 0
165 189 0
167 191 0
172 194 0
168 190 0
168 190 0
162 184 0
164 187 0
166 190 0
171 194 0
167 190 0
170 193 0
164 187 0
170 192 0
162 185 0
162 185 0
166 189 0
165 188 0
162 184 0
169 192 0
163 186 0
162 185 0
160 183 0
168 191 0
167 189 0
164 188 0
162 185 0
162 184 0
162 185 0
167 190 0
164 186 0
168 190 0
158 180 0
166 189 0
165 188 0
165 188 0
165 188 0
165 187 0
166 189 0
168 191 0
164 187 0
166 187 0
164 186 0
157 179 0
160 183 0
162 185 0
162 185 0
161 183 0
157 180 0
154 177 0
155 179 0
164 187 0
164 186 0
161 183 0
162 184 0
157 180 0
163 186 0
163 185 0
164 186 0
159 181 0
166 188 0
160 182 0
159 181 0
162 185 0
160 183 0
158 181 0
155 178 0
159 181 0
158 180 0
159 183 0
158 179 0
152 174 0
159 181 0
161 183 0
160 182 0
160 183 0
157 180 0
157 179 0
148 170 0
157 177 0
153 175 0
150 172 0
151 173 0
161 183 0
149 170 0
154 175 0
151 173 0
150 171 0
156 178 0
155 177 0
156 176 0
161 182 0
154 174 0
149 170 0
154 176 0
158 180 0
153 174 0
154 175 0
154 176 0
148 170 0
150 171 0
155 176 0
146 167 0
150 170 0
151 171 0
151 173 0
152 174 0
141 163 0
157 178 0
158 179 0
151 171 0
139 160 0
157 180 0
147 169 0
149 170 0
154 175 0
155 176 0
146 168 0
148 168 0
148 170 0
149 170 0
154 175 0
153 174 0
148 170 0
153 174 0
155 177 0
145 167 0
149 170 0
157 178 0
145 165 0
142 163 0
145 165 0
142 163 0
151 172 0
151 172 0
148 169 0
146 166 0
147 169 0
143 164 0
148 169 0
152 173 0
146 167 0
150 171 0
141 162 0
145 165 0
147 169 0
149 169 0
147 167 0
147 166 0
152 172 0
152 174 0
144 164 0
144 164 0
152 172 0
149 169 0
140 160 0
153 172 0
150 171 0
146 166 0
146 168 0
159 180 0
145 165 0
147 166 0
147 168 0
149 171 0
144 163 0
142 162 0
149 167 0
144 164 0
145 164 0
150 170 0
142 162 0
147 165 0
144 163 0
141 161 0
145 164 0
143 162 0
148 167 0
149 170 0
141 162 0
141 160 0
145 165 0
139 158 0
140 159 0
140 159 0
140 161 0
149 168 0
147 167 0
148 170 0
141 161 0
147 166 0
153 172 0
149 169 0
149 170 0
148 167 0
154 174 0
145 166 0
143 163 0
148 168 0
152 173 0
152 171 0
143 163 0
149 169 0
147 165 0
143 161 0
154 172 0
147 167 0
143 162 0
153 172 0
154 174 0
150 169 0
144 162 0
148 166 0
145 162 0
144 163 0
151 168 0
142 160 0
147 165 0
149 168 0
148 164 0
145 163 0
148 165 0
154 172 0
144 161 0
142 159 0
144 161 0
156 174 0
148 164 0
145 161 0
143 160 0
152 172 0
154 171 0
153 170 0
147 163 0
145 161 0
143 157 0
157 174 0
149 167 0
148 164 0
148 162 0
148 166 0
157 173 0
150 164 0
153 169 0
143 158 0
151 166 0
145 159 0
147 161 0
147 164 0
143 157 0
153 171 0
155 168 0
155 171 0
139 153 0
150 165 0
153 167 0
151 165 0
151 165 0
149 163 0
149 163 0
147 159 0
151 164 0
149 165 0
154 168 0
149 165 0
149 163 0
155 170 0
155 169 0
151 164 0
156 173 0
145 154 0
145 157 0
153 165 0
150 164 0
154 166 0
153 166 0
155 170 0
162 175 0
151 164 0
145 156 0
155 168 0
155 166 0
150 161 0
152 166 0
148 158 0
153 166 0
154 167 0
147 157 0
154 167 0
149 159 0
150 159 0
150 159 0
150 162 0
156 168 0
153 162 0
151 163 0
152 162 0
158 168 0
152 163 0
155 162 0
155 162 0
150 160 0
156 166 0
152 161 0
149 156 0
161 172 0
154 163 0
149 158 0
156 167 0
160 170 0
151 160 0
155 164 0
154 163 0
149 158 0
155 165 0
156 166 0
152 159 0
156 165 0
158 169 0
153 161 0
156 163 0
151 160 0
153 163 0
153 162 0
158 166 0
158 169 0
158 170 0
158 169 0
154 160 0
157 166 0
154 164 0
157 170 0
160 168 0
158 168 0
156 164 0
158 167 0
158 167 0
161 172 0
162 172 0
158 165 0
172 196 0
173 197 0
175 198 0
171 195 0
170 194 0
174 197 0
173 197 0
173 196 0
173 197 0
171 194 0
174 197 0
172 195 0
172 195 0
169 192 0
171 195 0
171 194 0
172 195 0
170 194 0
170 193 0
172 196 0
171 194 0
173 196 0
171 194 0
171 194 0
171 194 0
173 197 0
172 195 0
170 194 0
169 193 0
168 192 0
171 195 0
172 196 0
169 192 0
172 195 0
165 189 0
171 195 0
171 194 0
168 191 0
173 196 0
171 195 0
166 189 0
169 193 0
166 190 0
168 191 0
172 196 0
172 195 0
166 190 0
165 188 0
170 193 0
165 189 0
167 190 0
169 192 0
167 190 0
170 193 0
171 194 0
168 191 0
166 189 0
171 194 0
167 190 0
168 191 0
169 192 0
168 191 0
167 191 0
168 191 0
170 193 0
169 192 0
165 188 0
165 188 0
168 191 0
167 191 0
169 192 0
166 189 0
167 190 0
168 191 0
167 189 0
166 189 0
171 194 0
161 184 0
157 180 0
169 191 0
167 190 0
168 191 0
168 191 0
162 185 0
170 193 0
164 187 0
160 183 0
162 185 0
169 192 0
164 186 0
165 188 0
162 184 0
167 189 0
161 183 0
161 184 0
163 184 0
167 190 0
163 185 0
164 186 0
155 177 0
162 186 0
164 186 0
166 188 0
158 180 0
162 185 0
166 187 0
166 188 0
152 175 0
159 182 0
162 185 0
159 181 0
170 193 0
165 188 0
160 183 0
164 185 0
156 178 0
155 177 0
160 182 0
160 181 0
158 181 0
158 181 0
156 179 0
158 179 0
157 180 0
151 173 0
149 170 0
164 185 0
156 180 0
159 181 0
159 181 0
164 186 0
167 188 0
158 180 0
160 183 0
159 182 0
153 175 0
157 179 0
151 173 0
162 184 0
153 175 0
156 178 0
157 178 0
157 178 0
159 181 0
160 182 0
154 176 0
163 184 0
145 166 0
147 169 0
163 184 0
147 169 0
152 174 0
151 173 0
150 172 0
155 176 0
151 173 0
153 174 0
160 182 0
158 180 0
156 178 0
148 169 0
148 167 0
149 171 0
152 174 0
147 169 0
157 179 0
153 174 0
151 172 0
147 168 0
148 169 0
143 165 0
150 172 0
156 178 0
152 174 0
154 175 0
151 174 0
150 170 0
146 167 0
147 169 0
146 167 0
149 170 0
149 171 0
138 159 0
140 160 0
150 171 0
155 175 0
146 168 0
143 164 0
146 168 0
150 172 0
152 173 0
147 169 0
151 172 0
144 166 0
158 178 0
141 163 0
151 173 0
153 174 0
145 166 0
152 174 0
145 165 0
149 170 0
140 160 0
149 169 0
144 165 0
144 165 0
153 173 0
140 162 0
151 171 0
142 163 0
144 165 0
150 171 0
151 172 0
151 171 0
155 177 0
147 168 0
148 168 0
156 176 0
145 165 0
150 171 0
149 171 0
140 160 0
144 165 0
147 167 0
144 164 0
142 162 0
141 159 0
148 169 0
151 171 0
145 165 0
148 168 0
149 168 0
143 163 0
148 168 0
149 169 0
141 160 0
147 168 0
142 160 0
150 171 0
141 162 0
145 166 0
143 162 0
147 165 0
141 161 0
147 168 0
147 166 0
134 153 0
140 159 0
137 156 0
143 161 0
151 172 0
147 166 0
138 156 0
144 163 0
145 165 0
147 167 0
151 171 0
146 165 0
152 171 0
148 167 0
149 169 0
148 167 0
155 175 0
146 166 0
148 164 0
156 174 0
143 161 0
154 174 0
147 164 0
148 167 0
148 168 0
154 171 0
151 170 0
152 171 0
149 168 0
150 169 0
149 166 0
147 165 0
154 172 0
155 174 0
143 163 0
152 171 0
154 172 0
148 163 0
152 170 0
140 157 0
155 172 0
152 172 0
154 170 0
150 169 0
145 161 0
146 163 0
153 171 0
149 165 0
148 166 0
151 168 0
146 163 0
149 165 0
144 159 0
153 171 0
151 168 0
147 163 0
152 167 0
151 166 0
154 172 0
153 169 0
147 163 0
149 166 0
149 167 0
154 170 0
148 162 0
150 165 0
153 167 0
150 166 0
144 159 0
147 161 0
149 164 0
152 167 0
154 170 0
154 170 0
145 159 0
151 167 0
155 171 0
156 169 0
147 159 0
152 165 0
148 161 0
153 169 0
150 163 0
152 166 0
149 164 0
150 164 0
153 167 0
147 157 0
150 165 0
154 168 0
157 172 0
145 157 0
150 162 0
147 159 0
155 166 0
158 173 0
151 164 0
153 166 0
154 168 0
149 160 0
155 168 0
152 164 0
153 166 0
151 162 0
152 164 0
159 171 0
153 165 0
154 165 0
151 161 0
158 168 0
158 169 0
151 163 0
154 165 0
152 162 0
153 161 0
148 156 0
158 168 0
153 163 0
153 162 0
157 167 0
152 164 0
162 173 0
154 163 0
152 160 0
158 169 0
149 158 0
153 162 0
157 166 0
159 169 0
154 164 0
150 158 0
153 163 0
150 159 0
156 165 0
156 166 0
160 169 0
161 170 0
157 166 0
155 167 0
160 172 0
154 166 0
157 166 0
161 171 0
157 166 0
160 171 0
156 165 0
156 166 0
156 163 0
155 164 0
161 170 0
153 164 0
158 168 0
159 170 0
160 170 0
172 195 0
173 197 0
172 195 0
171 195 0
174 198 0
171 195 0
171 195 0
174 198 0
173 197 0
172 195 0
172 195 0
173 196 0
173 196 0
171 195 0
173 196 0
174 197 0
169 193 0
169 192 0
170 194 0
173 197 0
171 195 0
173 195 0
174 196 0
173 196 0
170 194 0
173 197 0
173 197 0
171 194 0
172 196 0
167 191 0
170 194 0
168 192 0
168 191 0
173 196 0
169 192 0
172 195 0
167 190 0
172 195 0
173 196 0
164 187 0
171 195 0
172 195 0
168 191 0
168 191 0
171 194 0
171 195 0
170 193 0
170 193 0
167 190 0
168 191 0
173 196 0
169 191 0
169 192 0
169 191 0
167 190 0
167 190 0
169 192 0
168 190 0
168 192 0
168 190 0
167 191 0
167 190 0
163 187 0
169 192 0
170 193 0
166 190 0
164 188 0
164 188 0
162 185 0
162 186 0
166 189 0
168 190 0
161 184 0
166 190 0
167 189 0
167 190 0
157 180 0
164 187 0
161 185 0
167 191 0
168 191 0
167 190 0
166 188 0
164 186 0
164 186 0
167 189 0
161 184 0
162 184 0
163 185 0
164 186 0
166 188 0
169 192 0
162 185 0
163 185 0
165 187 0
166 188 0
166 188 0
161 184 0
159 182 0
162 184 0
165 188 0
166 188 0
163 186 0
165 187 0
162 183 0
162 184 0
158 181 0
162 185 0
158 180 0
160 183 0
162 185 0
155 177 0
163 185 0
164 187 0
156 179 0
162 184 0
158 180 0
161 183 0
158 180 0
165 186 0
157 179 0
157 179 0
156 178 0
157 179 0
161 182 0
156 178 0
157 180 0
164 186 0
156 178 0
158 180 0
158 180 0
153 176 0
155 177 0
163 186 0
157 180 0
161 184 0
148 170 0
160 183 0
152 174 0
156 179 0
151 173 0
159 181 0
156 179 0
154 177 0
161 184 0
161 182 0
154 176 0
148 169 0
148 171 0
150 171 0
153 174 0
155 175 0
155 177 0
153 175 0
153 174 0
148 169 0
157 179 0
154 175 0
151 173 0
148 170 0
150 170 0
157 179 0
157 179 0
151 173 0
151 171 0
152 174 0
151 172 0
153 176 0
151 173 0
154 176 0
152 173 0
152 174 0
152 173 0
150 171 0
152 173 0
146 168 0
153 175 0
147 169 0
145 167 0
150 171 0
153 174 0
151 172 0
150 171 0
143 163 0
150 169 0
148 169 0
147 168 0
157 179 0
149 168 0
149 170 0
156 178 0
150 170 0
148 169 0
148 169 0
152 173 0
148 168 0
148 168 0
154 175 0
146 166 0
148 168 0
144 165 0
145 165 0
151 171 0
156 177 0
142 164 0
147 168 0
146 166 0
151 173 0
157 180 0
142 163 0
149 168 0
140 160 0
135 157 0
149 168 0
145 166 0
147 168 0
145 165 0
143 164 0
141 162 0
151 172 0
140 161 0
143 162 0
150 171 0
144 166 0
154 173 0
152 173 0
144 165 0
150 170 0
149 169 0
145 166 0
152 174 0
153 174 0
137 156 0
140 161 0
147 168 0
147 167 0
138 157 0
156 176 0
143 161 0
148 168 0
146 165 0
147 167 0
147 167 0
147 167 0
151 174 0
147 165 0
149 167 0
152 171 0
150 171 0
150 168 0
142 163 0
150 169 0
145 166 0
147 166 0
147 168 0
150 172 0
144 165 0
154 175 0
139 157 0
153 172 0
156 175 0
150 169 0
149 166 0
148 168 0
150 170 0
144 163 0
157 176 0
150 170 0
154 175 0
149 168 0
152 172 0
149 167 0
153 172 0
145 165 0
157 176 0
152 172 0
149 168 0
155 173 0
146 162 0
148 167 0
146 163 0
157 175 0
152 168 0
148 167 0
150 166 0
152 171 0
152 170 0
145 164 0
149 167 0
146 164 0
150 168 0
158 175 0
149 168 0
151 168 0
145 162 0
146 164 0
152 168 0
153 170 0
150 169 0
139 156 0
152 168 0
154 173 0
152 168 0
152 171 0
148 163 0
145 164 0
152 170 0
147 162 0
146 162 0
152 170 0
149 166 0
151 166 0
155 173 0
148 162 0
150 164 0
154 174 0
151 167 0
150 166 0
148 165 0
151 166 0
155 171 0
154 168 0
152 167 0
150 164 0
148 162 0
152 166 0
151 167 0
155 170 0
154 170 0
151 163 0
155 168 0
143 154 0
151 165 0
153 165 0
155 169 0
155 167 0
147 158 0
155 170 0
154 166 0
153 165 0
153 165 0
152 163 0
151 163 0
152 167 0
153 168 0
151 167 0
157 170 0
147 158 0
152 165 0
146 155 0
151 161 0
156 169 0
156 168 0
153 167 0
150 161 0
153 166 0
153 164 0
156 167 0
156 167 0
156 168 0
156 168 0
158 170 0
155 168 0
153 160 0
151 158 0
158 171 0
156 168 0
153 162 0
151 160 0
155 166 0
151 160 0
163 175 0
152 161 0
153 161 0
163 174 0
154 164 0
156 164 0
158 167 0
153 164 0
156 165 0
157 167 0
157 164 0
161 173 0
161 170 0
154 163 0
159 170 0
155 163 0
160 170 0
157 169 0
160 169 0
162 175 0
157 165 0
159 168 0
156 167 0
162 173 0
154 161 0
165 180 0
156 164 0
159 168 0
162 173 0
172 195 0
173 196 0
172 195 0
173 196 0
172 195 0
173 197 0
173 197 0
171 195 0
172 195 0
168 192 0
174 197 0
172 196 0
174 197 0
171 194 0
175 197 0
172 196 0
172 196 0
172 196 0
172 196 0
167 190 0
171 194 0
171 195 0
172 195 0
172 195 0
172 195 0
171 194 0
170 193 0
171 195 0
170 194 0
173 197 0
168 192 0
173 196 0
171 194 0
170 193 0
171 194 0
168 191 0
171 194 0
169 193 0
171 194 0
168 191 0
162 186 0
168 192 0
169 192 0
167 191 0
167 191 0
167 190 0
166 189 0
169 191 0
169 191 0
170 193 0
169 190 0
169 192 0
171 195 0
169 192 0
171 193 0
169 193 0
168 191 0
166 188 0
168 191 0
167 189 0
168 192 0
168 191 0
169 192 0
161 184 0
166 189 0
163 186 0
159 183 0
165 188 0
168 192 0
168 191 0
167 190 0
163 186 0
170 193 0
163 186 0
165 188 0
165 188 0
163 186 0
165 189 0
170 193 0
165 188 0
167 189 0
159 181 0
162 185 0
158 180 0
163 185 0
165 187 0
162 186 0
164 187 0
164 187 0
160 182 0
163 185 0
161 184 0
163 186 0
164 187 0
159 182 0
164 188 0
162 185 0
161 183 0
161 184 0
158 181 0
159 181 0
164 187 0
165 188 0
159 181 0
156 179 0
159 181 0
161 183 0
160 182 0
162 184 0
165 188 0
163 185 0
158 180 0
162 185 0
159 182 0
161 183 0
165 186 0
162 184 0
156 179 0
156 178 0
161 183 0
163 185 0
162 183 0
163 185 0
162 184 0
161 183 0
164 186 0
155 178 0
165 187 0
160 182 0
158 180 0
160 182 0
156 177 0
151 173 0
159 181 0
164 186 0
161 182 0
153 175 0
158 181 0
157 178 0
154 176 0
147 169 0
153 176 0
158 180 0
157 180 0
148 169 0
157 179 0
152 172 0
157 179 0
163 186 0
156 178 0
156 178 0
160 182 0
153 175 0
157 179 0
156 178 0
156 178 0
154 176 0
145 166 0
151 173 0
161 184 0
148 169 0
159 180 0
158 180 0
153 174 0
155 178 0
155 176 0
147 169 0
150 172 0
159 179 0
151 174 0
151 173 0
156 178 0
148 170 0
153 174 0
150 171 0
146 168 0
161 182 0
154 175 0
150 170 0
148 169 0
155 176 0
148 169 0
153 174 0
155 178 0
152 173 0
155 175 0
150 172 0
144 165 0
148 167 0
147 167 0
147 168 0
152 174 0
148 167 0
148 170 0
145 166 0
145 166 0
151 172 0
150 171 0
145 166 0
147 166 0
152 174 0
153 175 0
155 175 0
151 171 0
147 167 0
157 180 0
140 160 0
149 170 0
150 170 0
150 172 0
143 163 0
152 172 0
139 158 0
147 168 0
142 163 0
149 168 0
159 180 0
148 169 0
149 169 0
151 172 0
152 173 0
146 166 0
143 163 0
150 171 0
145 166 0
151 172 0
149 169 0
152 173 0
146 166 0
142 162 0
148 168 0
143 163 0
152 172 0
153 175 0
143 163 0
149 170 0
149 169 0
155 177 0
148 170 0
149 169 0
157 178 0
148 167 0
151 170 0
151 171 0
146 165 0
147 166 0
146 165 0
155 174 0
152 171 0
152 173 0
146 164 0
155 175 0
153 173 0
143 162 0
150 171 0
143 162 0
154 173 0
154 173 0
147 168 0
149 168 0
152 170 0
149 168 0
151 168 0
143 163 0
143 161 0
151 169 0
144 162 0
147 167 0
143 163 0
153 171 0
148 165 0
154 174 0
143 162 0
149 168 0
145 163 0
152 170 0
149 168 0
151 171 0
148 167 0
155 175 0
138 157 0
148 167 0
155 173 0
147 167 0
153 172 0
149 166 0
152 169 0
145 161 0
155 172 0
152 171 0
146 163 0
151 169 0
142 160 0
145 162 0
151 168 0
147 166 0
147 163 0
159 177 0
151 168 0
155 173 0
153 170 0
147 163 0
146 162 0
152 169 0
156 169 0
149 166 0
157 173 0
152 170 0
151 167 0
149 166 0
155 170 0
147 162 0
151 166 0
149 164 0
146 160 0
153 168 0
148 162 0
153 166 0
152 168 0
148 164 0
156 170 0
153 168 0
153 166 0
152 166 0
145 160 0
158 172 0
145 157 0
150 165 0
149 161 0
157 171 0
152 168 0
155 170 0
152 167 0
153 165 0
149 163 0
150 161 0
157 172 0
152 166 0
145 155 0
154 169 0
153 164 0
150 165 0
148 161 0
148 159 0
154 166 0
151 165 0
154 167 0
149 159 0
154 165 0
151 162 0
154 166 0
151 159 0
159 170 0
150 160 0
152 164 0
145 157 0
152 165 0
156 166 0
151 162 0
159 173 0
154 165 0
153 166 0
150 163 0
152 163 0
149 160 0
161 174 0
153 162 0
155 166 0
148 156 0
157 167 0
159 168 0
154 164 0
160 173 0
159 170 0
159 169 0
155 164 0
152 160 0
153 165 0
159 171 0
157 166 0
155 166 0
158 168 0
158 168 0
155 164 0
159 168 0
157 166 0
157 167 0
160 170 0
160 168 0
158 167 0
159 169 0
155 163 0
165 176 0
158 168 0
161 174 0
155 161 0
156 165 0
158 169 0
157 169 0
158 165 0
171 194 0
172 195 0
175 198 0
171 195 0
175 198 0
174 197 0
174 197 0
171 194 0
172 196 0
172 196 0
172 196 0
171 194 0
174 197 0
173 195 0
172 195 0
173 196 0
171 194 0
168 191 0
169 192 0
170 194 0
173 197 0
169 193 0
174 197 0
170 193 0
171 194 0
170 194 0
169 192 0
174 197 0
169 193 0
169 192 0
171 195 0
172 195 0
169 193 0
172 195 0
173 196 0
171 193 0
172 196 0
173 197 0
173 196 0
170 193 0
167 191 0
171 194 0
170 193 0
170 192 0
172 196 0
171 194 0
170 193 0
169 192 0
169 191 0
170 192 0
166 189 0
167 191 0
167 190 0
170 194 0
168 191 0
173 196 0
167 190 0
168 191 0
167 189 0
162 185 0
169 192 0
168 191 0
170 193 0
167 191 0
167 190 0
165 188 0
168 191 0
164 187 0
168 191 0
164 188 0
159 183 0
168 191 0
164 187 0
170 193 0
161 184 0
168 190 0
165 187 0
164 187 0
164 186 0
162 184 0
167 190 0
164 187 0
167 190 0
166 189 0
169 191 0
159 182 0
166 189 0
167 190 0
164 187 0
162 184 0
161 183 0
159 182 0
162 185 0
155 178 0
164 187 0
163 185 0
158 181 0
167 189 0
158 180 0
164 187 0
163 186 0
164 186 0
161 183 0
164 186 0
164 186 0
161 183 0
161 183 0
162 184 0
157 179 0
162 183 0
159 181 0
168 190 0
162 186 0
165 187 0
156 178 0
167 189 0
164 187 0
160 182 0
155 177 0
159 181 0
158 181 0
157 180 0
156 179 0
160 183 0
165 186 0
158 180 0
155 178 0
153 174 0
160 183 0
159 181 0
160 181 0
155 177 0
155 177 0
158 181 0
155 178 0
161 183 0
155 177 0
157 177 0
157 178 0
153 174 0
163 185 0
151 171 0
153 176 0
161 181 0
153 174 0
151 173 0
155 177 0
160 183 0
157 179 0
156 179 0
160 182 0
158 179 0
155 176 0
157 179 0
158 178 0
157 179 0
157 178 0
157 179 0
153 175 0
157 179 0
152 172 0
153 175 0
153 174 0
158 178 0
152 173 0
153 175 0
150 171 0
144 165 0
151 172 0
155 176 0
153 174 0
150 171 0
153 174 0
152 173 0
151 172 0
152 173 0
144 165 0
152 174 0
151 172 0
153 174 0
149 172 0
152 173 0
149 170 0
150 171 0
147 169 0
148 169 0
155 176 0
153 174 0
146 168 0
150 171 0
154 175 0
154 177 0
144 165 0
158 179 0
153 174 0
156 177 0
142 162 0
148 169 0
151 171 0
147 168 0
155 176 0
153 174 0
152 173 0
152 173 0
150 170 0
151 173 0
141 161 0
150 170 0
147 166 0
151 173 0
154 175 0
146 167 0
151 173 0
150 170 0
152 173 0
151 172 0
147 169 0
144 166 0
151 171 0
154 175 0
150 170 0
153 174 0
144 165 0
149 171 0
150 171 0
142 161 0
148 168 0
144 163 0
150 172 0
151 172 0
141 162 0
145 166 0
154 175 0
138 157 0
147 166 0
154 174 0
149 169 0
136 156 0
145 165 0
135 156 0
143 163 0
149 169 0
138 156 0
147 166 0
150 171 0
154 173 0
148 169 0
148 167 0
149 169 0
153 172 0
155 175 0
143 162 0
149 168 0
141 161 0
151 171 0
153 171 0
155 176 0
145 167 0
148 168 0
143 164 0
148 168 0
154 171 0
154 171 0
153 171 0
155 175 0
151 172 0
144 162 0
141 161 0
149 170 0
145 164 0
148 166 0
152 171 0
144 163 0
149 167 0
156 175 0
148 167 0
146 165 0
152 170 0
150 168 0
151 170 0
152 169 0
155 177 0
147 167 0
160 179 0
151 172 0
153 169 0
148 165 0
144 160 0
144 161 0
146 165 0
145 162 0
152 170 0
152 170 0
150 166 0
150 167 0
152 170 0
145 163 0
155 174 0
149 164 0
149 165 0
152 169 0
153 171 0
155 173 0
151 167 0
152 168 0
152 168 0
157 173 0
152 168 0
152 168 0
151 167 0
150 164 0
147 163 0
153 169 0
151 168 0
152 167 0
147 162 0
153 171 0
151 165 0
152 167 0
149 164 0
150 166 0
147 160 0
149 165 0
152 168 0
156 170 0
155 171 0
153 167 0
154 166 0
151 167 0
151 165 0
145 160 0
156 171 0
150 163 0
155 171 0
153 167 0
145 157 0
150 164 0
155 167 0
143 158 0
154 168 0
153 167 0
160 172 0
149 159 0
153 164 0
149 159 0
153 165 0
154 166 0
151 166 0
153 164 0
150 162 0
154 168 0
154 165 0
150 162 0
153 167 0
154 168 0
154 166 0
156 169 0
151 161 0
150 159 0
155 165 0
156 166 0
157 170 0
158 168 0
156 167 0
155 167 0
154 165 0
151 162 0
151 161 0
153 163 0
154 168 0
160 172 0
155 164 0
160 171 0
151 159 0
155 167 0
157 169 0
154 164 0
156 166 0
157 167 0
156 166 0
156 165 0
163 176 0
155 162 0
154 161 0
155 162 0
156 167 0
155 165 0
156 168 0
158 167 0
158 167 0
157 170 0
160 169 0
155 166 0
155 162 0
162 175 0
158 169 0
152 161 0
157 166 0
159 169 0
157 167 0
172 196 0
170 194 0
172 194 0
172 195 0
172 196 0
174 197 0
174 197 0
173 196 0
173 196 0
173 196 0
171 195 0
171 195 0
172 196 0
172 195 0
170 193 0
169 193 0
171 195 0
174 198 0
169 192 0
168 192 0
170 193 0
174 197 0
169 193 0
173 196 0
173 197 0
169 192 0
171 194 0
165 188 0
171 195 0
169 192 0
171 194 0
173 196 0
170 193 0
172 196 0
169 193 0
169 192 0
169 192 0
168 191 0
168 191 0
165 188 0
171 193 0
167 191 0
172 194 0
167 190 0
169 192 0
169 192 0
169 192 0
166 190 0
168 192 0
168 191 0
173 195 0
170 193 0
171 195 0
168 191 0
168 192 0
168 191 0
165 188 0
168 192 0
166 188 0
167 190 0
166 189 0
169 192 0
168 191 0
168 190 0
163 186 0
171 195 0
167 190 0
163 186 0
163 186 0
168 190 0
169 192 0
167 189 0
163 185 0
169 192 0
166 189 0
165 188 0
164 186 0
170 193 0
165 188 0
165 188 0
166 188 0
163 186 0
164 187 0
162 185 0
161 183 0
164 186 0
164 187 0
158 181 0
165 188 0
169 192 0
163 186 0
163 185 0
164 187 0
162 185 0
166 189 0
164 187 0
158 180 0
164 187 0
164 187 0
166 188 0
158 181 0
161 183 0
163 185 0
162 185 0
162 184 0
166 188 0
161 183 0
158 181 0
163 186 0
162 184 0
158 181 0
160 182 0
163 185 0
161 182 0
156 179 0
155 177 0
163 184 0
155 178 0
157 179 0
161 184 0
162 184 0
159 182 0
158 181 0
156 178 0
157 179 0
162 185 0
156 178 0
157 179 0
156 179 0
158 180 0
158 180 0
151 173 0
158 180 0
156 178 0
160 182 0
164 185 0
157 180 0
160 181 0
154 177 0
157 178 0
149 172 0
163 185 0
157 178 0
154 176 0
162 184 0
155 178 0
154 175 0
154 177 0
156 179 0
153 174 0
160 181 0
156 178 0
158 179 0
154 176 0
153 175 0
157 180 0
156 178 0
153 175 0
156 178 0
154 176 0
151 172 0
150 171 0
153 175 0
154 176 0
156 177 0
159 181 0
151 172 0
150 172 0
157 179 0
157 177 0
147 168 0
150 171 0
158 179 0
155 176 0
158 180 0
145 167 0
155 178 0
155 176 0
147 166 0
156 178 0
155 176 0
148 171 0
146 167 0
146 166 0
152 174 0
146 166 0
156 177 0
140 160 0
151 171 0
150 171 0
146 167 0
154 175 0
149 171 0
156 178 0
151 173 0
146 168 0
152 173 0
155 176 0
145 166 0
151 173 0
152 175 0
145 166 0
154 174 0
150 171 0
149 169 0
151 173 0
150 171 0
145 164 0
154 175 0
138 159 0
152 171 0
150 170 0
151 172 0
151 171 0
148 170 0
150 171 0
149 170 0
144 165 0
148 169 0
150 172 0
150 171 0
151 172 0
143 164 0
137 156 0
147 167 0
149 169 0
152 173 0
152 174 0
153 174 0
153 173 0
139 159 0
154 173 0
148 167 0
151 173 0
147 169 0
149 169 0
154 175 0
151 171 0
156 176 0
153 174 0
146 166 0
148 168 0
147 166 0
149 168 0
153 173 0
148 168 0
143 160 0
152 172 0
143 164 0
148 169 0
152 171 0
147 166 0
149 169 0
146 167 0
143 164 0
156 176 0
147 168 0
145 162 0
148 168 0
147 167 0
151 171 0
160 179 0
150 170 0
155 174 0
149 167 0
154 173 0
146 165 0
143 162 0
145 163 0
146 164 0
155 174 0
152 171 0
153 171 0
143 159 0
155 175 0
153 172 0
151 171 0
154 172 0
150 168 0
154 173 0
155 173 0
144 162 0
152 170 0
148 166 0
145 163 0
150 169 0
156 176 0
148 165 0
145 161 0
148 166 0
149 167 0
154 173 0
146 163 0
147 164 0
151 169 0
149 165 0
144 159 0
156 173 0
155 171 0
147 164 0
152 167 0
150 168 0
153 171 0
149 166 0
146 162 0
149 167 0
146 163 0
146 163 0
151 169 0
151 169 0
143 157 0
148 165 0
155 173 0
149 165 0
157 173 0
150 167 0
150 168 0
150 164 0
150 167 0
158 176 0
154 170 0
149 166 0
154 169 0
153 168 0
157 173 0
158 173 0
158 171 0
154 168 0
153 170 0
151 167 0
149 163 0
153 167 0
156 170 0
146 159 0
147 161 0
151 166 0
152 165 0
155 167 0
152 165 0
150 163 0
150 161 0
161 177 0
157 173 0
153 164 0
152 166 0
161 175 0
152 165 0
156 170 0
149 161 0
157 170 0
155 168 0
145 159 0
156 168 0
154 169 0
162 177 0
152 164 0
160 173 0
157 170 0
155 170 0
156 167 0
156 169 0
154 167 0
154 166 0
157 170 0
155 165 0
153 164 0
151 160 0
147 155 0
155 166 0
156 166 0
160 172 0
160 172 0
157 166 0
155 165 0
156 166 0
149 157 0
160 172 0
159 169 0
154 166 0
154 163 0
153 161 0
155 163 0
157 169 0
151 161 0
156 166 0
157 169 0
157 166 0
153 165 0
155 166 0
158 168 0
157 168 0
167 178 0
162 176 0
159 171 0
162 173 0
161 171 0
166 181 0
161 173 0
156 167 0
156 166 0
176 198 0
173 197 0
172 195 0
174 198 0
172 196 0
172 195 0
171 194 0
171 195 0
172 195 0
171 194 0
174 197 0
172 195 0
175 198 0
173 196 0
173 196 0
173 196 0
170 195 0
174 197 0
172 195 0
170 194 0
167 190 0
166 189 0
172 195 0
171 195 0
172 194 0
171 194 0
170 194 0
170 193 0
171 195 0
168 192 0
168 192 0
167 191 0
173 195 0
175 198 0
167 190 0
166 190 0
172 195 0
173 196 0
170 194 0
169 193 0
170 193 0
170 193 0
167 191 0
170 193 0
170 192 0
167 190 0
169 192 0
164 187 0
162 185 0
171 194 0
169 192 0
166 189 0
167 189 0
168 191 0
168 191 0
169 192 0
167 190 0
173 196 0
166 189 0
170 192 0
163 186 0
169 192 0
164 186 0
165 188 0
165 187 0
164 187 0
168 190 0
167 190 0
165 187 0
163 185 0
170 193 0
164 186 0
159 182 0
171 193 0
167 190 0
162 185 0
169 192 0
166 190 0
162 185 0
165 187 0
165 188 0
167 189 0
164 188 0
161 183 0
166 188 0
168 190 0
167 190 0
171 194 0
168 190 0
164 186 0
167 190 0
162 185 0
161 184 0
162 185 0
164 186 0
163 186 0
158 181 0
168 190 0
161 184 0
164 186 0
170 193 0
169 192 0
165 188 0
163 186 0
159 182 0
156 178 0
166 188 0
164 186 0
163 187 0
158 181 0
164 186 0
163 184 0
163 186 0
166 189 0
165 188 0
160 182 0
160 181 0
156 178 0
163 186 0
162 183 0
153 175 0
155 177 0
161 183 0
159 181 0
159 182 0
161 183 0
163 185 0
160 182 0
162 184 0
156 178 0
163 184 0
162 184 0
158 180 0
156 178 0
160 182 0
162 185 0
167 189 0
150 173 0
158 180 0
156 177 0
156 178 0
153 175 0
159 181 0
152 174 0
151 173 0
156 177 0
159 180 0
158 181 0
160 182 0
158 180 0
155 175 0
149 171 0
155 177 0
157 179 0
153 175 0
156 177 0
151 173 0
151 172 0
160 182 0
155 176 0
154 175 0
154 176 0
147 168 0
153 176 0
151 172 0
151 172 0
152 172 0
150 170 0
150 171 0
154 175 0
152 174 0
152 174 0
149 170 0
144 164 0
150 171 0
153 174 0
147 168 0
147 168 0
162 184 0
153 174 0
151 173 0
154 177 0
149 170 0
151 173 0
153 174 0
149 171 0
148 169 0
151 173 0
152 173 0
152 173 0
155 176 0
157 178 0
156 178 0
150 170 0
151 172 0
150 172 0
155 177 0
142 164 0
145 168 0
149 169 0
152 173 0
148 169 0
151 173 0
140 162 0
154 174 0
145 166 0
146 166 0
148 168 0
141 161 0
155 175 0
145 167 0
148 169 0
158 179 0
149 169 0
148 169 0
146 167 0
148 168 0
152 171 0
157 178 0
145 166 0
152 174 0
150 172 0
153 173 0
150 171 0
154 174 0
152 173 0
147 168 0
154 178 0
149 169 0
155 177 0
154 173 0
147 166 0
148 169 0
153 174 0
148 169 0
150 171 0
144 164 0
153 172 0
146 166 0
145 166 0
149 169 0
141 160 0
158 179 0
143 163 0
150 170 0
146 166 0
144 163 0
148 170 0
148 169 0
147 167 0
143 164 0
145 166 0
151 172 0
146 165 0
153 173 0
146 166 0
150 171 0
149 168 0
151 171 0
151 170 0
161 181 0
148 170 0
147 167 0
149 168 0
148 167 0
154 173 0
157 176 0
150 168 0
146 165 0
150 169 0
143 162 0
147 164 0
154 173 0
153 171 0
155 173 0
156 175 0
158 177 0
155 174 0
149 169 0
150 169 0
148 168 0
152 171 0
155 174 0
156 175 0
150 165 0
151 170 0
152 170 0
153 171 0
155 173 0
145 164 0
152 168 0
152 170 0
152 168 0
152 169 0
150 166 0
151 171 0
147 163 0
151 169 0
147 163 0
154 174 0
156 174 0
149 166 0
149 167 0
149 167 0
151 169 0
146 162 0
150 168 0
152 170 0
148 163 0
156 170 0
153 169 0
151 165 0
150 165 0
147 163 0
154 173 0
158 177 0
146 164 0
153 169 0
149 164 0
151 165 0
151 166 0
146 162 0
154 169 0
152 167 0
139 153 0
145 159 0
153 170 0
152 165 0
155 169 0
155 168 0
149 163 0
152 165 0
155 171 0
157 172 0
154 167 0
153 168 0
154 167 0
156 170 0
157 169 0
157 172 0
149 162 0
151 163 0
154 169 0
150 161 0
157 171 0
157 172 0
154 167 0
155 168 0
150 164 0
159 173 0
147 159 0
153 165 0
154 166 0
154 166 0
150 160 0
156 167 0
154 169 0
156 170 0
160 171 0
155 167 0
150 161 0
151 163 0
154 166 0
152 163 0
159 175 0
152 165 0
160 172 0
158 169 0
154 167 0
160 171 0
152 161 0
155 167 0
157 168 0
154 162 0
152 161 0
156 168 0
160 172 0
154 164 0
155 164 0
150 160 0
154 164 0
159 171 0
155 166 0
154 166 0
153 162 0
156 167 0
161 171 0
163 174 0
154 164 0
158 166 0
162 174 0
158 168 0
155 167 0
155 165 0
158 169 0
156 166 0
160 169 0
157 165 0
158 167 0
156 168 0
170 193 0
173 196 0
171 194 0
171 195 0
175 198 0
169 192 0
171 194 0
173 197 0
171 195 0
172 195 0
168 191 0
173 196 0
173 195 0
169 193 0
169 193 0
166 190 0
170 193 0
172 195 0
170 193 0
170 192 0
171 194 0
170 194 0
170 193 0
171 194 0
170 193 0
169 192 0
173 196 0
172 194 0
168 191 0
170 193 0
171 194 0
169 191 0
171 193 0
172 195 0
173 196 0
170 194 0
168 191 0
172 196 0
168 191 0
166 188 0
168 191 0
169 191 0
168 190 0
169 191 0
168 192 0
169 192 0
169 191 0
169 193 0
164 187 0
170 193 0
163 186 0
167 190 0
170 192 0
170 193 0
168 190 0
167 190 0
165 188 0
163 186 0
169 192 0
167 190 0
162 185 0
167 190 0
170 193 0
165 187 0
167 190 0
165 187 0
161 184 0
169 191 0
166 189 0
169 192 0
167 190 0
165 187 0
170 193 0
168 190 0
165 187 0
162 185 0
169 192 0
165 188 0
157 179 0
164 187 0
160 183 0
163 186 0
163 185 0
161 185 0
168 191 0
164 187 0
165 187 0
165 189 0
164 187 0
160 183 0
161 184 0
161 184 0
161 183 0
163 187 0
167 189 0
164 187 0
162 185 0
163 185 0
163 185 0
158 180 0
165 188 0
168 191 0
166 188 0
163 185 0
161 184 0
155 178 0
154 175 0
157 179 0
156 179 0
164 186 0
157 180 0
157 179 0
165 188 0
162 184 0
159 181 0
158 181 0
161 184 0
165 188 0
162 183 0
156 178 0
160 182 0
166 188 0
164 186 0
151 174 0
157 179 0
157 179 0
162 184 0
157 179 0
155 177 0
158 179 0
160 182 0
159 181 0
159 183 0
158 181 0
160 181 0
158 180 0
162 184 0
151 173 0
158 180 0
150 174 0
155 177 0
161 182 0
156 179 0
157 178 0
159 181 0
155 177 0
155 178 0
161 183 0
157 179 0
156 178 0
152 175 0
154 175 0
160 182 0
152 173 0
151 173 0
151 172 0
154 175 0
154 176 0
154 175 0
151 173 0
152 175 0
151 173 0
157 178 0
152 174 0
160 181 0
152 173 0
153 173 0
148 169 0
151 173 0
152 172 0
146 167 0
143 164 0
162 182 0
149 171 0
145 166 0
148 169 0
154 177 0
155 176 0
159 180 0
150 173 0
159 181 0
151 173 0
153 174 0
151 172 0
148 168 0
151 174 0
152 174 0
158 180 0
150 171 0
145 166 0
145 165 0
147 168 0
147 167 0
152 174 0
154 175 0
153 173 0
149 169 0
149 169 0
150 172 0
146 166 0
151 172 0
143 164 0
150 173 0
150 170 0
147 168 0
147 167 0
150 171 0
148 169 0
143 162 0
146 168 0
153 173 0
152 171 0
141 162 0
149 171 0
144 165 0
141 160 0
155 177 0
148 168 0
148 168 0
148 169 0
154 174 0
146 167 0
148 169 0
153 173 0
145 165 0
154 176 0
146 167 0
147 168 0
153 174 0
150 170 0
142 163 0
152 173 0
147 167 0
155 176 0
145 165 0
143 164 0
147 165 0
154 175 0
149 168 0
148 168 0
153 174 0
147 166 0
144 165 0
150 170 0
155 175 0
146 165 0
145 166 0
146 168 0
147 166 0
140 158 0
149 169 0
150 172 0
156 176 0
154 176 0
151 170 0
146 166 0
147 168 0
158 177 0
147 167 0
149 169 0
151 172 0
147 167 0
150 171 0
154 175 0
149 169 0
151 170 0
154 174 0
157 177 0
148 167 0
154 173 0
150 171 0
154 173 0
152 170 0
152 172 0
150 168 0
148 166 0
148 167 0
143 161 0
150 169 0
151 170 0
148 168 0
142 160 0
153 172 0
149 168 0
152 171 0
157 174 0
142 160 0
154 172 0
148 167 0
150 169 0
152 172 0
149 166 0
155 174 0
148 165 0
146 162 0
147 166 0
146 165 0
145 160 0
154 172 0
152 169 0
152 169 0
150 168 0
154 170 0
147 165 0
145 159 0
155 174 0
154 171 0
153 170 0
151 167 0
148 164 0
152 169 0
151 168 0
157 175 0
160 176 0
155 172 0
153 171 0
144 160 0
153 170 0
155 172 0
148 165 0
153 169 0
150 166 0
160 177 0
153 168 0
149 164 0
148 165 0
151 165 0
151 164 0
150 165 0
153 168 0
152 168 0
154 170 0
160 176 0
155 170 0
154 169 0
152 167 0
157 172 0
147 161 0
154 167 0
159 173 0
155 167 0
154 167 0
155 172 0
148 163 0
155 171 0
150 161 0
158 174 0
159 174 0
155 171 0
155 169 0
157 170 0
149 163 0
153 165 0
158 171 0
155 170 0
157 170 0
161 173 0
154 166 0
154 168 0
153 166 0
152 166 0
158 170 0
157 170 0
152 165 0
157 167 0
153 165 0
156 169 0
150 159 0
157 165 0
155 170 0
157 168 0
153 163 0
158 172 0
155 165 0
148 158 0
160 170 0
154 166 0
159 171 0
157 169 0
159 170 0
157 168 0
156 167 0
160 170 0
157 167 0
155 165 0
156 166 0
163 175 0
155 165 0
162 174 0
155 164 0
160 171 0
162 176 0
158 171 0
159 170 0
163 176 0
158 169 0
152 163 0
155 166 0
160 173 0
163 176 0
173 196 0
171 195 0
174 197 0
173 196 0
171 195 0
173 196 0
174 197 0
172 196 0
174 196 0
170 194 0
172 196 0
172 195 0
169 192 0
174 196 0
172 196 0
173 195 0
172 196 0
168 192 0
172 196 0
172 195 0
169 191 0
170 193 0
171 195 0
171 195 0
172 196 0
169 192 0
172 195 0
167 189 0
170 193 0
169 192 0
166 190 0
172 195 0
171 194 0
170 193 0
171 194 0
168 191 0
171 194 0
171 194 0
167 190 0
170 193 0
167 190 0
166 188 0
170 192 0
168 191 0
169 192 0
170 193 0
167 190 0
168 191 0
169 191 0
170 193 0
168 190 0
170 193 0
168 191 0
167 189 0
166 188 0
165 189 0
170 193 0
168 191 0
168 191 0
164 187 0
169 192 0
167 190 0
166 189 0
166 188 0
161 184 0
169 192 0
165 187 0
168 191 0
164 186 0
167 189 0
167 190 0
167 190 0
168 191 0
169 191 0
166 189 0
163 186 0
163 185 0
165 187 0
161 182 0
164 186 0
168 191 0
165 188 0
165 189 0
163 186 0
170 192 0
163 185 0
166 189 0
167 189 0
162 184 0
161 182 0
161 183 0
159 182 0
162 184 0
158 180 0
162 184 0
163 185 0
164 187 0
160 183 0
162 185 0
161 184 0
161 184 0
162 184 0
164 186 0
164 187 0
160 181 0
165 188 0
158 180 0
160 182 0
165 187 0
166 188 0
159 182 0
161 183 0
161 184 0
161 182 0
159 182 0
164 186 0
161 183 0
163 185 0
160 181 0
157 179 0
171 193 0
154 175 0
162 184 0
158 180 0
162 185 0
157 180 0
156 178 0
159 182 0
161 182 0
155 177 0
159 182 0
151 174 0
165 187 0
158 180 0
159 181 0
161 183 0
156 177 0
150 172 0
157 180 0
160 182 0
153 176 0
158 180 0
153 174 0
156 177 0
154 176 0
161 183 0
165 187 0
163 184 0
157 179 0
158 179 0
159 181 0
155 178 0
155 176 0
158 179 0
158 180 0
159 181 0
151 173 0
159 180 0
157 180 0
153 174 0
156 178 0
150 172 0
165 188 0
148 169 0
154 175 0
146 169 0
156 177 0
151 171 0
156 176 0
146 167 0
151 173 0
146 168 0
150 170 0
154 176 0
152 174 0
158 180 0
148 169 0
152 175 0
144 164 0
147 168 0
144 166 0
151 172 0
153 174 0
146 168 0
152 174 0
149 170 0
155 178 0
148 170 0
153 173 0
152 174 0
152 172 0
156 178 0
141 163 0
147 167 0
143 165 0
154 175 0
156 177 0
152 174 0
152 173 0
153 174 0
145 167 0
148 168 0
148 169 0
142 163 0
156 177 0
145 166 0
149 171 0
151 173 0
149 170 0
150 171 0
151 172 0
154 174 0
153 175 0
147 169 0
143 162 0
145 165 0
149 170 0
149 171 0
142 163 0
155 177 0
148 169 0
155 177 0
141 161 0
148 169 0
145 165 0
150 168 0
159 180 0
154 174 0
152 174 0
152 172 0
155 175 0
145 165 0
147 165 0
160 181 0
145 166 0
149 169 0
154 174 0
155 175 0
154 174 0
150 169 0
153 173 0
147 167 0
145 164 0
146 166 0
150 171 0
151 172 0
146 168 0
153 174 0
155 175 0
144 164 0
146 166 0
148 168 0
148 168 0
160 180 0
154 173 0
152 172 0
146 166 0
154 173 0
159 180 0
154 174 0
150 169 0
152 171 0
155 175 0
148 167 0
148 167 0
150 169 0
147 167 0
154 173 0
151 171 0
153 171 0
157 176 0
153 172 0
152 171 0
145 162 0
151 171 0
152 170 0
153 171 0
150 169 0
156 175 0
150 167 0
148 167 0
151 168 0
151 169 0
155 173 0
145 165 0
151 169 0
159 178 0
149 168 0
149 167 0
148 166 0
152 168 0
160 180 0
151 169 0
154 173 0
154 172 0
145 162 0
154 173 0
156 174 0
148 167 0
154 174 0
153 172 0
152 170 0
153 172 0
155 173 0
150 166 0
148 165 0
147 164 0
152 171 0
153 171 0
148 166 0
149 166 0
147 162 0
152 170 0
157 173 0
153 169 0
148 165 0
150 167 0
152 168 0
149 166 0
151 168 0
156 172 0
155 171 0
158 175 0
158 173 0
153 170 0
153 169 0
150 165 0
152 167 0
152 167 0
147 161 0
150 165 0
149 163 0
152 169 0
152 168 0
151 166 0
157 173 0
155 171 0
159 174 0
154 171 0
152 165 0
156 168 0
151 164 0
157 171 0
153 167 0
154 169 0
155 169 0
150 164 0
153 167 0
153 166 0
152 165 0
157 172 0
147 161 0
149 161 0
156 168 0
154 169 0
158 171 0
160 174 0
156 168 0
151 164 0
152 167 0
153 167 0
152 166 0
151 164 0
152 163 0
151 163 0
154 163 0
152 165 0
157 170 0
160 172 0
155 166 0
160 172 0
154 167 0
157 170 0
153 166 0
157 170 0
159 170 0
160 173 0
158 171 0
155 167 0
159 171 0
159 173 0
158 169 0
160 173 0
161 173 0
156 168 0
159 172 0
160 172 0
159 171 0
160 173 0
157 171 0
162 175 0
156 169 0
156 165 0
160 171 0
158 169 0
159 172 0
156 167 0
161 175 0
158 169 0
161 174 0
174 197 0
170 194 0
172 196 0
172 194 0
172 195 0
172 195 0
169 193 0
171 194 0
174 197 0
167 191 0
172 195 0
172 195 0
165 188 0
172 195 0
171 194 0
171 194 0
171 194 0
169 193 0
173 196 0
172 195 0
172 195 0
172 195 0
169 192 0
171 195 0
174 196 0
167 190 0
171 193 0
174 197 0
171 194 0
171 194 0
170 193 0
168 191 0
166 189 0
169 192 0
167 190 0
169 192 0
170 193 0
169 192 0
168 192 0
168 190 0
170 193 0
169 192 0
169 193 0
169 193 0
170 193 0
165 188 0
164 186 0
168 190 0
168 191 0
170 193 0
164 187 0
165 188 0
170 193 0
167 190 0
167 191 0
166 189 0
170 192 0
163 186 0
170 193 0
161 185 0
164 187 0
165 188 0
167 190 0
164 187 0
171 193 0
164 186 0
155 178 0
170 192 0
167 190 0
169 191 0
164 187 0
167 190 0
165 187 0
166 189 0
167 190 0
170 192 0
171 193 0
163 185 0
159 181 0
167 190 0
165 187 0
165 186 0
165 189 0
165 189 0
158 180 0
165 187 0
165 188 0
167 190 0
161 183 0
167 189 0
161 183 0
167 190 0
157 180 0
165 187 0
162 184 0
161 184 0
168 190 0
161 182 0
161 184 0
161 184 0
169 190 0
156 178 0
158 181 0
164 187 0
161 182 0
162 185 0
165 187 0
158 180 0
165 188 0
162 185 0
152 175 0
160 182 0
162 184 0
160 181 0
157 180 0
160 182 0
158 180 0
159 182 0
161 183 0
158 180 0
155 177 0
161 184 0
155 178 0
157 181 0
165 187 0
161 182 0
160 183 0
156 179 0
159 181 0
164 187 0
165 187 0
163 185 0
153 175 0
159 181 0
158 180 0
155 178 0
167 189 0
159 182 0
157 179 0
157 179 0
153 174 0
154 177 0
149 170 0
157 179 0
154 175 0
156 178 0
153 175 0
153 175 0
163 185 0
156 178 0
157 179 0
154 175 0
155 176 0
157 178 0
150 171 0
154 175 0
150 171 0
153 176 0
156 178 0
160 182 0
153 175 0
158 179 0
149 170 0
152 174 0
154 176 0
151 173 0
156 177 0
155 176 0
150 172 0
156 178 0
147 167 0
152 174 0
156 177 0
154 176 0
154 174 0
158 180 0
155 177 0
148 169 0
148 170 0
158 181 0
150 172 0
161 184 0
152 173 0
154 175 0
152 173 0
151 172 0
147 169 0
151 171 0
147 168 0
148 169 0
150 173 0
156 177 0
156 176 0
149 169 0
151 173 0
140 160 0
156 177 0
146 166 0
150 172 0
149 171 0
156 179 0
143 164 0
149 170 0
152 174 0
145 165 0
154 174 0
156 177 0
153 173 0
147 168 0
142 160 0
149 170 0
150 171 0
154 175 0
146 167 0
149 169 0
151 172 0
156 178 0
149 168 0
155 175 0
153 174 0
144 164 0
146 167 0
144 164 0
147 168 0
152 173 0
152 173 0
145 165 0
153 172 0
149 170 0
148 169 0
149 171 0
147 166 0
152 174 0
149 171 0
147 168 0
153 173 0
153 174 0
152 173 0
143 164 0
150 170 0
152 173 0
152 173 0
154 175 0
145 164 0
149 171 0
147 168 0
153 174 0
151 172 0
150 169 0
154 174 0
153 173 0
151 170 0
148 170 0
149 170 0
148 169 0
148 169 0
152 171 0
156 176 0
149 169 0
138 157 0
146 165 0
156 176 0
147 167 0
151 171 0
155 174 0
146 165 0
150 170 0
147 166 0
151 171 0
154 175 0
152 173 0
148 167 0
157 177 0
151 172 0
150 169 0
155 175 0
152 172 0
146 165 0
135 151 0
149 168 0
145 161 0
156 174 0
155 175 0
156 174 0
154 173 0
159 177 0
147 164 0
154 171 0
160 179 0
155 173 0
158 178 0
155 174 0
158 179 0
155 175 0
152 168 0
154 170 0
151 169 0
154 172 0
157 176 0
156 174 0
148 164 0
150 168 0
149 165 0
154 173 0
153 170 0
148 165 0
154 172 0
150 166 0
149 166 0
155 172 0
151 169 0
159 175 0
160 177 0
146 163 0
155 172 0
161 178 0
155 170 0
155 173 0
155 173 0
149 165 0
158 175 0
148 166 0
157 174 0
155 170 0
148 165 0
152 169 0
154 169 0
156 172 0
157 174 0
154 171 0
158 173 0
152 169 0
155 172 0
152 169 0
153 169 0
155 170 0
156 170 0
153 167 0
160 175 0
157 173 0
157 172 0
161 178 0
157 175 0
153 167 0
155 171 0
156 170 0
150 162 0
150 165 0
150 164 0
158 173 0
155 168 0
152 167 0
151 166 0
155 169 0
154 167 0
152 167 0
161 174 0
154 168 0
157 169 0
155 168 0
157 171 0
155 166 0
158 169 0
160 176 0
156 169 0
155 170 0
151 161 0
156 167 0
156 167 0
152 163 0
154 166 0
154 164 0
157 170 0
157 170 0
154 168 0
156 167 0
155 167 0
154 166 0
159 170 0
152 161 0
157 169 0
153 165 0
156 168 0
154 163 0
153 162 0
159 170 0
162 175 0
158 168 0
155 166 0
158 171 0
157 168 0
160 170 0
160 173 0
160 171 0
164 177 0
158 169 0
161 172 0
157 168 0
160 170 0
157 170 0
173 196 0
171 194 0
170 193 0
172 195 0
170 193 0
169 192 0
173 196 0
171 194 0
174 196 0
170 194 0
167 191 0
167 191 0
173 196 0
172 195 0
172 196 0
172 195 0
170 193 0
170 193 0
172 195 0
171 194 0
170 193 0
169 192 0
174 197 0
168 191 0
173 196 0
166 189 0
170 194 0
169 192 0
173 195 0
170 194 0
167 190 0
171 194 0
174 197 0
174 197 0
167 190 0
174 197 0
169 192 0
172 195 0
170 194 0
173 195 0
170 193 0
168 191 0
172 195 0
166 189 0
167 189 0
171 193 0
169 191 0
165 187 0
171 194 0
168 191 0
168 190 0
168 192 0
169 192 0
169 191 0
168 190 0
170 192 0
166 189 0
170 193 0
169 192 0
169 192 0
165 188 0
161 184 0
166 189 0
168 190 0
165 188 0
170 194 0
162 185 0
172 195 0
169 192 0
164 186 0
163 186 0
166 189 0
168 190 0
163 186 0
167 190 0
161 183 0
165 189 0
164 187 0
168 190 0
164 186 0
163 185 0
162 185 0
161 184 0
168 191 0
162 184 0
163 185 0
162 185 0
166 190 0
166 188 0
165 188 0
170 193 0
161 184 0
164 186 0
160 183 0
165 187 0
167 189 0
156 178 0
162 185 0
166 189 0
158 181 0
161 183 0
160 182 0
159 182 0
162 184 0
167 190 0
155 177 0
165 187 0
163 186 0
168 191 0
162 185 0
163 186 0
163 185 0
162 183 0
158 180 0
156 178 0
159 181 0
163 185 0
164 187 0
166 188 0
161 182 0
162 185 0
153 175 0
156 178 0
153 176 0
162 185 0
161 184 0
161 184 0
157 180 0
162 184 0
167 189 0
158 178 0
158 180 0
160 182 0
164 185 0
158 180 0
160 182 0
160 182 0
160 182 0
158 180 0
155 176 0
157 177 0
159 180 0
146 167 0
161 182 0
149 171 0
158 179 0
153 176 0
155 176 0
159 181 0
158 180 0
157 178 0
157 180 0
159 180 0
156 178 0
158 179 0
153 174 0
163 184 0
156 178 0
154 177 0
150 172 0
153 175 0
154 174 0
149 171 0
156 179 0
149 171 0
150 171 0
159 180 0
144 165 0
152 173 0
150 171 0
153 176 0
156 178 0
152 174 0
152 173 0
148 170 0
158 180 0
150 171 0
150 172 0
151 172 0
149 171 0
158 178 0
156 179 0
146 167 0
149 171 0
153 176 0
157 178 0
159 181 0
152 174 0
154 177 0
152 174 0
146 168 0
153 175 0
157 178 0
144 166 0
153 174 0
153 174 0
145 166 0
149 170 0
152 174 0
149 170 0
150 172 0
147 167 0
155 176 0
152 174 0
151 172 0
149 169 0
150 172 0
143 165 0
148 168 0
153 174 0
137 158 0
149 171 0
148 169 0
148 168 0
151 173 0
150 172 0
151 172 0
152 174 0
153 174 0
147 169 0
148 168 0
146 167 0
155 177 0
151 174 0
147 168 0
147 166 0
155 176 0
151 171 0
148 168 0
146 168 0
147 169 0
152 173 0
147 167 0
149 171 0
154 174 0
152 173 0
154 175 0
152 173 0
152 172 0
153 174 0
148 168 0
146 166 0
154 173 0
157 176 0
155 174 0
150 172 0
156 176 0
158 178 0
148 168 0
157 176 0
151 170 0
150 171 0
152 170 0
152 173 0
154 175 0
158 178 0
154 176 0
154 174 0
150 170 0
151 171 0
150 169 0
154 174 0
160 180 0
145 164 0
150 169 0
156 176 0
144 162 0
150 170 0
155 174 0
148 167 0
149 168 0
155 175 0
142 162 0
156 177 0
152 174 0
154 172 0
150 169 0
153 172 0
155 174 0
158 177 0
149 168 0
152 169 0
153 171 0
147 166 0
150 169 0
151 169 0
148 166 0
150 169 0
149 169 0
149 167 0
155 174 0
152 169 0
153 172 0
160 180 0
145 163 0
150 167 0
155 174 0
150 168 0
157 176 0
152 170 0
159 178 0
151 170 0
158 178 0
154 170 0
155 170 0
155 173 0
144 160 0
153 168 0
151 167 0
153 171 0
152 169 0
157 172 0
150 167 0
155 173 0
155 171 0
152 169 0
147 165 0
156 172 0
157 175 0
151 168 0
160 177 0
154 170 0
149 167 0
144 160 0
159 176 0
156 172 0
153 170 0
154 171 0
156 170 0
151 164 0
155 171 0
153 169 0
154 171 0
151 168 0
145 160 0
155 169 0
158 174 0
152 168 0
150 168 0
161 178 0
157 170 0
159 173 0
156 171 0
158 173 0
149 163 0
155 170 0
150 163 0
151 165 0
152 166 0
154 168 0
162 176 0
160 177 0
154 168 0
154 168 0
155 171 0
155 168 0
149 164 0
159 173 0
149 160 0
157 171 0
162 175 0
157 172 0
154 167 0
161 177 0
159 173 0
158 173 0
162 174 0
160 175 0
154 165 0
152 164 0
158 171 0
155 170 0
155 166 0
157 171 0
157 170 0
157 172 0
157 172 0
157 169 0
156 168 0
158 171 0
155 165 0
161 175 0
156 169 0
156 171 0
158 173 0
159 169 0
156 169 0
157 168 0
155 165 0
156 167 0
153 163 0
155 167 0
161 172 0
161 175 0
157 168 0
158 170 0
159 168 0
158 169 0
156 169 0
160 173 0
172 195 0
169 193 0
173 196 0
173 196 0
173 196 0
172 195 0
169 192 0
172 196 0
170 193 0
165 189 0
173 195 0
171 194 0
171 193 0
171 193 0
172 196 0
172 195 0
175 197 0
175 197 0
171 195 0
171 194 0
172 194 0
167 190 0
170 193 0
175 197 0
169 193 0
169 192 0
169 192 0
170 193 0
173 196 0
167 190 0
169 192 0
168 191 0
169 192 0
169 192 0
173 196 0
167 190 0
170 193 0
168 191 0
166 189 0
168 190 0
169 193 0
166 189 0
167 190 0
169 192 0
167 189 0
167 189 0
169 191 0
166 189 0
172 194 0
168 190 0
169 191 0
169 192 0
171 193 0
165 189 0
170 193 0
168 191 0
166 189 0
165 188 0
166 189 0
167 189 0
167 189 0
166 188 0
168 190 0
166 189 0
167 189 0
165 187 0
163 185 0
166 189 0
167 189 0
166 188 0
167 190 0
162 185 0
166 189 0
166 189 0
164 186 0
164 188 0
159 182 0
162 185 0
164 186 0
169 192 0
163 185 0
163 185 0
161 184 0
167 190 0
164 186 0
162 185 0
167 190 0
165 188 0
167 190 0
167 189 0
161 184 0
163 185 0
165 187 0
164 188 0
161 184 0
162 185 0
164 186 0
160 181 0
161 183 0
166 189 0
161 184 0
163 185 0
163 185 0
164 186 0
160 182 0
163 186 0
162 185 0
164 185 0
164 185 0
161 183 0
163 185 0
165 188 0
171 192 0
166 189 0
161 183 0
158 180 0
163 185 0
164 186 0
160 181 0
162 185 0
160 182 0
161 184 0
162 184 0
156 177 0
158 180 0
159 181 0
159 181 0
161 184 0
154 176 0
153 175 0
159 181 0
162 185 0
160 182 0
160 181 0
157 180 0
160 183 0
155 177 0
161 184 0
155 178 0
159 180 0
160 183 0
154 175 0
163 185 0
157 178 0
151 172 0
160 181 0
158 179 0
160 182 0
153 174 0
155 176 0
162 184 0
154 175 0
157 179 0
160 181 0
151 172 0
150 172 0
156 178 0
156 179 0
150 171 0
155 178 0
156 177 0
152 173 0
147 168 0
158 180 0
158 181 0
156 177 0
149 171 0
151 173 0
158 179 0
142 164 0
154 175 0
157 177 0
147 168 0
147 169 0
159 180 0
150 172 0
155 178 0
151 173 0
146 169 0
148 169 0
155 176 0
153 175 0
150 172 0
156 178 0
158 180 0
150 171 0
159 179 0
148 169 0
153 175 0
157 178 0
144 164 0
151 172 0
161 184 0
152 175 0
155 174 0
152 173 0
157 179 0
154 176 0
160 181 0
163 185 0
150 172 0
152 173 0
158 180 0
155 176 0
150 172 0
153 174 0
149 170 0
147 167 0
152 174 0
148 169 0
147 167 0
152 173 0
155 176 0
154 174 0
151 172 0
155 177 0
147 169 0
153 173 0
156 178 0
153 174 0
159 179 0
151 171 0
152 175 0
147 168 0
147 169 0
153 172 0
150 170 0
153 173 0
150 170 0
145 166 0
151 171 0
158 177 0
153 174 0
155 176 0
149 170 0
153 174 0
142 161 0
151 172 0
154 175 0
151 169 0
147 169 0
150 171 0
148 168 0
143 163 0
148 169 0
152 171 0
151 172 0
155 174 0
151 172 0
149 170 0
149 167 0
154 175 0
152 174 0
159 178 0
160 180 0
147 167 0
150 169 0
148 169 0
140 158 0
147 167 0
158 180 0
152 171 0
151 168 0
146 167 0
144 163 0
152 173 0
155 176 0
147 164 0
156 177 0
155 173 0
153 173 0
148 167 0
148 168 0
145 164 0
152 172 0
152 173 0
150 171 0
153 173 0
153 173 0
154 173 0
158 177 0
157 177 0
158 177 0
156 174 0
157 177 0
152 170 0
149 169 0
145 161 0
148 168 0
153 171 0
155 174 0
152 172 0
155 173 0
152 171 0
151 167 0
157 176 0
157 176 0
154 172 0
158 177 0
154 172 0
149 168 0
152 170 0
157 173 0
155 174 0
153 170 0
153 171 0
157 174 0
156 172 0
148 166 0
158 176 0
153 170 0
150 169 0
150 167 0
155 173 0
156 175 0
157 172 0
152 167 0
160 177 0
160 178 0
157 173 0
155 172 0
150 167 0
159 177 0
148 166 0
152 169 0
149 166 0
156 172 0
151 167 0
152 169 0
161 176 0
157 172 0
152 167 0
152 168 0
150 168 0
148 165 0
148 163 0
154 169 0
155 170 0
153 166 0
152 168 0
153 167 0
151 166 0
149 165 0
153 167 0
158 172 0
154 169 0
148 162 0
152 166 0
155 169 0
160 175 0
157 171 0
161 177 0
157 171 0
155 169 0
159 176 0
159 176 0
152 166 0
158 175 0
158 174 0
155 169 0
155 168 0
153 165 0
160 176 0
161 179 0
151 163 0
152 165 0
157 171 0
153 166 0
157 171 0
152 163 0
161 172 0
160 173 0
158 171 0
149 157 0
152 166 0
163 179 0
158 172 0
156 169 0
160 173 0
159 172 0
150 161 0
156 167 0
160 171 0
157 168 0
156 169 0
157 170 0
162 177 0
156 165 0
161 175 0
155 165 0
154 165 0
161 172 0
157 170 0
158 168 0
158 170 0
162 178 0
156 169 0
158 170 0
159 170 0
159 174 0
172 195 0
172 195 0
168 191 0
174 197 0
172 195 0
173 196 0
174 196 0
172 195 0
172 194 0
173 196 0
171 195 0
169 192 0
172 195 0
170 193 0
169 193 0
167 190 0
170 193 0
171 193 0
172 195 0
168 191 0
171 194 0
170 193 0
167 191 0
167 190 0
168 191 0
171 194 0
168 191 0
171 194 0
172 196 0
170 193 0
169 191 0
170 193 0
167 190 0
167 191 0
170 192 0
171 193 0
170 193 0
170 194 0
167 190 0
169 192 0
170 193 0
169 192 0
168 191 0
166 190 0
169 192 0
167 190 0
169 192 0
169 192 0
169 192 0
170 193 0
167 190 0
169 191 0
167 191 0
167 189 0
169 192 0
167 189 0
168 192 0
168 191 0
166 189 0
163 186 0
163 185 0
169 192 0
161 184 0
162 185 0
166 188 0
167 190 0
167 188 0
159 182 0
163 185 0
168 191 0
162 185 0
166 189 0
171 193 0
170 192 0
163 185 0
167 188 0
163 186 0
166 189 0
169 191 0
166 189 0
167 190 0
157 178 0
168 190 0
165 187 0
169 191 0
162 185 0
165 188 0
168 190 0
160 183 0
166 189 0
162 184 0
167 189 0
165 187 0
166 189 0
168 191 0
164 187 0
163 186 0
170 191 0
162 184 0
166 189 0
159 182 0
163 185 0
164 186 0
162 184 0
163 184 0
162 184 0
159 181 0
161 183 0
158 181 0
162 184 0
162 185 0
166 188 0
158 182 0
167 190 0
159 181 0
165 187 0
159 181 0
157 181 0
162 184 0
163 186 0
156 178 0
168 192 0
160 183 0
156 179 0
153 174 0
155 178 0
158 181 0
161 183 0
162 184 0
163 185 0
163 186 0
160 183 0
159 181 0
153 176 0
156 178 0
155 177 0
152 174 0
157 180 0
158 179 0
159 180 0
153 175 0
160 182 0
159 181 0
160 181 0
155 177 0
160 182 0
149 172 0
159 181 0
155 178 0
159 181 0
151 173 0
162 184 0
158 179 0
151 172 0
152 174 0
151 173 0
157 178 0
152 174 0
153 174 0
156 179 0
158 180 0
153 173 0
159 182 0
147 168 0
154 177 0
160 181 0
153 174 0
155 176 0
153 174 0
161 183 0
154 175 0
151 173 0
155 177 0
155 176 0
146 168 0
156 177 0
154 176 0
151 173 0
154 176 0
157 178 0
158 178 0
152 174 0
157 180 0
158 178 0
157 179 0
156 178 0
155 177 0
155 175 0
157 178 0
158 180 0
155 178 0
153 174 0
148 169 0
148 169 0
149 171 0
155 176 0
152 174 0
156 176 0
150 172 0
149 169 0
158 180 0
151 173 0
158 180 0
153 174 0
147 168 0
147 170 0
157 179 0
146 167 0
154 176 0
149 170 0
150 170 0
153 175 0
151 172 0
152 173 0
150 173 0
155 176 0
156 177 0
161 182 0
150 171 0
139 161 0
149 171 0
143 163 0
155 176 0
154 175 0
152 174 0
153 173 0
148 170 0
152 173 0
152 173 0
160 180 0
155 176 0
144 164 0
141 160 0
154 176 0
155 175 0
146 165 0
148 169 0
147 168 0
148 170 0
153 175 0
149 169 0
156 176 0
155 176 0
156 176 0
148 169 0
145 165 0
157 178 0
149 169 0
155 176 0
156 176 0
148 169 0
153 174 0
148 169 0
153 175 0
157 177 0
158 179 0
148 169 0
152 171 0
148 169 0
143 163 0
155 177 0
159 179 0
151 171 0
147 167 0
152 172 0
142 161 0
150 169 0
152 173 0
159 178 0
150 171 0
151 172 0
157 176 0
146 165 0
149 168 0
152 170 0
151 170 0
153 173 0
144 163 0
156 176 0
151 172 0
154 172 0
154 174 0
154 176 0
159 178 0
153 173 0
153 173 0
155 174 0
148 167 0
153 173 0
154 174 0
156 174 0
150 169 0
154 173 0
154 170 0
155 174 0
154 173 0
151 170 0
156 174 0
157 174 0
160 176 0
148 168 0
148 167 0
153 172 0
151 170 0
156 176 0
156 175 0
149 168 0
159 179 0
156 173 0
155 173 0
155 173 0
159 178 0
153 172 0
159 177 0
152 166 0
150 167 0
154 171 0
148 162 0
157 174 0
147 162 0
153 167 0
158 175 0
151 167 0
152 168 0
157 172 0
152 169 0
154 172 0
159 177 0
159 174 0
154 172 0
157 174 0
155 171 0
158 175 0
160 175 0
157 173 0
156 173 0
155 169 0
152 168 0
159 176 0
149 165 0
154 170 0
148 162 0
159 174 0
156 170 0
162 179 0
158 172 0
155 170 0
156 171 0
153 167 0
151 165 0
153 166 0
157 172 0
154 169 0
158 172 0
151 165 0
153 169 0
152 167 0
154 169 0
158 173 0
152 164 0
160 175 0
156 170 0
156 169 0
154 169 0
155 168 0
156 169 0
159 175 0
150 163 0
153 168 0
158 170 0
154 168 0
157 169 0
154 166 0
156 169 0
161 176 0
161 174 0
160 174 0
154 167 0
157 170 0
156 167 0
156 170 0
154 168 0
157 169 0
162 176 0
155 167 0
159 171 0
158 171 0
156 168 0
158 168 0
160 175 0
158 169 0
157 170 0
161 176 0
159 171 0
158 169 0
156 167 0
152 164 0
159 170 0
160 173 0
157 170 0
174 197 0
171 195 0
171 194 0
173 196 0
171 195 0
174 197 0
170 193 0
171 193 0
171 195 0
170 193 0
169 192 0
169 192 0
170 192 0
170 193 0
171 194 0
171 193 0
174 196 0
170 193 0
171 195 0
169 193 0
171 194 0
174 197 0
170 193 0
168 191 0
169 192 0
165 188 0
172 196 0
172 196 0
170 193 0
172 194 0
167 190 0
169 191 0
169 192 0
173 196 0
170 194 0
170 193 0
168 191 0
169 192 0
169 192 0
170 192 0
171 193 0
169 192 0
170 193 0
169 192 0
167 190 0
167 190 0
170 192 0
169 192 0
163 187 0
172 195 0
166 189 0
167 190 0
168 190 0
171 193 0
165 188 0
165 188 0
168 191 0
166 189 0
170 194 0
168 191 0
161 184 0
172 195 0
170 192 0
167 190 0
166 188 0
170 193 0
162 183 0
165 187 0
162 185 0
167 190 0
170 193 0
167 190 0
167 190 0
168 191 0
173 196 0
163 185 0
164 186 0
167 189 0
164 187 0
171 192 0
163 187 0
163 186 0
163 186 0
166 188 0
163 185 0
165 188 0
168 189 0
162 186 0
161 183 0
161 183 0
166 188 0
156 178 0
164 187 0
161 184 0
163 186 0
163 187 0
161 184 0
166 187 0
160 182 0
163 186 0
163 185 0
163 185 0
168 191 0
170 192 0
161 183 0
162 183 0
167 187 0
160 182 0
165 187 0
159 181 0
160 182 0
161 183 0
162 184 0
159 181 0
160 182 0
167 189 0
157 179 0
158 181 0
155 177 0
165 186 0
163 184 0
155 177 0
161 182 0
160 182 0
161 183 0
155 177 0
161 184 0
163 184 0
158 181 0
161 183 0
159 181 0
162 185 0
158 180 0
162 185 0
156 178 0
156 178 0
154 176 0
155 176 0
162 185 0
160 182 0
159 181 0
158 180 0
157 180 0
163 184 0
156 178 0
160 182 0
161 183 0
161 182 0
154 175 0
151 174 0
157 180 0
156 178 0
161 183 0
157 179 0
156 179 0
161 182 0
156 178 0
158 180 0
151 174 0
156 177 0
158 180 0
158 182 0
157 178 0
154 174 0
155 178 0
156 179 0
156 177 0
146 167 0
157 178 0
163 185 0
153 174 0
145 168 0
158 180 0
152 175 0
158 180 0
153 174 0
156 176 0
157 178 0
153 175 0
156 178 0
153 174 0
157 180 0
154 174 0
148 168 0
153 176 0
154 174 0
156 178 0
152 173 0
149 171 0
151 174 0
159 181 0
151 173 0
140 161 0
154 175 0
153 173 0
164 185 0
148 169 0
151 172 0
157 179 0
148 170 0
153 174 0
152 173 0
152 173 0
156 178 0
156 176 0
149 170 0
153 175 0
152 173 0
158 179 0
144 164 0
150 170 0
153 174 0
153 174 0
152 173 0
151 171 0
152 173 0
153 173 0
157 180 0
148 169 0
153 175 0
149 170 0
150 170 0
152 172 0
146 167 0
145 165 0
154 176 0
155 175 0
151 172 0
149 169 0
152 172 0
152 175 0
153 174 0
152 172 0
154 175 0
156 177 0
155 177 0
153 174 0
152 173 0
152 174 0
152 172 0
156 176 0
152 174 0
147 167 0
150 170 0
153 174 0
147 167 0
156 176 0
160 181 0
156 177 0
154 174 0
152 173 0
144 164 0
149 170 0
152 171 0
146 168 0
147 167 0
150 171 0
161 182 0
157 177 0
152 171 0
149 169 0
156 177 0
155 175 0
152 172 0
150 171 0
157 176 0
148 167 0
151 171 0
152 170 0
148 167 0
149 167 0
152 171 0
152 172 0
153 174 0
149 168 0
158 179 0
152 174 0
153 174 0
156 174 0
150 169 0
152 170 0
160 180 0
155 176 0
149 169 0
147 166 0
150 169 0
156 176 0
152 170 0
148 166 0
152 173 0
155 175 0
151 171 0
158 177 0
151 170 0
158 177 0
156 176 0
159 179 0
150 168 0
153 171 0
158 175 0
162 181 0
158 175 0
158 175 0
153 172 0
152 170 0
155 174 0
150 163 0
151 167 0
155 175 0
150 169 0
151 166 0
157 174 0
154 170 0
156 172 0
151 167 0
160 177 0
157 176 0
154 170 0
156 171 0
153 170 0
152 172 0
155 174 0
153 170 0
150 167 0
148 167 0
161 180 0
152 170 0
151 166 0
154 171 0
158 172 0
156 171 0
157 174 0
152 167 0
153 168 0
153 168 0
156 172 0
161 179 0
155 169 0
152 170 0
153 169 0
156 174 0
154 173 0
154 171 0
158 174 0
154 170 0
153 169 0
150 166 0
162 176 0
154 168 0
148 160 0
155 169 0
157 175 0
154 168 0
148 162 0
157 169 0
155 168 0
160 174 0
159 174 0
157 172 0
157 171 0
150 162 0
156 170 0
155 169 0
154 167 0
155 170 0
159 172 0
157 172 0
160 175 0
160 173 0
158 172 0
156 167 0
158 172 0
154 167 0
154 166 0
162 175 0
154 166 0
161 176 0
162 177 0
157 171 0
162 174 0
158 169 0
159 174 0
154 166 0
163 176 0
160 175 0
155 169 0
162 175 0
158 171 0
163 177 0
152 162 0
159 169 0
153 163 0
158 172 0
158 169 0
162 176 0
157 170 0
161 174 0
154 165 0
165 178 0
156 169 0
174 197 0
169 193 0
172 195 0
172 195 0
171 195 0
172 195 0
170 193 0
172 195 0
170 194 0
173 196 0
171 194 0
174 197 0
168 191 0
170 193 0
172 195 0
169 193 0
169 193 0
171 194 0
169 192 0
168 191 0
168 192 0
171 194 0
170 193 0
170 192 0
169 192 0
170 193 0
171 194 0
164 187 0
171 194 0
170 193 0
170 193 0
171 194 0
170 193 0
167 190 0
167 189 0
171 194 0
170 192 0
168 191 0
167 190 0
169 191 0
166 188 0
168 191 0
172 194 0
171 193 0
169 192 0
171 194 0
165 188 0
167 190 0
168 190 0
167 190 0
172 194 0
169 192 0
168 191 0
166 189 0
162 184 0
165 188 0
167 190 0
166 189 0
162 184 0
166 189 0
167 189 0
164 186 0
170 193 0
165 188 0
166 189 0
168 189 0
169 191 0
164 188 0
167 190 0
167 190 0
167 190 0
163 186 0
164 185 0
164 186 0
166 189 0
166 188 0
163 186 0
162 185 0
161 183 0
161 183 0
160 183 0
162 184 0
165 188 0
161 184 0
160 182 0
165 188 0
165 186 0
162 184 0
168 190 0
163 185 0
165 187 0
170 192 0
155 178 0
162 184 0
163 186 0
165 186 0
158 179 0
162 185 0
164 187 0
169 190 0
164 186 0
160 183 0
165 189 0
160 184 0
162 185 0
161 183 0
162 185 0
167 190 0
161 182 0
166 189 0
161 184 0
158 180 0
162 184 0
160 183 0
162 184 0
165 186 0
163 185 0
158 180 0
158 181 0
163 184 0
156 178 0
160 183 0
154 176 0
163 185 0
163 186 0
164 187 0
155 177 0
162 185 0
156 179 0
159 180 0
164 186 0
163 185 0
153 174 0
158 179 0
158 181 0
158 180 0
161 184 0
152 174 0
157 181 0
155 177 0
159 180 0
164 187 0
161 183 0
158 180 0
151 173 0
156 179 0
159 181 0
153 174 0
156 177 0
156 179 0
148 170 0
160 182 0
158 180 0
154 176 0
161 182 0
169 191 0
149 171 0
159 181 0
156 179 0
165 186 0
162 184 0
152 173 0
153 176 0
154 176 0
159 180 0
152 173 0
158 180 0
157 179 0
155 176 0
154 177 0
156 177 0
156 177 0
156 178 0
145 168 0
149 170 0
151 173 0
157 178 0
161 183 0
157 178 0
158 180 0
157 178 0
155 177 0
158 178 0
157 179 0
160 180 0
159 182 0
139 161 0
149 170 0
161 181 0
151 172 0
150 171 0
154 175 0
151 172 0
143 164 0
151 172 0
151 173 0
153 175 0
155 176 0
152 172 0
155 176 0
156 177 0
154 175 0
150 171 0
152 174 0
142 162 0
152 173 0
154 175 0
156 178 0
157 179 0
153 174 0
160 182 0
151 171 0
153 175 0
144 164 0
149 171 0
153 174 0
145 166 0
150 172 0
155 175 0
151 173 0
157 177 0
152 173 0
153 175 0
154 175 0
155 177 0
152 173 0
147 168 0
149 170 0
151 171 0
150 171 0
150 170 0
153 174 0
150 171 0
146 166 0
155 176 0
154 174 0
150 171 0
155 176 0
156 176 0
155 176 0
155 174 0
151 171 0
148 170 0
152 172 0
148 168 0
155 176 0
150 171 0
156 176 0
147 167 0
150 168 0
157 177 0
142 162 0
146 166 0
152 173 0
156 176 0
151 173 0
155 175 0
154 172 0
156 177 0
152 172 0
149 167 0
148 167 0
151 170 0
152 170 0
152 170 0
149 168 0
147 167 0
155 176 0
151 171 0
149 169 0
152 170 0
147 167 0
156 174 0
154 173 0
158 180 0
151 170 0
153 173 0
149 166 0
146 165 0
160 182 0
155 175 0
160 182 0
148 166 0
149 167 0
152 172 0
153 174 0
153 173 0
153 172 0
154 174 0
152 170 0
152 169 0
153 171 0
151 168 0
150 169 0
153 173 0
151 169 0
158 174 0
151 168 0
154 174 0
157 175 0
154 174 0
144 162 0
153 168 0
159 177 0
152 172 0
156 175 0
153 172 0
157 175 0
159 177 0
155 174 0
159 175 0
162 180 0
154 171 0
155 170 0
153 170 0
156 174 0
159 176 0
155 174 0
154 172 0
154 172 0
157 175 0
148 165 0
152 167 0
156 175 0
150 165 0
155 172 0
150 166 0
155 171 0
153 168 0
147 163 0
157 172 0
156 173 0
151 167 0
155 171 0
149 168 0
159 176 0
157 171 0
153 167 0
147 163 0
151 166 0
151 171 0
156 172 0
155 174 0
158 173 0
150 166 0
151 164 0
153 167 0
159 175 0
155 172 0
157 172 0
156 171 0
152 168 0
155 171 0
160 178 0
156 172 0
157 171 0
152 165 0
158 173 0
163 181 0
157 174 0
156 172 0
158 172 0
156 169 0
154 168 0
154 164 0
151 163 0
155 170 0
163 178 0
156 172 0
160 177 0
151 164 0
156 170 0
152 165 0
160 173 0
157 170 0
157 173 0
153 165 0
154 170 0
159 174 0
155 167 0
154 165 0
155 168 0
156 169 0
157 169 0
163 177 0
160 174 0
157 170 0
164 177 0
154 165 0
160 174 0
155 167 0
159 170 0
158 172 0
155 167 0
156 170 0
158 169 0
160 171 0
159 173 0
158 170 0
162 175 0
168 192 0
172 195 0
170 193 0
168 191 0
174 196 0
167 191 0
170 193 0
170 194 0
170 193 0
171 194 0
170 194 0
173 196 0
170 192 0
174 197 0
173 196 0
169 191 0
169 193 0
170 193 0
168 190 0
169 192 0
167 191 0
167 190 0
167 191 0
168 191 0
168 191 0
173 196 0
171 194 0
170 192 0
167 189 0
172 195 0
173 196 0
165 188 0
167 189 0
171 194 0
169 192 0
166 189 0
171 194 0
165 188 0
169 192 0
165 188 0
169 192 0
168 191 0
163 187 0
167 189 0
164 186 0
167 190 0
171 193 0
167 190 0
167 190 0
170 193 0
172 194 0
166 189 0
168 191 0
168 191 0
165 187 0
173 195 0
169 192 0
163 185 0
161 183 0
167 189 0
169 192 0
168 190 0
166 188 0
167 189 0
167 189 0
161 183 0
167 190 0
167 189 0
168 191 0
172 194 0
157 181 0
169 191 0
165 188 0
165 186 0
163 186 0
164 187 0
167 189 0
165 188 0
168 191 0
164 186 0
165 188 0
168 190 0
165 187 0
164 186 0
168 190 0
162 184 0
165 188 0
165 188 0
165 188 0
166 188 0
168 190 0
160 182 0
164 187 0
161 183 0
161 183 0
165 187 0
162 185 0
161 184 0
160 182 0
165 188 0
164 187 0
162 184 0
159 181 0
164 186 0
160 182 0
165 187 0
161 184 0
157 180 0
167 189 0
157 178 0
163 185 0
159 181 0
164 187 0
155 178 0
163 185 0
159 181 0
159 181 0
162 185 0
154 177 0
165 187 0
162 185 0
163 185 0
160 181 0
162 185 0
170 191 0
157 180 0
155 177 0
160 182 0
158 179 0
157 179 0
160 182 0
157 179 0
153 176 0
156 179 0
162 183 0
160 182 0
159 181 0
156 178 0
157 178 0
154 175 0
155 176 0
155 177 0
157 179 0
160 182 0
160 182 0
156 178 0
164 186 0
155 176 0
155 177 0
153 175 0
156 178 0
158 180 0
157 180 0
152 175 0
158 180 0
158 181 0
156 179 0
157 179 0
153 175 0
157 178 0
153 174 0
155 177 0
152 174 0
151 172 0
160 182 0
158 180 0
158 180 0
155 178 0
159 180 0
152 175 0
162 184 0
157 179 0
162 184 0
156 178 0
151 172 0
151 173 0
150 170 0
159 180 0
152 174 0
152 174 0
154 175 0
151 171 0
153 174 0
151 174 0
158 180 0
154 176 0
157 179 0
155 177 0
160 180 0
163 184 0
151 173 0
156 177 0
154 176 0
147 169 0
148 168 0
156 178 0
152 173 0
153 175 0
158 180 0
155 177 0
147 168 0
152 174 0
158 179 0
156 176 0
149 170 0
153 176 0
151 172 0
154 176 0
158 180 0
148 167 0
156 177 0
155 177 0
157 178 0
156 177 0
153 174 0
153 175 0
150 170 0
146 167 0
150 170 0
149 170 0
148 169 0
153 174 0
152 173 0
157 177 0
159 180 0
159 180 0
145 167 0
156 177 0
153 175 0
155 176 0
151 172 0
143 164 0
153 174 0
153 174 0
152 173 0
144 164 0
160 181 0
152 173 0
144 165 0
149 170 0
154 175 0
154 174 0
153 173 0
148 169 0
158 179 0
153 173 0
158 179 0
159 179 0
158 181 0
155 175 0
150 171 0
154 174 0
152 172 0
155 175 0
150 169 0
155 175 0
150 169 0
155 173 0
157 176 0
157 179 0
149 168 0
150 172 0
150 170 0
150 170 0
154 175 0
155 176 0
156 179 0
162 181 0
149 169 0
149 167 0
145 165 0
150 169 0
150 169 0
146 164 0
154 173 0
154 174 0
153 174 0
155 175 0
149 169 0
150 169 0
153 173 0
155 175 0
152 170 0
150 172 0
159 178 0
153 173 0
156 176 0
153 172 0
163 183 0
152 171 0
158 179 0
154 172 0
155 174 0
148 167 0
153 174 0
154 173 0
157 176 0
157 175 0
151 170 0
156 173 0
153 170 0
155 173 0
160 177 0
149 168 0
152 171 0
150 170 0
158 175 0
150 169 0
153 173 0
146 159 0
154 171 0
155 173 0
149 167 0
156 174 0
159 177 0
149 167 0
152 170 0
160 178 0
152 170 0
152 170 0
153 170 0
152 167 0
160 179 0
156 172 0
154 168 0
161 179 0
157 173 0
153 169 0
153 169 0
155 170 0
161 180 0
154 173 0
147 162 0
147 161 0
154 169 0
157 175 0
151 169 0
151 169 0
148 161 0
156 174 0
163 182 0
158 175 0
153 169 0
152 169 0
155 170 0
156 171 0
144 162 0
150 164 0
152 168 0
153 171 0
156 174 0
156 172 0
151 163 0
159 174 0
158 175 0
159 174 0
158 176 0
156 170 0
153 167 0
154 170 0
155 170 0
159 174 0
161 177 0
153 167 0
156 169 0
158 174 0
157 172 0
154 167 0
161 174 0
154 169 0
159 172 0
152 164 0
160 171 0
163 176 0
154 168 0
155 169 0
155 169 0
155 169 0
155 168 0
158 172 0
160 173 0
157 171 0
158 172 0
162 174 0
158 172 0
161 176 0
150 161 0
157 171 0
157 169 0
160 175 0
161 175 0
160 175 0
155 168 0
159 171 0
158 171 0
160 173 0
160 173 0
160 173 0
155 168 0
160 172 0
171 194 0
173 195 0
171 195 0
172 194 0
171 194 0
171 195 0
171 195 0
172 195 0
168 192 0
170 194 0
170 193 0
168 190 0
174 197 0
174 197 0
170 193 0
169 191 0
172 195 0
170 193 0
171 194 0
171 194 0
167 190 0
169 193 0
165 188 0
169 192 0
170 193 0
171 195 0
170 193 0
170 193 0
168 191 0
169 192 0
168 191 0
168 191 0
170 194 0
167 190 0
168 191 0
171 194 0
170 192 0
167 190 0
172 194 0
166 190 0
167 190 0
171 194 0
170 193 0
165 187 0
167 189 0
170 192 0
175 197 0
170 193 0
167 190 0
167 190 0
164 186 0
162 184 0
167 190 0
167 189 0
169 192 0
172 194 0
170 192 0
162 185 0
169 192 0
164 186 0
169 193 0
164 188 0
167 190 0
167 190 0
166 188 0
169 191 0
164 187 0
168 190 0
166 188 0
160 183 0
160 182 0
161 184 0
164 187 0
165 189 0
164 187 0
165 188 0
169 191 0
164 187 0
168 190 0
170 192 0
165 187 0
167 189 0
166 189 0
166 186 0
166 188 0
167 189 0
163 187 0
160 182 0
162 184 0
163 187 0
163 184 0
159 182 0
158 181 0
163 186 0
165 188 0
165 188 0
162 185 0
161 184 0
164 188 0
162 185 0
164 188 0
162 185 0
165 187 0
160 183 0
166 188 0
165 188 0
165 186 0
163 185 0
157 179 0
163 185 0
161 184 0
162 184 0
162 184 0
165 187 0
163 186 0
163 187 0
163 185 0
164 186 0
164 187 0
158 180 0
159 182 0
159 182 0
156 177 0
165 188 0
158 180 0
162 184 0
154 176 0
158 179 0
163 185 0
158 179 0
154 176 0
161 184 0
155 176 0
162 184 0
158 181 0
158 181 0
161 184 0
161 184 0
154 176 0
162 184 0
154 175 0
165 187 0
152 174 0
153 175 0
160 183 0
161 182 0
160 183 0
162 185 0
150 171 0
158 181 0
149 171 0
157 179 0
152 175 0
159 181 0
157 180 0
155 177 0
154 177 0
148 170 0
156 178 0
154 177 0
160 181 0
156 178 0
154 175 0
154 176 0
152 174 0
153 174 0
158 181 0
151 174 0
148 170 0
155 176 0
154 175 0
151 173 0
156 178 0
156 179 0
157 179 0
145 167 0
158 180 0
158 181 0
154 177 0
153 175 0
152 173 0
157 179 0
152 173 0
154 177 0
152 173 0
155 176 0
155 177 0
154 175 0
152 173 0
156 178 0
158 180 0
156 176 0
150 172 0
157 178 0
156 179 0
155 177 0
154 177 0
157 180 0
154 175 0
150 170 0
154 174 0
156 177 0
155 175 0
152 174 0
154 176 0
154 174 0
152 173 0
147 169 0
151 173 0
150 171 0
153 175 0
151 172 0
158 178 0
153 174 0
157 178 0
146 167 0
147 169 0
151 171 0
152 174 0
157 179 0
153 174 0
150 169 0
152 174 0
152 173 0
152 174 0
157 178 0
156 177 0
160 181 0
153 173 0
148 170 0
157 176 0
159 181 0
155 175 0
150 171 0
151 172 0
155 176 0
151 172 0
148 168 0
155 176 0
153 174 0
148 170 0
149 168 0
157 180 0
149 170 0
152 173 0
154 175 0
152 171 0
152 173 0
147 168 0
156 177 0
153 174 0
155 177 0
154 174 0
155 176 0
150 169 0
150 169 0
150 171 0
152 172 0
147 167 0
156 177 0
147 166 0
158 179 0
154 171 0
145 166 0
146 167 0
147 165 0
156 178 0
160 181 0
155 174 0
156 176 0
152 171 0
148 168 0
150 172 0
157 177 0
154 174 0
150 169 0
159 179 0
158 178 0
157 177 0
154 174 0
156 175 0
156 176 0
153 171 0
157 175 0
160 180 0
157 176 0
151 170 0
154 174 0
154 172 0
155 174 0
152 171 0
150 169 0
153 171 0
153 171 0
155 173 0
151 168 0
153 170 0
155 174 0
158 178 0
153 171 0
159 179 0
153 170 0
158 177 0
150 168 0
156 176 0
155 173 0
150 168 0
151 170 0
153 170 0
151 170 0
152 172 0
150 166 0
150 168 0
157 174 0
158 175 0
154 173 0
159 178 0
149 166 0
153 171 0
158 175 0
148 164 0
154 170 0
152 169 0
151 167 0
150 168 0
159 177 0
148 165 0
156 174 0
156 171 0
156 173 0
154 170 0
160 177 0
158 173 0
154 170 0
153 171 0
157 174 0
159 179 0
153 168 0
156 173 0
159 174 0
154 170 0
161 177 0
155 171 0
145 159 0
147 163 0
157 173 0
155 171 0
155 170 0
156 173 0
153 167 0
151 166 0
155 170 0
157 172 0
153 168 0
161 177 0
152 165 0
158 174 0
151 167 0
155 171 0
151 165 0
151 164 0
153 167 0
160 174 0
155 170 0
153 169 0
158 174 0
162 176 0
156 170 0
158 173 0
158 173 0
156 169 0
156 170 0
162 176 0
156 170 0
160 174 0
157 171 0
160 176 0
156 170 0
160 174 0
156 170 0
164 178 0
155 169 0
161 174 0
153 165 0
160 174 0
159 174 0
164 177 0
161 173 0
155 165 0
158 172 0
160 171 0
158 171 0
159 171 0
157 170 0
158 171 0
160 176 0
155 170 0
165 179 0
160 173 0
157 170 0
172 195 0
173 196 0
171 194 0
172 195 0
170 193 0
173 196 0
172 196 0
173 195 0
171 194 0
172 194 0
169 192 0
171 193 0
170 194 0
172 195 0
171 194 0
171 195 0
169 193 0
166 190 0
170 193 0
170 193 0
168 191 0
171 194 0
165 188 0
170 193 0
171 194 0
173 196 0
165 188 0
170 192 0
172 194 0
172 195 0
166 189 0
171 193 0
165 188 0
168 191 0
167 191 0
170 193 0
162 186 0
166 190 0
168 191 0
170 193 0
168 191 0
168 190 0
172 195 0
172 195 0
171 194 0
166 189 0
168 190 0
168 191 0
166 189 0
166 189 0
168 191 0
166 188 0
168 190 0
164 188 0
165 188 0
168 190 0
164 187 0
162 185 0
168 190 0
167 190 0
166 188 0
167 189 0
166 188 0
167 189 0
161 184 0
170 193 0
165 187 0
164 188 0
165 187 0
164 185 0
164 187 0
172 195 0
167 189 0
164 188 0
164 186 0
164 187 0
163 186 0
162 185 0
170 191 0
161 184 0
163 186 0
163 186 0
162 185 0
166 189 0
166 189 0
165 187 0
168 190 0
166 188 0
163 187 0
162 184 0
161 184 0
163 186 0
168 191 0
165 187 0
162 185 0
165 188 0
163 185 0
167 190 0
164 186 0
165 186 0
164 187 0
163 184 0
163 185 0
167 189 0
162 185 0
165 188 0
159 182 0
160 182 0
164 187 0
159 182 0
164 187 0
163 185 0
160 183 0
152 176 0
158 180 0
161 183 0
166 188 0
159 181 0
158 180 0
149 172 0
156 177 0
158 180 0
166 188 0
162 184 0
158 180 0
158 180 0
161 184 0
153 175 0
160 181 0
160 181 0
161 183 0
159 182 0
152 175 0
163 185 0
156 178 0
158 180 0
162 184 0
161 182 0
157 179 0
154 175 0
158 182 0
160 182 0
156 178 0
160 182 0
160 183 0
159 181 0
158 181 0
154 176 0
157 179 0
155 176 0
158 180 0
159 181 0
161 182 0
158 180 0
158 180 0
161 182 0
160 183 0
158 180 0
155 176 0
150 172 0
155 176 0
150 173 0
159 181 0
151 173 0
155 177 0
153 175 0
153 174 0
157 179 0
154 176 0
148 169 0
155 175 0
153 176 0
158 179 0
151 172 0
157 180 0
159 181 0
152 174 0
162 183 0
155 177 0
153 175 0
148 169 0
149 171 0
158 180 0
153 176 0
158 181 0
155 176 0
154 175 0
153 175 0
151 171 0
151 173 0
151 173 0
156 178 0
152 173 0
156 177 0
156 178 0
151 172 0
154 175 0
160 181 0
156 176 0
142 163 0
149 171 0
156 177 0
149 171 0
157 178 0
152 174 0
144 165 0
155 178 0
145 168 0
155 177 0
143 165 0
158 178 0
152 172 0
157 178 0
151 171 0
152 173 0
151 172 0
155 177 0
148 169 0
156 177 0
154 176 0
155 178 0
161 182 0
158 179 0
150 171 0
150 170 0
157 178 0
155 175 0
149 170 0
151 170 0
151 174 0
146 167 0
155 176 0
153 175 0
152 171 0
149 169 0
149 171 0
160 180 0
152 173 0
157 179 0
152 174 0
156 179 0
151 172 0
153 176 0
155 177 0
145 163 0
152 172 0
154 175 0
153 173 0
150 169 0
156 177 0
157 178 0
142 163 0
149 170 0
148 169 0
156 178 0
150 171 0
156 176 0
155 175 0
149 169 0
153 172 0
153 173 0
151 172 0
154 174 0
153 175 0
157 176 0
153 171 0
152 173 0
154 174 0
158 178 0
156 175 0
151 171 0
160 180 0
149 168 0
152 174 0
161 183 0
156 176 0
155 173 0
149 169 0
154 175 0
156 174 0
150 168 0
151 169 0
151 171 0
156 176 0
153 174 0
147 166 0
156 176 0
152 171 0
148 166 0
156 174 0
154 175 0
153 173 0
150 170 0
153 171 0
159 178 0
157 177 0
152 172 0
154 173 0
148 169 0
156 175 0
152 170 0
160 179 0
156 177 0
159 177 0
151 169 0
151 171 0
151 168 0
157 173 0
155 174 0
155 174 0
157 176 0
151 169 0
155 175 0
153 173 0
146 162 0
152 172 0
161 179 0
155 171 0
149 166 0
151 168 0
156 175 0
157 175 0
158 177 0
156 173 0
156 174 0
158 174 0
155 174 0
153 169 0
154 172 0
156 174 0
153 169 0
155 175 0
158 177 0
151 167 0
155 172 0
156 172 0
152 169 0
153 169 0
152 166 0
154 171 0
156 172 0
157 173 0
156 171 0
153 168 0
149 165 0
155 172 0
154 169 0
156 173 0
150 165 0
153 170 0
157 175 0
157 175 0
157 171 0
157 173 0
159 174 0
153 168 0
159 175 0
150 163 0
156 171 0
153 168 0
152 168 0
151 165 0
156 172 0
157 171 0
160 176 0
160 175 0
153 168 0
159 175 0
159 174 0
154 167 0
157 172 0
153 169 0
158 173 0
156 170 0
158 172 0
157 172 0
158 171 0
163 179 0
161 173 0
157 171 0
153 168 0
157 169 0
154 166 0
159 174 0
153 167 0
156 167 0
156 166 0
160 176 0
154 167 0
155 169 0
165 180 0
159 172 0
158 171 0
158 171 0
163 179 0
165 179 0
161 173 0
152 165 0
164 180 0
160 173 0
173 196 0
174 197 0
172 195 0
170 193 0
169 193 0
170 193 0
169 192 0
169 192 0
169 192 0
171 194 0
172 196 0
171 193 0
168 191 0
174 197 0
172 194 0
170 193 0
169 192 0
170 192 0
170 192 0
165 188 0
172 194 0
168 191 0
167 189 0
169 192 0
166 189 0
171 194 0
167 190 0
169 192 0
170 193 0
167 190 0
164 187 0
171 194 0
170 193 0
166 189 0
174 196 0
169 192 0
168 190 0
168 191 0
171 194 0
170 193 0
170 194 0
166 189 0
167 190 0
166 189 0
165 188 0
166 189 0
169 192 0
164 188 0
164 186 0
167 190 0
170 194 0
165 188 0
169 192 0
171 194 0
168 191 0
164 186 0
171 194 0
164 186 0
162 184 0
164 186 0
165 189 0
164 186 0
168 191 0
161 184 0
170 192 0
163 185 0
165 188 0
162 184 0
168 191 0
164 186 0
163 185 0
165 188 0
165 188 0
168 191 0
166 189 0
165 188 0
167 188 0
165 187 0
166 189 0
164 186 0
163 186 0
163 187 0
163 185 0
166 188 0
162 184 0
164 186 0
160 183 0
165 188 0
166 188 0
161 183 0
163 187 0
164 188 0
168 189 0
166 189 0
159 181 0
163 186 0
163 185 0
163 186 0
165 187 0
165 187 0
158 181 0
161 183 0
162 183 0
166 188 0
163 186 0
165 187 0
163 185 0
159 182 0
161 184 0
154 176 0
167 189 0
164 187 0
160 182 0
164 188 0
172 194 0
159 181 0
165 188 0
162 185 0
164 187 0
159 181 0
156 178 0
160 182 0
162 183 0
155 178 0
159 181 0
159 182 0
162 185 0
157 179 0
159 181 0
161 184 0
159 181 0
157 178 0
159 182 0
157 179 0
159 181 0
158 180 0
155 176 0
160 181 0
162 185 0
161 182 0
157 180 0
154 177 0
163 185 0
158 180 0
161 184 0
159 180 0
159 181 0
161 184 0
160 181 0
161 183 0
160 182 0
155 178 0
158 180 0
160 182 0
153 176 0
164 186 0
161 183 0
159 181 0
154 175 0
161 182 0
157 180 0
155 177 0
158 180 0
155 177 0
154 175 0
158 180 0
150 171 0
153 175 0
157 179 0
156 177 0
153 175 0
157 180 0
159 181 0
154 176 0
146 168 0
158 181 0
156 177 0
153 175 0
156 178 0
157 180 0
152 175 0
143 164 0
161 184 0
158 180 0
156 178 0
158 179 0
157 177 0
161 182 0
159 182 0
153 175 0
151 173 0
153 174 0
155 177 0
159 181 0
153 174 0
153 174 0
158 181 0
153 175 0
159 180 0
159 181 0
153 173 0
155 177 0
154 176 0
153 175 0
157 178 0
162 183 0
157 179 0
155 177 0
153 173 0
152 172 0
152 172 0
151 172 0
151 173 0
158 179 0
157 178 0
149 172 0
157 179 0
158 180 0
156 179 0
154 175 0
152 172 0
151 173 0
159 180 0
154 174 0
153 175 0
152 173 0
152 173 0
155 176 0
160 181 0
154 175 0
151 173 0
159 181 0
151 171 0
151 172 0
149 170 0
151 172 0
155 175 0
148 167 0
157 177 0
150 172 0
151 172 0
156 177 0
154 176 0
154 173 0
157 177 0
156 177 0
149 170 0
152 173 0
148 170 0
153 175 0
154 175 0
155 175 0
155 173 0
148 169 0
150 169 0
150 169 0
158 178 0
157 178 0
148 168 0
155 176 0
149 169 0
153 172 0
148 165 0
155 175 0
148 168 0
154 174 0
153 173 0
152 173 0
154 173 0
154 173 0
156 178 0
148 167 0
156 177 0
151 172 0
155 175 0
154 174 0
156 178 0
148 168 0
156 175 0
156 173 0
154 174 0
160 180 0
153 174 0
159 178 0
157 175 0
151 171 0
158 177 0
148 168 0
158 177 0
154 172 0
154 174 0
148 167 0
159 178 0
160 179 0
151 170 0
149 169 0
157 177 0
152 171 0
157 175 0
153 171 0
142 159 0
152 168 0
164 183 0
149 168 0
157 176 0
155 173 0
159 176 0
154 172 0
155 171 0
160 179 0
151 171 0
155 172 0
157 174 0
150 169 0
153 170 0
156 176 0
153 170 0
160 179 0
150 170 0
154 172 0
156 175 0
156 172 0
152 168 0
155 172 0
150 169 0
163 182 0
151 168 0
155 171 0
153 170 0
157 174 0
160 176 0
154 170 0
152 169 0
150 166 0
155 175 0
157 174 0
157 175 0
155 172 0
152 171 0
148 166 0
153 171 0
159 176 0
152 168 0
156 173 0
155 171 0
162 180 0
155 169 0
157 175 0
152 167 0
156 174 0
160 177 0
157 170 0
157 174 0
156 173 0
155 171 0
159 174 0
161 176 0
160 176 0
158 174 0
155 169 0
154 170 0
155 169 0
152 169 0
155 171 0
160 175 0
156 172 0
156 172 0
158 173 0
155 172 0
160 174 0
152 165 0
160 172 0
158 173 0
159 173 0
151 163 0
153 166 0
153 168 0
160 176 0
155 167 0
156 171 0
155 168 0
159 175 0
157 172 0
158 174 0
159 172 0
162 174 0
159 173 0
160 172 0
157 170 0
160 173 0
160 172 0
158 170 0
156 167 0
157 172 0
158 173 0
159 176 0
159 172 0
154 166 0
158 169 0
158 170 0
172 195 0
169 192 0
173 196 0
169 192 0
167 190 0
172 194 0
172 195 0
168 190 0
170 194 0
168 192 0
171 193 0
168 191 0
169 191 0
166 189 0
170 193 0
172 195 0
174 197 0
174 196 0
166 187 0
172 195 0
170 193 0
170 192 0
169 191 0
173 196 0
167 190 0
173 195 0
169 192 0
166 188 0
168 191 0
166 188 0
173 195 0
165 188 0
169 192 0
171 193 0
169 192 0
171 194 0
171 193 0
167 190 0
168 192 0
167 189 0
169 192 0
163 186 0
172 195 0
172 194 0
166 188 0
171 194 0
168 192 0
167 190 0
167 190 0
174 196 0
164 187 0
169 191 0
164 186 0
167 190 0
168 190 0
165 187 0
170 192 0
164 185 0
167 190 0
169 192 0
168 190 0
164 187 0
168 190 0
167 190 0
170 192 0
169 192 0
170 193 0
165 187 0
167 190 0
168 191 0
165 188 0
170 193 0
161 184 0
163 185 0
164 186 0
167 189 0
166 187 0
171 194 0
167 189 0
160 184 0
164 187 0
167 190 0
159 182 0
166 189 0
170 193 0
166 188 0
165 186 0
163 186 0
158 181 0
161 183 0
163 185 0
159 182 0
160 182 0
167 189 0
159 181 0
163 185 0
165 187 0
159 180 0
161 183 0
165 188 0
160 183 0
166 188 0
167 190 0
158 180 0
161 185 0
161 184 0
159 183 0
159 182 0
162 184 0
162 184 0
168 190 0
159 180 0
161 184 0
163 185 0
160 182 0
167 189 0
160 182 0
163 184 0
157 179 0
160 181 0
155 177 0
160 182 0
160 182 0
160 182 0
161 182 0
162 184 0
159 180 0
157 179 0
153 175 0
158 181 0
159 182 0
161 183 0
164 186 0
161 183 0
160 182 0
160 182 0
153 175 0
161 183 0
166 188 0
157 179 0
161 183 0
158 182 0
165 187 0
158 179 0
158 180 0
162 184 0
163 184 0
158 181 0
157 180 0
156 178 0
147 169 0
163 185 0
156 177 0
157 179 0
157 178 0
164 186 0
155 177 0
155 176 0
148 170 0
159 180 0
152 172 0
156 179 0
155 177 0
148 171 0
157 178 0
159 180 0
153 175 0
151 173 0
151 173 0
158 181 0
159 180 0
159 179 0
155 177 0
159 181 0
154 175 0
161 182 0
158 180 0
154 176 0
163 184 0
146 169 0
153 175 0
155 176 0
163 185 0
156 178 0
160 183 0
156 180 0
156 176 0
154 175 0
157 179 0
154 176 0
155 175 0
154 177 0
156 177 0
152 173 0
145 168 0
155 176 0
148 167 0
151 174 0
148 170 0
154 174 0
153 174 0
155 176 0
153 176 0
151 171 0
157 179 0
156 178 0
157 178 0
152 173 0
156 177 0
150 170 0
152 174 0
155 177 0
149 170 0
154 176 0
153 174 0
155 175 0
151 172 0
161 182 0
147 168 0
154 175 0
153 176 0
153 175 0
155 177 0
144 163 0
157 177 0
153 175 0
143 164 0
154 175 0
154 175 0
153 174 0
158 180 0
150 171 0
145 165 0
149 169 0
147 168 0
159 179 0
158 179 0
147 168 0
148 169 0
152 173 0
152 174 0
148 168 0
156 176 0
150 170 0
150 170 0
156 177 0
152 172 0
154 176 0
155 176 0
152 171 0
155 176 0
147 168 0
159 181 0
149 170 0
158 178 0
152 172 0
151 170 0
151 172 0
155 175 0
154 175 0
149 167 0
156 177 0
148 169 0
158 177 0
161 181 0
155 177 0
155 176 0
155 174 0
156 175 0
159 178 0
148 169 0
153 174 0
154 175 0
161 183 0
161 181 0
154 174 0
154 175 0
153 171 0
158 179 0
157 179 0
155 175 0
153 173 0
162 182 0
145 162 0
152 171 0
152 173 0
157 176 0
157 176 0
158 179 0
154 173 0
156 176 0
148 166 0
146 166 0
158 176 0
154 173 0
153 169 0
155 174 0
152 172 0
155 173 0
152 172 0
154 171 0
153 171 0
153 171 0
152 171 0
154 172 0
147 165 0
154 172 0
157 174 0
158 177 0
156 175 0
157 177 0
161 181 0
157 173 0
153 172 0
153 170 0
152 169 0
149 167 0
154 172 0
152 170 0
158 175 0
156 175 0
151 169 0
155 171 0
154 172 0
156 173 0
150 167 0
156 175 0
155 172 0
155 173 0
157 175 0
155 170 0
154 171 0
158 175 0
157 173 0
155 171 0
154 172 0
155 169 0
156 172 0
161 179 0
159 177 0
164 181 0
157 174 0
153 168 0
160 178 0
161 177 0
154 170 0
162 179 0
151 169 0
160 177 0
160 178 0
156 173 0
155 170 0
152 169 0
153 167 0
155 173 0
153 168 0
153 168 0
163 180 0
156 171 0
152 167 0
163 180 0
159 173 0
161 176 0
156 172 0
156 170 0
154 172 0
160 178 0
159 172 0
160 176 0
157 175 0
157 172 0
159 173 0
150 164 0
158 172 0
151 163 0
157 172 0
161 175 0
159 176 0
157 174 0
159 173 0
153 168 0
160 174 0
163 176 0
157 171 0
152 165 0
159 172 0
157 172 0
158 171 0
160 175 0
157 170 0
160 175 0
159 173 0
160 175 0
157 171 0
162 177 0
164 181 0
160 174 0
152 164 0
158 171 0
158 171 0
170 193 0
171 194 0
172 195 0
171 194 0
173 196 0
171 193 0
172 194 0
171 193 0
171 194 0
172 195 0
172 195 0
167 190 0
169 193 0
171 194 0
168 192 0
170 193 0
169 192 0
171 194 0
169 191 0
170 193 0
170 193 0
170 192 0
169 192 0
164 188 0
163 186 0
170 193 0
170 193 0
167 190 0
166 189 0
166 189 0
167 189 0
170 191 0
170 194 0
168 191 0
167 190 0
172 194 0
168 192 0
167 189 0
167 190 0
167 190 0
171 193 0
170 191 0
167 189 0
169 191 0
165 188 0
168 192 0
168 191 0
170 193 0
166 188 0
162 185 0
165 188 0
165 188 0
163 187 0
164 187 0
165 188 0
167 190 0
167 190 0
166 187 0
164 186 0
163 186 0
170 191 0
168 190 0
165 188 0
167 190 0
167 189 0
169 191 0
170 192 0
162 184 0
165 187 0
166 188 0
165 188 0
168 190 0
165 188 0
162 185 0
163 185 0
166 188 0
168 191 0
165 187 0
162 184 0
160 182 0
159 183 0
168 190 0
173 194 0
162 185 0
163 185 0
160 183 0
163 185 0
160 183 0
156 179 0
161 184 0
169 192 0
163 185 0
166 189 0
165 187 0
163 185 0
160 181 0
164 187 0
158 181 0
162 184 0
164 187 0
165 188 0
160 182 0
158 181 0
162 184 0
162 185 0
160 183 0
163 185 0
167 189 0
165 187 0
159 181 0
160 183 0
160 183 0
159 181 0
164 187 0
162 185 0
166 188 0
163 186 0
157 180 0
161 183 0
165 188 0
162 183 0
161 183 0
157 179 0
161 184 0
163 186 0
157 179 0
167 190 0
158 181 0
161 183 0
165 188 0
158 181 0
157 179 0
165 187 0
158 181 0
160 182 0
163 187 0
161 183 0
158 181 0
159 183 0
154 176 0
160 183 0
160 182 0
158 180 0
160 181 0
160 182 0
154 177 0
158 180 0
162 184 0
161 183 0
150 173 0
154 177 0
153 176 0
166 187 0
157 179 0
152 174 0
153 175 0
160 184 0
158 179 0
152 174 0
160 181 0
150 172 0
159 180 0
149 172 0
154 176 0
159 181 0
160 181 0
160 183 0
162 182 0
158 180 0
156 178 0
156 177 0
160 182 0
159 182 0
159 181 0
155 177 0
153 173 0
155 176 0
152 173 0
151 173 0
152 175 0
152 174 0
155 176 0
161 182 0
158 180 0
150 171 0
157 178 0
145 167 0
158 181 0
153 176 0
159 180 0
161 184 0
151 172 0
156 178 0
152 174 0
155 176 0
153 175 0
153 174 0
154 176 0
158 181 0
157 178 0
163 184 0
154 176 0
155 178 0
155 176 0
158 179 0
158 180 0
151 172 0
159 180 0
156 177 0
155 175 0
150 172 0
150 172 0
151 173 0
156 176 0
156 179 0
150 172 0
147 167 0
151 172 0
149 171 0
156 178 0
151 173 0
153 174 0
159 181 0
159 182 0
158 180 0
149 169 0
153 173 0
146 165 0
155 176 0
151 172 0
158 179 0
154 175 0
151 172 0
150 171 0
151 171 0
153 174 0
152 172 0
153 174 0
152 172 0
151 173 0
156 177 0
150 172 0
152 174 0
152 172 0
152 172 0
154 175 0
148 167 0
149 171 0
150 171 0
155 175 0
157 178 0
156 177 0
156 177 0
158 179 0
158 178 0
153 172 0
155 175 0
157 178 0
158 180 0
143 161 0
158 179 0
153 173 0
156 177 0
156 176 0
156 177 0
158 178 0
154 175 0
153 173 0
157 177 0
152 173 0
154 174 0
150 170 0
156 175 0
158 177 0
152 172 0
155 175 0
148 169 0
153 173 0
154 172 0
155 173 0
156 175 0
147 166 0
155 176 0
160 179 0
150 168 0
155 175 0
152 170 0
153 173 0
151 172 0
157 177 0
157 177 0
156 176 0
157 177 0
152 171 0
153 172 0
155 173 0
145 164 0
158 178 0
155 174 0
156 174 0
157 176 0
156 176 0
160 180 0
159 179 0
152 170 0
161 179 0
152 172 0
154 171 0
150 168 0
148 165 0
156 174 0
156 175 0
156 174 0
158 174 0
159 178 0
154 171 0
146 166 0
149 168 0
155 173 0
157 177 0
154 172 0
157 177 0
156 171 0
160 178 0
152 170 0
159 175 0
153 170 0
159 177 0
157 171 0
157 174 0
153 171 0
151 169 0
158 176 0
156 174 0
158 177 0
149 169 0
160 177 0
157 173 0
148 166 0
161 178 0
155 170 0
158 176 0
160 178 0
159 176 0
155 173 0
152 168 0
155 171 0
156 173 0
154 171 0
154 170 0
153 168 0
156 173 0
151 168 0
154 172 0
154 171 0
157 172 0
160 177 0
156 173 0
152 169 0
163 178 0
162 180 0
161 178 0
151 165 0
155 170 0
158 174 0
155 169 0
154 169 0
150 164 0
156 170 0
155 169 0
159 172 0
156 172 0
162 179 0
154 170 0
157 172 0
165 181 0
161 177 0
161 177 0
161 177 0
158 172 0
160 175 0
158 173 0
158 175 0
165 180 0
161 175 0
155 168 0
162 176 0
156 172 0
158 171 0
158 171 0
160 173 0
152 164 0
157 169 0
157 171 0
161 174 0
157 168 0
158 173 0
161 176 0
158 173 0
162 175 0
172 195 0
171 194 0
171 194 0
172 195 0
172 194 0
166 189 0
167 190 0
171 194 0
171 194 0
168 191 0
171 194 0
170 193 0
170 193 0
171 195 0
169 193 0
169 193 0
170 193 0
170 193 0
171 193 0
171 194 0
171 193 0
167 190 0
173 195 0
164 187 0
170 193 0
169 191 0
170 193 0
170 192 0
170 192 0
169 191 0
170 192 0
171 194 0
169 192 0
168 191 0
164 187 0
166 189 0
167 189 0
165 188 0
171 193 0
165 188 0
169 191 0
168 191 0
165 188 0
165 187 0
172 195 0
172 194 0
169 191 0
166 189 0
164 186 0
173 196 0
167 191 0
166 189 0
171 194 0
170 193 0
167 190 0
162 186 0
166 189 0
169 190 0
157 179 0
171 194 0
169 192 0
168 191 0
161 184 0
164 187 0
166 187 0
164 186 0
166 189 0
164 187 0
168 190 0
168 191 0
169 192 0
159 181 0
166 188 0
162 185 0
164 187 0
166 189 0
159 181 0
168 190 0
165 188 0
163 186 0
163 186 0
163 186 0
162 185 0
166 188 0
162 184 0
161 184 0
162 184 0
165 187 0
164 187 0
163 186 0
166 188 0
164 187 0
164 185 0
170 192 0
163 186 0
168 190 0
164 187 0
161 183 0
165 188 0
168 190 0
163 185 0
160 183 0
166 187 0
167 189 0
163 185 0
158 181 0
166 189 0
160 183 0
156 179 0
158 180 0
161 183 0
161 184 0
159 181 0
163 186 0
158 181 0
165 186 0
162 183 0
164 185 0
158 180 0
161 181 0
161 183 0
166 188 0
157 180 0
164 186 0
162 184 0
156 178 0
156 178 0
158 180 0
155 176 0
163 186 0
158 181 0
164 187 0
163 185 0
161 182 0
163 186 0
157 179 0
156 179 0
164 187 0
164 185 0
158 181 0
153 176 0
156 178 0
158 179 0
154 177 0
155 177 0
155 177 0
160 182 0
162 183 0
158 179 0
159 181 0
150 172 0
157 178 0
157 179 0
156 176 0
157 178 0
166 187 0
160 181 0
158 182 0
162 183 0
157 180 0
160 183 0
154 176 0
156 178 0
154 175 0
166 188 0
157 179 0
156 178 0
163 185 0
152 174 0
160 181 0
157 178 0
148 170 0
156 177 0
158 180 0
153 175 0
154 176 0
164 185 0
150 172 0
160 182 0
155 176 0
152 175 0
161 183 0
161 181 0
149 171 0
153 174 0
149 170 0
162 185 0
156 178 0
150 171 0
153 174 0
153 176 0
165 187 0
156 177 0
149 170 0
152 173 0
157 179 0
154 176 0
153 176 0
158 179 0
153 174 0
159 181 0
153 175 0
154 176 0
142 162 0
147 168 0
156 177 0
156 178 0
156 178 0
156 177 0
160 182 0
153 175 0
160 182 0
151 173 0
162 185 0
149 170 0
147 168 0
154 176 0
156 176 0
154 176 0
150 172 0
154 175 0
158 180 0
152 174 0
152 174 0
162 182 0
152 173 0
153 176 0
157 180 0
146 166 0
158 180 0
153 175 0
154 177 0
152 171 0
158 179 0
153 173 0
158 179 0
152 173 0
149 169 0
152 173 0
150 172 0
148 169 0
153 175 0
154 175 0
157 178 0
158 178 0
148 169 0
148 169 0
157 176 0
151 172 0
163 185 0
157 178 0
154 175 0
156 178 0
150 171 0
154 175 0
154 175 0
148 169 0
152 173 0
152 171 0
154 173 0
151 172 0
154 176 0
158 178 0
160 180 0
152 170 0
151 171 0
151 172 0
153 173 0
155 176 0
156 175 0
146 166 0
152 173 0
156 176 0
152 171 0
159 180 0
157 176 0
155 174 0
151 171 0
155 175 0
156 177 0
155 174 0
143 163 0
152 172 0
158 179 0
156 177 0
158 180 0
152 171 0
150 170 0
151 170 0
162 181 0
155 175 0
145 163 0
150 172 0
160 179 0
152 170 0
151 170 0
153 172 0
157 177 0
159 180 0
155 173 0
156 176 0
156 174 0
158 179 0
148 167 0
153 173 0
156 175 0
161 179 0
159 177 0
158 178 0
160 180 0
160 178 0
154 174 0
159 178 0
154 173 0
154 174 0
149 167 0
157 175 0
159 177 0
156 174 0
148 167 0
156 174 0
155 173 0
156 174 0
159 177 0
159 177 0
155 173 0
156 173 0
157 177 0
155 175 0
155 172 0
156 175 0
152 169 0
153 171 0
154 170 0
156 174 0
154 170 0
154 173 0
154 171 0
159 176 0
154 170 0
155 173 0
156 172 0
152 169 0
156 174 0
159 177 0
154 171 0
154 171 0
157 174 0
155 171 0
158 176 0
151 166 0
154 172 0
157 173 0
155 172 0
156 172 0
155 173 0
153 166 0
158 173 0
157 173 0
161 178 0
157 172 0
157 172 0
153 168 0
161 177 0
156 170 0
160 176 0
154 170 0
151 167 0
155 169 0
159 174 0
158 174 0
155 171 0
160 174 0
155 171 0
159 175 0
160 176 0
160 174 0
164 178 0
155 170 0
155 168 0
161 178 0
158 173 0
155 166 0
157 171 0
158 173 0
159 173 0
155 171 0
158 174 0
157 174 0
158 174 0
159 172 0
159 174 0
156 171 0
160 176 0
158 172 0
156 170 0
159 175 0
158 172 0
159 174 0
160 173 0
