P3
400 225
255
174 197 0
174 197 0
175 198 0
174 197 0
173 196 0
173 197 0
174 197 0
176 199 0
174 197 0
173 196 0
172 196 0
174 197 0
173 197 0
173 197 0
173 197 0
172 197 0
173 197 0
175 198 0
172 196 0
173 197 0
173 196 0
174 197 0
174 197 0
175 198 0
172 196 0
172 196 0
171 195 0
171 195 0
174 197 0
173 197 0
173 197 0
172 196 0
173 197 0
174 197 0
174 197 0
173 197 0
174 197 0
172 195 0
174 197 0
174 197 0
174 197 0
173 196 0
174 198 0
174 197 0
174 197 0
173 197 0
173 197 0
174 197 0
174 197 0
174 197 0
173 197 0
174 197 0
175 198 0
172 196 0
173 197 0
175 198 0
172 197 0
174 197 0
174 197 0
174 197 0
172 196 0
174 197 0
174 198 0
173 196 0
174 196 0
175 198 0
175 198 0
175 197 0
177 199 0
174 197 0
175 198 0
175 198 0
172 196 0
174 198 0
171 195 0
172 195 0
173 196 0
175 198 0
174 197 0
172 195 0
174 197 0
173 197 0
175 198 0
174 197 0
175 198 0
172 196 0
174 197 0
174 196 0
175 198 0
172 196 0
172 196 0
173 196 0
175 198 0
173 197 0
173 196 0
173 197 0
174 197 0
175 198 0
175 198 0
172 196 0
175 198 0
173 197 0
173 196 0
173 197 0
174 198 0
175 198 0
175 198 0
173 196 0
173 197 0
172 195 0
173 196 0
174 197 0
174 197 0
174 198 0
173 196 0
174 198 0
174 197 0
174 197 0
173 196 0
175 198 0
174 197 0
173 197 0
174 197 0
172 196 0
174 197 0
171 195 0
173 197 0
174 197 0
172 197 0
172 196 0
175 198 0
175 198 0
174 197 0
171 196 0
174 197 0
171 194 0
174 197 0
171 195 0
176 198 0
174 197 0
174 197 0
173 197 0
173 196 0
171 195 0
172 195 0
174 197 0
174 197 0
174 197 0
173 195 0
175 198 0
172 196 0
174 196 0
174 197 0
172 195 0
172 195 0
172 196 0
174 197 0
174 197 0
173 197 0
171 195 0
173 196 0
172 195 0
174 197 0
173 197 0
172 196 0
174 196 0
174 196 0
174 198 0
170 193 0
174 197 0
174 197 0
173 196 0
175 198 0
172 195 0
172 196 0
174 197 0
173 196 0
173 197 0
173 197 0
171 194 0
174 197 0
173 196 0
174 197 0
171 195 0
174 197 0
173 196 0
175 198 0
175 198 0
173 197 0
175 197 0
174 197 0
172 195 0
171 195 0
174 197 0
172 196 0
172 196 0
172 196 0
173 196 0
173 196 0
173 196 0
174 197 0
175 198 0
175 198 0
172 196 0
172 195 0
172 196 0
173 196 0
173 196 0
173 196 0
173 197 0
173 196 0
174 196 0
172 195 0
174 197 0
174 197 0
175 198 0
174 197 0
174 198 0
174 197 0
174 197 0
174 197 0
171 195 0
172 195 0
171 195 0
172 195 0
173 197 0
175 198 0
173 196 0
172 195 0
172 196 0
174 197 0
172 195 0
171 195 0
173 197 0
174 197 0
172 195 0
171 195 0
170 194 0
174 197 0
173 196 0
173 196 0
173 196 0
173 197 0
172 195 0
175 198 0
172 195 0
173 197 0
175 198 0
162 175 41
138 131 64
151 143 73
143 136 68
157 148 82
163 155 84
165 156 88
169 161 91
176 167 96
175 165 99
176 168 101
179 170 103
181 171 103
185 175 108
185 175 110
187 177 112
187 177 112
184 176 114
184 176 114
183 175 114
182 175 114
182 175 114
183 175 114
181 174 114
180 174 114
179 173 114
178 173 114
177 173 114
177 173 114
176 172 114
177 173 114
177 172 114
174 171 114
173 171 114
173 171 114
174 171 114
173 170 114
173 171 114
172 170 114
171 170 114
172 170 114
170 169 114
170 169 114
170 169 114
170 169 114
169 169 114
169 169 114
168 168 114
168 168 114
168 168 114
167 168 114
167 168 114
167 168 114
167 168 114
167 168 114
167 168 114
166 167 114
166 167 114
166 167 114
166 167 114
165 167 114
165 167 114
165 167 114
165 167 114
165 167 114
165 167 114
165 167 114
165 167 114
165 167 114
165 167 114
165 167 114
165 167 114
165 167 114
165 167 114
165 167 114
166 167 114
166 168 114
166 167 114
166 167 114
167 168 114
166 168 114
166 167 114
167 168 114
166 168 114
167 168 114
167 168 114
168 168 114
169 169 114
169 169 114
169 169 114
169 169 114
169 169 114
170 169 114
170 169 114
171 170 114
171 170 114
172 170 114
172 170 114
172 170 114
172 170 114
172 170 114
173 170 114
175 172 114
174 171 114
176 172 114
176 172 114
177 172 114
178 173 114
179 174 114
179 173 114
179 173 114
182 175 114
181 174 114
181 174 114
184 176 114
183 175 114
186 177 114
185 176 113
185 176 113
183 174 110
184 173 108
179 170 108
174 165 99
175 165 99
166 157 94
165 156 96
167 157 93
166 157 93
154 145 82
152 143 77
155 146 80
125 127 47
174 196 0
174 197 0
172 196 0
174 197 0
173 196 0
172 195 0
175 197 0
174 197 0
175 197 0
172 196 0
175 197 0
174 197 0
173 197 0
172 196 0
173 196 0
174 197 0
173 197 0
174 197 0
173 197 0
174 197 0
172 196 0
174 198 0
174 198 0
175 198 0
173 196 0
174 197 0
172 196 0
174 197 0
172 196 0
172 196 0
175 198 0
173 197 0
173 197 0
172 196 0
173 197 0
174 197 0
173 195 0
175 197 0
173 197 0
175 197 0
176 198 0
174 198 0
174 197 0
173 197 0
176 198 0
174 197 0
177 199 0
172 195 0
175 198 0
174 197 0
174 197 0
174 197 0
172 196 0
174 197 0
174 198 0
176 199 0
173 197 0
175 197 0
172 196 0
173 197 0
175 198 0
173 196 0
173 197 0
174 197 0
171 195 0
173 197 0
173 196 0
174 196 0
175 197 0
175 198 0
174 197 0
174 197 0
172 196 0
173 196 0
173 197 0
174 198 0
174 197 0
175 198 0
174 198 0
172 196 0
174 198 0
174 198 0
171 195 0
174 198 0
173 197 0
172 196 0
174 197 0
175 198 0
173 197 0
174 197 0
173 196 0
173 196 0
172 196 0
175 198 0
175 198 0
174 198 0
175 198 0
174 197 0
173 196 0
172 195 0
172 195 0
174 198 0
173 197 0
172 195 0
175 198 0
174 197 0
172 195 0
174 197 0
173 196 0
174 197 0
173 196 0
175 198 0
174 197 0
173 197 0
174 197 0
175 198 0
174 197 0
173 197 0
173 197 0
172 195 0
174 196 0
173 196 0
171 194 0
173 197 0
173 196 0
173 196 0
174 197 0
172 196 0
173 196 0
171 195 0
175 198 0
174 197 0
173 196 0
174 197 0
172 196 0
174 197 0
170 194 0
172 196 0
173 196 0
175 198 0
173 196 0
172 196 0
171 195 0
172 196 0
173 196 0
172 196 0
174 196 0
174 197 0
174 197 0
172 195 0
173 196 0
173 196 0
174 197 0
173 197 0
174 197 0
171 195 0
174 198 0
175 198 0
173 195 0
174 196 0
172 196 0
172 196 0
174 196 0
174 196 0
171 195 0
174 197 0
174 198 0
173 196 0
174 197 0
172 195 0
174 197 0
173 197 0
175 197 0
174 197 0
173 197 0
173 196 0
173 197 0
173 195 0
173 196 0
174 197 0
175 198 0
172 196 0
172 196 0
173 197 0
175 198 0
173 197 0
172 195 0
175 198 0
174 197 0
173 196 0
174 197 0
173 197 0
174 197 0
172 196 0
173 195 0
174 196 0
172 195 0
174 197 0
173 196 0
176 198 0
174 197 0
174 197 0
172 196 0
171 194 0
172 196 0
175 198 0
176 198 0
173 197 0
175 198 0
174 197 0
173 196 0
170 194 0
174 197 0
173 196 0
172 196 0
172 195 0
171 193 0
176 198 0
174 198 0
173 196 0
174 197 0
173 197 0
173 196 0
173 196 0
171 194 0
173 196 0
175 198 0
175 198 0
174 197 0
173 196 0
172 195 0
172 195 0
175 198 0
175 196 0
173 196 0
172 195 0
173 196 0
173 196 0
173 196 0
173 197 0
172 194 0
173 196 0
172 196 0
174 197 0
172 195 0
173 196 0
173 196 0
176 198 0
171 194 0
175 198 0
173 197 0
175 197 0
173 195 0
174 196 0
173 196 0
173 197 0
173 197 0
173 196 0
173 196 0
174 197 0
172 196 0
173 197 0
172 195 0
173 196 0
173 196 0
172 196 0
173 196 0
165 184 22
131 124 59
162 153 84
152 143 78
162 153 85
161 152 85
170 160 90
165 156 85
178 169 99
182 172 104
177 168 98
178 170 100
178 170 98
183 174 107
185 176 110
187 177 113
187 177 111
186 177 114
185 176 114
183 175 114
184 176 114
183 175 114
183 175 114
182 175 114
182 175 114
180 174 114
180 174 114
179 173 114
178 173 114
178 173 114
175 172 114
178 173 114
174 171 114
175 171 114
174 171 114
173 171 114
172 170 114
174 171 114
173 170 114
171 169 114
171 170 114
171 170 114
171 170 114
170 169 114
169 169 114
169 169 114
169 169 114
168 168 114
168 168 114
169 169 114
168 168 114
168 168 114
167 168 114
167 168 114
166 168 114
166 168 114
166 168 114
166 167 114
166 168 114
166 167 114
165 167 114
165 167 114
165 167 114
165 167 114
165 167 114
165 167 114
165 167 114
165 167 114
165 167 114
165 167 114
165 167 114
165 167 114
165 167 114
165 167 114
165 167 114
165 167 114
165 167 114
165 167 114
166 167 114
166 168 114
166 167 114
166 167 114
166 168 114
167 168 114
166 168 114
167 168 114
167 168 114
167 168 114
167 168 114
169 169 114
168 169 114
170 169 114
170 169 114
170 169 114
171 170 114
171 170 114
171 170 114
171 170 114
171 170 114
173 171 114
173 171 114
173 171 114
175 171 114
174 171 114
174 171 114
176 172 114
177 173 114
176 172 114
178 173 114
177 172 114
179 173 114
180 174 114
179 174 114
181 174 114
182 175 114
182 175 114
183 175 114
184 176 114
185 176 114
186 177 114
183 173 111
184 174 110
178 168 106
175 166 101
171 162 98
172 162 99
168 159 94
166 157 95
162 153 93
164 155 87
152 144 80
150 142 75
145 138 67
149 158 41
174 197 0
173 196 0
174 198 0
173 197 0
174 197 0
174 197 0
173 197 0
175 198 0
174 197 0
174 197 0
173 197 0
173 196 0
174 197 0
173 196 0
173 196 0
174 197 0
174 198 0
173 196 0
174 198 0
173 197 0
173 197 0
174 197 0
173 197 0
173 197 0
173 197 0
175 198 0
173 196 0
174 198 0
175 198 0
175 198 0
175 198 0
175 198 0
175 198 0
175 198 0
174 197 0
174 197 0
173 197 0
176 199 0
174 197 0
174 197 0
174 197 0
174 197 0
175 198 0
174 198 0
173 196 0
177 199 0
173 197 0
175 198 0
174 198 0
173 197 0
173 197 0
171 196 0
173 197 0
172 196 0
172 196 0
172 196 0
174 197 0
173 197 0
173 196 0
173 196 0
174 197 0
174 197 0
173 196 0
173 196 0
174 197 0
172 196 0
172 196 0
174 197 0
174 196 0
176 199 0
175 198 0
174 197 0
175 198 0
172 196 0
175 198 0
172 196 0
174 197 0
173 197 0
174 197 0
173 196 0
173 197 0
172 196 0
174 198 0
174 196 0
172 196 0
175 198 0
174 197 0
174 197 0
174 197 0
174 197 0
173 196 0
175 198 0
173 197 0
174 197 0
174 197 0
174 197 0
173 197 0
175 198 0
176 199 0
174 198 0
171 195 0
173 197 0
173 196 0
173 196 0
174 197 0
173 196 0
173 197 0
173 197 0
171 196 0
173 196 0
173 197 0
174 198 0
174 197 0
174 197 0
173 197 0
171 195 0
173 197 0
174 197 0
174 197 0
173 197 0
173 196 0
174 197 0
173 196 0
171 195 0
173 197 0
174 197 0
175 198 0
172 195 0
175 198 0
172 195 0
174 197 0
174 195 0
174 197 0
174 198 0
176 199 0
174 197 0
175 198 0
174 197 0
173 197 0
173 196 0
174 197 0
174 196 0
174 197 0
174 196 0
174 197 0
173 196 0
172 196 0
175 198 0
175 198 0
172 196 0
172 195 0
176 198 0
174 197 0
172 195 0
172 196 0
175 198 0
174 197 0
174 197 0
173 197 0
171 195 0
173 196 0
173 197 0
175 198 0
173 196 0
174 197 0
173 196 0
174 197 0
173 195 0
173 197 0
175 198 0
174 197 0
174 197 0
172 196 0
171 195 0
171 194 0
173 196 0
173 196 0
172 196 0
173 197 0
173 196 0
172 196 0
173 197 0
174 197 0
173 197 0
175 198 0
173 196 0
174 197 0
173 196 0
174 198 0
172 195 0
173 197 0
173 196 0
173 196 0
172 196 0
173 197 0
171 195 0
173 197 0
172 196 0
173 196 0
172 195 0
174 197 0
174 197 0
174 196 0
175 198 0
173 196 0
175 198 0
173 197 0
172 195 0
172 196 0
173 197 0
173 195 0
173 196 0
174 196 0
173 197 0
172 197 0
172 196 0
174 197 0
175 198 0
173 196 0
174 197 0
175 197 0
172 195 0
174 197 0
174 197 0
172 195 0
171 194 0
174 197 0
173 197 0
172 196 0
172 196 0
173 196 0
171 195 0
173 197 0
172 195 0
172 197 0
171 195 0
175 198 0
175 198 0
173 196 0
174 197 0
171 195 0
173 196 0
174 197 0
173 195 0
174 197 0
174 197 0
174 197 0
175 198 0
174 197 0
174 198 0
173 197 0
170 194 0
174 197 0
174 197 0
170 193 0
172 196 0
173 196 0
172 195 0
173 196 0
173 196 0
174 197 0
172 195 0
172 195 0
171 195 0
173 195 0
170 192 16
146 144 56
135 128 61
154 146 75
159 150 83
158 149 81
170 161 88
172 164 94
172 163 96
172 163 93
172 163 97
180 170 103
183 174 106
182 172 104
186 176 112
185 176 110
186 176 111
186 176 112
185 176 114
184 176 114
184 176 114
182 175 114
182 175 114
182 175 114
181 174 114
180 174 114
179 173 114
178 173 114
178 173 114
176 172 114
178 173 114
176 172 114
176 172 114
174 171 114
174 171 114
175 172 114
173 171 114
174 171 114
171 170 114
172 170 114
172 170 114
172 170 114
171 170 114
171 170 114
170 169 114
170 169 114
170 169 114
169 169 114
168 169 114
167 168 114
168 168 114
168 168 114
167 168 114
167 168 114
167 168 114
167 168 114
167 168 114
166 167 114
166 167 114
166 168 114
165 167 114
165 167 114
165 167 114
166 167 114
165 167 114
165 167 114
165 167 114
165 167 114
165 167 114
165 167 114
165 167 114
165 167 114
165 167 114
165 167 114
165 167 114
165 167 114
165 167 114
165 167 114
165 167 114
166 168 114
166 167 114
166 167 114
166 167 114
166 168 114
166 168 114
167 168 114
167 168 114
168 168 114
167 168 114
167 168 114
168 168 114
169 169 114
169 169 114
170 169 114
171 169 114
169 169 114
171 170 114
171 170 114
171 170 114
171 170 114
171 170 114
174 171 114
173 171 114
174 171 114
175 171 114
174 171 114
176 172 114
177 172 114
176 172 114
179 173 114
179 173 114
178 173 114
179 173 114
179 173 114
181 174 114
182 175 114
184 176 114
183 175 114
184 176 114
184 176 114
187 177 114
187 177 113
183 173 111
182 173 109
178 169 104
175 166 104
175 166 103
176 167 100
171 162 97
168 159 95
161 152 92
156 147 84
159 149 87
156 147 80
147 140 67
161 181 11
175 197 0
174 197 0
173 196 0
175 198 0
173 196 0
175 198 0
176 198 0
175 198 0
173 197 0
173 197 0
173 196 0
173 196 0
173 197 0
173 197 0
175 198 0
174 198 0
174 198 0
174 198 0
175 198 0
174 198 0
172 196 0
174 197 0
175 197 0
175 197 0
172 196 0
174 197 0
173 197 0
173 197 0
172 197 0
171 195 0
175 197 0
174 198 0
172 196 0
175 198 0
175 197 0
175 198 0
169 193 0
173 197 0
175 198 0
173 197 0
174 197 0
173 197 0
173 197 0
173 196 0
173 197 0
173 196 0
174 198 0
174 197 0
176 199 0
172 196 0
174 197 0
174 197 0
172 196 0
174 198 0
173 197 0
172 196 0
174 198 0
175 198 0
175 198 0
174 196 0
175 198 0
175 198 0
174 197 0
173 197 0
174 197 0
173 197 0
175 198 0
175 198 0
174 198 0
174 198 0
173 197 0
172 196 0
172 196 0
172 195 0
173 196 0
174 197 0
175 198 0
174 198 0
173 197 0
174 198 0
172 197 0
174 197 0
174 197 0
175 198 0
174 198 0
174 197 0
175 198 0
174 197 0
173 197 0
172 196 0
172 196 0
175 198 0
173 196 0
173 197 0
174 198 0
174 198 0
172 196 0
172 196 0
174 197 0
171 195 0
173 197 0
173 196 0
174 198 0
175 198 0
175 198 0
171 195 0
175 198 0
175 198 0
175 198 0
174 196 0
174 197 0
173 197 0
173 196 0
175 198 0
171 195 0
174 197 0
174 197 0
174 197 0
174 197 0
173 196 0
173 196 0
174 197 0
174 196 0
173 197 0
173 197 0
173 196 0
175 198 0
174 197 0
173 196 0
173 197 0
172 195 0
172 196 0
175 198 0
173 197 0
172 196 0
172 196 0
172 196 0
172 195 0
173 197 0
173 195 0
174 197 0
173 196 0
171 195 0
172 195 0
173 197 0
175 198 0
173 196 0
175 198 0
173 197 0
172 195 0
173 195 0
173 196 0
175 198 0
174 197 0
172 196 0
173 196 0
169 193 0
174 198 0
173 196 0
173 197 0
173 195 0
172 195 0
173 196 0
171 193 0
172 196 0
173 196 0
171 194 0
173 196 0
174 197 0
172 195 0
174 196 0
174 196 0
175 198 0
171 195 0
171 194 0
172 196 0
173 195 0
174 198 0
175 198 0
173 196 0
172 195 0
174 197 0
172 195 0
173 197 0
172 196 0
173 197 0
172 196 0
173 197 0
172 195 0
172 196 0
172 195 0
173 196 0
172 196 0
173 196 0
173 196 0
171 194 0
173 196 0
175 198 0
174 197 0
174 196 0
172 195 0
171 195 0
175 198 0
173 196 0
174 196 0
173 196 0
171 195 0
172 195 0
172 195 0
171 195 0
172 196 0
172 196 0
174 197 0
175 197 0
172 196 0
174 198 0
174 196 0
172 195 0
173 196 0
172 196 0
172 195 0
175 198 0
173 196 0
173 196 0
175 197 0
172 196 0
172 195 0
172 196 0
172 196 0
172 194 0
172 196 0
173 196 0
172 196 0
174 196 0
173 196 0
172 195 0
174 197 0
173 196 0
173 197 0
173 196 0
175 198 0
175 197 0
172 194 0
173 197 0
173 195 0
174 197 0
174 198 0
174 198 0
172 196 0
172 195 0
173 196 0
173 195 0
172 195 0
174 197 0
171 194 0
174 197 0
173 197 0
175 198 0
174 197 0
172 195 0
174 197 0
175 196 0
173 197 0
174 197 0
144 156 32
139 133 62
152 143 79
154 145 78
165 156 81
168 158 90
167 158 87
173 163 94
169 160 90
175 166 99
175 166 99
180 171 103
185 175 108
185 175 109
183 174 107
186 176 111
188 178 113
187 177 114
186 177 114
184 176 114
183 175 114
184 176 114
183 175 114
182 175 114
183 175 114
181 174 114
180 174 114
178 173 114
178 173 114
177 173 114
176 172 114
177 172 114
175 172 114
175 172 114
173 171 114
174 171 114
175 171 114
173 171 114
172 170 114
171 170 114
173 171 114
171 170 114
170 169 114
171 169 114
170 169 114
169 169 114
169 169 114
169 169 114
168 168 114
168 168 114
168 168 114
167 168 114
167 168 114
167 168 114
166 168 114
166 168 114
166 167 114
167 168 114
166 168 114
165 167 114
166 167 114
166 167 114
165 167 114
165 167 114
165 167 114
165 167 114
165 167 114
165 167 114
165 167 114
165 167 114
165 167 114
165 167 114
165 167 114
165 167 114
165 167 114
165 167 114
165 167 114
165 167 114
166 167 114
165 167 114
165 167 114
166 167 114
166 167 114
166 168 114
166 168 114
166 168 114
166 168 114
167 168 114
167 168 114
167 168 114
168 168 114
168 168 114
168 168 114
168 168 114
169 169 114
171 170 114
170 169 114
170 169 114
172 170 114
171 170 114
172 170 114
174 171 114
174 171 114
172 170 114
173 171 114
175 172 114
175 172 114
177 173 114
176 172 114
178 173 114
179 173 114
178 173 114
180 174 114
180 174 114
180 174 114
181 174 114
182 175 114
183 175 114
184 176 114
186 177 114
185 176 114
186 177 114
184 174 112
182 173 109
181 172 108
180 170 103
181 171 104
177 167 101
172 163 97
167 158 92
169 160 94
164 155 90
158 149 84
153 144 80
150 142 73
137 138 48
174 197 0
173 197 0
173 196 0
174 197 0
175 198 0
173 196 0
175 198 0
174 198 0
174 198 0
174 197 0
174 196 0
173 197 0
173 196 0
174 197 0
174 197 0
174 197 0
175 197 0
174 197 0
174 197 0
174 198 0
174 197 0
174 197 0
175 198 0
173 197 0
176 198 0
174 197 0
173 197 0
173 197 0
174 198 0
175 197 0
173 197 0
174 198 0
174 197 0
175 198 0
173 197 0
175 198 0
174 197 0
176 198 0
174 197 0
175 198 0
175 198 0
174 197 0
173 197 0
173 197 0
174 198 0
174 197 0
175 198 0
175 198 0
175 198 0
174 197 0
173 197 0
174 197 0
172 196 0
172 195 0
174 197 0
174 197 0
173 196 0
174 198 0
174 197 0
175 198 0
171 194 0
170 195 0
175 198 0
174 197 0
171 194 0
173 197 0
174 197 0
174 197 0
174 197 0
171 194 0
175 198 0
172 196 0
175 198 0
172 196 0
175 198 0
172 196 0
172 196 0
174 197 0
173 197 0
174 196 0
174 197 0
175 197 0
172 195 0
175 197 0
175 198 0
175 198 0
173 197 0
174 197 0
173 197 0
175 198 0
175 198 0
175 197 0
173 196 0
173 197 0
176 198 0
173 197 0
174 197 0
172 195 0
175 198 0
174 198 0
173 196 0
174 197 0
173 197 0
170 195 0
174 197 0
176 198 0
173 197 0
175 198 0
173 197 0
174 197 0
172 196 0
173 197 0
173 197 0
174 198 0
174 197 0
174 197 0
170 195 0
174 197 0
172 196 0
173 197 0
175 198 0
175 198 0
171 195 0
174 197 0
175 198 0
172 196 0
173 196 0
174 197 0
174 198 0
173 196 0
173 197 0
174 198 0
173 197 0
175 198 0
174 198 0
174 197 0
172 196 0
174 197 0
173 197 0
172 196 0
172 197 0
171 195 0
173 197 0
173 197 0
173 197 0
172 195 0
174 196 0
173 197 0
173 196 0
175 198 0
173 196 0
174 197 0
175 198 0
173 196 0
172 196 0
175 198 0
172 195 0
173 196 0
171 194 0
174 197 0
175 197 0
174 197 0
173 197 0
169 192 0
173 197 0
173 197 0
173 196 0
171 196 0
173 196 0
173 196 0
172 196 0
174 198 0
170 194 0
175 198 0
176 198 0
174 197 0
174 197 0
172 195 0
172 196 0
172 195 0
173 197 0
173 197 0
173 197 0
173 197 0
172 195 0
175 198 0
174 197 0
173 197 0
172 195 0
173 197 0
173 196 0
175 198 0
171 195 0
174 197 0
171 195 0
173 197 0
172 195 0
170 193 0
174 196 0
173 196 0
172 195 0
175 198 0
174 197 0
172 195 0
175 198 0
173 196 0
173 197 0
172 195 0
170 194 0
173 197 0
173 197 0
176 198 0
172 196 0
172 196 0
173 196 0
173 196 0
173 197 0
173 197 0
172 195 0
171 195 0
174 196 0
172 196 0
173 196 0
173 196 0
170 194 0
173 196 0
171 194 0
172 195 0
173 196 0
174 197 0
173 196 0
174 196 0
175 197 0
172 195 0
174 197 0
173 196 0
172 196 0
174 197 0
174 197 0
173 196 0
171 195 0
172 196 0
172 194 0
175 198 0
174 197 0
172 196 0
173 197 0
172 195 0
174 197 0
174 197 0
174 197 0
171 195 0
171 194 0
170 194 0
175 198 0
172 195 0
173 196 0
172 194 0
170 194 0
173 196 0
173 196 0
172 196 0
173 196 0
168 183 34
134 127 58
153 146 71
158 150 74
162 153 82
169 159 89
168 159 84
174 164 95
178 167 97
175 166 97
180 170 100
177 168 99
184 174 108
183 173 103
184 175 106
183 175 110
188 177 111
187 177 113
184 175 114
185 176 114
183 175 114
184 176 114
183 175 114
181 174 114
182 175 114
181 174 114
181 174 114
181 174 114
179 173 114
178 173 114
178 173 114
177 173 114
177 172 114
176 172 114
174 171 114
175 171 114
174 171 114
174 171 114
174 171 114
173 170 114
172 170 114
171 170 114
172 170 114
171 169 114
170 169 114
170 169 114
169 169 114
168 168 114
168 168 114
168 168 114
168 168 114
168 168 114
168 168 114
167 168 114
167 168 114
167 168 114
167 168 114
166 167 114
166 167 114
166 167 114
166 167 114
166 167 114
165 167 114
165 167 114
165 167 114
165 167 114
165 167 114
165 167 114
165 167 114
165 167 114
165 167 114
165 167 114
165 167 114
165 167 114
165 167 114
165 167 114
165 167 114
165 167 114
165 167 114
165 167 114
165 167 114
166 167 114
166 167 114
166 167 114
166 167 114
166 168 114
167 168 114
166 168 114
167 168 114
167 168 114
168 168 114
167 168 114
168 168 114
169 169 114
169 169 114
168 168 114
170 169 114
170 169 114
170 169 114
171 170 114
172 170 114
172 170 114
173 170 114
172 170 114
173 171 114
174 171 114
176 172 114
175 171 114
174 171 114
175 172 114
176 172 114
176 172 114
176 172 114
179 173 114
179 173 114
180 174 114
182 175 114
180 174 114
183 175 114
183 175 114
184 176 114
183 175 114
184 176 114
187 177 113
184 174 109
183 174 109
178 169 104
178 169 103
181 171 105
175 166 101
175 164 97
165 156 91
167 158 91
165 155 91
159 151 85
140 132 72
141 133 69
155 167 37
175 198 0
176 199 0
175 198 0
175 198 0
173 197 0
175 198 0
173 196 0
174 197 0
174 197 0
175 198 0
174 197 0
175 198 0
173 197 0
174 197 0
174 197 0
175 198 0
174 197 0
172 196 0
172 196 0
172 196 0
175 198 0
174 198 0
174 198 0
175 198 0
172 196 0
173 196 0
173 196 0
174 197 0
173 197 0
174 198 0
173 196 0
173 197 0
174 197 0
174 197 0
174 197 0
175 198 0
173 197 0
173 195 0
175 198 0
173 196 0
174 197 0
173 197 0
174 198 0
173 197 0
175 198 0
174 198 0
174 197 0
173 197 0
174 197 0
173 196 0
174 197 0
172 196 0
174 197 0
173 196 0
173 196 0
173 197 0
173 196 0
175 197 0
171 195 0
173 196 0
174 197 0
173 197 0
173 197 0
174 197 0
173 197 0
174 197 0
176 199 0
173 196 0
172 196 0
174 197 0
174 198 0
174 198 0
174 197 0
175 198 0
172 196 0
174 197 0
173 197 0
173 196 0
174 198 0
171 195 0
173 196 0
172 196 0
174 196 0
173 197 0
173 197 0
173 197 0
175 198 0
172 197 0
173 197 0
174 197 0
172 195 0
174 197 0
171 195 0
173 196 0
172 196 0
175 197 0
174 197 0
176 198 0
177 199 0
172 195 0
174 197 0
173 196 0
172 196 0
171 196 0
172 195 0
174 197 0
175 198 0
174 197 0
172 195 0
173 196 0
175 198 0
173 196 0
173 196 0
173 197 0
174 197 0
173 196 0
172 195 0
172 196 0
173 195 0
172 195 0
173 197 0
174 197 0
172 195 0
171 195 0
172 196 0
174 198 0
171 195 0
172 196 0
175 197 0
173 197 0
174 196 0
176 198 0
174 197 0
173 196 0
172 195 0
174 197 0
174 197 0
174 197 0
176 198 0
173 197 0
175 198 0
174 197 0
175 198 0
173 197 0
171 195 0
173 197 0
173 197 0
173 197 0
173 196 0
175 197 0
175 197 0
174 197 0
171 195 0
174 197 0
174 197 0
171 195 0
174 198 0
174 197 0
169 194 0
172 196 0
174 198 0
174 198 0
171 195 0
172 195 0
171 195 0
173 197 0
173 197 0
173 196 0
175 198 0
174 197 0
173 196 0
173 197 0
173 197 0
174 198 0
171 195 0
172 196 0
173 197 0
173 197 0
172 194 0
172 195 0
172 195 0
172 196 0
172 196 0
172 195 0
168 192 0
172 195 0
173 195 0
173 197 0
173 196 0
174 197 0
175 197 0
172 196 0
172 196 0
172 196 0
173 197 0
171 195 0
171 193 0
171 195 0
173 196 0
175 198 0
174 197 0
171 195 0
175 197 0
174 197 0
174 197 0
174 197 0
175 197 0
173 197 0
172 195 0
171 195 0
174 197 0
172 196 0
174 197 0
172 196 0
172 197 0
174 197 0
172 195 0
174 197 0
172 195 0
171 194 0
174 197 0
174 196 0
174 197 0
174 197 0
172 195 0
173 195 0
175 197 0
174 197 0
173 196 0
173 197 0
172 195 0
173 195 0
173 197 0
172 196 0
174 196 0
173 196 0
173 196 0
172 196 0
174 197 0
172 195 0
174 197 0
174 198 0
174 196 0
174 196 0
172 195 0
173 196 0
175 198 0
174 197 0
173 196 0
172 196 0
174 197 0
172 196 0
173 195 0
171 195 0
176 198 0
172 196 0
172 196 0
174 196 0
173 196 0
174 197 0
172 195 0
170 192 11
133 134 41
148 140 67
151 144 71
155 147 75
159 151 80
167 158 84
166 157 81
174 165 96
175 166 97
179 170 99
180 171 103
181 171 98
184 174 103
183 175 108
185 175 108
185 175 110
185 176 112
186 176 113
188 177 114
186 177 114
183 175 114
183 175 114
182 175 114
182 175 114
180 174 114
179 173 114
179 173 114
177 173 114
179 173 114
178 173 114
176 172 114
175 172 114
177 172 114
177 172 114
175 171 114
174 171 114
173 171 114
174 171 114
173 171 114
172 170 114
172 170 114
172 170 114
171 170 114
171 170 114
170 169 114
171 170 114
170 169 114
169 169 114
169 169 114
168 168 114
168 168 114
167 168 114
167 168 114
167 168 114
167 168 114
167 168 114
166 167 114
166 167 114
165 167 114
166 168 114
165 167 114
165 167 114
165 167 114
165 167 114
165 167 114
165 167 114
165 167 114
165 167 114
165 167 114
165 167 114
165 167 114
165 167 114
165 167 114
165 167 114
164 167 114
165 167 114
165 167 114
165 167 114
165 167 114
165 167 114
165 167 114
166 167 114
165 167 114
166 167 114
166 168 114
166 168 114
166 168 114
167 168 114
167 168 114
167 168 114
168 168 114
168 168 114
168 168 114
168 168 114
169 169 114
169 169 114
170 169 114
169 169 114
170 169 114
169 169 114
173 171 114
172 170 114
173 170 114
173 170 114
173 171 114
172 170 114
174 171 114
175 172 114
175 172 114
176 172 114
178 173 114
178 173 114
178 173 114
178 173 114
178 173 114
181 174 114
180 174 114
182 175 114
182 175 114
181 174 114
183 175 114
185 176 114
183 175 114
187 177 113
185 176 111
182 173 109
184 174 108
178 170 106
179 169 103
177 167 101
175 166 101
168 159 96
167 158 90
165 156 90
155 146 83
154 145 75
151 143 76
144 137 66
168 188 22
174 197 0
174 197 0
174 197 0
175 197 0
173 196 0
174 198 0
175 198 0
174 197 0
173 197 0
175 198 0
174 197 0
173 197 0
173 197 0
175 198 0
175 198 0
175 197 0
172 196 0
174 198 0
171 195 0
174 198 0
173 197 0
173 197 0
172 196 0
174 198 0
174 198 0
175 198 0
174 198 0
173 196 0
174 197 0
174 198 0
174 197 0
176 198 0
174 198 0
171 195 0
172 196 0
174 197 0
175 198 0
173 196 0
172 196 0
172 197 0
174 197 0
174 197 0
173 197 0
174 198 0
172 196 0
174 197 0
174 197 0
173 196 0
174 197 0
173 197 0
173 197 0
173 196 0
173 197 0
173 196 0
174 197 0
174 197 0
173 196 0
174 197 0
173 197 0
175 198 0
176 198 0
174 197 0
173 196 0
175 197 0
173 196 0
173 197 0
174 196 0
174 198 0
173 195 0
173 197 0
174 198 0
173 197 0
173 197 0
175 198 0
174 197 0
175 198 0
173 197 0
171 195 0
172 196 0
172 196 0
172 196 0
172 196 0
174 197 0
172 195 0
171 195 0
174 197 0
174 198 0
176 198 0
173 196 0
175 198 0
173 195 0
175 198 0
174 197 0
175 198 0
173 197 0
173 197 0
173 197 0
176 198 0
175 198 0
173 196 0
171 195 0
173 196 0
172 196 0
169 193 0
174 197 0
170 194 0
174 197 0
174 197 0
175 198 0
172 196 0
173 196 0
173 197 0
174 197 0
174 197 0
172 196 0
173 196 0
173 196 0
173 196 0
173 197 0
175 198 0
174 197 0
172 196 0
173 196 0
171 195 0
174 197 0
172 196 0
174 197 0
173 197 0
172 196 0
173 196 0
171 195 0
171 195 0
174 197 0
175 198 0
171 195 0
174 198 0
170 194 0
175 198 0
175 197 0
173 197 0
175 198 0
174 197 0
171 194 0
173 196 0
173 197 0
171 194 0
173 196 0
174 198 0
174 198 0
174 197 0
171 195 0
174 198 0
172 196 0
173 196 0
173 197 0
174 198 0
172 196 0
172 195 0
174 198 0
174 197 0
174 197 0
172 196 0
173 196 0
175 198 0
174 196 0
172 196 0
173 197 0
172 196 0
174 197 0
173 196 0
170 194 0
173 196 0
170 193 0
173 196 0
174 196 0
173 196 0
173 196 0
172 195 0
173 196 0
173 197 0
172 196 0
174 197 0
174 197 0
174 197 0
174 197 0
174 197 0
172 196 0
174 197 0
173 197 0
174 197 0
173 197 0
173 195 0
174 197 0
173 196 0
171 194 0
172 195 0
171 194 0
172 195 0
173 196 0
172 196 0
171 194 0
174 197 0
174 196 0
173 196 0
173 197 0
174 197 0
174 196 0
171 195 0
171 195 0
173 196 0
172 195 0
172 196 0
174 197 0
172 195 0
172 195 0
171 195 0
173 196 0
172 195 0
172 195 0
171 195 0
174 198 0
172 195 0
169 193 0
171 194 0
173 197 0
172 195 0
175 198 0
171 194 0
174 197 0
173 197 0
172 195 0
173 197 0
173 197 0
174 196 0
172 196 0
173 196 0
175 198 0
175 198 0
170 194 0
174 197 0
171 194 0
174 197 0
173 196 0
172 195 0
171 193 0
173 196 0
174 198 0
172 196 0
173 197 0
171 194 0
173 197 0
172 195 0
171 194 0
174 197 0
172 195 0
175 198 0
173 196 0
172 195 0
174 196 0
174 196 0
155 166 42
147 138 70
146 138 69
161 152 79
162 154 81
151 143 78
168 158 87
161 153 76
173 164 92
173 164 96
180 170 101
182 172 106
181 172 102
184 175 108
184 174 106
186 176 109
185 176 110
185 176 111
186 176 113
184 176 114
184 176 114
183 175 114
184 176 114
183 175 114
181 175 114
181 174 114
180 174 114
179 173 114
179 173 114
178 173 114
177 172 114
176 172 114
176 172 114
176 172 114
176 172 114
175 171 114
173 171 114
174 171 114
173 171 114
173 171 114
173 170 114
172 170 114
170 169 114
172 170 114
170 169 114
170 169 114
170 169 114
169 169 114
168 169 114
169 169 114
168 168 114
168 168 114
167 168 114
168 168 114
167 168 114
167 168 114
167 168 114
166 168 114
165 167 114
166 167 114
166 168 114
165 167 114
165 167 114
165 167 114
166 167 114
165 167 114
165 167 114
165 167 114
165 167 114
165 167 114
165 167 114
165 167 114
165 167 114
165 167 114
165 167 114
165 167 114
164 167 114
165 167 114
165 167 114
165 167 114
165 167 114
165 167 114
165 167 114
165 167 114
166 167 114
166 168 114
166 168 114
166 167 114
167 168 114
167 168 114
168 168 114
167 168 114
168 169 114
168 168 114
169 169 114
168 169 114
169 169 114
169 169 114
170 169 114
171 170 114
169 169 114
170 169 114
171 170 114
172 170 114
173 171 114
172 170 114
174 171 114
174 171 114
173 171 114
175 172 114
176 172 114
176 172 114
176 172 114
178 173 114
177 173 114
179 173 114
180 174 114
180 174 114
180 174 114
182 175 114
182 175 114
183 175 114
185 176 114
185 176 114
186 177 114
184 175 111
187 177 112
184 175 109
181 171 106
179 170 103
181 171 108
173 164 99
172 163 99
165 157 84
162 153 89
160 152 84
148 140 77
149 140 77
132 125 61
146 152 42
174 197 0
172 196 0
175 198 0
174 197 0
175 198 0
174 196 0
174 197 0
174 197 0
176 198 0
175 198 0
174 197 0
174 196 0
174 196 0
174 197 0
174 197 0
173 196 0
174 197 0
173 197 0
174 198 0
174 197 0
175 197 0
173 196 0
173 197 0
173 197 0
172 196 0
175 198 0
175 198 0
175 198 0
173 196 0
175 197 0
175 198 0
173 196 0
173 196 0
173 197 0
175 198 0
175 198 0
174 198 0
174 198 0
175 198 0
173 196 0
173 196 0
172 195 0
173 197 0
174 197 0
174 196 0
175 198 0
174 197 0
175 198 0
174 197 0
173 197 0
173 197 0
173 196 0
175 198 0
173 197 0
173 197 0
171 195 0
174 197 0
175 198 0
174 198 0
174 197 0
175 198 0
172 196 0
172 195 0
174 197 0
175 198 0
172 196 0
175 198 0
172 196 0
174 197 0
173 196 0
173 197 0
171 195 0
173 197 0
174 197 0
175 198 0
173 197 0
174 197 0
173 197 0
174 197 0
172 196 0
174 197 0
175 198 0
171 195 0
175 198 0
175 197 0
172 196 0
172 194 0
172 195 0
174 198 0
172 196 0
171 193 0
174 197 0
175 197 0
174 197 0
173 196 0
173 196 0
172 195 0
173 197 0
172 196 0
174 197 0
174 196 0
174 198 0
173 195 0
174 197 0
174 197 0
172 196 0
173 196 0
176 198 0
174 197 0
175 198 0
170 193 0
173 197 0
174 197 0
174 198 0
173 196 0
172 196 0
175 197 0
174 198 0
174 198 0
173 196 0
172 196 0
174 197 0
173 196 0
173 196 0
174 197 0
174 197 0
174 197 0
174 197 0
171 196 0
173 196 0
173 196 0
173 197 0
174 197 0
175 198 0
174 196 0
172 195 0
171 194 0
173 196 0
173 197 0
172 196 0
174 197 0
174 197 0
172 196 0
174 198 0
172 195 0
172 195 0
171 195 0
173 196 0
174 197 0
175 198 0
171 194 0
173 196 0
171 195 0
174 198 0
171 194 0
175 198 0
172 196 0
173 196 0
173 196 0
173 196 0
174 197 0
172 195 0
173 196 0
172 196 0
175 198 0
173 197 0
174 198 0
169 193 0
175 198 0
171 195 0
172 195 0
171 195 0
175 198 0
172 196 0
172 196 0
173 197 0
171 195 0
172 196 0
173 196 0
175 198 0
173 196 0
174 197 0
168 191 36
166 189 57
162 186 62
154 178 84
146 171 99
143 167 105
139 164 111
137 163 114
146 170 103
147 172 100
149 174 97
147 171 105
151 175 90
158 181 80
153 177 90
165 188 54
171 195 0
173 196 0
171 194 0
172 196 0
173 197 0
174 197 0
172 196 0
171 194 0
173 196 0
174 196 0
173 196 0
171 195 0
174 197 0
171 194 0
172 196 0
172 195 0
173 196 0
172 196 0
175 198 0
173 197 0
171 195 0
172 196 0
170 194 0
170 194 0
172 196 0
175 197 0
172 196 0
171 195 0
171 194 0
173 197 0
174 197 0
174 197 0
172 195 0
175 197 0
174 196 0
173 196 0
173 197 0
172 195 0
171 195 0
173 196 0
174 197 0
173 197 0
172 196 0
173 196 0
174 196 0
171 194 0
174 197 0
175 198 0
172 196 0
172 195 0
172 195 0
174 197 0
172 195 0
170 192 0
172 196 0
172 195 0
172 195 0
172 196 0
173 195 0
173 196 0
172 194 0
171 190 25
141 135 59
155 146 73
154 146 72
160 152 74
161 152 80
163 154 84
169 160 90
172 162 93
178 168 97
175 166 92
180 171 101
181 172 101
181 172 99
183 174 106
185 175 108
185 175 109
188 177 113
184 175 110
186 177 113
186 177 114
184 176 114
185 176 114
184 176 114
181 174 114
182 175 114
180 174 114
181 174 114
181 174 114
178 173 114
178 173 114
178 173 114
177 172 114
177 172 114
176 172 114
176 172 114
174 171 114
174 171 114
173 171 114
173 170 114
172 170 114
172 170 114
171 170 114
171 170 114
171 170 114
172 170 114
170 169 114
170 169 114
170 169 114
169 169 114
168 168 114
170 169 114
168 168 114
168 168 114
169 169 114
167 168 114
167 168 114
167 168 114
167 168 114
166 167 114
166 168 114
166 167 114
166 167 114
166 167 114
166 167 114
166 167 114
165 167 114
165 167 114
165 167 114
165 167 114
165 167 114
165 167 114
165 167 114
165 167 114
165 167 114
165 167 114
165 167 114
165 167 114
165 167 114
165 167 114
165 167 114
165 167 114
165 167 114
166 167 114
165 167 114
166 167 114
166 167 114
166 167 114
166 167 114
167 168 114
167 168 114
167 168 114
167 168 114
168 168 114
168 168 114
168 168 114
169 169 114
169 169 114
169 169 114
169 169 114
169 169 114
170 169 114
171 170 114
171 170 114
172 170 114
171 170 114
173 171 114
173 171 114
173 171 114
175 171 114
176 172 114
176 172 114
178 173 114
176 172 114
176 172 114
179 173 114
178 173 114
179 173 114
180 174 114
180 174 114
182 175 114
182 175 114
184 176 114
184 176 114
184 176 114
187 177 114
186 177 114
186 176 113
184 175 110
184 174 107
181 171 104
179 170 104
168 159 93
177 168 101
171 162 95
168 159 90
157 150 84
159 150 84
159 151 80
156 148 77
134 127 61
165 181 32
174 197 0
174 196 0
174 197 0
174 197 0
175 198 0
173 197 0
173 196 0
175 197 0
174 198 0
173 197 0
175 198 0
174 197 0
174 196 0
175 198 0
174 197 0
172 196 0
173 196 0
174 197 0
175 198 0
173 197 0
174 197 0
173 197 0
174 197 0
174 197 0
174 197 0
174 198 0
174 197 0
173 197 0
172 195 0
175 198 0
175 198 0
173 197 0
174 197 0
171 195 0
174 196 0
172 196 0
173 196 0
174 197 0
173 197 0
173 197 0
173 197 0
174 198 0
172 196 0
174 197 0
175 198 0
174 197 0
173 197 0
173 197 0
174 197 0
175 198 0
174 197 0
172 196 0
173 196 0
173 197 0
173 197 0
173 197 0
174 197 0
172 196 0
175 198 0
173 196 0
175 198 0
173 197 0
172 195 0
174 197 0
170 194 0
172 196 0
173 197 0
173 196 0
174 197 0
173 196 0
173 197 0
173 197 0
174 197 0
174 197 0
173 197 0
173 197 0
173 196 0
171 195 0
173 197 0
175 198 0
174 197 0
174 197 0
173 196 0
174 197 0
173 197 0
172 196 0
173 197 0
174 198 0
174 198 0
174 198 0
174 197 0
171 195 0
173 197 0
171 194 0
172 196 0
174 198 0
174 196 0
171 195 0
172 196 0
172 196 0
174 197 0
172 196 0
175 198 0
173 197 0
174 197 0
175 198 0
173 197 0
174 197 0
174 198 0
174 197 0
172 197 0
175 198 0
170 193 0
176 198 0
171 194 0
172 196 0
173 196 0
172 196 0
173 196 0
172 196 0
173 197 0
173 197 0
173 197 0
173 196 0
172 196 0
170 194 0
175 198 0
175 198 0
175 197 0
173 197 0
174 197 0
173 196 0
174 197 0
173 197 0
173 196 0
172 196 0
175 198 0
174 197 0
173 197 0
173 196 0
173 196 0
172 195 0
174 197 0
172 195 0
170 194 0
174 198 0
174 197 0
173 197 0
173 196 0
174 196 0
174 197 0
173 196 0
173 196 0
173 196 0
172 196 0
172 196 0
173 196 0
174 197 0
171 194 0
173 197 0
173 196 0
172 195 0
174 197 0
174 197 0
173 196 0
173 196 0
174 197 0
175 197 0
172 195 0
173 197 0
174 198 0
173 196 0
171 194 0
174 197 0
161 185 70
137 162 115
131 156 125
118 145 137
93 123 162
92 122 162
77 110 173
61 99 181
62 99 180
62 99 181
61 99 179
61 98 180
62 99 180
62 99 179
62 99 181
62 99 180
62 99 179
61 99 181
61 98 180
61 98 179
62 99 181
62 99 180
62 99 180
66 102 179
79 112 171
104 131 151
95 125 161
131 156 126
135 160 118
161 184 74
171 195 31
171 193 0
173 196 0
172 195 0
172 195 0
175 198 0
174 196 0
171 194 0
175 196 0
173 196 0
173 195 0
175 198 0
173 196 0
172 196 0
171 195 0
172 196 0
172 196 0
174 197 0
171 194 0
171 195 0
175 198 0
172 195 0
172 195 0
171 194 0
175 198 0
173 197 0
174 197 0
171 195 0
173 196 0
172 195 0
171 195 0
174 196 0
175 198 0
174 197 0
173 196 0
172 195 0
175 198 0
173 196 0
174 197 0
174 196 0
174 197 0
174 197 0
172 195 0
174 196 0
173 196 0
170 193 0
172 194 0
172 195 0
174 197 0
176 199 0
173 196 0
174 197 0
173 196 0
173 196 0
145 151 44
138 132 56
152 144 72
155 146 80
160 151 80
163 155 83
166 157 84
170 160 92
181 171 96
175 165 97
178 169 95
181 172 103
185 175 104
184 174 106
187 176 108
183 174 107
184 175 107
186 176 112
186 176 112
185 176 114
183 175 114
184 176 114
184 176 114
183 175 114
181 174 114
180 174 114
182 175 114
181 174 114
179 173 114
178 173 114
178 173 114
178 173 114
177 172 114
177 172 114
176 172 114
174 171 114
175 171 114
175 172 114
175 171 114
173 171 114
173 171 114
172 170 114
173 170 114
172 170 114
172 170 114
172 170 114
169 169 114
170 169 114
169 169 114
168 168 114
169 169 114
168 168 114
168 169 114
168 168 114
167 168 114
167 168 114
168 168 114
167 168 114
166 168 114
166 168 114
166 167 114
166 167 114
165 167 114
166 167 114
165 167 114
165 167 114
165 167 114
165 167 114
165 167 114
165 167 114
165 167 114
165 167 114
165 167 114
165 167 114
165 167 114
165 167 114
165 167 114
165 167 114
165 167 114
165 167 114
165 167 114
165 167 114
166 167 114
165 167 114
166 167 114
166 168 114
166 167 114
166 167 114
167 168 114
167 168 114
167 168 114
168 168 114
168 169 114
168 168 114
168 168 114
169 169 114
167 168 114
169 169 114
169 169 114
169 169 114
170 169 114
170 169 114
171 170 114
171 170 114
172 170 114
173 171 114
173 171 114
173 170 114
173 171 114
174 171 114
174 171 114
174 171 114
177 173 114
177 172 114
178 173 114
178 173 114
179 173 114
178 173 114
179 174 114
179 174 114
181 174 114
181 174 114
183 175 114
184 176 114
184 176 114
186 177 114
186 177 114
186 176 113
186 177 113
184 175 110
179 170 104
182 172 105
179 171 101
177 167 103
170 162 93
172 162 93
167 158 85
173 164 92
159 150 82
152 144 76
144 136 73
149 151 52
172 195 0
173 197 0
174 197 0
175 198 0
174 198 0
173 196 0
174 198 0
175 198 0
174 197 0
174 197 0
176 198 0
173 197 0
173 196 0
173 197 0
173 196 0
175 198 0
171 194 0
174 197 0
173 197 0
175 198 0
172 196 0
175 198 0
172 196 0
175 198 0
174 197 0
174 198 0
173 196 0
175 198 0
176 198 0
173 197 0
175 198 0
174 197 0
175 198 0
173 196 0
176 198 0
171 195 0
173 196 0
174 197 0
173 197 0
173 196 0
175 198 0
174 197 0
173 197 0
173 196 0
174 197 0
173 197 0
175 198 0
173 196 0
173 197 0
172 195 0
174 197 0
174 198 0
173 197 0
174 198 0
172 196 0
173 197 0
173 197 0
174 198 0
175 198 0
171 195 0
174 197 0
173 197 0
175 198 0
173 197 0
173 196 0
171 195 0
174 197 0
173 196 0
173 197 0
175 198 0
173 196 0
173 196 0
172 195 0
173 197 0
175 198 0
173 197 0
173 195 0
173 196 0
174 197 0
173 196 0
174 197 0
176 198 0
175 198 0
172 196 0
173 196 0
173 197 0
174 197 0
172 196 0
174 197 0
172 196 0
172 196 0
175 197 0
172 196 0
175 197 0
171 194 0
174 197 0
172 196 0
174 198 0
174 197 0
173 197 0
175 197 0
174 197 0
174 197 0
173 197 0
175 198 0
171 195 0
174 197 0
176 198 0
171 196 0
172 196 0
173 197 0
172 196 0
174 197 0
173 196 0
172 196 0
174 196 0
173 197 0
174 197 0
170 194 0
175 198 0
174 197 0
173 196 0
172 196 0
175 197 0
173 197 0
172 196 0
173 196 0
169 193 0
172 196 0
175 198 0
172 195 0
173 196 0
173 196 0
174 196 0
172 196 0
171 195 0
173 196 0
171 195 0
173 197 0
170 194 0
173 196 0
173 197 0
174 198 0
174 196 0
174 197 0
173 197 0
171 195 0
174 197 0
173 196 0
172 195 0
173 197 0
172 195 0
174 197 0
174 197 0
171 194 0
174 197 0
172 196 0
174 196 0
173 195 0
172 195 0
171 195 0
169 193 0
176 199 0
174 198 0
173 196 0
173 197 0
172 195 0
172 195 0
173 196 25
162 185 72
136 162 114
123 150 131
97 126 160
71 106 175
62 99 180
61 98 179
62 99 179
62 99 179
61 99 181
62 99 181
62 99 181
62 99 180
61 99 181
61 99 180
62 99 180
61 99 181
62 99 181
62 99 181
62 99 181
61 99 181
62 99 181
61 98 181
61 99 181
61 99 181
62 99 181
61 99 180
61 99 181
61 98 180
62 99 179
61 98 178
62 99 180
61 99 180
62 99 181
62 99 180
64 100 179
68 103 177
107 135 150
133 158 125
149 173 97
172 195 31
173 196 0
174 197 0
174 196 0
172 196 0
172 196 0
172 195 0
173 195 0
172 196 0
172 196 0
171 195 0
173 196 0
171 195 0
172 195 0
172 195 0
171 195 0
171 195 0
170 192 0
173 195 0
173 195 0
174 197 0
174 197 0
174 197 0
173 196 0
173 196 0
172 195 0
173 196 0
171 194 0
174 196 0
175 197 0
172 195 0
173 196 0
173 197 0
172 196 0
173 196 0
174 197 0
173 196 0
174 196 0
174 197 0
173 197 0
171 194 0
174 197 0
175 198 0
172 194 0
175 197 0
174 197 0
172 195 0
172 194 0
162 180 16
141 134 65
143 134 70
152 144 74
151 143 79
167 158 86
168 159 82
177 168 95
168 158 88
171 162 89
182 172 99
176 168 96
180 171 101
183 174 103
182 173 102
183 174 107
185 175 110
185 175 109
186 177 112
186 176 113
185 176 114
184 176 114
185 176 114
186 177 114
183 175 114
183 175 114
180 174 114
180 174 114
179 174 114
179 173 114
179 173 114
178 173 114
177 172 114
176 172 114
177 172 114
177 172 114
175 172 114
174 171 114
175 171 114
174 171 114
172 170 114
173 171 114
171 170 114
171 170 114
172 170 114
170 169 114
171 169 114
170 169 114
170 169 114
169 169 114
170 169 114
168 168 114
168 168 114
167 168 114
167 168 114
168 168 114
167 168 114
168 168 114
167 168 114
167 168 114
167 168 114
166 167 114
166 167 114
166 167 114
165 167 114
165 167 114
165 167 114
166 167 114
165 167 114
165 167 114
165 167 114
165 167 114
165 167 114
165 167 114
165 167 114
165 167 114
165 167 114
165 167 114
165 167 114
165 167 114
165 167 114
166 167 114
165 167 114
166 167 114
166 167 114
166 168 114
166 167 114
166 168 114
166 168 114
166 168 114
166 168 114
166 168 114
167 168 114
167 168 114
168 168 114
168 168 114
168 168 114
169 169 114
169 169 114
169 169 114
171 170 114
170 169 114
170 169 114
172 170 114
172 170 114
171 170 114
173 171 114
174 171 114
172 170 114
173 171 114
174 171 114
175 171 114
175 171 114
176 172 114
177 172 114
179 173 114
178 173 114
178 173 114
178 173 114
180 174 114
182 175 114
181 174 114
180 174 114
182 175 114
185 176 114
186 177 114
185 176 114
187 177 114
184 175 110
187 176 110
186 176 112
184 174 109
176 167 99
178 168 101
178 169 101
168 158 90
173 163 97
171 161 94
162 154 85
164 155 83
150 142 75
153 144 79
140 132 70
161 177 32
173 197 0
175 198 0
173 197 0
175 198 0
172 196 0
173 197 0
175 197 0
174 198 0
175 198 0
173 197 0
175 197 0
173 197 0
174 197 0
174 196 0
173 197 0
174 197 0
172 196 0
173 196 0
173 197 0
172 196 0
174 197 0
174 197 0
175 198 0
172 195 0
174 198 0
173 196 0
175 198 0
174 197 0
174 198 0
173 197 0
175 198 0
173 197 0
172 195 0
172 196 0
175 197 0
175 198 0
173 197 0
174 197 0
175 198 0
175 198 0
173 197 0
173 196 0
173 197 0
173 197 0
173 196 0
174 197 0
174 198 0
176 199 0
173 196 0
174 197 0
171 196 0
174 197 0
172 196 0
172 196 0
174 198 0
172 196 0
173 196 0
173 197 0
172 195 0
175 198 0
173 197 0
172 196 0
174 197 0
175 198 0
173 196 0
175 198 0
174 198 0
173 197 0
174 197 0
173 197 0
172 196 0
173 196 0
171 195 0
174 197 0
173 197 0
173 197 0
173 197 0
174 197 0
174 197 0
173 196 0
175 198 0
173 197 0
173 196 0
174 197 0
173 196 0
173 196 0
172 196 0
173 196 0
173 197 0
174 197 0
172 196 0
173 196 0
170 194 0
174 198 0
174 196 0
173 196 0
173 197 0
172 195 0
176 198 0
173 197 0
173 197 0
175 197 0
173 195 0
172 195 0
174 197 0
175 197 0
174 198 0
172 195 0
174 197 0
173 196 0
174 197 0
172 196 0
174 197 0
171 194 0
173 196 0
175 198 0
173 197 0
174 197 0
172 196 0
173 197 0
173 197 0
174 196 0
171 194 0
171 195 0
173 197 0
173 197 0
173 197 0
174 197 0
173 197 0
172 196 0
173 197 0
173 196 0
174 197 0
171 196 0
173 196 0
173 196 0
171 194 0
171 194 0
174 197 0
171 195 0
173 196 0
174 198 0
172 196 0
174 197 0
171 195 0
172 195 0
172 195 0
173 196 0
173 196 0
170 192 0
175 198 0
172 196 0
175 198 0
173 197 0
172 195 0
173 196 0
171 196 0
174 198 0
171 194 0
175 198 0
172 196 0
172 196 0
172 195 0
173 197 0
160 184 74
131 156 124
104 132 154
69 104 175
62 99 181
62 99 181
62 99 180
62 99 181
62 99 181
61 99 181
62 99 181
62 99 180
61 98 181
62 99 181
62 99 181
61 98 181
62 99 180
61 99 181
62 99 181
61 99 181
61 99 181
61 98 181
61 99 181
62 99 181
62 99 180
62 99 181
61 98 179
61 99 181
61 99 181
61 99 181
61 99 181
62 99 181
61 99 181
62 99 179
61 99 181
61 98 179
61 98 179
61 99 181
61 99 181
62 99 179
62 99 180
63 100 180
61 98 177
61 99 179
66 101 176
99 128 156
113 140 143
152 176 87
168 191 51
173 195 0
173 196 0
174 197 0
173 197 0
171 194 0
171 195 0
173 195 0
172 196 0
171 195 0
174 197 0
172 196 0
174 197 0
172 195 0
174 197 0
174 197 0
171 194 0
173 196 0
174 197 0
174 197 0
173 196 0
173 196 0
172 196 0
173 196 0
175 197 0
173 196 0
171 194 0
173 196 0
172 195 0
173 196 0
172 196 0
170 194 0
172 196 0
174 197 0
173 196 0
171 194 0
171 195 0
175 197 0
173 197 0
173 195 0
174 197 0
172 195 0
173 196 0
171 194 0
144 144 53
141 134 63
159 150 78
160 152 73
162 154 80
169 159 90
165 157 82
174 164 92
171 162 90
172 162 90
183 173 104
180 170 96
184 175 106
185 175 106
186 176 110
184 175 108
186 176 110
186 176 111
186 177 113
186 177 113
185 176 114
184 176 114
185 176 114
185 176 114
183 175 114
183 175 114
181 174 114
182 175 114
181 174 114
179 174 114
180 174 114
178 173 114
178 173 114
176 172 114
175 172 114
176 172 114
177 172 114
176 172 114
175 172 114
175 171 114
174 171 114
173 171 114
173 171 114
173 171 114
170 169 114
171 170 114
171 170 114
170 169 114
170 169 114
169 169 114
169 169 114
169 169 114
168 168 114
169 169 114
167 168 114
166 168 114
168 168 114
167 168 114
167 168 114
168 168 114
166 168 114
166 167 114
166 167 114
166 167 114
167 168 114
166 167 114
165 167 114
165 167 114
165 167 114
165 167 114
165 167 114
165 167 114
165 167 114
165 167 114
165 167 114
165 167 114
165 167 114
165 167 114
165 167 114
165 167 114
166 167 114
165 167 114
165 167 114
166 167 114
165 167 114
166 168 114
166 167 114
166 167 114
167 168 114
167 168 114
166 167 114
166 168 114
167 168 114
167 168 114
167 168 114
168 168 114
169 169 114
168 169 114
169 169 114
170 169 114
170 169 114
171 170 114
170 169 114
171 170 114
171 170 114
172 170 114
172 170 114
173 171 114
174 171 114
174 171 114
175 171 114
175 172 114
175 171 114
175 172 114
177 172 114
178 173 114
178 173 114
177 173 114
178 173 114
181 174 114
180 174 114
181 174 114
181 175 114
183 175 114
183 175 114
184 176 114
184 176 114
186 177 114
185 176 114
186 176 112
184 175 109
181 172 107
184 174 107
180 171 104
176 167 100
181 172 103
170 161 95
166 157 90
175 165 93
157 149 84
146 138 73
159 150 80
147 140 68
138 137 56
176 198 0
174 198 0
173 196 0
173 197 0
173 196 0
172 196 0
174 196 0
172 195 0
173 196 0
174 197 0
174 198 0
173 196 0
175 198 0
175 197 0
174 197 0
173 197 0
173 197 0
175 198 0
174 197 0
172 196 0
173 197 0
171 195 0
172 196 0
175 198 0
173 196 0
174 198 0
173 197 0
174 197 0
173 197 0
174 198 0
175 198 0
172 196 0
174 197 0
174 197 0
174 197 0
174 197 0
173 196 0
176 199 0
174 197 0
171 195 0
173 196 0
174 198 0
171 195 0
173 197 0
173 196 0
173 196 0
174 197 0
172 196 0
173 197 0
174 197 0
174 198 0
174 197 0
174 197 0
175 197 0
175 198 0
174 197 0
174 198 0
174 198 0
173 197 0
174 197 0
175 198 0
175 198 0
172 195 0
174 197 0
171 196 0
172 195 0
171 194 0
173 197 0
172 195 0
171 196 0
173 196 0
175 197 0
173 196 0
172 195 0
174 197 0
172 196 0
173 197 0
172 196 0
174 197 0
172 196 0
172 195 0
172 196 0
174 197 0
172 195 0
173 196 0
175 197 0
173 196 0
174 197 0
175 198 0
174 197 0
174 198 0
174 197 0
173 197 0
175 197 0
172 196 0
173 196 0
173 197 0
171 195 0
172 195 0
173 196 0
171 195 0
174 197 0
174 197 0
174 196 0
174 198 0
174 197 0
174 197 0
173 196 0
174 197 0
173 196 0
174 196 0
175 198 0
174 195 0
174 196 0
173 197 0
176 199 0
173 196 0
173 196 0
172 195 0
173 196 0
175 198 0
172 195 0
170 194 0
173 196 0
173 196 0
174 197 0
175 197 0
173 196 0
174 197 0
171 195 0
173 196 0
173 197 0
173 197 0
172 194 0
174 197 0
171 195 0
175 198 0
173 196 0
175 197 0
174 196 0
172 196 0
172 195 0
174 197 0
175 198 0
172 195 0
173 195 0
172 196 0
175 198 0
171 194 0
174 198 0
173 196 0
174 197 0
174 196 0
174 197 0
173 196 0
173 197 0
172 196 0
172 196 0
171 195 0
172 195 0
172 195 31
143 168 102
109 136 148
84 116 165
62 99 180
61 98 181
61 98 181
62 99 181
62 99 180
62 99 181
62 99 180
62 99 180
61 98 180
62 99 181
61 99 181
61 99 181
62 99 181
62 99 181
62 99 181
61 99 181
62 99 181
62 99 181
61 99 181
62 99 181
61 98 181
61 99 181
61 99 181
62 99 181
61 99 181
61 98 181
61 99 181
61 99 181
62 99 180
61 99 181
61 99 181
61 98 180
62 99 181
61 98 180
62 99 181
61 99 180
62 99 181
62 99 181
62 99 181
62 99 179
62 99 181
61 98 180
62 99 181
61 98 179
61 98 179
62 99 180
61 98 178
62 99 181
65 101 176
105 133 152
141 165 110
161 183 65
174 197 0
174 196 0
175 198 0
174 196 0
174 197 0
170 194 0
175 198 0
172 196 0
173 196 0
173 196 0
173 196 0
173 197 0
173 196 0
170 194 0
172 196 0
172 196 0
173 196 0
170 194 0
172 195 0
172 194 0
173 197 0
172 195 0
173 197 0
171 194 0
169 193 0
173 196 0
175 198 0
176 197 0
171 193 0
172 195 0
171 194 0
173 196 0
172 195 0
172 194 0
174 197 0
172 195 0
176 198 0
172 195 0
172 195 0
158 175 22
137 130 60
144 137 62
153 144 74
155 147 76
155 148 72
164 155 78
162 154 84
176 166 97
178 169 97
178 169 93
180 170 98
182 172 100
182 173 103
184 174 104
184 175 108
185 175 108
183 175 109
185 175 109
187 177 112
187 177 114
186 177 114
184 176 114
184 176 114
184 176 114
183 175 114
182 175 114
181 174 114
180 174 114
178 173 114
179 173 114
178 173 114
176 172 114
177 172 114
176 172 114
175 172 114
176 172 114
176 172 114
175 172 114
174 171 114
174 171 114
173 171 114
174 171 114
171 170 114
172 170 114
172 170 114
170 169 114
170 169 114
170 169 114
171 170 114
170 169 114
168 169 114
169 169 114
168 168 114
168 168 114
168 168 114
168 168 114
168 168 114
167 168 114
167 168 114
167 168 114
167 168 114
166 168 114
166 167 114
167 168 114
166 167 114
166 167 114
166 167 114
165 167 114
166 167 114
165 167 114
166 167 114
166 167 114
165 167 114
166 167 114
165 167 114
166 167 114
165 167 114
165 167 114
165 167 114
165 167 114
165 167 114
165 167 114
166 167 114
166 167 114
166 167 114
166 167 114
166 168 114
166 167 114
166 167 114
167 168 114
167 168 114
167 168 114
168 168 114
168 168 114
168 168 114
169 169 114
169 169 114
169 169 114
169 169 114
170 169 114
171 170 114
169 169 114
171 170 114
171 170 114
171 170 114
173 170 114
173 171 114
174 171 114
173 170 114
174 171 114
176 172 114
175 171 114
176 172 114
175 172 114
176 172 114
177 172 114
177 173 114
178 173 114
178 173 114
179 173 114
181 174 114
180 174 114
181 174 114
183 175 114
184 176 114
184 176 114
184 176 114
185 176 114
186 177 113
187 177 113
186 177 112
185 175 111
185 175 108
180 171 104
168 159 93
178 169 102
169 161 91
171 162 91
164 155 87
169 160 87
161 153 83
156 147 83
155 146 80
137 130 63
167 183 39
175 198 0
174 197 0
176 198 0
175 198 0
172 195 0
173 197 0
174 197 0
174 198 0
173 196 0
173 196 0
175 198 0
172 197 0
174 198 0
174 197 0
174 197 0
175 197 0
172 197 0
173 197 0
174 197 0
173 197 0
172 195 0
176 199 0
173 196 0
173 197 0
172 196 0
172 196 0
174 197 0
172 196 0
174 198 0
173 196 0
175 198 0
174 198 0
173 196 0
172 195 0
174 197 0
173 196 0
172 196 0
172 196 0
173 197 0
175 198 0
172 195 0
172 196 0
173 197 0
175 198 0
173 197 0
175 198 0
174 197 0
174 197 0
174 197 0
171 195 0
175 198 0
172 196 0
173 197 0
172 195 0
172 195 0
174 197 0
171 195 0
172 196 0
171 195 0
173 197 0
174 197 0
172 196 0
175 198 0
174 197 0
173 196 0
173 197 0
174 198 0
172 196 0
173 196 0
175 198 0
172 196 0
171 194 0
173 196 0
174 196 0
174 197 0
173 197 0
173 196 0
174 197 0
176 198 0
173 197 0
174 197 0
174 197 0
173 197 0
173 197 0
175 198 0
176 198 0
173 197 0
173 197 0
173 196 0
173 196 0
175 198 0
173 196 0
174 197 0
172 196 0
172 196 0
174 197 0
173 197 0
173 196 0
173 197 0
174 197 0
173 197 0
173 197 0
173 196 0
174 198 0
174 198 0
174 197 0
174 197 0
174 197 0
173 197 0
174 197 0
171 195 0
173 197 0
171 194 0
173 196 0
173 196 0
173 197 0
175 198 0
174 197 0
172 196 0
175 197 0
168 191 0
175 198 0
171 195 0
171 195 0
174 196 0
174 197 0
173 197 0
173 197 0
171 194 0
172 195 0
174 198 0
172 195 0
172 194 0
174 197 0
174 198 0
172 196 0
173 196 0
171 195 0
174 197 0
174 197 0
171 195 0
170 194 0
175 197 0
173 197 0
174 196 0
172 196 0
171 194 0
173 196 0
171 195 0
172 195 0
174 197 0
174 197 0
172 196 0
172 196 0
173 196 0
170 194 0
169 192 31
146 170 105
114 141 141
71 106 173
62 99 179
62 99 177
63 100 181
62 99 180
61 99 181
62 99 181
62 99 179
61 99 179
62 99 178
61 99 181
61 98 180
62 99 181
61 99 181
62 99 181
62 99 181
62 99 181
61 99 181
61 99 181
61 99 181
61 99 181
62 99 181
62 99 181
61 99 181
61 99 181
61 98 181
62 99 181
61 99 181
61 99 181
61 99 180
61 98 181
62 99 180
61 99 181
61 99 181
62 99 181
62 99 181
61 99 181
62 99 181
61 98 181
62 99 180
62 99 181
61 98 180
61 99 181
61 98 181
61 98 180
62 99 181
61 98 179
61 98 180
62 99 180
62 99 178
62 99 180
61 98 180
61 98 178
62 99 181
61 97 174
61 98 177
98 128 154
135 160 120
160 184 68
171 195 0
173 195 0
172 195 0
172 195 0
172 195 0
172 196 0
172 195 0
173 196 0
173 197 0
174 197 0
172 195 0
173 195 0
174 197 0
170 193 0
174 197 0
170 194 0
171 194 0
167 191 0
173 196 0
174 197 0
173 196 0
173 197 0
173 196 0
173 197 0
171 195 0
173 196 0
172 194 0
172 196 0
173 197 0
173 196 0
173 195 0
173 196 0
171 195 0
174 197 0
173 195 0
173 195 0
135 139 42
150 143 69
157 149 72
160 151 78
158 150 77
160 151 80
173 163 90
171 162 87
174 164 93
176 166 95
181 172 99
181 172 99
181 172 100
183 173 103
182 173 101
184 174 106
184 175 108
185 175 109
187 177 112
186 176 112
186 177 114
184 176 114
185 176 114
184 176 114
182 175 114
183 175 114
182 175 114
181 174 114
180 174 114
181 174 114
180 174 114
179 173 114
177 173 114
178 173 114
177 173 114
176 172 114
176 172 114
176 172 114
176 172 114
174 171 114
174 171 114
171 170 114
173 171 114
171 170 114
172 170 114
172 170 114
171 170 114
170 169 114
170 169 114
170 169 114
170 169 114
170 169 114
169 169 114
169 169 114
168 169 114
168 168 114
167 168 114
168 168 114
167 168 114
167 168 114
167 168 114
166 168 114
167 168 114
166 168 114
166 167 114
166 168 114
166 167 114
166 167 114
165 167 114
165 167 114
166 167 114
165 167 114
166 167 114
165 167 114
166 167 114
165 167 114
165 167 114
166 167 114
166 167 114
165 167 114
165 167 114
165 167 114
165 167 114
166 168 114
166 168 114
167 168 114
166 168 114
166 168 114
167 168 114
166 167 114
167 168 114
167 168 114
168 168 114
167 168 114
168 168 114
168 168 114
168 168 114
170 169 114
169 169 114
169 169 114
169 169 114
170 169 114
170 169 114
170 169 114
171 169 114
173 170 114
172 170 114
173 171 114
173 170 114
174 171 114
174 171 114
174 171 114
174 171 114
176 172 114
175 171 114
178 173 114
177 172 114
179 174 114
179 174 114
179 173 114
181 174 114
183 175 114
180 174 114
181 174 114
182 175 114
183 175 114
183 175 114
183 175 114
185 176 114
188 177 114
187 177 113
186 176 110
185 176 110
184 174 107
175 166 99
183 173 108
174 165 97
174 164 97
168 159 91
165 156 91
165 156 87
157 149 76
155 147 79
153 146 72
141 134 63
145 148 44
173 197 0
173 196 0
174 197 0
172 196 0
174 198 0
174 197 0
174 197 0
175 198 0
176 198 0
175 198 0
174 197 0
174 198 0
174 197 0
173 197 0
175 198 0
174 197 0
173 196 0
173 196 0
174 198 0
174 197 0
174 197 0
173 196 0
174 197 0
174 198 0
174 197 0
172 195 0
173 197 0
174 197 0
173 197 0
172 194 0
172 196 0
173 197 0
174 197 0
172 196 0
174 198 0
174 198 0
173 196 0
175 197 0
172 196 0
173 197 0
173 197 0
174 197 0
175 198 0
174 197 0
174 197 0
172 195 0
172 196 0
173 196 0
174 198 0
173 196 0
172 195 0
171 196 0
173 197 0
173 197 0
173 197 0
172 196 0
174 198 0
173 196 0
172 196 0
173 197 0
174 197 0
173 196 0
174 198 0
173 197 0
171 194 0
174 197 0
174 198 0
174 197 0
173 197 0
175 198 0
173 196 0
174 197 0
172 196 0
174 197 0
173 197 0
173 196 0
173 197 0
174 198 0
173 197 0
173 197 0
172 196 0
173 196 0
174 197 0
174 197 0
174 198 0
173 196 0
174 197 0
175 198 0
173 196 0
174 197 0
173 197 0
174 197 0
173 196 0
173 197 0
175 198 0
173 196 0
174 197 0
175 198 0
172 196 0
173 197 0
174 197 0
172 195 0
174 197 0
173 197 0
173 197 0
173 196 0
175 198 0
174 197 0
172 196 0
174 198 0
173 195 0
170 195 0
173 196 0
173 196 0
172 196 0
173 196 0
172 195 0
173 196 0
175 198 0
173 197 0
172 196 0
172 195 0
174 197 0
172 196 0
173 196 0
174 198 0
171 195 0
173 196 0
173 196 0
171 195 0
173 196 0
173 196 0
173 196 0
174 197 0
173 196 0
173 196 0
174 196 0
172 196 0
172 195 0
173 196 0
173 196 0
174 197 0
172 196 0
173 196 0
171 195 0
174 196 0
174 197 0
173 196 0
173 196 0
171 195 0
172 195 0
171 195 0
173 195 0
170 194 0
155 178 82
113 140 145
71 105 175
62 99 181
62 99 178
62 99 180
62 99 181
61 99 180
62 99 181
61 99 181
61 99 181
61 98 181
62 99 181
61 98 181
62 99 181
61 99 181
62 99 181
62 99 181
61 98 181
61 99 181
61 99 181
61 99 181
61 99 181
61 98 181
62 99 181
61 99 181
61 98 181
62 99 181
61 98 181
61 99 181
61 99 181
61 99 181
61 99 181
61 99 181
61 99 181
62 99 181
62 99 181
61 98 180
62 99 181
61 99 181
61 98 181
62 99 181
61 99 181
61 99 181
61 98 181
61 99 181
61 99 181
62 99 179
62 99 180
61 99 180
62 99 181
61 98 180
61 99 180
62 99 179
62 99 180
62 99 180
62 99 180
62 99 179
62 99 178
61 98 180
62 99 179
61 97 176
61 98 178
62 98 177
100 128 154
137 162 113
169 192 26
173 196 0
173 197 0
173 195 0
173 196 0
171 195 0
171 194 0
170 193 0
172 196 0
170 193 0
170 193 0
173 197 0
172 193 0
172 195 0
173 197 0
173 197 0
173 197 0
174 197 0
171 194 0
171 193 0
173 196 0
174 197 0
172 195 0
171 194 0
173 196 0
171 194 0
173 195 0
171 194 0
172 195 0
174 196 0
172 196 0
173 196 0
175 197 0
156 170 19
129 123 48
148 140 69
155 147 70
157 149 71
157 149 79
169 159 86
165 157 84
170 161 86
175 166 93
177 168 96
183 173 102
180 171 98
184 174 104
184 174 106
184 174 106
185 175 108
184 174 108
185 175 110
187 177 113
185 176 110
185 176 113
186 177 114
186 177 114
185 176 114
184 176 114
183 175 114
181 174 114
181 174 114
182 175 114
179 173 114
179 174 114
178 173 114
178 173 114
179 173 114
177 173 114
177 172 114
176 172 114
175 171 114
175 171 114
174 171 114
174 171 114
173 170 114
173 171 114
173 170 114
171 170 114
172 170 114
170 169 114
171 170 114
171 170 114
169 169 114
172 170 114
169 169 114
171 170 114
169 169 114
169 169 114
169 169 114
167 168 114
169 169 114
167 168 114
168 168 114
167 168 114
167 168 114
168 168 114
167 168 114
165 167 114
166 167 114
166 168 114
166 167 114
166 167 114
166 167 114
166 167 114
166 167 114
166 167 114
165 167 114
166 167 114
165 167 114
166 167 114
165 167 114
166 167 114
165 167 114
166 167 114
165 167 114
166 167 114
166 167 114
166 167 114
166 167 114
166 167 114
166 168 114
167 168 114
167 168 114
168 168 114
168 168 114
168 168 114
168 168 114
168 168 114
168 168 114
168 168 114
168 168 114
169 169 114
170 169 114
170 169 114
170 169 114
171 170 114
172 170 114
172 170 114
171 170 114
174 171 114
172 170 114
174 171 114
174 171 114
175 171 114
175 171 114
174 171 114
175 172 114
176 172 114
176 172 114
179 173 114
178 173 114
178 173 114
179 173 114
180 174 114
182 175 114
182 175 114
181 174 114
182 175 114
181 175 114
183 175 114
185 176 114
186 176 114
186 177 114
184 176 112
187 176 110
186 176 109
185 175 109
184 175 107
178 168 102
178 169 100
179 170 101
172 163 93
168 160 86
171 161 90
163 154 89
159 150 77
151 144 74
147 138 71
136 128 65
165 179 34
174 198 0
174 198 0
174 196 0
174 198 0
172 196 0
174 197 0
173 196 0
174 197 0
173 197 0
174 197 0
174 197 0
173 196 0
172 196 0
172 196 0
172 195 0
174 198 0
175 198 0
174 197 0
174 198 0
174 197 0
171 196 0
173 196 0
175 198 0
174 198 0
171 196 0
174 198 0
173 197 0
173 196 0
175 198 0
175 198 0
174 198 0
173 196 0
176 198 0
175 198 0
173 196 0
171 195 0
174 198 0
174 197 0
173 197 0
173 197 0
176 199 0
173 196 0
174 197 0
171 195 0
174 197 0
175 198 0
171 195 0
175 198 0
174 198 0
174 197 0
176 198 0
173 196 0
172 196 0
174 197 0
173 196 0
173 197 0
173 197 0
172 196 0
174 197 0
172 196 0
174 197 0
174 197 0
175 198 0
174 197 0
173 197 0
173 197 0
172 195 0
173 196 0
174 197 0
171 195 0
174 197 0
173 196 0
173 196 0
174 198 0
174 197 0
171 195 0
174 197 0
173 197 0
174 197 0
175 198 0
172 196 0
173 196 0
176 199 0
173 196 0
172 195 0
174 197 0
173 197 0
173 197 0
174 196 0
172 195 0
173 196 0
173 197 0
173 196 0
174 197 0
173 196 0
172 195 0
172 195 0
174 197 0
174 196 0
174 198 0
170 194 0
173 196 0
171 195 0
173 196 0
172 195 0
171 195 0
173 197 0
173 197 0
174 196 0
172 196 0
174 197 0
174 197 0
173 196 0
172 196 0
171 194 0
175 198 0
174 197 0
175 197 0
174 198 0
173 197 0
174 197 0
174 197 0
172 196 0
170 194 0
175 198 0
173 197 0
171 195 0
171 195 0
174 198 0
175 198 0
175 198 0
170 194 0
174 197 0
173 195 0
173 196 0
171 195 0
172 196 0
174 197 0
173 197 0
174 197 0
174 197 0
174 197 0
174 197 0
174 197 0
172 196 0
174 196 0
173 196 0
172 196 0
173 196 0
171 195 0
171 194 36
133 159 121
91 121 161
62 99 181
61 99 178
62 99 180
62 99 180
61 98 179
62 99 181
62 99 180
62 99 181
61 99 180
61 98 181
61 98 181
62 99 180
62 99 181
61 99 181
62 99 181
62 99 181
61 98 181
61 99 181
61 99 181
62 99 181
61 99 181
61 99 181
61 99 181
61 99 181
62 99 181
61 99 181
61 98 181
61 99 181
62 99 181
61 98 181
62 99 181
61 99 181
61 99 181
62 99 181
61 98 181
61 99 181
62 99 181
61 99 181
62 99 181
61 99 181
62 99 181
61 99 181
61 99 181
61 99 181
61 98 181
61 98 180
61 99 181
61 98 181
61 99 181
61 99 181
62 98 179
61 99 181
61 99 181
61 99 180
62 99 180
61 99 180
62 99 179
62 99 179
62 99 180
61 98 177
62 99 178
61 99 179
62 98 177
62 98 178
61 97 176
62 98 177
77 109 165
134 158 123
156 180 65
171 195 0
172 196 0
173 196 0
172 195 0
174 197 0
174 196 0
173 196 0
174 197 0
174 197 0
173 195 0
172 195 0
173 197 0
171 194 0
174 196 0
174 197 0
174 196 0
171 195 0
170 192 0
171 195 0
171 195 0
173 195 0
174 197 0
172 195 0
173 196 0
170 194 0
172 195 0
169 192 0
174 196 0
174 197 0
174 197 0
139 139 48
149 141 65
148 140 72
147 140 67
159 152 72
161 154 78
169 160 90
170 161 86
177 168 94
173 165 90
180 170 99
181 171 100
183 173 101
184 174 104
184 174 104
181 173 103
184 175 108
187 177 111
184 175 109
183 174 109
183 175 111
184 176 113
185 176 114
185 176 114
182 175 114
183 175 114
184 176 114
183 175 114
181 174 114
180 174 114
181 175 114
179 173 114
180 174 114
180 174 114
177 172 114
176 172 114
177 172 114
177 172 114
175 172 114
176 172 114
174 171 114
173 171 114
174 171 114
173 171 114
173 171 114
173 171 114
172 170 114
172 170 114
171 170 114
170 169 114
171 170 114
169 169 114
170 169 114
169 169 114
168 169 114
169 169 114
168 168 114
169 169 114
168 168 114
168 168 114
167 168 114
168 168 114
167 168 114
167 168 114
166 167 114
167 168 114
167 168 114
166 168 114
166 168 114
166 168 114
166 167 114
166 168 114
166 167 114
165 167 114
165 167 114
166 167 114
166 167 114
166 167 114
166 167 114
166 167 114
166 167 114
166 167 114
166 168 114
166 168 114
166 167 114
166 167 114
167 168 114
167 168 114
166 168 114
167 168 114
167 168 114
168 168 114
168 169 114
168 168 114
168 169 114
169 169 114
168 168 114
168 169 114
169 169 114
170 169 114
169 169 114
169 169 114
170 169 114
170 169 114
170 169 114
171 169 114
172 170 114
172 170 114
172 170 114
173 171 114
174 171 114
173 171 114
175 172 114
175 172 114
176 172 114
177 172 114
176 172 114
177 172 114
179 174 114
177 173 114
179 173 114
180 174 114
182 175 114
180 174 114
182 175 114
184 176 114
183 175 114
183 175 114
185 176 114
185 176 114
186 177 114
186 176 112
186 176 112
185 175 109
185 175 108
186 176 109
181 171 103
182 172 103
178 169 98
176 167 98
173 163 96
167 158 91
158 149 82
162 154 80
152 143 77
158 149 75
132 126 57
160 166 52
173 197 0
174 197 0
175 198 0
172 195 0
173 197 0
173 196 0
174 197 0
173 196 0
173 197 0
176 199 0
174 197 0
172 196 0
174 197 0
172 196 0
173 196 0
175 198 0
173 196 0
175 198 0
173 196 0
174 198 0
172 196 0
174 198 0
174 198 0
175 198 0
174 197 0
175 198 0
174 198 0
173 196 0
173 197 0
174 198 0
172 195 0
176 198 0
173 197 0
175 198 0
175 197 0
173 197 0
174 197 0
172 195 0
173 197 0
174 197 0
171 195 0
176 198 0
175 197 0
172 196 0
173 197 0
172 196 0
173 197 0
174 198 0
175 198 0
174 197 0
171 196 0
173 196 0
175 197 0
172 195 0
173 197 0
174 197 0
173 196 0
172 196 0
174 197 0
174 198 0
174 197 0
175 198 0
173 196 0
171 194 0
174 197 0
175 197 0
171 195 0
174 198 0
176 198 0
175 198 0
174 197 0
172 195 0
173 196 0
175 198 0
174 196 0
177 199 0
172 194 0
174 197 0
174 198 0
174 198 0
173 196 0
170 195 0
173 196 0
175 198 0
173 196 0
170 194 0
175 198 0
174 197 0
175 197 0
173 197 0
172 195 0
173 197 0
175 198 0
174 196 0
174 198 0
176 198 0
173 196 0
174 197 0
174 197 0
172 196 0
175 198 0
173 197 0
173 197 0
173 197 0
175 198 0
172 196 0
172 196 0
173 196 0
171 195 0
173 196 0
175 198 0
174 197 0
172 195 0
172 196 0
172 195 0
174 197 0
174 197 0
171 194 0
174 197 0
173 197 0
173 197 0
172 194 0
173 197 0
174 197 0
175 198 0
174 197 0
174 197 0
173 197 0
174 197 0
170 192 0
173 195 0
174 196 0
174 196 0
172 195 0
173 197 0
175 198 0
174 197 0
175 198 0
172 195 0
174 197 0
171 194 0
173 196 0
171 194 0
173 196 0
174 198 0
172 195 0
172 195 0
175 198 0
165 188 60
130 156 128
74 108 175
62 99 176
61 99 177
62 99 180
62 99 179
62 99 179
61 99 179
62 99 181
62 99 180
62 99 179
62 99 181
62 99 181
62 99 180
61 99 181
61 99 181
62 99 181
61 98 181
62 99 181
62 99 181
61 98 181
61 99 181
62 99 181
61 99 181
61 98 181
62 99 181
61 98 181
62 99 181
62 99 181
62 99 181
61 98 181
62 99 181
62 99 181
61 99 181
62 99 181
61 98 181
61 99 181
61 99 181
62 99 181
62 99 181
62 99 181
61 98 181
62 99 181
61 99 181
62 99 181
61 99 181
62 99 181
61 99 181
62 99 181
62 99 181
61 99 180
62 99 181
62 99 181
61 99 181
62 99 179
62 99 181
63 100 181
61 98 181
61 98 181
61 98 180
61 98 180
61 98 178
62 99 181
61 98 179
62 99 179
62 99 181
61 99 180
62 99 179
62 99 179
62 98 178
62 98 177
62 98 176
61 97 173
102 129 151
153 178 88
170 192 25
174 197 0
175 198 0
174 197 0
170 194 0
172 193 0
171 194 0
171 194 0
173 196 0
173 197 0
172 196 0
172 195 0
172 195 0
174 197 0
169 192 0
172 194 0
173 196 0
171 193 0
175 198 0
170 193 0
172 195 0
172 194 0
171 194 0
173 195 0
173 196 0
174 197 0
174 198 0
163 183 11
138 131 58
152 144 69
147 140 63
159 151 80
159 151 74
169 160 85
170 161 90
163 155 80
175 166 91
178 169 95
181 171 99
179 170 95
180 171 96
185 175 105
185 175 106
184 175 106
185 176 110
188 177 110
185 175 108
184 175 112
185 176 112
183 175 111
185 176 114
184 176 114
183 175 114
183 175 114
181 174 114
181 174 114
181 174 114
180 174 114
181 174 114
180 174 114
178 173 114
178 173 114
179 173 114
176 172 114
176 172 114
178 173 114
176 172 114
176 172 114
174 171 114
174 171 114
174 171 114
173 171 114
173 171 114
172 170 114
172 170 114
172 170 114
172 170 114
170 169 114
170 169 114
171 170 114
170 169 114
168 168 114
170 169 114
169 169 114
169 169 114
168 168 114
168 168 114
168 168 114
168 168 114
167 168 114
168 168 114
168 168 114
167 168 114
167 168 114
167 168 114
168 168 114
166 167 114
167 168 114
166 168 114
166 168 114
166 168 114
166 167 114
166 167 114
166 167 114
166 167 114
166 168 114
166 167 114
166 168 114
166 167 114
166 167 114
166 168 114
166 167 114
166 168 114
167 168 114
167 168 114
167 168 114
166 168 114
167 168 114
168 168 114
168 168 114
167 168 114
167 168 114
168 168 114
169 169 114
168 168 114
170 169 114
170 169 114
170 169 114
170 169 114
170 169 114
170 169 114
171 170 114
171 170 114
170 169 114
173 171 114
172 170 114
173 171 114
171 170 114
173 170 114
173 171 114
174 171 114
175 172 114
175 171 114
176 172 114
177 172 114
177 172 114
179 173 114
177 173 114
179 173 114
179 174 114
179 173 114
181 174 114
182 175 114
183 175 114
184 176 114
182 175 114
185 176 114
188 177 114
186 177 114
186 177 113
185 176 111
184 175 109
185 176 110
184 174 106
182 173 101
185 174 107
176 167 96
179 169 98
172 162 95
169 160 92
162 152 85
157 148 78
158 150 81
151 143 75
143 136 65
151 142 70
169 189 19
174 198 0
174 197 0
174 197 0
175 198 0
174 198 0
172 195 0
173 196 0
174 197 0
174 197 0
172 196 0
173 197 0
173 197 0
174 198 0
172 196 0
174 197 0
173 197 0
174 197 0
171 195 0
171 195 0
173 196 0
173 196 0
173 197 0
173 197 0
171 195 0
174 197 0
173 196 0
173 197 0
174 198 0
173 197 0
170 194 0
173 196 0
174 197 0
173 197 0
173 196 0
174 197 0
173 196 0
175 198 0
172 196 0
175 198 0
173 196 0
173 197 0
173 197 0
175 198 0
174 197 0
173 196 0
171 195 0
174 197 0
173 196 0
173 197 0
173 197 0
174 196 0
172 196 0
175 198 0
172 195 0
173 197 0
175 198 0
171 195 0
172 195 0
175 198 0
175 198 0
174 197 0
171 195 0
173 197 0
174 197 0
176 198 0
172 196 0
172 196 0
175 198 0
174 197 0
174 197 0
174 198 0
174 197 0
175 198 0
174 197 0
174 197 0
173 197 0
173 196 0
170 194 0
173 196 0
173 197 0
175 198 0
172 195 0
175 198 0
174 198 0
169 193 0
172 196 0
171 195 0
172 196 0
173 196 0
172 196 0
172 196 0
172 196 0
173 197 0
173 197 0
173 197 0
172 196 0
174 197 0
173 197 0
174 197 0
174 197 0
173 197 0
173 196 0
173 197 0
174 197 0
173 196 0
171 194 0
172 196 0
174 197 0
171 195 0
172 196 0
171 195 0
174 197 0
174 197 0
173 197 0
175 198 0
175 198 0
174 196 0
170 194 0
171 194 0
174 197 0
176 198 0
173 196 0
171 194 0
174 197 0
173 195 0
174 198 0
174 197 0
173 196 0
175 197 0
174 197 0
175 197 0
172 196 0
174 197 0
173 196 0
174 196 0
171 195 0
172 196 0
173 196 0
174 197 0
173 197 0
171 195 0
171 195 0
173 196 0
175 197 0
174 197 0
161 185 65
112 139 142
64 100 178
62 99 179
61 99 180
62 99 179
61 98 177
62 99 181
62 99 181
61 99 181
61 99 181
62 99 181
61 99 180
62 99 180
62 99 181
61 99 181
62 99 181
62 99 181
61 99 181
62 99 181
61 99 181
61 99 181
62 99 181
62 99 181
62 99 181
61 98 181
60 98 181
61 99 181
61 99 181
61 99 181
61 98 181
61 99 181
61 98 181
61 98 181
61 99 181
61 99 181
61 99 181
61 98 181
62 99 181
61 98 181
61 99 181
61 99 181
61 99 181
61 99 181
61 99 181
61 98 181
61 99 181
61 99 181
61 99 181
61 98 181
61 99 181
61 98 181
61 99 181
61 99 181
62 99 181
61 98 180
62 99 181
61 99 181
61 98 181
62 99 180
61 98 177
61 99 181
62 99 181
61 99 181
61 98 178
61 98 179
62 99 181
62 99 180
61 98 180
62 98 176
61 99 179
62 98 177
62 99 179
62 98 178
62 99 179
62 98 176
62 98 176
61 98 173
90 120 160
147 171 100
171 194 0
171 194 0
173 196 0
172 194 0
171 195 0
171 195 0
172 196 0
173 195 0
171 194 0
170 193 0
173 196 0
175 196 0
172 196 0
173 196 0
173 195 0
173 196 0
172 195 0
171 195 0
173 196 0
173 196 0
174 198 0
171 193 0
173 195 0
169 193 0
173 196 0
137 142 42
141 135 57
152 144 69
158 149 72
168 159 80
160 151 76
166 157 80
171 162 87
178 167 96
178 168 94
178 169 95
181 172 97
181 172 99
180 171 99
182 173 101
184 175 106
185 175 107
183 174 107
187 177 111
185 176 110
187 177 113
185 176 112
186 177 114
185 176 114
186 177 114
185 176 114
183 175 114
182 175 114
182 175 114
182 175 114
181 174 114
181 174 114
179 173 114
178 173 114
180 174 114
179 173 114
178 173 114
178 173 114
176 172 114
174 171 114
175 171 114
175 171 114
174 171 114
174 171 114
173 171 114
173 171 114
173 171 114
173 171 114
172 170 114
171 170 114
171 170 114
170 169 114
170 169 114
171 170 114
169 169 114
169 169 114
170 169 114
169 169 114
168 168 114
169 169 114
168 168 114
167 168 114
168 168 114
168 168 114
167 168 114
168 168 114
167 168 114
167 168 114
167 168 114
167 168 114
166 167 114
167 168 114
166 167 114
167 168 114
166 168 114
166 167 114
167 168 114
167 168 114
166 168 114
166 168 114
167 168 114
166 168 114
167 168 114
167 168 114
166 168 114
166 167 114
166 168 114
167 168 114
167 168 114
167 168 114
167 168 114
167 168 114
167 168 114
168 168 114
168 168 114
168 168 114
168 169 114
170 169 114
169 169 114
169 169 114
169 169 114
170 169 114
171 170 114
171 170 114
171 170 114
171 170 114
172 170 114
172 170 114
174 171 114
173 170 114
173 171 114
174 171 114
174 171 114
174 171 114
175 172 114
176 172 114
177 172 114
176 172 114
177 172 114
176 172 114
178 173 114
179 173 114
180 174 114
181 174 114
179 174 114
182 175 114
182 175 114
183 175 114
184 176 114
185 176 114
187 177 114
186 177 114
188 177 113
186 176 112
186 176 110
186 176 110
184 174 106
184 175 106
179 170 101
179 169 99
181 171 101
175 165 97
168 158 89
169 160 90
157 149 81
168 159 88
160 151 87
149 141 72
140 133 63
154 164 39
173 196 0
173 196 0
173 196 0
174 197 0
173 195 0
172 196 0
173 197 0
174 197 0
173 196 0
173 196 0
172 196 0
172 196 0
173 196 0
173 197 0
175 198 0
175 198 0
175 198 0
174 197 0
175 198 0
173 197 0
172 196 0
174 197 0
174 197 0
173 196 0
173 196 0
175 198 0
174 197 0
173 197 0
170 194 0
172 196 0
173 196 0
173 196 0
174 197 0
174 198 0
174 197 0
174 197 0
173 196 0
174 197 0
174 197 0
174 197 0
173 197 0
172 196 0
173 197 0
173 196 0
172 196 0
172 196 0
172 196 0
174 197 0
173 197 0
176 199 0
174 197 0
173 197 0
171 195 0
174 197 0
173 196 0
175 198 0
172 194 0
173 196 0
173 196 0
175 198 0
172 196 0
174 198 0
173 196 0
174 196 0
172 196 0
174 197 0
174 198 0
174 196 0
170 194 0
173 196 0
173 196 0
172 195 0
171 195 0
173 197 0
171 194 0
174 197 0
172 196 0
173 196 0
172 196 0
171 195 0
172 195 0
174 197 0
174 197 0
173 196 0
172 196 0
174 197 0
172 196 0
172 196 0
173 196 0
174 197 0
173 196 0
173 197 0
172 196 0
173 197 0
173 196 0
175 197 0
174 197 0
174 197 0
174 197 0
171 194 0
174 197 0
174 196 0
173 197 0
172 196 0
174 198 0
172 196 0
175 197 0
172 196 0
171 195 0
174 198 0
172 195 0
171 195 0
172 196 0
173 196 0
176 199 0
174 197 0
174 197 0
173 196 0
173 196 0
175 198 0
174 197 0
173 195 0
172 195 0
170 194 0
171 194 0
172 195 0
174 197 0
174 197 0
172 195 0
174 197 0
173 196 0
173 196 0
172 195 0
174 197 0
171 195 0
174 197 0
173 196 0
173 197 0
173 197 0
174 198 0
169 192 0
172 195 0
174 197 0
163 187 62
103 131 145
61 98 177
61 99 181
62 99 180
62 99 178
62 99 179
62 99 178
61 98 178
62 99 181
62 99 180
61 99 179
62 99 180
61 99 181
61 99 181
61 99 181
62 99 180
61 98 180
62 99 180
62 99 181
62 99 181
62 99 181
61 98 181
62 99 181
61 99 181
61 99 181
61 98 181
62 99 181
61 98 181
62 99 181
61 99 181
61 98 181
61 99 181
61 99 181
61 99 181
61 98 181
62 99 181
61 98 181
61 99 181
61 98 181
61 98 181
61 99 181
62 99 181
61 98 181
62 99 181
61 99 181
61 99 181
61 99 181
61 99 181
61 98 181
62 99 181
62 99 181
62 99 181
61 99 181
61 98 181
62 99 180
62 99 181
61 98 181
62 99 180
62 99 181
61 99 181
61 99 181
60 98 180
62 99 181
61 98 180
62 99 181
61 99 180
61 99 180
61 98 179
61 98 178
61 98 179
61 98 179
61 98 178
62 99 180
62 99 178
61 97 176
62 99 179
62 98 178
61 97 175
61 99 180
62 99 177
61 97 172
92 121 159
147 171 93
172 196 0
171 193 0
171 193 0
175 198 0
170 192 0
170 192 0
173 197 0
173 196 0
171 194 0
171 194 0
171 195 0
173 197 0
173 196 0
171 194 0
172 195 0
174 197 0
172 194 0
172 196 0
172 195 0
174 197 0
172 194 0
172 195 0
165 185 11
135 128 60
145 138 62
150 143 62
152 144 70
163 155 77
166 157 80
164 155 82
170 161 86
176 167 91
179 169 93
178 169 96
179 170 94
182 173 101
185 175 103
184 174 101
183 174 104
183 174 104
184 175 108
186 176 110
185 176 109
184 175 110
184 175 112
185 176 113
184 176 113
185 176 114
184 176 114
185 176 114
183 175 114
181 174 114
183 175 114
181 174 114
180 174 114
182 175 114
179 173 114
180 174 114
177 172 114
177 172 114
180 174 114
176 172 114
175 172 114
175 171 114
175 172 114
174 171 114
174 171 114
174 171 114
173 171 114
173 170 114
172 170 114
172 170 114
172 170 114
171 170 114
170 169 114
171 170 114
170 169 114
170 169 114
170 169 114
169 169 114
169 169 114
169 169 114
169 169 114
169 169 114
168 169 114
168 168 114
168 168 114
168 168 114
168 168 114
168 168 114
167 168 114
168 168 114
167 168 114
166 167 114
166 168 114
167 168 114
167 168 114
166 168 114
166 168 114
166 168 114
167 168 114
167 168 114
166 168 114
167 168 114
167 168 114
166 168 114
167 168 114
167 168 114
166 168 114
167 168 114
167 168 114
167 168 114
168 168 114
168 168 114
168 168 114
168 168 114
168 168 114
169 169 114
169 169 114
169 169 114
169 169 114
168 168 114
170 169 114
170 169 114
171 170 114
171 170 114
172 170 114
170 169 114
171 170 114
172 170 114
173 171 114
173 171 114
171 170 114
172 170 114
173 171 114
175 171 114
174 171 114
175 172 114
175 172 114
176 172 114
176 172 114
178 173 114
179 173 114
179 173 114
178 173 114
179 173 114
180 174 114
182 175 114
182 175 114
182 175 114
183 175 114
184 176 114
185 176 114
184 176 114
187 177 114
187 177 113
185 176 111
186 176 112
186 176 109
184 175 106
182 173 102
180 171 103
180 170 99
174 164 95
179 169 99
176 167 98
165 156 84
169 160 84
162 153 87
166 156 89
156 148 72
134 128 58
139 135 60
175 198 11
175 197 0
175 197 0
175 198 0
174 198 0
174 197 0
174 197 0
173 197 0
173 197 0
175 198 0
174 197 0
171 194 0
174 198 0
174 197 0
175 198 0
173 197 0
175 198 0
173 197 0
172 196 0
175 198 0
172 197 0
173 197 0
174 197 0
173 196 0
172 197 0
172 195 0
172 195 0
173 197 0
172 195 0
174 197 0
175 198 0
174 197 0
174 197 0
173 196 0
173 196 0
174 197 0
173 196 0
174 197 0
173 197 0
176 198 0
171 195 0
174 197 0
175 198 0
173 197 0
174 197 0
171 196 0
173 197 0
173 197 0
172 196 0
176 198 0
173 196 0
172 195 0
173 197 0
173 197 0
174 198 0
174 197 0
173 196 0
174 197 0
174 197 0
174 197 0
170 194 0
173 197 0
172 196 0
173 196 0
174 197 0
173 197 0
174 197 0
173 197 0
174 197 0
172 196 0
173 197 0
173 196 0
175 198 0
174 197 0
173 197 0
174 197 0
174 196 0
174 197 0
173 196 0
173 197 0
173 197 0
176 198 0
173 197 0
174 197 0
173 196 0
174 197 0
174 198 0
172 195 0
174 198 0
173 196 0
172 196 0
172 195 0
173 196 0
169 193 0
173 197 0
174 197 0
172 196 0
174 197 0
175 198 0
173 197 0
172 196 0
174 197 0
173 195 0
173 197 0
171 195 0
173 196 0
173 197 0
173 196 0
172 196 0
172 195 0
175 198 0
172 195 0
173 196 0
172 196 0
172 195 0
173 196 0
174 197 0
174 198 0
175 197 0
169 193 0
174 197 0
176 198 0
175 198 0
175 197 0
173 197 0
172 195 0
172 195 0
174 197 0
170 194 0
174 198 0
175 198 0
174 197 0
173 197 0
172 195 0
174 197 0
172 194 0
172 194 0
173 197 0
172 195 0
174 197 0
173 196 0
164 187 54
121 147 134
66 102 178
62 99 176
62 99 178
61 99 181
62 99 180
62 99 180
62 99 179
62 99 181
62 99 179
62 99 180
62 99 181
61 99 180
62 99 181
61 99 181
62 99 179
61 99 180
61 99 181
61 98 180
62 99 181
62 99 181
62 99 181
62 99 181
62 99 181
61 98 181
61 99 181
61 99 181
61 98 181
61 98 181
61 99 181
61 99 181
61 99 181
61 99 181
62 99 181
62 99 181
62 99 181
61 98 181
61 98 181
61 99 181
62 99 181
61 98 181
61 98 181
62 99 181
61 98 181
62 99 181
61 99 181
61 98 181
61 99 181
61 99 181
62 99 181
62 99 181
61 99 181
62 99 181
62 99 181
61 99 181
61 99 181
61 98 181
61 99 180
61 99 181
61 98 181
61 98 181
62 99 180
61 99 181
61 99 181
62 99 181
61 98 180
62 99 180
61 99 181
62 99 180
61 99 180
61 98 180
62 99 181
61 98 178
62 99 180
62 98 177
61 99 179
62 99 179
62 99 180
61 98 176
61 98 177
61 98 178
62 99 179
62 98 175
61 98 176
61 98 176
88 118 161
148 172 90
171 194 0
169 192 0
173 194 0
172 196 0
172 196 0
173 196 0
174 197 0
169 192 0
170 192 0
172 195 0
173 196 0
173 196 0
170 193 0
173 197 0
171 194 0
172 194 0
175 198 0
173 196 0
172 194 0
173 196 0
144 153 28
136 129 56
153 145 72
155 147 70
159 151 74
157 149 75
164 155 81
170 161 87
173 164 87
177 168 90
180 170 96
181 172 95
182 172 99
183 173 101
183 173 101
182 173 101
185 175 105
185 175 107
184 175 106
185 175 109
186 176 110
184 175 109
186 176 113
186 176 112
187 177 114
183 175 114
181 174 113
181 174 113
183 175 114
180 173 113
181 174 113
178 172 113
179 173 113
176 171 113
180 174 114
178 173 114
178 173 114
179 173 114
177 172 114
177 172 114
177 173 114
177 172 114
177 172 114
175 171 114
176 172 114
176 172 114
172 170 114
172 170 114
174 171 114
172 170 114
172 170 114
173 170 114
171 169 114
171 170 114
170 169 114
171 170 114
171 170 114
170 169 114
169 169 114
169 169 114
169 169 114
168 168 114
169 169 114
168 168 114
168 168 114
168 168 114
168 168 114
168 168 114
168 168 114
168 168 114
167 168 114
167 168 114
167 168 114
168 168 114
167 168 114
167 168 114
167 168 114
167 168 114
167 168 114
166 168 114
167 168 114
168 168 114
167 168 114
166 168 114
167 168 114
167 168 114
167 168 114
167 168 114
167 168 114
167 168 114
167 168 114
168 168 114
168 168 114
168 168 114
168 168 114
168 169 114
168 168 114
169 169 114
170 169 114
170 169 114
169 169 114
169 169 114
169 169 114
170 169 114
171 170 114
171 170 114
172 170 114
172 170 114
172 170 114
172 170 114
173 171 114
173 171 114
174 171 114
174 171 114
175 172 114
175 172 114
175 171 114
177 172 114
177 173 114
178 173 114
177 172 114
180 174 114
179 173 114
179 173 114
181 174 114
180 174 114
183 175 114
183 175 114
183 175 114
185 176 114
183 175 114
184 176 114
184 176 114
186 176 113
186 176 110
185 176 111
184 175 108
187 176 110
184 175 107
179 169 97
185 175 104
177 167 97
181 171 101
172 163 94
176 166 94
165 155 93
164 155 84
161 152 82
148 142 67
150 142 70
145 137 65
157 172 28
174 197 0
174 197 0
174 197 0
174 196 0
176 198 0
171 195 0
173 196 0
173 197 0
174 197 0
174 197 0
174 197 0
174 197 0
173 196 0
172 195 0
174 197 0
174 197 0
174 197 0
174 197 0
174 197 0
176 198 0
172 196 0
172 196 0
174 197 0
174 198 0
173 197 0
173 196 0
174 197 0
173 197 0
173 197 0
173 197 0
174 198 0
174 197 0
172 196 0
173 197 0
173 196 0
171 195 0
174 197 0
173 196 0
174 198 0
175 198 0
175 198 0
174 198 0
174 197 0
174 197 0
172 196 0
173 196 0
173 197 0
172 196 0
175 198 0
172 195 0
173 196 0
175 198 0
173 197 0
173 197 0
172 196 0
172 195 0
173 196 0
174 197 0
172 196 0
174 197 0
173 196 0
174 198 0
174 197 0
173 196 0
174 197 0
172 196 0
173 196 0
173 196 0
174 197 0
174 197 0
174 197 0
170 194 0
173 196 0
174 198 0
171 195 0
173 197 0
171 195 0
173 196 0
173 196 0
172 195 0
172 195 0
172 195 0
172 196 0
173 196 0
172 196 0
173 196 0
173 196 0
174 197 0
172 196 0
174 197 0
172 195 0
173 196 0
171 195 0
174 197 0
171 195 0
172 196 0
173 197 0
171 195 0
173 197 0
173 196 0
174 197 0
173 195 0
173 195 0
171 194 0
174 197 0
173 197 0
174 198 0
172 195 0
173 197 0
171 196 0
173 197 0
174 197 0
173 196 0
174 197 0
173 197 0
173 197 0
172 196 0
172 195 0
173 197 0
172 195 0
172 196 0
174 196 0
173 196 0
172 196 0
172 196 0
173 196 0
172 195 0
173 196 0
174 197 0
175 198 0
173 196 0
171 194 0
171 194 0
170 194 0
172 195 0
174 197 0
170 193 0
175 197 0
170 193 25
122 148 136
74 107 169
62 99 181
62 99 179
62 99 179
62 99 180
62 99 180
62 99 179
62 99 179
62 99 179
61 98 180
62 99 181
62 99 180
61 99 181
61 99 181
62 99 181
61 99 181
61 99 181
62 99 181
61 98 180
61 99 181
62 99 181
62 99 181
61 99 181
61 98 181
61 98 181
61 99 181
62 99 181
62 99 181
61 98 181
61 99 181
62 99 181
61 98 181
61 99 181
61 98 181
61 99 181
62 99 181
62 99 181
61 98 181
61 99 181
61 98 181
61 98 181
62 99 181
61 98 181
61 98 181
61 99 181
61 99 181
61 98 181
62 99 181
61 99 181
61 99 181
61 99 181
61 98 181
61 98 181
62 99 181
61 99 181
61 99 181
61 99 181
62 99 181
62 99 181
61 99 181
61 98 181
62 99 181
61 98 181
62 99 180
62 99 181
62 99 180
61 99 181
61 98 179
62 99 179
62 99 180
61 98 180
61 99 181
61 98 180
61 98 179
61 99 181
62 98 179
62 99 180
62 98 177
62 99 179
61 98 178
61 99 180
62 99 178
62 98 178
63 99 177
61 98 175
61 98 177
61 97 175
62 99 178
113 140 144
163 187 60
169 193 0
174 197 0
173 196 0
172 195 0
172 195 0
173 196 0
174 196 0
171 194 0
172 195 0
172 196 0
173 196 0
173 196 0
173 195 0
171 193 0
171 194 0
173 196 0
174 197 0
173 196 0
138 135 54
143 135 63
148 142 64
154 146 70
160 151 79
166 157 79
164 155 79
171 162 81
175 165 87
172 163 84
179 169 93
180 170 93
184 174 101
180 171 97
184 174 103
181 172 99
184 174 104
183 173 103
183 174 106
187 176 109
183 174 109
185 176 110
184 175 112
183 174 111
181 173 113
183 175 113
178 170 111
181 173 113
178 171 113
182 174 114
176 171 113
175 169 112
179 173 114
176 170 112
176 171 113
176 171 113
177 172 114
174 170 113
178 172 114
177 173 114
176 172 114
175 171 114
176 172 114
175 172 114
173 171 114
175 171 114
174 171 114
173 170 114
174 171 114
173 170 114
172 170 114
172 170 114
171 170 114
170 169 114
171 170 114
171 170 114
170 169 114
169 169 114
170 169 114
171 170 114
169 169 114
169 169 114
170 169 114
169 169 114
169 169 114
169 169 114
168 168 114
168 168 114
168 168 114
169 169 114
168 168 114
168 168 114
168 168 114
167 168 114
168 168 114
166 168 114
167 168 114
167 168 114
167 168 114
167 168 114
167 168 114
167 168 114
168 168 114
167 168 114
167 168 114
168 168 114
168 168 114
168 168 114
167 168 114
168 168 114
168 168 114
169 169 114
168 168 114
169 169 114
170 169 114
169 169 114
169 169 114
170 169 114
170 169 114
170 169 114
170 169 114
171 170 114
171 170 114
170 169 114
173 171 114
171 170 114
171 170 114
172 170 114
173 171 114
173 171 114
174 171 114
173 171 114
174 171 114
174 171 114
175 172 114
175 172 114
175 172 114
176 172 114
179 173 114
177 173 114
178 173 114
179 173 114
179 173 114
179 174 114
180 174 114
182 175 114
183 175 114
185 176 114
184 176 114
184 176 114
183 175 114
185 176 114
186 176 114
187 177 113
186 176 113
183 175 109
186 176 109
184 174 106
185 175 108
181 172 100
178 168 97
177 168 99
169 161 92
177 167 97
174 164 91
165 156 87
164 155 82
159 150 82
158 150 76
139 131 66
141 134 67
153 157 47
174 196 0
173 197 0
173 196 0
174 197 0
175 198 0
174 197 0
172 196 0
174 197 0
173 196 0
174 197 0
175 198 0
175 198 0
174 197 0
173 197 0
174 197 0
172 195 0
174 198 0
177 199 0
173 197 0
173 197 0
172 196 0
174 197 0
174 197 0
173 197 0
174 197 0
174 198 0
174 197 0
172 195 0
175 198 0
173 197 0
173 197 0
172 195 0
175 198 0
175 198 0
173 197 0
174 197 0
174 197 0
174 197 0
174 197 0
170 194 0
174 197 0
173 196 0
174 197 0
173 196 0
175 198 0
172 196 0
173 197 0
174 197 0
173 197 0
172 196 0
171 194 0
173 196 0
174 197 0
174 197 0
174 196 0
173 197 0
172 196 0
172 196 0
175 198 0
173 197 0
176 198 0
173 196 0
172 195 0
174 197 0
175 198 0
173 197 0
172 195 0
172 195 0
175 198 0
173 197 0
174 196 0
174 197 0
174 196 0
173 197 0
170 194 0
172 195 0
174 196 0
173 196 0
174 197 0
173 196 0
173 196 0
175 198 0
173 197 0
169 193 0
172 196 0
174 197 0
173 196 0
171 195 0
175 198 0
173 196 0
174 197 0
174 197 0
174 198 0
172 195 0
173 197 0
173 197 0
175 197 0
172 196 0
171 195 0
174 197 0
173 196 0
173 197 0
174 197 0
174 197 0
175 198 0
172 196 0
175 198 0
173 196 0
174 197 0
172 195 0
171 195 0
173 196 0
173 195 0
173 197 0
172 195 0
171 194 0
172 195 0
172 195 0
174 197 0
173 196 0
174 197 0
174 197 0
172 195 0
170 193 0
172 195 0
172 197 0
172 196 0
173 196 0
171 194 0
172 196 0
174 197 0
173 196 0
171 195 0
174 196 0
173 196 0
173 197 0
172 196 0
146 170 102
80 112 168
63 100 180
62 99 178
62 99 179
63 99 179
63 100 181
62 99 179
62 99 180
62 99 180
62 99 181
61 99 181
62 99 179
62 99 180
62 99 181
61 99 181
62 99 180
62 99 181
61 98 181
61 98 181
61 99 181
61 99 181
61 99 181
61 98 180
61 99 181
61 99 181
61 98 181
62 99 181
61 99 181
61 98 181
61 99 181
62 99 181
61 98 181
61 98 181
61 99 181
62 99 181
61 99 181
61 99 181
61 99 181
61 99 181
61 99 181
62 99 181
61 99 181
62 99 181
62 99 181
61 98 181
62 99 181
61 98 181
61 99 181
62 99 181
61 99 181
62 99 181
61 98 181
61 99 181
61 99 181
61 99 181
61 98 181
62 99 181
61 98 181
61 99 181
62 99 181
61 99 181
62 99 181
62 99 181
61 98 180
61 99 181
62 99 180
62 99 181
62 99 180
61 99 180
62 99 181
62 99 181
61 98 179
61 99 180
62 99 181
61 99 179
62 99 181
62 99 179
62 99 180
61 98 178
62 99 180
62 99 179
61 98 177
62 99 179
61 98 176
61 98 178
62 98 177
62 99 177
61 98 177
62 99 178
62 99 179
62 98 176
64 99 174
126 151 125
166 188 37
172 195 0
173 197 0
172 196 0
172 194 0
172 195 0
170 193 0
175 197 0
173 196 0
173 196 0
172 196 0
168 191 0
172 194 0
173 196 0
173 196 0
172 194 0
160 177 19
137 131 56
146 138 62
150 143 63
158 151 69
159 151 71
165 156 80
171 162 86
169 161 82
175 166 91
178 169 93
181 171 92
179 170 92
185 174 103
181 172 97
181 172 96
185 175 104
184 174 104
184 175 106
182 173 106
182 174 108
178 170 106
183 174 110
183 175 111
182 173 111
179 171 111
179 171 112
176 169 111
177 170 111
175 169 111
175 169 111
173 167 111
176 170 112
171 166 111
172 167 111
178 172 113
172 168 112
175 171 113
174 170 113
174 169 113
176 172 114
174 171 113
177 172 114
176 172 114
174 171 114
175 172 114
175 171 114
174 171 114
175 172 114
172 170 114
173 171 114
173 170 114
172 170 114
173 170 114
173 170 114
171 170 114
171 170 114
171 170 114
170 169 114
172 170 114
170 169 114
169 169 114
168 169 114
169 169 114
170 169 114
170 169 114
169 169 114
169 169 114
169 169 114
168 168 114
167 168 114
168 168 114
168 168 114
168 168 114
167 168 114
168 168 114
168 168 114
168 168 114
167 168 114
167 168 114
168 168 114
167 168 114
168 168 114
167 168 114
167 168 114
168 168 114
168 168 114
169 169 114
167 168 114
168 168 114
169 169 114
168 168 114
169 169 114
168 168 114
169 169 114
170 169 114
169 169 114
170 169 114
169 169 114
170 169 114
170 169 114
170 169 114
171 170 114
170 169 114
170 169 114
172 170 114
171 170 114
173 170 114
173 171 114
171 170 114
172 170 114
173 171 114
175 171 114
174 171 114
175 172 114
176 172 114
176 172 114
177 172 114
177 172 114
178 173 114
179 173 114
179 173 114
180 174 114
182 175 114
180 174 114
181 174 114
182 175 114
182 175 114
183 175 114
183 175 114
185 176 114
184 176 114
185 176 114
185 176 114
185 176 113
183 174 109
185 176 110
185 175 109
185 175 108
184 174 104
184 174 102
180 171 99
181 172 96
179 169 99
176 167 97
170 161 88
164 156 85
169 160 85
159 150 83
160 151 80
160 152 75
148 141 67
137 130 62
171 192 0
173 197 0
174 197 0
174 197 0
174 197 0
173 197 0
173 196 0
174 197 0
174 196 0
175 198 0
173 196 0
174 197 0
173 196 0
174 197 0
172 196 0
173 197 0
173 197 0
174 197 0
173 196 0
174 198 0
174 197 0
175 197 0
174 198 0
174 197 0
173 196 0
173 197 0
171 194 0
174 197 0
173 196 0
173 197 0
174 198 0
173 197 0
174 197 0
173 197 0
174 197 0
175 198 0
173 197 0
175 197 0
175 197 0
173 196 0
173 197 0
172 196 0
174 198 0
171 195 0
175 198 0
170 194 0
174 197 0
174 198 0
171 194 0
173 196 0
173 197 0
175 198 0
172 195 0
173 197 0
172 194 0
173 196 0
175 197 0
174 197 0
173 197 0
174 197 0
175 198 0
173 196 0
173 196 0
171 194 0
174 197 0
172 196 0
171 194 0
173 197 0
172 195 0
174 197 0
172 196 0
172 195 0
173 196 0
175 198 0
172 196 0
172 195 0
175 198 0
173 197 0
172 195 0
172 195 0
173 196 0
175 197 0
173 197 0
174 196 0
173 197 0
174 197 0
174 197 0
169 193 0
174 197 0
173 197 0
174 197 0
172 195 0
173 196 0
172 196 0
170 194 0
173 196 0
174 197 0
173 196 0
172 195 0
172 195 0
172 196 0
173 196 0
172 196 0
173 196 0
171 195 0
175 198 0
174 197 0
172 195 0
173 197 0
173 197 0
173 197 0
171 195 0
170 194 0
173 196 0
168 192 0
172 195 0
172 196 0
172 196 0
173 196 0
172 195 0
175 198 0
173 196 0
173 196 0
171 195 0
169 194 0
172 195 0
173 196 0
172 196 0
173 197 0
172 196 0
172 195 0
173 196 0
170 193 0
171 194 0
173 196 0
162 185 70
105 132 152
62 99 175
62 99 178
61 99 178
61 98 178
61 98 179
62 99 180
63 99 178
62 99 179
62 99 178
62 99 180
61 99 177
61 99 181
62 99 179
62 99 181
62 99 181
61 98 180
62 99 179
62 99 180
61 98 179
62 99 181
61 99 180
62 99 181
61 98 181
62 99 181
61 99 181
61 99 181
61 99 181
61 98 180
61 99 181
61 98 181
61 99 181
61 99 181
61 99 181
61 99 181
61 99 181
62 99 181
61 98 181
61 99 181
61 98 181
62 99 181
61 98 181
62 99 181
62 99 181
62 99 181
62 99 181
61 99 181
62 99 181
61 99 181
61 99 181
62 99 181
61 98 181
61 99 181
61 98 181
61 99 181
61 99 181
61 98 181
61 99 181
62 99 181
61 99 181
61 99 181
62 99 181
62 99 181
62 99 181
61 99 181
62 99 181
61 98 180
62 99 181
62 99 181
62 99 181
61 98 180
62 99 181
62 99 180
62 99 181
61 98 180
62 99 180
61 98 178
62 99 181
62 99 181
61 99 181
62 99 180
62 99 179
62 99 181
61 98 179
62 99 179
62 98 178
61 97 177
62 98 176
61 98 177
62 98 177
61 98 176
61 98 177
62 98 175
61 97 175
61 97 173
80 111 162
141 165 104
172 195 0
173 195 0
171 193 0
171 194 0
172 195 0
173 197 0
170 193 0
172 195 0
171 194 0
172 195 0
170 194 0
173 195 0
171 195 0
171 195 0
145 149 44
140 134 56
154 147 67
156 148 71
164 155 82
160 152 73
161 154 76
169 160 85
181 171 97
174 165 90
180 171 95
178 170 91
181 172 95
182 173 99
184 174 103
184 174 101
183 174 103
183 174 105
181 172 103
181 172 106
180 171 108
178 170 107
179 171 110
178 171 110
173 166 108
178 171 111
179 171 112
175 168 111
177 170 111
176 169 111
171 166 110
169 165 110
173 168 111
173 168 112
168 164 110
173 168 111
173 168 112
173 168 112
175 171 113
173 169 112
175 170 113
174 170 113
175 171 113
174 171 114
174 171 114
175 172 114
175 171 114
174 171 114
174 171 114
173 171 114
172 170 114
174 171 114
173 171 114
172 170 114
172 170 114
171 170 114
170 169 114
171 170 114
171 170 114
171 170 114
170 169 114
170 169 114
171 170 114
170 169 114
170 169 114
169 169 114
170 169 114
168 168 114
169 169 114
168 168 114
169 169 114
168 168 114
168 168 114
168 168 114
168 169 114
168 168 114
169 169 114
168 168 114
168 168 114
168 168 114
168 168 114
167 168 114
168 168 114
167 168 114
167 168 114
168 168 114
168 168 114
168 169 114
168 169 114
168 168 114
169 169 114
168 168 114
169 169 114
169 169 114
169 169 114
170 169 114
170 169 114
170 169 114
171 169 114
170 169 114
170 169 114
172 170 114
171 170 114
171 170 114
171 170 114
173 170 114
172 170 114
172 170 114
173 171 114
172 170 114
174 171 114
172 170 114
175 172 114
175 172 114
175 171 114
175 171 114
175 172 114
176 172 114
176 172 114
178 173 114
179 173 114
179 173 114
180 174 114
180 174 114
179 173 114
179 173 114
180 174 114
182 175 114
182 175 114
184 176 114
184 176 114
184 176 114
185 176 114
186 177 113
185 175 109
186 177 114
186 176 110
184 175 108
184 175 106
183 174 106
186 175 103
181 171 100
177 168 97
176 167 97
173 164 97
176 166 95
168 160 85
168 158 87
167 158 84
162 153 81
159 149 80
141 134 65
128 122 47
161 175 36
174 197 0
174 197 0
172 197 0
175 197 0
174 197 0
174 197 0
173 196 0
174 198 0
174 196 0
174 197 0
174 198 0
172 196 0
172 196 0
174 197 0
174 197 0
174 197 0
173 196 0
173 197 0
173 196 0
175 198 0
175 198 0
175 198 0
174 197 0
174 197 0
175 198 0
172 195 0
173 197 0
175 198 0
174 197 0
173 197 0
172 196 0
169 193 0
173 197 0
172 196 0
171 195 0
175 198 0
173 196 0
173 197 0
174 198 0
174 197 0
174 198 0
172 195 0
176 198 0
174 198 0
174 197 0
175 198 0
174 197 0
170 193 0
172 195 0
175 197 0
171 195 0
176 198 0
170 194 0
174 197 0
172 196 0
174 197 0
172 195 0
174 197 0
172 196 0
174 197 0
173 196 0
176 199 0
173 196 0
175 198 0
171 195 0
173 196 0
173 197 0
173 197 0
174 197 0
174 196 0
172 196 0
173 196 0
174 198 0
173 196 0
173 196 0
174 197 0
176 198 0
175 197 0
173 197 0
172 195 0
172 195 0
172 196 0
174 197 0
173 196 0
172 196 0
173 196 0
175 197 0
175 197 0
175 198 0
175 198 0
172 195 0
174 196 0
173 196 0
172 195 0
173 196 0
172 196 0
173 196 0
174 196 0
173 196 0
172 196 0
173 197 0
175 198 0
175 197 0
173 196 0
173 196 0
173 197 0
170 194 0
172 196 0
172 195 0
173 196 0
173 196 0
171 194 0
172 194 0
171 195 0
174 196 0
172 195 0
173 197 0
173 196 0
172 196 0
171 195 0
175 198 0
171 195 0
173 197 0
173 197 0
173 196 0
172 196 0
171 195 0
169 193 0
174 197 0
171 194 0
172 196 0
171 194 0
173 197 0
135 159 105
67 103 176
62 99 176
63 100 178
62 99 176
62 99 177
62 99 177
62 99 177
61 98 177
62 99 179
61 98 180
62 99 181
62 99 180
62 99 180
61 98 179
62 99 179
61 98 179
61 99 181
62 99 179
62 99 181
61 98 179
62 99 181
62 99 181
62 99 181
62 99 181
62 99 181
61 98 180
61 99 181
62 99 180
61 99 181
62 99 181
62 99 181
61 99 181
62 99 181
61 98 181
62 99 181
61 99 181
61 99 181
61 99 181
61 99 181
61 98 181
61 99 181
61 99 181
61 99 181
62 99 181
61 99 181
62 99 181
62 99 181
62 99 181
61 99 181
62 99 181
62 99 181
61 99 181
61 99 181
62 99 181
61 99 181
62 99 181
62 99 181
62 99 181
62 99 181
61 98 181
61 98 181
61 99 181
61 99 181
61 98 181
61 99 180
62 99 181
62 99 181
62 99 181
62 99 181
62 99 181
61 99 180
62 99 181
62 99 180
62 99 180
61 98 181
62 99 180
61 99 181
62 99 181
61 98 179
62 99 181
62 99 179
61 98 178
61 98 178
62 99 178
61 98 177
62 98 177
63 99 179
62 99 179
61 98 176
61 98 176
62 98 178
62 99 180
61 97 175
60 97 175
62 99 178
61 97 174
61 97 173
61 97 169
101 129 151
167 190 48
171 194 0
173 195 0
175 198 0
172 194 0
172 196 0
171 194 0
171 194 0
170 193 0
176 198 0
169 193 0
173 195 0
170 192 0
136 130 48
146 139 62
141 134 61
154 146 70
160 152 71
162 153 76
160 153 76
173 164 88
173 164 86
178 169 91
178 169 93
182 172 96
182 172 95
184 174 102
182 172 94
182 172 98
183 173 102
179 170 100
179 170 104
177 169 109
178 169 104
175 167 106
178 170 109
180 172 110
176 168 106
174 168 110
177 169 111
176 169 111
175 169 111
170 164 109
169 163 109
172 166 110
173 168 111
171 167 111
171 166 111
173 168 111
169 165 110
174 169 112
165 162 109
171 166 111
172 169 113
175 171 113
172 169 113
176 172 114
175 171 113
173 170 113
176 172 114
174 171 114
175 172 114
174 171 114
174 171 114
173 171 114
171 170 114
172 170 114
172 170 114
173 171 114
172 170 114
173 170 114
171 170 114
171 170 114
171 170 114
170 169 114
170 169 114
170 169 114
170 169 114
170 169 114
168 169 114
170 169 114
169 169 114
169 169 114
169 169 114
169 169 114
169 169 114
169 169 114
168 169 114
168 168 114
168 168 114
169 169 114
169 169 114
168 169 114
168 169 114
168 168 114
169 169 114
168 168 114
168 169 114
169 169 114
168 168 114
169 169 114
168 168 114
169 169 114
169 169 114
169 169 114
170 169 114
169 169 114
171 170 114
170 169 114
170 169 114
169 169 114
170 169 114
171 170 114
171 170 114
171 170 114
171 170 114
171 170 114
173 170 114
170 169 114
174 171 114
171 170 114
173 171 114
173 171 114
173 171 114
174 171 114
175 172 114
176 172 114
176 172 114
175 172 114
176 172 114
177 173 114
178 173 114
179 173 114
179 174 114
180 174 114
180 174 114
180 174 114
182 175 114
180 174 114
183 175 114
181 174 114
183 175 114
183 175 114
186 177 114
184 176 114
186 177 114
186 176 113
186 176 112
185 176 110
186 176 110
184 175 109
183 174 107
184 174 106
184 174 104
181 172 97
182 172 102
175 166 93
178 169 97
173 164 93
169 160 86
173 164 90
158 150 70
156 147 76
154 146 74
151 143 75
145 139 62
138 143 39
174 198 0
172 194 0
174 197 0
175 198 0
173 196 0
175 198 0
173 196 0
174 197 0
171 195 0
172 196 0
173 197 0
174 198 0
173 197 0
171 195 0
171 195 0
171 194 0
173 197 0
173 197 0
175 198 0
174 197 0
172 196 0
172 196 0
175 198 0
174 197 0
175 198 0
175 198 0
171 196 0
174 197 0
174 197 0
173 196 0
174 197 0
173 197 0
173 196 0
173 196 0
175 198 0
172 195 0
173 197 0
174 198 0
173 196 0
170 193 0
173 196 0
174 197 0
174 197 0
174 197 0
173 197 0
174 197 0
172 195 0
172 196 0
174 197 0
172 195 0
172 196 0
173 196 0
172 195 0
173 196 0
173 197 0
173 196 0
172 195 0
174 197 0
173 197 0
173 197 0
173 197 0
174 196 0
172 196 0
174 197 0
171 195 0
172 195 0
175 198 0
174 197 0
175 198 0
174 196 0
175 198 0
174 197 0
171 195 0
173 196 0
173 197 0
173 196 0
171 194 0
174 197 0
172 197 0
173 196 0
171 195 0
171 194 0
173 196 0
173 197 0
171 195 0
172 196 0
170 195 0
173 197 0
174 198 0
174 196 0
172 196 0
174 197 0
174 197 0
173 196 0
174 198 0
172 195 0
173 196 0
169 193 0
174 197 0
173 196 0
173 197 0
174 198 0
172 196 0
174 197 0
174 197 0
173 196 0
172 195 0
173 197 0
172 195 0
173 196 0
174 197 0
171 194 0
172 195 0
172 195 0
172 196 0
171 194 0
171 195 0
174 196 0
173 196 0
172 194 0
173 196 0
174 197 0
173 196 0
172 195 0
173 195 0
174 197 0
172 195 0
172 195 0
171 195 0
174 198 0
173 196 0
163 187 57
93 123 156
62 99 178
62 99 180
62 99 173
62 99 178
62 99 177
62 99 180
62 99 176
62 99 178
61 99 179
62 99 180
61 99 179
62 99 178
62 99 181
61 99 176
62 99 181
62 99 181
62 99 179
62 99 181
62 99 180
61 99 181
62 99 180
62 99 181
62 99 180
62 99 180
62 99 181
62 99 179
62 99 181
62 99 181
60 98 181
62 99 181
61 99 181
62 99 181
62 99 181
61 98 181
61 99 181
61 99 181
62 99 181
62 99 181
62 99 181
62 99 181
62 99 181
62 99 181
61 99 181
62 99 181
61 99 181
62 99 181
62 99 181
61 98 181
61 98 181
62 99 181
62 99 181
62 99 181
61 99 181
61 98 181
62 99 181
62 99 181
60 98 181
61 99 181
61 99 181
62 99 181
62 99 181
61 99 181
62 99 181
62 99 181
62 99 181
62 99 181
62 99 181
61 99 181
62 99 181
62 99 181
62 99 181
61 99 181
61 98 181
61 99 180
61 98 178
61 98 179
62 99 181
62 99 181
62 99 181
61 99 180
62 99 180
63 99 180
61 98 180
62 99 181
61 99 180
61 98 176
62 99 178
62 99 179
62 99 178
62 99 180
63 100 181
61 99 179
62 99 177
61 98 176
61 98 178
61 98 174
61 97 173
61 96 173
62 99 176
61 97 175
72 105 167
140 164 108
174 196 0
172 195 0
173 196 0
172 196 0
172 196 0
171 194 0
171 194 0
171 194 0
174 197 0
169 192 0
155 167 28
144 137 58
135 129 56
149 142 63
165 157 75
156 148 74
163 155 78
165 157 79
167 159 80
175 166 89
177 168 90
177 168 88
176 168 87
178 170 92
181 171 95
181 172 98
183 174 103
178 169 98
181 172 105
179 170 105
178 170 107
179 171 109
180 172 107
169 163 104
172 164 107
178 170 111
170 164 107
176 168 110
171 165 110
169 163 109
171 165 109
168 163 108
172 166 110
170 164 109
168 163 110
175 169 112
171 167 111
166 162 109
172 168 112
171 167 111
171 166 111
174 170 113
169 166 112
173 169 113
169 166 111
175 171 113
171 167 112
173 170 113
173 171 114
175 172 114
175 171 114
173 171 114
174 171 114
174 171 114
172 170 114
174 171 114
172 170 114
173 171 114
172 170 114
173 170 114
171 170 114
171 170 114
171 170 114
171 169 114
170 169 114
170 169 114
170 169 114
169 169 114
169 169 114
170 169 114
170 169 114
169 169 114
169 169 114
169 169 114
169 169 114
169 169 114
168 168 114
168 169 114
169 169 114
169 169 114
169 169 114
168 168 114
168 169 114
168 168 114
169 169 114
169 169 114
169 169 114
170 169 114
169 169 114
170 169 114
169 169 114
169 169 114
169 169 114
170 169 114
170 169 114
169 169 114
169 169 114
170 169 114
171 170 114
171 170 114
170 169 114
171 170 114
172 170 114
171 170 114
173 170 114
172 170 114
171 170 114
174 171 114
173 171 114
174 171 114
175 171 114
173 170 114
175 172 114
173 171 114
176 172 114
176 172 114
176 172 114
178 173 114
176 172 114
178 173 114
179 173 114
178 173 114
179 173 114
179 173 114
181 174 114
180 174 114
182 175 114
182 175 114
180 174 114
184 176 114
185 176 114
184 176 114
185 176 114
186 177 114
187 177 113
187 177 113
187 176 110
184 175 109
186 176 109
183 174 106
184 174 103
185 175 106
184 174 104
186 175 104
180 170 99
180 170 96
173 164 92
173 164 90
175 165 94
168 158 87
159 151 79
155 147 72
156 147 75
144 137 62
131 127 48
173 195 16
173 196 0
174 197 0
174 197 0
175 197 0
174 197 0
173 196 0
173 195 0
173 196 0
173 197 0
174 197 0
174 197 0
174 197 0
174 197 0
173 197 0
175 198 0
172 196 0
174 197 0
173 196 0
173 197 0
173 197 0
172 196 0
174 197 0
173 196 0
174 197 0
173 197 0
176 198 0
172 196 0
175 198 0
175 198 0
170 194 0
171 194 0
174 197 0
175 198 0
172 196 0
172 196 0
174 197 0
174 198 0
173 197 0
172 195 0
173 197 0
173 197 0
173 197 0
172 196 0
172 197 0
172 196 0
174 198 0
171 195 0
171 195 0
173 197 0
174 197 0
173 197 0
173 196 0
171 195 0
173 196 0
173 197 0
174 197 0
174 198 0
173 197 0
173 196 0
174 197 0
174 197 0
172 196 0
174 197 0
172 196 0
172 196 0
173 196 0
174 197 0
172 195 0
173 196 0
175 198 0
171 194 0
173 197 0
173 197 0
174 197 0
172 196 0
173 197 0
173 196 0
175 198 0
174 197 0
171 195 0
170 194 0
174 197 0
173 196 0
175 198 0
174 197 0
175 198 0
171 195 0
175 198 0
171 194 0
173 197 0
170 193 0
175 198 0
173 197 0
174 197 0
174 198 0
174 197 0
172 195 0
173 197 0
173 197 0
172 195 0
172 195 0
173 196 0
173 195 0
171 194 0
172 196 0
174 197 0
172 196 0
170 195 0
171 194 0
173 197 0
172 195 0
173 196 0
171 195 0
173 196 0
172 196 0
173 197 0
171 194 0
174 196 0
173 197 0
174 197 0
173 196 0
173 197 0
171 194 0
171 194 0
171 194 0
172 195 0
173 196 0
171 195 0
172 196 0
145 170 100
82 114 164
63 99 178
61 98 176
63 99 178
62 99 176
61 98 181
62 99 179
62 99 179
62 99 178
62 99 179
62 99 179
62 99 180
62 99 181
62 99 179
62 99 180
62 99 180
62 99 180
62 99 180
62 99 181
62 99 181
62 99 181
62 99 181
62 99 181
62 99 181
62 99 181
62 99 181
62 99 181
62 99 181
62 99 181
62 99 181
61 99 181
61 99 181
62 99 181
62 99 180
61 99 181
62 99 181
62 99 181
61 99 181
62 99 181
61 99 181
62 99 181
61 98 181
61 98 181
61 98 181
62 99 181
61 99 181
62 99 181
61 99 181
61 99 181
61 99 181
61 99 181
61 98 181
61 99 181
62 99 181
61 98 181
62 99 181
61 98 181
62 99 181
61 99 181
62 99 181
61 99 181
62 99 181
62 99 181
61 99 181
61 98 181
62 99 181
61 98 180
62 99 181
61 99 181
61 98 181
61 99 181
62 99 181
62 99 181
62 99 181
61 99 181
61 99 181
62 99 180
61 99 181
61 98 179
62 99 181
62 99 178
62 99 181
61 99 179
62 99 180
61 99 180
62 99 177
61 98 179
62 99 179
62 99 179
62 99 181
62 99 177
62 98 178
61 98 179
61 98 175
61 97 176
61 98 178
61 98 176
63 99 177
62 98 176
62 98 175
61 97 177
62 98 175
61 98 175
61 96 169
112 138 137
167 190 51
171 194 0
173 196 0
171 193 0
172 195 0
172 195 0
172 194 0
172 195 0
173 195 0
140 143 41
147 140 61
144 136 65
150 144 63
148 140 62
157 149 75
166 157 78
168 159 84
173 163 84
177 168 89
176 167 83
182 173 97
182 172 96
180 171 96
178 170 95
181 171 100
180 171 103
177 168 101
180 171 103
172 165 99
179 170 105
175 168 105
172 165 105
165 159 100
170 163 107
167 160 106
166 159 105
168 162 107
171 165 109
166 161 108
172 166 110
174 167 111
174 169 112
172 166 110
168 164 110
163 160 107
165 161 108
164 161 108
169 164 110
164 161 109
169 165 111
172 168 112
165 163 110
170 167 112
175 171 114
172 169 113
172 168 112
173 170 113
171 168 113
174 170 113
174 171 114
175 172 114
174 171 114
174 171 114
173 171 114
172 170 114
172 170 114
172 170 114
173 171 114
172 170 114
171 170 114
170 169 114
171 170 114
172 170 114
170 169 114
170 169 114
171 169 114
170 169 114
170 169 114
171 170 114
169 169 114
170 169 114
169 169 114
169 169 114
169 169 114
169 169 114
169 169 114
169 169 114
169 169 114
169 169 114
168 168 114
169 169 114
169 169 114
169 169 114
169 169 114
169 169 114
169 169 114
170 169 114
170 169 114
169 169 114
170 169 114
170 169 114
170 169 114
170 169 114
170 169 114
170 169 114
171 169 114
171 170 114
170 169 114
171 170 114
171 170 114
173 170 114
173 170 114
172 170 114
172 170 114
172 170 114
172 170 114
172 170 114
171 170 114
173 170 114
174 171 114
173 171 114
174 171 114
175 171 114
176 172 114
177 173 114
177 173 114
178 173 114
178 173 114
178 173 114
178 173 114
180 174 114
181 174 114
180 174 114
181 174 114
181 174 114
182 175 114
182 175 114
180 174 114
184 175 114
183 175 114
186 177 114
186 177 114
187 177 114
187 177 113
184 176 112
183 175 110
185 176 109
186 176 110
184 174 104
182 173 101
180 171 98
184 174 104
184 174 103
180 170 101
178 167 96
177 168 95
174 164 95
175 165 94
171 161 90
162 153 80
151 144 68
154 146 70
145 137 66
134 127 59
164 181 30
175 197 0
175 197 0
173 196 0
175 197 0
173 196 0
173 196 0
172 195 0
173 197 0
174 197 0
174 198 0
173 196 0
171 194 0
172 196 0
175 198 0
172 196 0
175 198 0
175 197 0
173 197 0
172 196 0
176 198 0
174 197 0
173 197 0
173 196 0
171 195 0
171 196 0
173 196 0
174 196 0
173 197 0
171 195 0
173 196 0
172 195 0
173 197 0
175 198 0
174 197 0
171 194 0
173 197 0
172 196 0
172 195 0
173 197 0
173 196 0
175 198 0
171 194 0
174 197 0
173 197 0
174 197 0
175 197 0
173 196 0
175 198 0
172 196 0
173 196 0
175 198 0
174 197 0
174 197 0
173 196 0
175 198 0
174 198 0
173 196 0
170 195 0
172 195 0
172 196 0
174 197 0
172 196 0
174 198 0
172 196 0
173 196 0
172 196 0
174 197 0
172 196 0
174 197 0
173 196 0
172 195 0
172 196 0
173 197 0
172 196 0
171 195 0
174 197 0
174 196 0
174 197 0
174 197 0
174 196 0
172 195 0
172 195 0
172 196 0
173 196 0
172 195 0
173 195 0
175 198 0
174 197 0
173 197 0
171 194 0
172 195 0
170 194 0
173 196 0
172 196 0
171 194 0
172 195 0
174 197 0
174 198 0
175 198 0
173 197 0
172 195 0
173 197 0
171 194 0
171 195 0
173 196 0
174 198 0
172 196 0
172 196 0
174 196 0
167 191 0
173 197 0
171 195 0
173 197 0
173 196 0
174 197 0
173 196 0
169 193 0
173 197 0
173 197 0
173 196 0
172 196 0
173 197 0
173 197 0
174 196 0
173 196 0
174 197 0
171 195 0
171 194 40
124 150 133
62 99 177
62 99 178
62 99 178
62 99 179
62 99 179
62 99 178
62 99 179
62 99 181
62 99 180
62 99 179
61 99 179
62 99 179
62 99 179
61 98 178
61 99 180
62 99 181
61 99 180
62 99 179
62 99 179
62 99 181
61 99 181
62 99 179
62 99 181
62 99 181
61 99 181
61 99 181
62 99 180
61 99 181
62 99 180
62 99 181
62 99 181
62 100 181
62 99 181
61 99 181
62 99 180
62 99 180
62 99 181
61 98 181
62 99 181
61 99 181
61 98 181
61 98 181
61 99 181
61 99 181
61 98 181
62 99 181
61 98 181
62 99 181
62 99 181
61 99 181
61 99 181
62 99 181
62 99 181
61 99 181
62 99 181
62 99 181
61 99 181
61 99 181
62 99 181
62 99 181
62 99 181
62 99 181
62 99 181
62 99 181
62 99 181
61 98 181
62 99 181
61 98 181
61 99 181
61 99 181
61 99 181
61 99 181
61 99 180
62 99 181
61 98 180
62 99 177
62 99 180
62 99 181
62 99 181
62 99 180
62 99 179
62 99 180
61 98 179
61 98 178
61 98 180
62 99 180
63 100 180
62 99 180
62 99 179
62 99 179
61 98 179
61 99 179
61 98 176
62 99 178
62 99 179
62 99 176
62 99 177
62 99 178
62 99 178
61 98 175
61 97 174
61 98 175
62 98 178
62 98 176
61 98 173
63 99 177
88 118 159
158 180 77
175 197 0
172 195 0
173 195 0
170 193 0
171 194 0
172 194 0
172 195 0
130 125 47
140 134 57
160 152 67
158 150 70
150 143 67
166 157 83
163 155 74
170 161 84
174 165 86
179 169 90
176 168 85
180 171 93
183 173 100
179 170 96
181 171 97
175 166 98
176 167 99
170 163 94
173 166 97
168 161 95
165 158 98
173 165 103
164 159 103
167 161 104
171 164 107
162 156 102
167 161 107
167 160 105
165 160 107
168 162 108
172 166 110
161 156 106
164 160 107
167 162 108
164 160 107
169 165 110
164 161 108
163 160 108
164 161 108
168 164 110
166 163 110
162 160 108
172 168 113
165 163 110
168 165 111
170 167 112
174 170 113
171 168 112
172 169 113
172 169 113
174 171 114
177 172 114
174 171 114
174 171 114
173 171 114
172 170 114
173 170 114
173 171 114
172 170 114
173 171 114
172 170 114
171 170 114
171 170 114
172 170 114
171 170 114
172 170 114
170 169 114
171 170 114
170 169 114
170 169 114
170 169 114
169 169 114
169 169 114
170 169 114
169 169 114
169 169 114
169 169 114
169 169 114
170 169 114
170 169 114
170 169 114
169 169 114
170 169 114
170 169 114
169 169 114
169 169 114
169 169 114
169 169 114
169 169 114
169 169 114
170 169 114
170 169 114
172 170 114
171 170 114
170 169 114
172 170 114
172 170 114
171 170 114
171 170 114
172 170 114
171 170 114
172 170 114
173 171 114
173 170 114
173 171 114
173 171 114
173 171 114
173 171 114
173 171 114
174 171 114
175 171 114
176 172 114
173 171 114
176 172 114
176 172 114
177 172 114
176 172 114
177 172 114
177 172 114
179 173 114
179 173 114
179 173 114
179 173 114
181 174 114
181 174 114
182 175 114
180 174 114
183 175 114
183 175 114
184 176 114
184 176 114
184 176 114
186 176 114
186 176 114
186 176 113
186 176 110
185 176 110
187 177 111
184 174 106
185 175 107
184 175 107
183 174 104
185 175 105
183 173 101
180 171 99
179 170 95
175 166 91
179 169 95
172 163 87
163 154 81
167 159 83
154 147 69
153 145 73
148 140 69
143 135 67
147 159 39
174 197 0
174 197 0
173 197 0
174 197 0
173 197 0
173 196 0
175 198 0
174 197 0
174 196 0
172 196 0
175 198 0
173 197 0
173 196 0
174 198 0
174 198 0
174 196 0
172 195 0
171 194 0
174 197 0
172 196 0
174 197 0
172 196 0
173 197 0
173 197 0
173 196 0
172 195 0
173 196 0
175 198 0
174 196 0
171 194 0
173 197 0
171 195 0
174 197 0
174 197 0
174 197 0
174 197 0
171 195 0
173 197 0
173 197 0
173 196 0
174 197 0
172 196 0
172 196 0
173 196 0
172 196 0
171 194 0
173 197 0
174 198 0
172 195 0
171 195 0
172 195 0
172 195 0
171 196 0
169 193 0
173 196 0
173 196 0
173 197 0
173 197 0
171 195 0
174 197 0
171 195 0
171 195 0
174 196 0
172 196 0
174 196 0
172 195 0
173 197 0
173 196 0
172 195 0
175 198 0
173 197 0
174 197 0
174 197 0
172 196 0
174 197 0
174 197 0
172 196 0
173 196 0
171 193 0
169 192 0
173 197 0
174 197 0
174 197 0
170 194 0
172 196 0
172 196 0
173 196 0
172 195 0
172 195 0
173 197 0
171 195 0
173 197 0
172 195 0
171 195 0
175 197 0
171 195 0
174 197 0
175 198 0
171 195 0
171 195 0
173 197 0
173 196 0
171 194 0
175 198 0
172 195 0
174 197 0
173 196 0
170 193 0
173 196 0
168 192 0
172 196 0
174 197 0
175 198 0
168 192 0
175 197 0
173 196 0
172 195 0
171 194 0
173 196 0
172 195 0
172 195 0
173 196 0
171 195 0
174 197 0
174 197 0
173 196 0
162 185 65
88 119 161
62 99 178
62 99 175
63 99 178
62 99 178
61 99 178
62 99 179
61 98 175
61 99 177
62 99 176
62 99 180
62 99 178
61 98 177
62 99 177
61 99 179
61 99 180
62 99 180
62 99 181
62 99 180
61 98 180
60 98 178
62 99 181
62 99 180
61 99 180
62 99 181
61 98 179
61 99 181
62 99 181
62 99 181
61 99 181
61 98 181
61 99 181
62 99 181
61 99 181
61 98 181
61 99 180
61 99 181
61 99 181
62 99 181
61 99 181
61 99 181
62 99 181
62 99 181
62 99 181
62 99 181
62 99 181
62 99 181
62 99 181
61 99 181
61 98 181
62 99 180
61 99 181
62 99 181
61 99 181
61 98 181
61 99 181
61 99 181
61 98 181
62 99 181
61 99 181
61 98 181
62 99 181
62 99 181
62 99 181
62 99 181
61 98 179
62 99 181
61 99 181
62 99 181
62 99 180
61 99 181
62 99 181
62 99 181
62 99 181
62 99 180
62 99 179
62 99 180
62 99 181
61 99 181
62 99 181
62 99 181
61 99 181
62 99 180
62 99 181
62 99 179
61 99 181
62 99 179
62 99 181
62 99 180
62 99 180
61 98 176
62 99 179
61 98 177
61 99 181
62 99 180
62 99 178
62 99 176
61 98 178
61 98 174
62 99 179
62 98 177
62 98 176
61 97 174
62 99 177
62 98 176
61 98 177
62 98 175
61 98 176
61 96 170
64 99 169
130 155 116
171 194 0
170 193 0
170 193 0
173 196 0
174 197 0
158 172 22
139 133 53
149 142 59
152 145 70
160 152 74
161 153 74
160 152 75
167 160 78
168 160 74
173 164 84
169 162 78
178 169 90
182 172 96
184 174 101
178 169 93
178 169 98
175 167 97
172 164 98
175 166 101
175 167 100
173 165 101
167 161 100
166 160 103
162 156 97
167 160 104
166 160 106
169 163 106
166 160 106
163 158 106
159 154 104
161 156 105
168 162 108
160 157 106
161 157 105
164 159 107
162 158 107
163 159 106
163 160 108
159 157 107
161 159 108
167 163 110
163 160 108
166 162 109
162 160 109
165 162 109
170 167 111
166 164 111
169 166 111
168 166 112
169 167 112
171 168 112
174 170 113
171 168 113
174 170 113
176 172 114
174 171 114
174 171 114
173 171 114
174 171 114
173 171 114
173 171 114
173 171 114
171 170 114
171 170 114
173 171 114
171 170 114
172 170 114
170 169 114
172 170 114
170 169 114
171 170 114
170 169 114
171 170 114
171 170 114
170 169 114
169 169 114
171 170 114
171 170 114
171 170 114
170 169 114
171 170 114
169 169 114
169 169 114
170 169 114
170 169 114
169 169 114
170 169 114
171 170 114
170 169 114
170 169 114
171 169 114
170 169 114
171 170 114
171 170 114
171 170 114
171 170 114
171 170 114
172 170 114
172 170 114
172 170 114
172 170 114
171 170 114
173 171 114
172 170 114
173 171 114
173 171 114
173 171 114
175 172 114
174 171 114
175 171 114
173 171 114
175 172 114
174 171 114
176 172 114
175 172 114
175 172 114
176 172 114
176 172 114
177 173 114
179 173 114
179 173 114
179 173 114
180 174 114
181 174 114
179 173 114
180 174 114
181 174 114
181 174 114
184 176 114
182 175 114
184 176 114
186 177 114
185 176 114
184 176 114
184 176 113
187 177 113
185 176 111
184 175 110
185 176 109
183 174 104
184 175 107
184 175 106
183 173 102
181 172 98
181 172 100
180 171 96
179 169 96
172 164 87
174 165 88
173 164 90
171 162 86
167 158 84
156 148 75
155 147 75
145 137 66
137 130 59
139 140 51
173 196 0
172 195 0
173 197 0
173 196 0
173 196 0
172 194 0
175 197 0
173 197 0
172 195 0
173 197 0
172 196 0
173 196 0
174 198 0
175 198 0
174 197 0
174 198 0
172 196 0
172 195 0
172 196 0
173 197 0
174 197 0
173 197 0
173 196 0
173 197 0
172 195 0
174 197 0
174 196 0
173 197 0
175 198 0
172 196 0
173 196 0
173 197 0
172 196 0
173 196 0
173 197 0
174 198 0
173 197 0
173 196 0
175 198 0
173 196 0
175 198 0
172 196 0
175 198 0
173 196 0
173 197 0
173 196 0
170 194 0
175 198 0
174 197 0
171 194 0
173 197 0
173 196 0
175 198 0
174 197 0
173 195 0
173 196 0
173 196 0
172 196 0
173 197 0
171 195 0
174 198 0
174 197 0
173 197 0
174 197 0
173 197 0
173 197 0
175 197 0
170 194 0
175 198 0
172 196 0
172 195 0
172 196 0
175 198 0
172 196 0
173 197 0
174 197 0
173 196 0
172 195 0
172 195 0
169 193 0
173 196 0
172 194 0
172 196 0
173 196 0
173 196 0
172 196 0
172 196 0
174 197 0
172 195 0
170 194 0
173 197 0
174 197 0
171 195 0
172 195 0
172 195 0
173 197 0
175 198 0
173 197 0
173 196 0
174 197 0
171 195 0
173 197 0
174 197 0
172 195 0
172 195 0
173 197 0
170 193 0
172 195 0
173 197 0
172 196 0
172 196 0
171 195 0
174 197 0
173 197 0
173 196 0
171 194 0
172 196 0
174 197 0
171 195 0
176 198 0
173 197 0
174 197 0
171 194 0
171 195 0
174 197 0
150 173 94
84 115 166
62 99 172
62 99 176
63 99 177
62 99 180
62 99 176
62 99 180
63 99 180
62 99 179
62 99 180
62 99 178
61 98 177
62 99 176
62 99 178
62 99 179
61 99 180
62 99 180
61 99 180
62 99 180
61 98 180
62 99 181
62 99 179
62 99 180
62 99 180
62 99 181
62 99 181
62 99 181
62 99 180
61 99 181
61 99 180
62 99 180
62 99 181
62 99 181
61 98 181
61 99 181
62 99 181
61 99 181
61 99 181
62 99 181
61 99 181
61 99 181
61 99 181
61 98 181
62 99 181
62 99 181
62 99 181
61 98 181
62 99 181
62 99 181
61 98 181
61 99 181
61 99 181
61 99 181
62 99 181
61 99 181
61 98 181
62 99 181
62 99 181
61 99 181
62 99 181
61 99 181
61 99 181
61 98 181
61 98 181
61 98 181
62 99 181
62 99 181
61 99 181
61 99 180
62 99 181
61 99 180
61 99 180
62 99 180
62 99 181
62 99 180
61 99 181
62 99 181
62 99 179
62 99 181
62 99 181
62 99 178
61 99 180
62 99 181
62 99 180
62 99 180
61 99 180
61 98 177
62 99 179
62 99 178
61 99 181
62 99 180
61 98 177
62 99 179
61 98 180
61 98 179
62 99 178
62 99 178
62 99 178
61 98 175
61 98 176
62 99 177
61 97 174
62 99 177
61 97 172
62 99 176
62 99 177
61 98 178
63 99 178
61 97 172
61 97 172
62 98 175
61 98 175
111 138 140
173 195 0
171 193 0
174 197 0
171 194 0
155 164 39
138 131 56
140 133 61
159 150 75
157 149 73
156 149 69
157 150 64
168 159 78
166 158 79
172 164 81
176 167 90
178 169 87
180 170 93
174 166 89
173 165 93
179 170 96
173 164 97
174 166 99
162 156 93
169 161 101
157 152 95
169 162 102
166 159 104
165 159 100
161 155 102
156 152 101
160 155 103
166 161 107
165 160 106
164 158 106
155 151 103
160 156 106
159 155 105
158 154 105
149 147 102
163 159 106
160 157 106
157 154 105
159 156 106
159 156 107
156 154 105
165 162 110
163 161 109
167 163 110
165 163 110
162 159 108
160 158 108
166 164 111
166 163 110
167 164 111
171 168 113
168 166 112
172 169 113
174 171 114
176 172 114
174 171 114
175 171 114
173 171 114
173 171 114
173 171 114
174 171 114
172 170 114
173 170 114
172 170 114
172 170 114
172 170 114
172 170 114
171 170 114
172 170 114
172 170 114
172 170 114
171 170 114
171 170 114
169 169 114
171 170 114
170 169 114
171 170 114
170 169 114
170 169 114
170 169 114
171 170 114
170 169 114
171 170 114
170 169 114
170 169 114
170 169 114
170 169 114
171 170 114
171 170 114
170 169 114
170 169 114
171 170 114
170 169 114
171 170 114
170 169 114
170 169 114
171 170 114
172 170 114
171 170 114
172 170 114
173 171 114
172 170 114
173 170 114
173 171 114
173 171 114
174 171 114
175 171 114
174 171 114
174 171 114
174 171 114
175 171 114
174 171 114
175 172 114
177 172 114
176 172 114
178 173 114
176 172 114
179 174 114
178 173 114
178 173 114
177 173 114
180 174 114
179 173 114
180 174 114
180 174 114
182 175 114
182 175 114
181 174 114
184 176 114
183 175 114
184 176 114
184 176 114
185 176 114
188 177 114
186 177 113
187 177 113
183 175 109
187 177 110
184 175 109
184 174 106
184 175 107
181 173 103
185 175 105
183 173 101
184 174 102
183 173 99
181 171 96
181 171 99
175 166 90
174 165 90
160 152 80
165 157 79
161 153 75
155 147 71
160 151 77
155 147 73
140 135 51
169 192 0
174 196 0
174 197 0
173 197 0
173 196 0
174 196 0
172 195 0
175 197 0
174 197 0
173 197 0
173 197 0
173 197 0
174 197 0
174 197 0
173 196 0
175 198 0
171 196 0
173 197 0
174 197 0
174 197 0
172 197 0
172 196 0
175 198 0
174 197 0
174 198 0
175 197 0
173 196 0
174 196 0
175 198 0
174 197 0
174 197 0
173 197 0
173 196 0
170 193 0
175 198 0
174 197 0
172 195 0
173 196 0
173 196 0
172 195 0
173 196 0
174 198 0
172 196 0
174 197 0
172 196 0
173 197 0
174 198 0
173 196 0
172 196 0
173 197 0
172 196 0
175 198 0
174 196 0
173 196 0
174 197 0
175 197 0
174 197 0
172 195 0
172 195 0
172 195 0
175 198 0
175 198 0
172 196 0
173 196 0
172 196 0
173 197 0
172 195 0
174 197 0
173 196 0
174 197 0
170 194 0
171 194 0
170 194 0
172 196 0
171 194 0
172 196 0
174 197 0
173 196 0
173 197 0
172 196 0
173 196 0
171 196 0
171 194 0
171 194 0
173 196 0
170 193 0
174 197 0
172 196 0
174 197 0
173 196 0
172 195 0
171 194 0
172 196 0
172 196 0
172 194 0
171 195 0
172 196 0
173 196 0
173 196 0
172 196 0
172 195 0
174 197 0
173 196 0
172 195 0
173 197 0
173 196 0
174 197 0
172 196 0
173 196 0
173 197 0
173 196 0
173 196 0
176 198 0
168 192 0
171 194 0
173 196 0
173 197 0
171 195 0
173 196 0
171 195 0
173 196 0
172 195 0
173 196 0
173 196 0
131 157 120
63 99 175
61 98 174
62 99 178
62 99 179
62 99 176
62 99 174
62 99 176
62 99 178
61 98 176
63 100 180
62 99 178
62 99 180
62 99 180
61 99 178
62 99 180
62 99 180
62 99 180
62 99 180
62 99 180
61 99 180
61 99 177
61 99 181
62 99 178
62 99 180
61 99 181
62 99 181
61 99 181
62 99 181
62 99 181
61 99 181
61 99 181
62 99 181
62 99 180
62 99 181
62 99 181
61 99 181
62 99 181
62 99 181
62 99 181
61 99 181
62 99 181
61 98 181
61 99 181
61 98 180
62 99 181
62 99 181
62 99 181
62 99 181
61 99 181
61 98 181
62 99 181
62 99 181
62 99 181
61 99 181
62 99 181
61 99 181
61 99 181
61 98 181
61 99 181
61 99 181
62 99 181
61 98 181
62 99 181
61 99 181
62 99 180
62 99 180
62 99 180
62 99 181
62 99 181
61 99 181
62 99 181
62 99 181
62 99 180
61 99 181
61 98 180
61 99 181
62 99 181
62 99 181
62 99 181
62 99 179
62 99 181
62 99 180
61 98 177
62 99 181
62 99 181
62 99 181
62 99 181
62 99 181
62 99 180
62 99 181
62 99 180
62 99 179
62 99 181
62 99 177
62 99 180
62 99 180
62 99 179
61 98 178
62 99 180
62 99 176
61 98 177
62 99 176
61 97 174
62 98 176
62 98 176
61 97 171
62 98 175
61 98 175
61 98 177
62 98 174
60 96 170
61 97 174
62 97 172
61 96 167
87 115 154
167 190 41
169 192 0
171 193 0
137 137 42
139 132 57
145 139 59
148 141 60
145 139 59
159 151 75
170 161 77
165 156 75
168 160 78
174 166 87
173 164 83
177 168 93
176 167 91
173 165 91
178 169 94
170 162 93
172 164 95
163 157 93
169 161 96
166 158 100
163 157 95
167 161 99
160 154 99
155 149 95
171 164 106
162 156 100
158 153 99
157 153 103
153 150 102
155 151 102
158 154 103
167 161 107
160 156 104
153 151 103
157 154 106
155 152 104
153 151 104
150 148 102
164 160 108
155 152 104
164 161 108
162 159 108
168 165 111
161 158 108
164 161 109
163 161 109
168 165 111
167 164 110
170 166 111
166 163 109
172 169 113
169 166 111
173 170 113
173 170 113
171 168 113
175 172 114
175 171 114
175 171 114
173 171 114
173 171 114
173 170 114
175 171 114
174 171 114
174 171 114
173 171 114
172 170 114
172 170 114
175 171 114
171 170 114
174 171 114
172 170 114
172 170 114
172 170 114
170 169 114
170 169 114
172 170 114
172 170 114
171 170 114
172 170 114
172 170 114
171 170 114
170 169 114
171 170 114
171 170 114
171 170 114
172 170 114
171 170 114
171 170 114
171 170 114
170 169 114
172 170 114
172 170 114
171 170 114
173 170 114
172 170 114
171 170 114
172 170 114
173 171 114
172 170 114
173 171 114
173 171 114
173 170 114
173 171 114
173 171 114
174 171 114
174 171 114
174 171 114
173 171 114
174 171 114
176 172 114
175 171 114
176 172 114
176 172 114
176 172 114
177 172 114
176 172 114
177 172 114
178 173 114
179 173 114
179 173 114
178 173 114
179 173 114
180 174 114
180 174 114
181 174 114
182 175 114
184 176 114
184 176 114
183 175 114
184 176 114
183 175 114
185 176 114
185 176 114
186 177 114
186 177 113
186 176 111
187 177 112
186 176 110
186 176 109
186 176 109
185 175 104
185 175 104
183 173 102
181 172 99
183 173 99
181 172 97
179 170 95
178 168 95
172 163 84
172 163 87
174 164 87
172 162 87
160 151 81
161 153 71
162 154 75
152 144 65
141 135 52
165 182 25
174 197 0
174 197 0
175 197 0
174 196 0
173 197 0
175 197 0
174 197 0
175 198 0
174 197 0
175 198 0
173 197 0
173 196 0
175 198 0
175 198 0
172 195 0
172 196 0
174 197 0
172 196 0
174 198 0
175 198 0
173 197 0
171 195 0
173 197 0
174 197 0
175 198 0
172 196 0
174 197 0
173 197 0
173 196 0
172 195 0
174 198 0
173 196 0
173 197 0
173 196 0
175 198 0
172 195 0
173 197 0
173 195 0
174 197 0
172 196 0
173 196 0
171 195 0
173 196 0
173 197 0
174 197 0
172 195 0
171 195 0
174 197 0
174 197 0
173 197 0
173 196 0
173 196 0
173 197 0
173 197 0
172 195 0
172 196 0
174 198 0
173 196 0
172 196 0
172 196 0
174 196 0
174 197 0
174 198 0
172 196 0
175 198 0
173 196 0
173 196 0
171 195 0
172 195 0
170 194 0
174 197 0
172 196 0
171 195 0
174 196 0
173 196 0
175 197 0
175 198 0
173 196 0
172 196 0
174 197 0
171 194 0
174 197 0
173 196 0
172 195 0
172 196 0
173 195 0
172 195 0
172 196 0
174 197 0
175 198 0
174 198 0
173 196 0
174 198 0
171 194 0
172 195 0
171 195 0
173 196 0
169 192 0
176 199 0
175 198 0
170 194 0
173 197 0
173 196 0
172 196 0
174 197 0
172 195 0
172 195 0
172 195 0
174 198 0
172 195 0
173 196 0
171 195 0
173 196 0
172 195 0
172 195 0
172 195 0
173 196 0
174 197 0
172 196 0
173 197 0
172 195 0
169 192 0
128 153 125
62 99 177
62 99 177
62 99 176
62 99 174
62 99 176
61 98 168
62 99 178
62 99 180
61 98 178
62 99 178
61 98 177
62 99 181
63 100 181
61 98 178
62 99 179
61 99 178
62 99 179
62 99 181
62 99 177
62 99 179
62 99 180
63 100 181
61 99 180
62 99 181
63 99 179
61 99 180
62 99 180
61 99 180
62 99 181
61 99 178
62 99 181
62 99 181
62 99 181
61 98 181
62 99 181
62 99 181
62 99 181
62 99 181
61 98 181
61 99 181
62 99 181
62 99 181
62 99 181
62 99 181
61 99 181
61 99 181
62 99 181
61 99 181
61 98 181
62 99 181
62 99 181
61 99 180
61 99 181
61 99 180
61 99 181
61 99 181
62 99 181
62 99 181
61 99 180
61 99 181
61 99 181
62 99 181
61 98 179
62 99 180
62 99 181
61 99 181
61 98 181
62 99 181
61 99 181
62 99 181
62 99 181
61 99 181
62 99 181
62 99 181
62 99 180
62 99 181
62 99 181
61 99 181
62 99 181
62 99 180
62 99 181
62 99 179
62 99 181
61 98 180
62 99 179
62 99 180
62 99 180
61 99 180
62 99 180
62 99 180
61 98 177
61 99 181
62 99 180
61 99 180
62 99 181
62 99 177
62 98 179
62 99 177
62 99 178
62 98 177
61 99 178
61 98 175
62 99 179
61 98 179
62 99 177
62 99 178
62 99 177
62 99 176
62 98 177
62 98 176
62 98 175
62 98 176
62 97 171
62 98 174
62 98 176
61 96 168
67 101 167
157 180 63
165 183 22
133 127 47
135 130 47
139 133 56
147 142 52
157 149 61
167 159 75
165 157 71
162 155 73
168 160 75
178 168 89
179 169 91
174 166 84
179 170 95
172 164 89
168 161 86
168 161 93
162 155 88
155 150 88
159 154 97
158 153 91
168 161 103
164 158 100
157 152 100
159 154 101
150 146 99
154 150 101
160 154 103
159 154 103
140 138 97
159 154 103
152 149 101
150 148 101
150 147 102
153 150 103
167 163 109
153 151 103
156 153 104
159 156 105
157 155 106
153 151 105
152 151 103
161 158 108
158 155 105
160 157 107
158 157 107
158 157 107
165 163 109
166 162 109
161 159 108
167 165 111
167 164 110
170 167 112
171 168 113
172 169 113
174 171 113
175 171 114
174 171 114
176 172 114
173 171 114
176 172 114
174 171 114
173 171 114
173 171 114
173 171 114
173 171 114
173 171 114
173 171 114
172 170 114
172 170 114
172 170 114
172 170 114
172 170 114
172 170 114
173 170 114
171 170 114
172 170 114
172 170 114
170 169 114
171 170 114
171 170 114
171 170 114
170 169 114
172 170 114
172 170 114
172 170 114
172 170 114
172 170 114
171 170 114
172 170 114
171 169 114
171 170 114
172 170 114
172 170 114
171 170 114
172 170 114
174 171 114
172 170 114
171 170 114
172 170 114
172 170 114
174 171 114
173 171 114
173 171 114
174 171 114
175 171 114
173 171 114
175 171 114
175 171 114
175 172 114
175 172 114
176 172 114
176 172 114
174 171 114
178 173 114
177 173 114
177 173 114
177 172 114
178 173 114
179 173 114
178 173 114
180 174 114
180 174 114
181 174 114
181 174 114
181 174 114
182 175 114
182 175 114
182 175 114
185 176 114
184 176 114
184 176 114
185 176 114
187 177 114
183 175 113
186 176 112
183 174 108
187 177 112
188 177 110
185 175 109
185 175 109
187 176 110
186 175 105
184 174 105
183 173 102
182 172 97
181 172 95
180 171 95
176 167 90
176 167 92
174 165 90
171 161 87
170 160 90
165 156 84
155 147 74
152 144 70
149 141 67
144 137 62
143 154 30
174 196 0
173 197 0
173 196 0
173 197 0
173 197 0
173 197 0
175 198 0
173 197 0
174 198 0
172 196 0
173 197 0
173 197 0
174 198 0
173 197 0
174 197 0
173 196 0
172 195 0
174 198 0
175 198 0
172 196 0
173 195 0
175 198 0
173 197 0
175 198 0
174 197 0
173 197 0
174 198 0
175 198 0
172 195 0
174 197 0
171 195 0
173 197 0
172 195 0
173 197 0
172 196 0
173 197 0
174 197 0
175 197 0
175 197 0
175 198 0
173 196 0
172 195 0
171 195 0
174 198 0
174 197 0
171 194 0
174 197 0
174 197 0
173 197 0
172 196 0
176 198 0
174 197 0
174 197 0
172 196 0
173 197 0
174 197 0
172 196 0
171 195 0
175 198 0
175 198 0
173 196 0
171 194 0
172 196 0
173 197 0
173 196 0
172 193 0
173 196 0
171 195 0
173 197 0
172 196 0
175 198 0
172 195 0
173 196 0
173 196 0
173 196 0
173 196 0
174 197 0
169 192 0
173 196 0
173 197 0
172 195 0
174 197 0
174 197 0
175 197 0
170 195 0
172 195 0
173 196 0
172 196 0
173 197 0
172 195 0
170 193 0
170 194 0
173 197 0
173 197 0
170 194 0
173 197 0
169 192 0
173 196 0
171 195 0
170 194 0
171 194 0
171 195 0
174 196 0
172 196 0
173 196 0
172 196 0
171 195 0
172 195 0
172 195 0
171 195 0
171 194 0
173 196 0
172 195 0
173 195 0
173 195 0
170 194 0
174 197 0
172 195 0
173 196 0
173 195 0
170 193 18
115 141 142
62 99 173
61 98 171
62 99 174
62 99 177
63 99 178
62 99 178
63 100 180
63 100 179
62 99 178
62 99 180
62 99 180
62 99 176
63 100 180
62 99 180
62 99 180
61 98 177
62 99 181
62 99 181
62 99 179
62 99 180
62 99 181
62 99 181
62 99 179
62 99 180
62 99 178
62 99 180
62 99 181
62 99 180
62 99 180
62 99 181
61 99 181
62 99 180
62 99 181
61 99 181
62 99 181
61 99 180
61 99 181
62 99 180
62 99 180
62 99 180
61 99 181
62 99 181
61 98 181
61 99 181
62 99 181
62 99 181
62 99 181
62 99 181
62 99 181
61 99 181
62 99 181
62 99 181
62 99 181
61 99 181
61 99 180
61 99 181
62 99 180
62 99 181
61 99 181
62 99 181
61 98 181
62 99 181
61 99 181
62 99 181
61 99 181
62 99 181
61 98 181
61 99 181
61 99 181
62 99 181
61 98 180
61 99 180
62 99 181
62 99 181
62 99 181
61 99 181
61 98 180
62 99 181
62 99 181
61 99 180
62 99 180
62 99 181
62 99 181
62 99 180
62 99 181
62 99 180
62 99 181
62 99 179
62 99 181
62 99 179
62 99 178
62 99 180
62 99 181
62 99 179
62 99 181
61 98 176
61 98 179
62 99 181
62 99 177
62 98 179
62 98 176
61 98 173
61 98 177
62 99 178
61 98 176
61 97 175
62 99 179
62 99 176
62 99 177
62 98 176
62 98 178
61 98 174
62 98 176
62 99 177
61 97 171
60 95 165
62 98 176
62 97 168
80 111 161
136 152 80
132 127 44
153 146 60
146 139 59
144 138 60
152 145 65
165 156 80
167 158 74
165 157 80
172 163 80
175 165 85
174 166 82
177 167 94
170 162 81
176 167 90
165 158 86
174 165 98
148 144 88
154 148 91
159 153 92
159 153 97
155 149 95
148 144 91
151 147 98
163 157 103
158 153 101
142 139 94
149 146 100
157 152 101
157 152 103
153 149 101
151 148 101
157 154 105
149 147 102
152 149 101
147 145 100
154 151 103
152 150 103
157 154 105
149 148 102
149 147 102
156 154 106
159 157 107
162 159 107
159 157 106
156 154 104
166 163 110
154 153 105
161 159 108
163 160 109
165 162 110
166 164 110
164 161 109
167 164 111
165 164 111
169 167 112
172 168 112
175 171 114
175 172 114
175 172 114
175 171 114
175 172 114
174 171 114
175 171 114
173 170 114
174 171 114
174 171 114
174 171 114
173 170 114
173 170 114
172 170 114
172 170 114
173 171 114
173 170 114
172 170 114
172 170 114
173 170 114
172 170 114
172 170 114
172 170 114
171 170 114
173 171 114
174 171 114
172 170 114
170 169 114
171 170 114
172 170 114
171 170 114
172 170 114
172 170 114
172 170 114
172 170 114
173 170 114
172 170 114
173 171 114
173 171 114
173 171 114
173 170 114
173 171 114
173 171 114
174 171 114
174 171 114
174 171 114
174 171 114
175 171 114
174 171 114
175 171 114
174 171 114
176 172 114
175 171 114
177 173 114
175 171 114
176 172 114
178 173 114
177 172 114
177 173 114
179 173 114
179 174 114
180 174 114
180 174 114
181 174 114
179 174 114
182 175 114
180 174 114
181 174 114
184 176 114
181 174 114
182 175 114
184 175 114
183 175 114
185 176 114
186 177 114
187 177 114
185 176 113
186 176 113
186 177 113
187 177 111
186 176 110
184 175 108
185 175 106
183 174 104
184 174 106
182 173 101
182 173 101
183 173 101
183 173 100
184 174 102
182 172 98
179 169 95
181 170 95
177 168 91
169 160 83
167 159 83
167 159 75
158 149 73
149 142 69
147 139 66
133 127 56
149 154 45
174 196 0
174 197 0
174 198 0
173 196 0
173 196 0
173 196 0
173 196 0
172 196 0
171 195 0
174 197 0
173 197 0
173 195 0
171 196 0
171 195 0
173 197 0
173 196 0
173 196 0
173 197 0
173 195 0
174 197 0
174 198 0
170 194 0
175 198 0
176 199 0
174 197 0
173 197 0
172 196 0
175 198 0
171 196 0
174 197 0
174 197 0
172 196 0
173 197 0
174 197 0
174 197 0
174 198 0
174 198 0
173 196 0
173 197 0
174 197 0
174 197 0
174 196 0
177 199 0
172 196 0
175 198 0
173 196 0
173 197 0
175 198 0
174 198 0
173 196 0
174 197 0
175 198 0
174 197 0
172 196 0
176 198 0
172 196 0
173 196 0
173 197 0
171 196 0
171 193 0
175 198 0
171 195 0
173 197 0
173 197 0
172 195 0
174 197 0
176 198 0
175 198 0
175 197 0
171 194 0
173 197 0
172 194 0
174 198 0
173 196 0
173 197 0
172 195 0
174 197 0
171 195 0
173 197 0
171 195 0
171 193 0
174 197 0
173 197 0
172 195 0
172 196 0
173 196 0
172 196 0
171 195 0
173 195 0
173 196 0
171 195 0
173 196 0
173 196 0
174 197 0
174 197 0
173 196 0
172 195 0
173 196 0
170 194 0
172 196 0
170 194 0
172 195 0
173 196 0
172 195 0
172 196 0
172 196 0
169 193 0
170 194 0
171 195 0
173 195 0
173 196 0
171 194 0
172 195 0
173 196 0
175 198 0
170 193 0
173 197 0
176 198 0
174 197 0
165 187 54
96 125 154
62 99 177
63 99 174
62 99 172
62 99 176
62 99 176
62 99 178
62 99 178
63 100 179
62 99 178
62 99 174
61 98 179
61 99 177
62 99 180
62 99 181
62 99 177
62 99 181
61 99 178
62 99 181
62 99 180
61 98 180
62 99 177
62 99 180
62 99 181
61 99 181
62 99 179
62 99 180
61 99 181
62 99 181
61 99 181
62 99 181
62 99 181
61 99 180
61 98 179
62 99 181
61 99 181
62 99 180
62 99 181
61 99 181
61 99 181
62 99 180
62 99 180
61 99 181
61 99 181
61 99 181
62 99 181
62 99 181
61 99 181
62 99 180
62 99 181
61 99 181
61 98 181
62 99 181
62 99 181
62 99 180
62 99 180
62 99 181
61 99 181
62 99 181
61 99 181
62 99 181
61 99 181
62 99 181
61 98 180
62 99 181
61 99 181
62 99 180
61 98 181
62 99 180
61 98 181
61 99 181
62 99 181
62 99 180
62 99 181
62 99 181
61 99 181
62 99 181
61 99 181
62 99 180
62 99 180
62 99 180
61 99 181
62 99 180
61 99 181
61 98 180
62 99 180
62 99 179
61 99 180
61 98 180
62 99 181
61 99 180
61 99 181
62 99 180
62 99 180
62 99 179
61 99 179
62 99 180
62 100 181
60 98 176
62 99 180
62 99 179
61 99 179
61 98 179
61 98 177
61 99 180
62 98 174
62 99 177
62 99 178
62 99 179
62 99 177
62 99 179
62 99 179
62 99 179
62 99 177
62 99 178
61 96 170
62 98 177
62 97 171
61 97 174
61 97 170
61 97 170
66 98 166
118 121 104
137 131 49
145 138 61
146 140 57
154 147 63
171 161 79
163 155 70
168 160 77
170 162 76
177 168 87
172 164 86
171 163 88
172 164 90
168 161 88
164 158 91
161 154 94
161 155 90
163 156 96
158 151 94
160 154 95
156 151 98
146 143 93
149 145 96
147 143 96
150 146 96
158 153 103
157 152 102
145 143 98
141 140 98
148 145 99
140 138 95
142 140 98
147 144 99
153 151 103
144 143 100
145 144 100
150 148 102
140 141 99
158 156 106
151 149 104
148 147 102
149 148 103
155 154 106
153 152 105
154 152 105
160 157 108
158 156 107
159 157 107
160 158 108
161 159 109
166 164 111
169 165 111
165 163 110
171 168 112
168 165 111
172 169 113
170 167 112
173 170 113
174 171 114
173 171 114
174 171 114
175 172 114
174 171 114
174 171 114
175 172 114
175 171 114
174 171 114
174 171 114
173 171 114
174 171 114
173 171 114
173 171 114
173 170 114
173 171 114
173 171 114
173 171 114
173 171 114
172 170 114
173 171 114
172 170 114
173 170 114
171 170 114
172 170 114
173 171 114
172 170 114
172 170 114
172 170 114
174 171 114
173 170 114
172 170 114
173 171 114
172 170 114
174 171 114
174 171 114
174 171 114
175 171 114
174 171 114
173 170 114
173 171 114
173 171 114
174 171 114
175 172 114
174 171 114
174 171 114
174 171 114
176 172 114
175 172 114
177 173 114
175 172 114
177 172 114
176 172 114
178 173 114
178 173 114
178 173 114
178 173 114
176 172 114
180 174 114
181 174 114
180 174 114
179 173 114
179 173 114
180 174 114
182 175 114
181 174 114
181 174 114
182 175 114
183 175 114
183 175 114
186 177 114
185 176 114
185 176 114
186 176 114
185 176 113
186 177 113
184 175 111
184 175 110
184 175 109
184 175 108
186 176 111
186 176 111
183 173 101
184 174 104
183 173 100
181 171 95
182 172 96
184 173 99
179 170 93
183 172 96
177 168 90
168 160 83
172 163 89
167 158 84
170 160 84
163 155 73
154 146 69
154 146 67
143 135 63
144 143 51
175 197 0
173 196 0
174 197 0
174 197 0
173 196 0
175 197 0
174 198 0
170 194 0
173 196 0
173 197 0
173 197 0
172 196 0
173 197 0
174 197 0
172 196 0
174 197 0
174 198 0
172 196 0
174 197 0
176 198 0
172 195 0
176 199 0
172 195 0
172 197 0
174 198 0
174 197 0
174 197 0
174 197 0
174 198 0
172 196 0
174 197 0
173 197 0
173 196 0
174 198 0
173 196 0
171 194 0
174 196 0
173 196 0
172 196 0
174 197 0
171 195 0
171 194 0
174 197 0
173 197 0
172 196 0
173 196 0
173 197 0
173 196 0
172 196 0
172 196 0
172 195 0
172 196 0
172 196 0
174 198 0
170 194 0
174 198 0
173 197 0
172 196 0
172 194 0
172 196 0
171 195 0
173 195 0
175 198 0
172 195 0
174 197 0
172 195 0
171 195 0
174 197 0
171 195 0
173 196 0
173 196 0
171 195 0
172 196 0
172 195 0
172 196 0
169 193 0
172 197 0
175 198 0
174 197 0
169 194 0
173 197 0
171 195 0
171 195 0
174 197 0
174 197 0
171 195 0
170 193 0
172 195 0
171 195 0
173 197 0
173 196 0
174 198 0
174 197 0
172 195 0
171 196 0
174 197 0
174 197 0
171 194 0
172 195 0
171 195 0
174 196 0
174 197 0
169 191 0
170 194 0
173 197 0
172 195 0
174 197 0
172 196 0
170 194 0
174 197 0
172 196 0
171 195 0
170 193 0
169 193 0
174 197 0
173 197 0
172 195 0
170 194 0
160 183 67
93 123 151
62 99 169
62 99 174
62 99 178
61 98 174
62 99 176
61 98 172
62 99 180
61 99 177
62 99 177
62 99 176
62 99 179
62 99 178
62 99 181
62 99 178
62 99 181
62 99 177
62 99 179
62 99 177
61 99 180
61 99 178
62 99 179
62 99 179
62 99 180
62 99 179
61 99 180
61 98 177
62 99 179
62 99 181
61 99 180
62 99 180
62 99 179
62 99 180
62 99 180
61 99 180
61 98 179
61 98 180
62 99 181
61 99 181
61 99 181
61 99 181
62 99 181
62 99 181
61 98 181
61 99 181
62 99 181
62 99 181
61 98 180
62 99 181
62 99 181
61 99 181
62 99 181
61 99 181
62 99 181
61 98 181
61 99 181
61 98 181
62 99 181
62 99 181
62 99 181
62 99 181
62 99 181
62 99 181
61 99 181
62 99 181
62 99 181
62 99 181
62 99 180
62 99 181
61 99 181
62 99 181
61 99 181
62 99 181
62 99 181
61 99 180
62 99 181
62 99 181
61 99 179
62 99 180
62 99 180
61 98 180
62 99 181
62 99 181
61 99 181
61 98 180
62 99 178
62 99 180
62 99 180
62 99 181
62 99 180
62 99 179
62 99 180
62 99 181
63 100 181
62 99 180
62 99 180
62 99 179
61 98 177
61 98 178
62 99 179
61 99 178
62 99 180
62 98 176
61 98 177
62 99 179
61 98 174
61 98 175
62 99 177
62 99 177
62 99 178
62 99 178
61 98 173
62 98 177
62 99 180
61 97 173
62 98 174
62 99 179
62 98 172
61 97 170
61 98 176
61 97 173
61 97 173
61 96 166
61 95 166
110 117 112
145 138 59
153 145 66
160 152 66
166 157 77
162 155 71
167 160 73
172 164 77
177 167 85
170 162 88
169 161 83
167 159 86
166 159 86
157 151 86
155 149 89
157 151 90
165 158 96
157 151 93
151 146 93
145 141 92
155 149 96
153 148 98
150 146 97
149 145 97
150 146 99
130 129 91
132 131 93
146 143 96
151 147 100
144 142 98
139 138 96
148 146 101
139 138 96
142 140 98
156 154 104
147 146 102
148 147 101
143 143 99
155 153 105
148 147 103
148 147 102
160 157 107
154 152 104
157 155 105
155 154 105
161 159 108
157 155 106
161 158 107
162 160 109
163 161 109
164 162 109
162 160 109
169 166 111
169 166 112
168 165 111
172 168 112
175 171 114
177 172 114
175 171 114
176 172 114
175 171 114
175 171 114
175 172 114
175 171 114
176 172 114
174 171 114
173 171 114
175 171 114
174 171 114
174 171 114
174 171 114
174 171 114
175 171 114
174 171 114
173 170 114
173 171 114
172 170 114
173 170 114
172 170 114
172 170 114
174 171 114
172 170 114
172 170 114
171 170 114
172 170 114
174 171 114
173 171 114
173 171 114
174 171 114
175 172 114
173 171 114
172 170 114
174 171 114
173 171 114
175 171 114
173 171 114
175 172 114
173 171 114
175 171 114
173 171 114
174 171 114
174 171 114
175 172 114
174 171 114
176 172 114
178 173 114
178 173 114
176 172 114
177 172 114
178 173 114
177 173 114
178 173 114
179 173 114
179 173 114
180 174 114
178 173 114
178 173 114
180 174 114
180 174 114
181 174 114
181 174 114
182 175 114
181 174 114
180 174 114
185 176 114
184 176 114
184 176 114
185 176 114
186 177 114
186 176 114
186 177 114
185 176 112
186 176 112
185 176 112
185 176 110
185 176 110
184 175 106
185 175 108
183 174 104
184 174 103
184 174 100
184 174 103
182 172 97
182 173 99
183 173 97
184 173 99
180 170 96
175 165 90
175 166 88
172 162 87
170 161 84
168 159 83
164 155 78
161 152 75
151 144 69
150 142 63
134 128 52
172 193 16
174 197 0
174 196 0
174 196 0
173 196 0
175 197 0
173 197 0
173 197 0
171 194 0
174 197 0
174 197 0
174 198 0
173 197 0
172 196 0
171 194 0
173 197 0
172 196 0
174 197 0
173 197 0
175 198 0
174 197 0
173 196 0
176 199 0
174 198 0
172 196 0
172 195 0
173 196 0
173 196 0
173 197 0
174 197 0
173 197 0
173 197 0
173 196 0
174 198 0
173 197 0
174 197 0
175 198 0
174 197 0
173 197 0
173 197 0
170 193 0
171 196 0
173 196 0
172 195 0
171 195 0
174 197 0
172 196 0
176 198 0
174 198 0
174 196 0
172 196 0
173 196 0
173 195 0
174 197 0
174 197 0
173 197 0
172 195 0
173 197 0
174 196 0
172 196 0
172 195 0
171 194 0
175 198 0
173 196 0
170 194 0
172 196 0
171 195 0
173 197 0
174 197 0
176 198 0
172 196 0
173 196 0
175 198 0
173 197 0
172 196 0
173 196 0
174 197 0
173 195 0
171 195 0
172 195 0
172 195 0
168 191 0
173 196 0
173 197 0
173 196 0
171 194 0
173 197 0
174 197 0
174 197 0
171 196 0
171 195 0
169 193 0
173 197 0
174 197 0
174 197 0
173 196 0
171 194 0
173 197 0
174 197 0
172 195 0
171 195 0
172 196 0
171 194 0
172 196 0
170 194 0
173 197 0
173 196 0
171 195 0
175 197 0
174 197 0
171 194 0
172 195 0
174 196 0
174 197 0
172 195 0
169 192 0
169 192 0
163 186 62
94 123 159
62 99 170
62 99 172
63 99 178
62 99 177
62 99 178
63 99 174
62 99 179
63 99 175
62 99 176
62 99 175
63 99 178
62 99 178
62 99 180
62 99 179
62 99 179
62 99 178
62 99 176
63 100 181
61 98 178
62 99 179
62 99 181
62 99 180
62 99 179
62 99 181
61 98 179
62 99 180
61 98 178
62 99 180
62 99 178
62 99 181
62 99 181
61 99 180
62 99 180
62 99 181
62 99 181
62 99 181
62 99 181
62 99 181
62 99 181
62 99 181
62 99 181
61 98 180
61 99 181
62 99 180
62 99 181
62 99 181
62 99 181
61 98 181
61 99 180
61 98 181
61 98 180
62 99 181
61 99 180
62 99 180
62 99 181
61 99 181
61 98 180
62 99 181
62 99 181
62 99 181
62 99 181
61 99 180
62 99 180
61 98 180
62 99 179
61 99 181
62 99 181
62 99 181
62 99 181
62 99 181
62 99 181
61 99 179
62 99 180
62 99 180
61 99 180
61 98 180
62 99 181
62 99 181
62 99 179
62 99 181
62 99 180
61 99 181
62 99 180
62 99 180
61 98 179
62 99 181
61 99 181
62 99 180
62 99 180
62 99 180
62 99 179
61 99 179
61 99 181
62 99 180
61 98 180
62 99 179
62 99 181
62 99 178
63 100 180
62 99 179
62 99 181
62 99 178
62 98 177
62 99 180
62 99 180
61 99 177
62 98 177
62 99 178
62 99 176
62 99 180
61 98 176
62 99 175
62 98 177
61 98 173
61 98 175
62 99 175
62 98 176
61 98 177
61 97 174
62 98 174
62 99 175
62 98 177
61 97 172
61 96 169
60 94 162
115 122 118
152 145 63
158 150 68
158 151 72
166 157 77
167 159 77
164 157 78
169 162 85
174 166 88
169 162 90
160 153 85
151 146 83
161 155 88
154 148 91
154 148 92
153 148 91
154 149 93
143 139 86
148 144 95
151 146 95
148 143 93
144 141 94
136 134 90
147 144 97
147 143 97
142 140 96
131 131 94
146 144 99
137 135 94
133 132 93
135 134 94
148 146 100
136 136 96
136 136 97
137 136 95
141 141 99
145 144 101
149 148 103
144 143 100
152 150 103
149 148 103
146 146 102
152 151 105
153 152 105
157 155 105
166 163 109
157 154 105
165 162 109
164 161 108
161 159 108
166 164 111
166 163 110
170 167 112
168 165 111
174 170 113
173 170 113
172 168 113
176 172 114
177 172 114
176 172 114
175 171 114
174 171 114
175 171 114
175 171 114
176 172 114
174 171 114
174 171 114
174 171 114
174 171 114
174 171 114
174 171 114
173 171 114
175 171 114
172 170 114
173 171 114
174 171 114
173 171 114
173 171 114
173 171 114
173 171 114
174 171 114
174 171 114
174 171 114
173 171 114
175 171 114
173 171 114
173 171 114
173 171 114
174 171 114
174 171 114
173 171 114
174 171 114
175 172 114
173 171 114
174 171 114
174 171 114
174 171 114
175 172 114
175 172 114
176 172 114
176 172 114
177 172 114
176 172 114
175 171 114
176 172 114
177 172 114
177 173 114
177 173 114
178 173 114
176 172 114
178 173 114
178 173 114
178 173 114
179 173 114
179 173 114
180 174 114
180 174 114
180 174 114
181 174 114
181 174 114
181 174 114
182 175 114
184 176 114
184 176 114
184 176 114
183 175 114
184 176 114
184 176 114
185 176 114
186 177 114
185 176 112
184 175 111
184 175 110
185 175 108
183 174 106
184 175 106
186 175 108
184 174 104
185 175 106
186 175 104
184 174 100
185 174 100
180 171 97
181 172 98
180 170 93
179 169 96
176 167 88
174 165 87
172 162 87
169 160 80
164 156 75
158 151 71
158 149 75
159 151 71
145 138 60
126 120 47
170 189 22
174 197 0
175 197 0
173 197 0
176 198 0
176 198 0
173 196 0
174 197 0
174 197 0
173 196 0
174 197 0
173 196 0
172 195 0
174 198 0
175 198 0
175 198 0
174 196 0
171 194 0
173 196 0
173 197 0
173 196 0
174 197 0
173 197 0
171 195 0
173 196 0
174 197 0
174 197 0
174 197 0
172 195 0
173 197 0
173 196 0
174 197 0
174 197 0
174 197 0
171 195 0
173 197 0
173 196 0
172 195 0
173 196 0
175 198 0
172 195 0
173 197 0
174 197 0
171 195 0
172 196 0
173 196 0
173 197 0
172 195 0
174 197 0
172 195 0
169 194 0
172 196 0
172 196 0
172 195 0
173 197 0
173 196 0
173 197 0
172 196 0
174 197 0
173 196 0
171 195 0
173 196 0
173 196 0
173 197 0
174 197 0
173 196 0
172 196 0
171 195 0
172 195 0
172 195 0
172 195 0
173 196 0
170 193 0
173 196 0
166 190 0
173 197 0
172 195 0
172 195 0
173 196 0
174 197 0
172 195 0
171 195 0
172 195 0
173 196 0
172 196 0
170 194 0
175 197 0
173 196 0
172 196 0
173 196 0
170 193 0
171 195 0
174 196 0
173 196 0
173 196 0
172 195 0
172 196 0
172 195 0
172 195 0
171 195 0
173 196 0
174 196 0
172 196 0
174 198 0
173 195 0
174 196 0
170 194 0
175 198 0
173 196 0
171 194 0
171 195 0
172 196 0
169 193 0
171 195 0
171 195 0
170 194 0
163 186 62
87 118 160
62 99 173
63 99 176
62 98 171
61 98 173
62 99 175
63 99 173
62 99 179
62 99 176
62 99 177
62 99 177
63 100 179
62 99 179
62 99 179
62 99 177
63 99 179
62 99 177
62 99 180
62 99 179
62 99 177
62 99 181
62 99 179
62 99 180
62 99 180
62 99 180
62 99 180
62 99 180
62 99 181
62 99 180
61 99 181
62 99 181
61 99 181
61 99 181
62 99 180
62 99 177
62 99 181
62 99 180
62 99 181
62 99 181
61 99 181
62 99 181
61 99 181
62 99 180
62 99 181
61 98 181
62 99 181
62 99 181
62 99 181
62 99 181
62 99 181
62 99 181
62 99 181
62 99 181
61 98 180
62 99 181
62 99 181
62 99 181
61 99 181
62 99 179
62 99 180
61 98 181
61 99 180
62 99 181
61 99 181
62 99 180
61 98 180
62 99 181
63 100 181
62 99 181
62 99 181
62 99 180
62 99 181
62 99 179
62 99 179
62 99 179
62 99 180
62 99 181
61 99 181
62 99 181
62 99 181
62 99 181
62 99 181
62 99 180
62 99 180
62 99 180
61 99 178
62 99 180
62 99 181
61 99 180
62 99 181
61 99 180
62 99 180
62 99 180
62 99 181
62 99 180
62 99 180
62 99 180
62 99 178
62 99 181
62 99 179
62 99 179
62 99 179
62 99 178
62 99 177
62 99 180
61 99 179
62 99 179
62 99 178
62 99 179
62 99 177
61 98 175
62 99 176
62 98 178
61 98 177
62 99 175
62 99 178
62 99 178
62 99 176
62 99 175
62 98 174
62 98 169
61 98 175
62 98 170
62 98 173
61 96 171
62 98 174
61 96 166
63 95 162
130 133 114
165 157 73
163 155 74
163 155 70
165 157 75
172 163 82
169 162 87
165 157 81
168 161 88
150 146 77
159 152 89
150 145 81
156 150 85
146 142 85
155 150 91
148 143 89
149 144 89
144 140 92
143 140 92
144 141 93
140 137 92
146 143 97
127 127 89
134 132 91
128 127 91
129 129 93
134 133 93
134 133 93
147 145 100
137 137 96
144 142 99
132 132 94
146 145 101
140 140 97
139 138 97
140 140 99
144 144 101
145 145 99
137 138 98
139 139 98
143 143 100
153 151 103
152 151 104
144 144 100
154 153 105
157 155 106
156 155 106
158 156 107
155 154 106
163 161 109
167 163 110
166 163 109
162 160 109
170 166 111
172 169 112
171 167 112
172 169 113
177 172 114
176 172 114
176 172 114
175 172 114
175 172 114
176 172 114
177 172 114
175 172 114
175 171 114
176 172 114
176 172 114
174 171 114
173 171 114
173 171 114
175 171 114
174 171 114
173 170 114
175 171 114
175 171 114
175 171 114
173 171 114
173 171 114
174 171 114
173 171 114
174 171 114
173 171 114
174 171 114
174 171 114
175 172 114
174 171 114
174 171 114
175 171 114
174 171 114
175 171 114
175 172 114
174 171 114
176 172 114
175 172 114
175 172 114
175 171 114
175 171 114
176 172 114
176 172 114
176 172 114
177 172 114
176 172 114
176 172 114
177 173 114
178 173 114
179 173 114
178 173 114
177 173 114
179 173 114
178 173 114
179 173 114
181 174 114
180 174 114
180 174 114
180 174 114
182 175 114
182 175 114
182 175 114
183 175 114
183 175 114
181 175 114
183 175 114
183 175 114
184 175 114
185 176 114
188 177 114
188 177 113
185 176 114
186 176 112
184 175 111
184 175 109
184 174 107
186 176 109
183 174 104
185 175 108
184 174 102
181 172 97
183 174 103
185 175 106
184 174 101
180 171 94
180 171 95
181 171 94
180 170 92
175 167 86
174 165 85
169 160 82
169 160 84
162 153 72
169 159 83
156 148 72
149 141 67
138 132 59
142 134 60
164 178 34
172 195 0
174 197 0
174 196 0
173 197 0
173 196 0
173 196 0
174 197 0
174 198 0
172 196 0
172 196 0
173 197 0
173 197 0
174 197 0
174 197 0
173 197 0
174 198 0
173 196 0
173 195 0
173 197 0
174 197 0
172 195 0
173 197 0
173 196 0
173 197 0
174 198 0
172 196 0
176 199 0
172 196 0
174 197 0
172 195 0
172 196 0
174 197 0
171 195 0
174 197 0
174 197 0
171 195 0
172 195 0
176 198 0
172 196 0
172 196 0
173 197 0
174 197 0
175 197 0
174 197 0
175 198 0
173 197 0
172 195 0
173 197 0
171 194 0
174 197 0
173 197 0
172 195 0
173 196 0
172 196 0
172 196 0
172 196 0
174 197 0
172 195 0
173 197 0
171 195 0
174 197 0
173 196 0
173 196 0
173 196 0
174 197 0
174 197 0
171 194 0
173 196 0
174 197 0
172 196 0
174 198 0
172 196 0
173 196 0
171 194 0
172 195 0
171 195 0
170 193 0
174 198 0
170 194 0
174 197 0
172 195 0
173 196 0
172 195 0
174 197 0
172 196 0
174 198 0
169 193 0
173 197 0
173 196 0
171 195 0
175 198 0
174 197 0
172 196 0
172 195 0
172 193 0
175 198 0
173 195 0
172 196 0
172 195 0
171 195 0
171 194 0
173 196 0
173 196 0
170 194 0
174 198 0
172 195 0
173 196 0
172 196 0
171 195 0
172 195 0
172 196 0
171 194 0
173 197 0
171 195 0
166 190 36
84 116 165
63 99 172
62 99 172
62 99 176
62 99 175
62 99 176
62 99 179
62 99 177
62 99 175
63 100 179
62 99 175
62 99 174
62 99 179
62 99 178
62 99 180
62 99 179
62 99 178
62 99 180
62 99 179
62 99 180
62 99 177
62 99 179
62 99 180
62 99 177
62 99 179
62 99 180
62 99 180
62 99 181
62 99 181
61 99 180
62 99 181
62 99 181
62 99 180
61 99 179
62 99 181
61 98 179
62 99 181
61 99 181
62 99 179
62 99 181
62 99 181
61 99 179
62 99 181
61 99 181
61 99 181
62 99 181
62 99 179
62 99 181
62 99 181
62 99 181
62 99 181
62 99 181
62 99 180
62 99 181
62 99 180
61 99 181
62 99 181
62 99 180
62 99 181
62 99 181
62 99 180
61 98 180
61 98 179
62 99 181
62 99 181
62 99 181
62 99 181
62 99 181
62 99 181
62 99 181
62 99 181
61 98 180
62 99 181
61 99 181
62 99 181
62 99 181
62 99 181
61 99 181
61 99 181
62 99 178
62 99 181
62 99 179
62 99 181
62 99 178
62 99 180
62 99 180
62 99 181
62 99 180
61 98 178
62 99 179
61 99 179
62 99 181
61 98 179
61 99 178
62 99 177
61 99 179
62 99 180
61 99 181
62 99 180
62 99 181
61 98 178
61 99 177
62 99 179
61 98 177
62 99 177
62 99 178
62 99 177
62 99 180
62 99 178
62 99 179
62 99 177
62 98 176
62 99 179
62 99 176
62 98 175
62 99 175
62 98 176
62 99 177
62 98 174
61 97 172
61 98 174
61 97 171
62 98 173
61 97 171
61 97 172
61 97 167
62 98 172
61 96 168
59 94 162
60 94 161
129 133 116
163 155 72
171 162 79
169 162 75
168 160 76
161 155 74
161 154 81
167 159 88
155 149 83
153 147 85
151 145 84
154 149 87
143 139 82
144 140 90
145 141 90
141 138 93
140 137 88
143 140 91
141 137 92
130 128 88
143 139 94
136 133 91
135 133 93
147 143 98
126 126 91
127 127 90
133 133 95
129 130 93
141 140 96
129 129 92
133 133 95
135 136 97
135 135 95
134 134 96
142 142 99
142 142 100
151 150 103
142 141 99
149 148 103
147 147 102
151 150 104
150 149 104
149 148 102
151 150 103
152 151 105
161 159 108
158 156 106
154 153 104
162 160 108
162 159 108
167 164 111
166 163 110
169 165 111
173 168 112
169 166 111
174 170 113
174 170 113
177 173 114
177 172 114
176 172 114
177 172 114
175 172 114
176 172 114
176 172 114
176 172 114
175 172 114
174 171 114
176 172 114
176 172 114
174 171 114
176 172 114
175 171 114
176 172 114
175 171 114
175 171 114
174 171 114
175 171 114
176 172 114
174 171 114
175 171 114
174 171 114
175 172 114
174 171 114
175 171 114
174 171 114
175 172 114
174 171 114
174 171 114
175 171 114
175 172 114
176 172 114
176 172 114
174 171 114
176 172 114
175 171 114
177 172 114
176 172 114
176 172 114
177 172 114
177 173 114
177 173 114
178 173 114
179 173 114
177 172 114
177 173 114
179 173 114
178 173 114
178 173 114
178 173 114
180 174 114
179 173 114
181 174 114
180 174 114
183 175 114
182 175 114
182 175 114
181 174 114
183 175 114
182 175 114
182 175 114
182 175 114
185 176 114
186 177 114
186 177 114
185 176 114
187 177 114
186 176 112
186 177 113
186 176 112
186 176 113
184 175 109
183 173 103
184 175 106
183 174 104
185 175 107
183 174 106
186 176 105
184 174 103
183 173 102
183 173 100
178 170 93
179 170 93
183 172 96
178 169 92
178 168 90
176 167 90
172 162 86
170 161 83
167 159 83
174 165 87
155 148 65
152 144 66
146 139 60
141 134 57
148 161 28
174 196 0
174 197 0
174 197 0
172 195 0
174 197 0
173 195 0
174 197 0
174 197 0
174 198 0
172 196 0
175 198 0
172 196 0
171 194 0
174 197 0
174 198 0
174 197 0
173 197 0
173 197 0
173 196 0
172 195 0
174 197 0
172 195 0
174 197 0
173 197 0
172 195 0
174 197 0
173 197 0
172 196 0
173 196 0
173 196 0
172 195 0
173 196 0
172 195 0
172 195 0
173 196 0
171 196 0
175 198 0
172 195 0
172 195 0
171 196 0
171 194 0
173 196 0
174 197 0
173 196 0
171 195 0
174 196 0
175 198 0
175 198 0
172 195 0
173 195 0
172 196 0
173 196 0
174 197 0
172 195 0
174 197 0
173 196 0
172 195 0
172 195 0
172 195 0
175 198 0
173 197 0
173 196 0
173 197 0
172 196 0
175 198 0
171 195 0
174 197 0
173 196 0
173 195 0
171 194 0
172 195 0
170 193 0
172 195 0
172 195 0
175 198 0
170 194 0
172 196 0
173 196 0
175 198 0
171 195 0
172 195 0
169 193 0
173 196 0
172 196 0
172 196 0
174 197 0
171 194 0
173 195 0
175 198 0
170 194 0
171 195 0
170 193 0
170 194 0
171 194 0
170 193 0
171 195 0
171 194 0
172 196 0
172 195 0
171 195 0
174 197 0
172 195 0
174 197 0
170 193 0
173 196 0
169 193 0
172 195 0
174 197 0
172 196 0
172 196 0
171 196 0
174 198 0
173 195 0
167 191 40
82 113 154
62 99 174
63 99 171
61 98 171
62 99 173
62 99 176
62 99 175
62 99 175
62 99 178
62 99 178
62 99 176
62 99 175
62 99 178
62 99 176
62 99 177
63 100 179
62 99 177
62 99 178
62 99 178
62 99 178
62 99 180
62 99 179
62 99 181
62 99 180
62 99 177
62 99 181
62 99 179
62 99 181
62 99 178
62 99 181
61 99 180
62 99 180
62 99 181
62 99 181
62 99 181
61 98 181
62 99 181
62 99 179
62 99 180
62 99 181
62 99 181
62 99 181
62 99 181
62 99 181
62 99 180
62 99 180
62 99 181
62 99 180
62 99 181
62 99 180
62 99 181
62 99 181
62 99 181
62 99 181
62 99 181
61 99 181
61 99 179
62 99 181
61 99 181
62 99 181
62 99 181
62 99 178
61 98 181
62 99 180
62 99 179
61 99 181
62 99 180
62 99 181
61 98 181
62 99 180
61 99 180
62 99 180
62 99 181
61 98 181
62 99 181
61 98 180
61 99 181
61 99 181
62 99 180
62 99 180
62 99 180
61 98 178
61 99 181
61 99 181
61 99 181
62 99 181
61 99 180
62 99 179
61 99 179
61 99 179
62 99 181
62 99 180
62 99 180
62 99 181
62 99 177
62 99 178
61 99 178
62 99 179
62 99 180
62 99 178
62 99 181
62 99 178
63 100 180
62 99 177
62 99 177
62 99 180
62 99 179
62 99 181
62 99 179
61 99 178
62 99 175
62 99 175
61 98 177
61 98 175
62 99 179
62 98 175
62 99 178
61 98 177
62 98 173
62 98 170
62 99 176
62 98 174
62 98 173
62 99 175
62 98 174
62 98 174
62 98 174
62 98 171
62 98 175
61 97 171
61 96 167
62 96 162
143 143 105
166 158 72
163 156 72
165 158 82
162 155 78
162 155 81
163 156 82
157 150 81
145 141 81
144 140 86
151 145 86
138 135 86
140 136 87
134 132 86
140 137 89
134 131 85
130 128 85
140 137 93
135 133 91
128 127 86
128 127 88
137 135 94
125 124 89
123 124 89
129 130 92
130 131 93
126 127 93
132 133 94
119 122 89
131 131 92
130 131 95
131 132 94
137 138 98
138 139 98
131 132 94
143 143 100
145 145 102
140 140 98
136 137 97
144 144 100
148 147 101
146 146 101
145 144 101
156 154 105
155 152 103
155 153 105
160 158 107
160 158 108
158 156 107
161 159 108
165 162 110
167 164 110
168 164 111
172 168 112
171 168 112
174 170 113
176 172 113
176 172 114
177 173 114
177 172 114
175 172 114
176 172 114
177 173 114
176 172 114
176 172 114
176 172 114
177 172 114
175 172 114
176 172 114
175 171 114
175 171 114
176 172 114
175 172 114
175 172 114
175 172 114
177 172 114
174 171 114
175 171 114
176 172 114
175 171 114
175 172 114
175 172 114
175 172 114
175 172 114
177 173 114
175 172 114
174 171 114
175 172 114
175 172 114
175 172 114
174 171 114
177 172 114
175 172 114
177 172 114
178 173 114
177 172 114
177 173 114
177 173 114
178 173 114
178 173 114
178 173 114
177 173 114
178 173 114
179 174 114
180 174 114
179 173 114
180 174 114
180 174 114
181 174 114
181 174 114
181 174 114
181 174 114
181 174 114
181 174 114
182 175 114
182 175 114
183 175 114
183 175 114
185 176 114
184 176 114
186 177 114
187 177 114
184 176 114
184 176 114
185 176 112
185 176 112
186 176 112
187 177 111
185 176 110
183 174 108
184 175 108
183 174 106
183 174 106
184 174 105
183 174 104
184 174 103
182 173 101
183 173 101
180 171 97
184 174 101
180 171 94
179 170 92
178 169 90
178 168 91
174 165 90
173 164 82
170 160 82
158 151 72
160 152 70
162 154 76
154 145 73
148 140 58
142 135 59
142 147 47
174 196 0
175 198 0
172 195 0
173 196 0
172 195 0
172 195 0
175 198 0
173 197 0
171 195 0
174 197 0
171 195 0
174 197 0
173 195 0
173 197 0
174 197 0
172 195 0
174 197 0
173 197 0
175 198 0
172 195 0
173 196 0
173 196 0
174 197 0
172 195 0
171 194 0
174 197 0
171 195 0
175 197 0
175 198 0
173 197 0
173 197 0
171 194 0
173 197 0
172 196 0
172 195 0
171 195 0
172 195 0
172 196 0
174 197 0
174 196 0
172 195 0
172 196 0
173 196 0
175 197 0
174 197 0
174 197 0
174 197 0
170 195 0
175 198 0
174 197 0
172 196 0
173 197 0
172 195 0
170 194 0
172 196 0
175 198 0
172 196 0
174 196 0
173 196 0
173 196 0
172 196 0
174 197 0
173 196 0
175 198 0
172 196 0
172 195 0
172 196 0
174 197 0
172 195 0
173 196 0
172 195 0
173 196 0
172 195 0
172 196 0
172 195 0
174 197 0
172 195 0
174 196 0
174 197 0
170 194 0
173 197 0
172 195 0
169 192 0
173 195 0
171 195 0
172 195 0
173 196 0
172 195 0
172 197 0
171 195 0
170 193 0
173 195 0
171 195 0
173 196 0
174 197 0
172 195 0
172 195 0
172 195 0
172 195 0
172 195 0
171 195 0
173 196 0
174 197 0
171 195 0
171 194 0
172 195 0
172 194 0
171 193 0
174 196 0
173 196 0
172 195 0
172 196 0
171 194 0
96 125 156
63 99 167
62 99 169
63 99 174
63 100 177
62 98 172
62 99 175
62 99 175
62 98 174
62 99 175
62 99 173
62 99 178
62 99 178
62 99 176
62 99 180
62 99 179
61 98 175
62 99 179
62 99 181
62 99 178
61 99 181
62 99 178
61 99 181
62 99 181
61 99 181
62 99 181
62 99 180
62 99 181
62 99 181
62 99 177
62 99 181
62 99 181
62 99 179
61 98 179
61 99 180
61 99 180
62 99 181
61 99 181
62 99 180
62 99 179
62 99 181
62 99 178
62 99 180
61 99 180
63 100 181
61 99 181
62 99 181
62 99 180
62 99 180
61 98 181
62 99 180
62 99 181
61 99 181
62 99 180
62 99 179
62 99 181
62 99 180
62 99 180
62 99 181
62 99 181
62 99 181
61 99 181
62 99 181
61 99 179
62 99 181
62 99 181
62 99 181
61 99 181
62 99 181
61 99 181
62 99 179
61 99 181
62 99 181
61 99 180
61 99 180
61 99 181
61 98 178
62 99 180
62 99 180
61 99 179
62 99 180
62 99 181
61 99 181
62 99 181
61 99 180
61 99 180
62 99 181
62 99 181
62 99 180
62 99 180
62 99 180
62 99 179
62 99 179
62 99 181
62 99 177
62 99 179
62 99 178
63 100 179
62 99 179
62 99 178
61 99 177
62 99 180
62 99 177
62 99 179
62 99 177
62 99 181
62 99 180
61 98 175
62 99 178
62 99 177
62 99 177
62 99 177
62 99 178
62 99 178
62 98 176
62 99 177
62 99 175
62 98 174
62 99 177
62 99 175
62 98 174
63 99 174
61 98 174
62 98 175
62 98 177
61 98 174
62 98 176
62 99 174
62 98 168
61 97 169
62 97 170
61 96 168
62 99 176
63 97 167
146 145 106
164 157 76
159 153 71
163 156 80
157 151 79
161 155 83
156 150 83
147 142 81
152 147 84
142 137 80
145 141 89
139 136 84
133 130 85
130 127 83
135 133 86
128 126 81
127 126 84
133 131 90
120 119 84
132 130 90
133 132 92
131 129 91
126 127 90
126 127 90
120 121 86
121 123 89
119 120 88
132 132 93
132 133 93
134 134 96
117 120 88
131 132 94
137 137 98
127 129 94
136 136 97
134 134 96
139 139 98
137 137 97
137 137 97
149 148 103
138 139 99
152 151 105
149 148 103
153 152 105
154 153 105
159 157 106
158 157 107
163 160 108
168 164 110
166 163 109
170 166 111
168 164 110
170 166 111
173 169 113
171 168 112
178 172 114
176 172 114
178 173 114
176 172 114
176 172 114
177 173 114
176 172 114
177 172 114
175 171 114
176 172 114
176 172 114
176 172 114
176 172 114
177 172 114
176 172 114
176 172 114
177 172 114
175 171 114
176 172 114
175 172 114
176 172 114
176 172 114
175 172 114
175 172 114
176 172 114
175 171 114
176 172 114
176 172 114
176 172 114
177 172 114
175 172 114
175 172 114
175 172 114
175 172 114
177 172 114
177 173 114
176 172 114
177 173 114
176 172 114
177 173 114
178 173 114
178 173 114
178 173 114
178 173 114
178 173 114
177 172 114
180 174 114
180 174 114
180 174 114
180 174 114
181 175 114
181 174 114
181 174 114
180 174 114
181 174 114
180 174 114
182 175 114
183 175 114
182 175 114
181 175 114
184 176 114
184 176 114
185 176 114
183 175 114
185 176 114
186 177 114
185 176 114
185 176 114
185 176 112
185 176 110
186 176 111
184 175 108
183 174 105
183 174 106
183 174 106
183 174 104
183 174 106
184 174 106
184 174 104
183 174 103
184 174 104
181 172 99
183 173 99
182 172 95
182 172 94
180 171 94
179 169 89
178 170 92
173 164 84
177 168 87
171 161 83
162 154 75
164 155 74
153 146 67
149 142 62
148 140 64
150 143 64
142 145 44
173 196 0
173 195 0
173 196 0
174 197 0
173 196 0
173 196 0
172 195 0
173 196 0
173 197 0
173 197 0
170 194 0
174 197 0
173 197 0
172 196 0
173 196 0
173 196 0
171 194 0
173 197 0
173 197 0
173 197 0
172 195 0
174 197 0
174 197 0
173 197 0
174 197 0
172 196 0
173 197 0
173 196 0
174 197 0
172 196 0
176 198 0
173 195 0
175 197 0
175 198 0
171 195 0
174 196 0
173 196 0
173 196 0
173 196 0
171 194 0
171 195 0
173 196 0
174 197 0
174 197 0
173 196 0
174 197 0
174 198 0
171 195 0
173 196 0
172 195 0
172 195 0
171 195 0
175 198 0
176 199 0
173 196 0
173 196 0
169 192 0
171 195 0
171 195 0
173 197 0
172 195 0
173 196 0
175 197 0
174 197 0
172 195 0
171 195 0
172 196 0
172 196 0
173 196 0
170 194 0
173 196 0
173 196 0
171 193 0
170 194 0
173 197 0
168 192 0
173 196 0
171 196 0
172 194 0
169 192 0
172 196 0
171 194 0
173 196 0
172 196 0
171 195 0
172 195 0
174 197 0
168 192 0
172 195 0
171 194 0
171 195 0
173 194 0
172 196 0
172 196 0
169 193 0
171 194 0
173 196 0
172 195 0
172 195 0
172 195 0
170 193 0
171 194 0
173 196 0
172 195 0
172 194 0
170 193 0
174 196 0
171 195 0
172 196 0
173 197 0
171 195 0
173 196 0
116 142 134
62 99 170
61 98 174
62 98 170
62 99 177
62 99 174
63 100 177
62 98 173
62 99 177
62 99 175
62 99 178
62 99 177
63 100 179
62 99 175
62 99 178
62 99 179
62 99 176
63 100 180
62 99 179
62 99 179
62 99 180
62 99 177
62 99 179
62 99 179
61 99 178
61 99 179
62 99 179
62 99 181
63 100 180
61 99 178
62 99 180
61 99 180
62 99 178
61 98 178
62 99 180
62 99 181
62 99 181
62 99 180
62 99 180
62 99 180
62 99 180
62 99 181
62 99 179
62 99 180
61 98 180
62 99 180
62 99 179
61 98 179
62 99 181
62 99 181
62 99 181
62 99 181
61 99 181
61 99 181
62 99 180
62 99 181
62 99 180
62 99 181
62 99 180
62 99 178
62 99 180
61 98 180
62 99 179
62 99 181
61 99 180
62 99 181
62 99 181
62 99 181
61 99 180
62 99 180
62 99 180
62 99 181
61 98 180
62 99 181
62 99 181
61 99 180
62 99 180
62 99 181
61 98 177
62 99 180
62 99 179
62 99 179
62 99 178
62 99 180
62 99 178
62 99 179
61 99 179
62 99 180
62 99 180
62 99 179
61 99 180
61 98 179
61 98 177
62 99 180
62 99 181
62 99 179
63 100 180
62 99 179
61 98 180
62 99 179
61 98 179
62 99 181
61 99 180
61 99 178
62 99 180
62 99 181
63 99 180
62 99 179
63 99 178
61 98 177
62 99 179
62 99 176
62 98 175
62 99 178
62 99 177
61 98 179
62 98 175
63 99 179
62 99 177
61 98 173
62 99 178
62 99 175
61 98 177
62 98 176
62 98 174
61 97 171
62 98 171
62 98 170
61 98 174
62 98 170
61 97 168
62 97 170
62 98 174
60 96 170
61 96 166
70 99 155
154 149 93
167 159 82
156 150 80
153 148 73
148 143 80
148 143 78
144 140 82
146 142 83
134 131 80
129 128 82
113 114 77
139 135 87
123 122 78
128 127 82
116 115 81
126 124 83
124 123 87
119 119 86
130 128 88
110 112 82
121 121 85
113 114 84
116 118 86
115 117 87
122 123 89
120 122 89
121 122 89
118 120 87
127 129 92
118 122 91
128 129 92
127 129 92
133 134 94
130 132 94
130 132 93
145 145 101
132 134 96
145 143 99
141 141 98
143 143 101
148 146 102
147 146 102
158 156 106
152 151 105
154 152 105
159 156 107
158 157 107
157 155 105
169 165 111
163 160 109
168 164 111
169 166 110
171 167 111
174 169 113
173 168 112
173 169 112
177 172 114
180 174 114
178 173 114
176 172 114
179 173 114
177 172 114
176 172 114
177 173 114
176 172 114
177 172 114
176 172 114
178 173 114
176 172 114
176 172 114
176 172 114
176 172 114
175 172 114
176 172 114
176 172 114
177 172 114
175 172 114
176 172 114
176 172 114
175 172 114
176 172 114
176 172 114
176 172 114
176 172 114
177 172 114
176 172 114
178 173 114
175 172 114
179 173 114
177 172 114
178 173 114
178 173 114
178 173 114
178 173 114
177 172 114
179 173 114
178 173 114
179 173 114
179 173 114
179 173 114
179 173 114
179 173 114
181 174 114
179 173 114
180 174 114
181 174 114
181 174 114
182 175 114
183 175 114
181 174 114
183 175 114
183 175 114
183 175 114
183 175 114
183 175 114
185 176 114
183 175 114
185 176 114
186 177 114
185 176 113
186 176 113
185 176 113
187 177 113
188 177 113
185 176 112
185 175 109
184 175 106
183 174 104
185 175 108
184 174 106
182 173 103
183 173 103
186 175 103
181 172 99
183 173 102
179 171 95
179 171 94
185 174 101
182 172 97
179 170 90
175 167 81
179 169 89
176 166 89
177 167 92
165 157 75
159 151 69
156 148 72
161 153 73
149 142 69
149 143 60
144 137 61
130 132 41
172 195 0
174 196 0
174 196 0
174 196 0
173 196 0
174 197 0
172 195 0
173 196 0
174 198 0
173 196 0
171 195 0
173 197 0
175 197 0
175 198 0
172 197 0
171 195 0
174 197 0
174 197 0
173 197 0
173 197 0
171 196 0
174 197 0
171 195 0
173 196 0
173 197 0
173 195 0
175 198 0
170 193 0
172 196 0
174 198 0
174 197 0
174 197 0
173 197 0
172 196 0
174 197 0
172 196 0
174 197 0
173 197 0
171 194 0
174 196 0
173 196 0
173 197 0
172 195 0
172 196 0
174 197 0
174 198 0
172 195 0
171 195 0
172 195 0
174 197 0
172 195 0
174 197 0
171 195 0
172 195 0
172 195 0
171 194 0
171 195 0
174 197 0
172 195 0
173 197 0
173 196 0
171 194 0
171 195 0
170 193 0
173 196 0
171 195 0
172 196 0
173 196 0
173 196 0
171 194 0
173 195 0
172 195 0
172 195 0
173 196 0
174 196 0
172 195 0
174 197 0
171 194 0
173 197 0
170 193 0
171 195 0
173 196 0
173 196 0
171 195 0
170 193 0
172 195 0
173 196 0
169 192 0
175 198 0
170 193 0
171 195 0
172 196 0
173 196 0
173 195 0
172 195 0
172 195 0
173 196 0
171 195 0
172 194 0
172 195 0
174 197 0
172 195 0
170 194 0
173 197 0
172 196 0
172 196 0
174 196 0
170 193 0
171 194 0
170 194 0
169 192 0
126 152 118
63 100 173
62 99 175
62 99 174
62 98 171
62 99 173
62 99 175
61 98 166
62 99 178
62 99 172
62 99 176
61 98 175
62 99 178
63 99 177
62 99 178
62 99 180
62 100 181
62 99 181
62 99 179
62 99 174
62 99 179
62 99 175
62 99 179
62 99 179
62 99 179
62 99 180
62 99 179
62 99 178
62 99 179
62 99 177
62 99 178
63 100 180
62 99 180
62 99 180
62 99 181
62 99 180
63 99 179
62 99 180
62 99 179
62 99 180
62 99 179
62 99 181
61 99 179
61 98 179
62 99 181
61 98 180
61 99 180
62 99 181
62 99 181
62 99 181
62 99 178
62 99 179
62 99 180
61 99 180
61 99 180
61 99 179
62 99 181
62 99 181
62 99 180
62 99 180
62 99 181
62 99 180
61 98 178
62 99 181
62 99 179
61 99 180
62 99 180
62 99 180
61 99 180
62 99 181
62 99 180
62 99 180
62 99 181
61 99 180
61 98 180
62 99 179
62 99 181
61 99 180
62 99 180
61 99 180
62 99 180
61 98 178
62 99 179
61 99 180
61 98 178
62 99 181
61 99 179
61 99 180
61 98 178
62 99 181
62 99 178
62 99 181
61 98 176
62 99 180
62 99 177
62 99 179
62 99 180
62 99 179
62 99 179
62 99 180
62 99 180
62 99 181
61 98 176
62 99 180
63 99 180
62 99 176
62 99 179
62 98 177
62 99 179
62 99 180
62 99 180
62 99 179
62 99 180
61 99 179
62 99 179
62 98 174
62 98 176
61 98 174
62 98 176
62 98 173
62 99 178
63 99 174
63 99 175
62 98 174
61 98 171
61 97 170
62 98 170
62 98 173
62 97 169
61 98 174
62 98 174
62 97 171
61 97 170
62 98 172
60 95 162
61 97 172
60 94 159
76 102 151
154 150 94
158 151 79
147 142 77
154 148 85
140 136 71
133 131 75
141 136 80
136 132 79
130 127 78
125 123 77
133 130 85
123 121 77
116 116 79
106 107 74
138 135 91
117 117 81
119 119 85
119 119 85
115 116 83
113 114 82
119 121 88
118 119 86
107 110 82
120 121 88
122 124 89
125 126 89
123 124 89
123 125 91
121 124 89
131 131 93
115 119 88
130 131 94
131 133 95
134 135 96
135 136 98
140 140 98
134 135 97
140 140 99
138 139 99
147 146 101
151 149 103
152 150 103
152 151 105
157 155 105
156 155 106
158 156 106
161 158 107
162 159 108
163 160 108
167 164 110
172 168 112
174 170 112
174 170 113
171 167 111
171 167 112
175 170 113
178 173 114
178 173 114
179 173 114
179 173 114
179 173 114
177 172 114
176 172 114
177 172 114
177 173 114
177 172 114
176 172 114
177 172 114
179 173 114
177 172 114
177 172 114
176 172 114
176 172 114
176 172 114
176 172 114
177 172 114
178 173 114
177 173 114
178 173 114
178 173 114
178 173 114
177 172 114
177 173 114
178 173 114
178 173 114
177 172 114
178 173 114
177 173 114
178 173 114
177 173 114
177 172 114
178 173 114
177 173 114
179 173 114
179 173 114
179 174 114
180 174 114
178 173 114
179 173 114
180 174 114
180 174 114
179 174 114
179 173 114
181 174 114
180 174 114
180 174 114
181 174 114
182 175 114
181 174 114
183 175 114
184 176 114
183 175 114
184 176 114
184 176 114
186 176 114
186 177 114
186 176 114
186 177 114
185 176 113
186 177 113
185 176 113
185 176 110
185 176 112
185 175 109
183 174 106
184 175 109
185 175 108
181 173 102
185 175 106
183 174 103
184 174 103
186 175 107
179 171 95
185 175 104
183 173 99
184 174 100
182 172 97
181 171 94
177 169 87
178 169 87
179 169 89
169 160 80
168 160 75
171 162 85
167 158 80
162 154 71
158 150 65
164 154 80
157 149 65
139 131 58
139 137 44
173 195 0
174 196 0
174 196 0
174 196 0
173 196 0
174 196 0
173 197 0
172 196 0
173 196 0
172 196 0
174 197 0
173 196 0
173 196 0
173 196 0
172 196 0
170 193 0
175 198 0
175 198 0
175 198 0
173 196 0
174 197 0
174 197 0
173 196 0
171 195 0
174 197 0
173 195 0
171 195 0
173 195 0
172 195 0
173 196 0
172 196 0
173 197 0
172 196 0
171 194 0
172 196 0
171 194 0
172 195 0
172 197 0
173 196 0
174 197 0
174 197 0
173 197 0
171 195 0
174 197 0
174 197 0
174 197 0
175 197 0
171 195 0
174 197 0
174 197 0
172 196 0
171 194 0
173 196 0
174 197 0
174 198 0
173 195 0
173 196 0
171 195 0
172 196 0
173 196 0
172 195 0
172 196 0
168 191 0
171 194 0
173 197 0
173 196 0
174 197 0
174 197 0
172 195 0
172 196 0
173 197 0
171 194 0
172 196 0
173 197 0
173 197 0
172 195 0
172 195 0
171 192 0
173 196 0
172 195 0
172 196 0
169 193 0
171 194 0
171 195 0
170 193 0
173 196 0
171 194 0
172 195 0
174 197 0
174 197 0
174 197 0
173 197 0
169 192 0
173 196 0
172 195 0
171 195 0
173 195 0
170 194 0
170 193 0
173 195 0
171 195 0
173 197 0
173 196 0
173 197 0
173 196 0
172 194 0
171 195 0
171 194 0
169 193 0
171 195 0
141 165 105
61 98 173
63 99 174
62 98 170
62 99 176
63 99 177
62 98 171
63 100 181
62 99 174
61 98 170
62 99 174
63 99 178
63 99 173
62 99 176
63 99 178
62 99 176
62 99 178
62 99 175
63 100 179
62 99 180
61 98 179
62 99 176
62 99 177
62 99 179
62 99 178
62 99 181
62 99 180
62 99 178
62 99 181
62 99 178
62 99 180
62 99 180
63 100 181
62 99 180
62 99 180
62 99 180
62 99 181
62 99 181
62 99 180
63 100 180
61 99 180
62 99 181
62 99 181
62 99 180
62 99 181
62 99 181
62 99 181
62 99 181
62 99 180
62 99 181
62 99 180
62 99 180
62 99 181
62 99 181
62 99 179
61 99 181
62 99 180
62 99 179
62 99 181
62 99 179
62 99 180
62 99 179
62 99 181
62 99 181
61 99 181
62 99 181
62 99 181
62 99 181
61 99 181
62 99 177
61 99 179
62 99 180
62 99 181
62 99 181
62 99 180
61 98 179
62 99 181
62 99 178
62 99 179
62 99 180
62 99 181
62 99 181
62 99 181
62 99 180
62 99 180
62 99 181
62 99 181
61 99 180
62 99 180
61 99 178
62 99 180
62 99 179
62 99 179
62 99 179
62 99 179
61 98 175
62 99 177
62 99 177
62 99 177
61 98 179
62 99 179
62 99 177
62 99 179
62 99 178
62 99 177
61 99 180
62 99 177
62 99 178
62 99 178
62 99 180
61 98 176
62 99 178
62 99 176
61 99 178
61 98 177
61 98 174
62 98 173
62 99 173
62 99 175
62 98 178
62 98 176
62 99 179
62 99 175
61 98 174
61 98 176
62 98 173
62 99 175
62 99 175
62 98 176
62 98 174
61 98 170
61 97 172
62 98 171
62 98 173
62 98 171
61 97 168
61 97 168
61 96 164
62 97 167
75 101 154
151 146 89
143 138 70
147 142 77
140 137 76
143 139 79
137 133 76
125 123 76
130 127 77
116 116 76
115 115 79
116 116 77
126 124 84
108 109 77
108 109 78
113 114 80
102 106 82
119 119 85
108 111 82
108 112 85
108 111 83
111 113 81
104 108 83
111 114 84
113 116 85
109 112 85
106 109 82
111 115 86
114 116 84
115 118 88
121 123 89
115 118 87
126 127 92
129 131 95
136 137 97
136 136 97
141 141 98
135 136 95
133 133 93
141 141 99
147 146 101
148 147 100
150 148 102
157 154 105
157 155 106
159 157 108
157 154 105
169 165 111
163 159 107
165 161 109
172 167 111
169 164 110
170 166 111
169 166 111
175 170 113
176 171 113
176 171 113
179 173 114
179 173 114
179 173 114
178 173 114
178 173 114
178 173 114
178 173 114
178 173 114
179 173 114
177 172 114
177 172 114
178 173 114
177 172 114
177 173 114
178 173 114
176 172 114
178 173 114
179 173 114
178 173 114
176 172 114
179 173 114
177 173 114
177 173 114
178 173 114
177 172 114
179 173 114
178 173 114
178 173 114
177 172 114
180 174 114
178 173 114
180 174 114
178 173 114
179 173 114
178 173 114
180 174 114
179 174 114
180 174 114
180 174 114
180 174 114
179 174 114
181 174 114
179 173 114
180 174 114
181 174 114
181 174 114
181 175 114
181 174 114
182 175 114
181 174 114
183 175 114
182 175 114
184 176 114
183 175 114
184 176 114
184 176 114
184 176 114
184 176 114
186 177 114
185 176 113
187 177 113
186 176 112
185 176 111
186 176 110
185 176 112
185 176 111
187 176 110
186 176 107
185 176 110
183 174 105
183 174 102
184 174 105
184 174 104
183 174 103
182 173 99
180 171 95
182 172 97
181 171 97
182 172 98
181 171 95
181 171 92
180 170 90
177 169 90
174 165 81
175 165 85
174 165 86
172 163 84
169 161 75
166 158 71
158 150 77
154 146 65
151 144 65
140 133 56
123 119 42
172 195 0
173 195 0
172 195 0
174 196 0
175 197 0
173 195 0
173 197 0
174 197 0
171 195 0
175 198 0
174 197 0
175 198 0
175 198 0
173 197 0
173 197 0
172 195 0
172 196 0
173 197 0
173 197 0
171 195 0
173 197 0
174 198 0
173 196 0
173 196 0
172 196 0
172 195 0
173 197 0
173 196 0
173 197 0
174 197 0
172 194 0
174 197 0
174 197 0
174 197 0
173 196 0
172 195 0
176 199 0
174 197 0
174 197 0
173 196 0
173 196 0
172 195 0
173 197 0
171 195 0
171 195 0
169 194 0
173 196 0
174 198 0
173 197 0
174 197 0
174 196 0
172 195 0
174 197 0
173 196 0
171 195 0
174 197 0
175 198 0
173 196 0
173 196 0
172 196 0
172 195 0
170 194 0
172 196 0
171 195 0
172 194 0
171 194 0
171 195 0
171 195 0
170 194 0
171 195 0
171 195 0
174 197 0
173 196 0
174 197 0
173 197 0
172 196 0
172 194 0
172 195 0
173 196 0
173 196 0
172 196 0
173 196 0
172 195 0
172 196 0
174 198 0
173 195 0
170 194 0
171 194 0
174 197 0
173 197 0
171 194 0
173 197 0
173 196 0
170 193 0
169 194 0
173 196 0
175 197 0
172 196 0
170 193 0
170 193 0
171 195 0
171 194 0
171 194 0
173 195 0
173 196 0
171 195 0
174 197 0
171 194 0
171 193 0
154 178 70
70 105 169
63 99 174
62 99 168
63 100 177
63 99 175
62 99 173
63 99 177
62 99 175
62 99 176
62 99 177
62 99 178
62 99 171
62 99 174
62 99 176
62 99 177
62 99 175
62 99 177
62 99 180
63 99 176
62 99 180
62 99 179
62 99 178
61 98 178
61 98 177
62 99 178
62 99 179
63 100 181
62 99 178
62 99 179
62 99 181
61 99 180
61 99 179
62 99 181
62 99 181
62 99 180
62 99 180
62 99 181
61 99 179
62 99 179
62 99 180
62 99 178
62 99 178
62 99 181
62 99 180
62 99 180
62 99 181
62 99 181
61 99 180
62 99 181
62 99 181
62 99 179
62 99 181
62 99 180
61 99 181
62 99 180
61 99 180
62 99 181
62 99 181
62 99 180
62 99 181
62 99 180
62 99 179
62 99 180
62 99 181
62 99 181
62 99 180
62 99 180
62 99 180
62 99 181
62 99 179
62 99 180
62 99 179
62 99 179
62 99 181
62 99 181
62 99 181
62 99 180
62 99 179
62 99 181
62 99 181
62 99 181
62 99 180
62 99 180
62 99 180
61 99 179
62 99 179
61 98 180
61 98 177
61 99 179
61 98 178
63 100 181
62 99 179
63 100 180
62 99 179
61 99 178
62 99 180
62 99 180
62 99 178
62 99 180
62 99 179
62 99 178
62 99 178
62 99 175
62 99 175
62 99 178
62 99 180
61 98 178
62 99 179
61 98 179
63 99 178
62 99 177
62 99 180
61 98 174
62 99 180
62 99 177
62 99 176
62 99 177
62 99 175
62 98 172
62 99 173
63 99 178
62 99 179
62 99 174
62 99 176
63 100 179
61 98 171
62 98 173
62 99 175
62 98 173
62 99 175
62 98 175
62 98 170
62 98 171
61 98 172
61 96 167
61 97 167
61 97 167
62 97 170
62 97 168
60 96 166
103 115 130
146 140 77
139 135 72
137 133 72
132 130 70
127 125 77
120 119 67
134 132 79
116 116 79
119 118 74
126 124 85
110 111 75
119 118 80
115 115 82
97 100 74
107 109 80
105 108 80
105 107 76
104 107 79
106 108 77
109 112 83
101 105 81
103 108 84
86 94 76
112 115 86
113 115 85
109 113 85
115 118 87
108 113 85
119 122 89
132 133 95
120 122 90
135 135 95
118 120 88
126 128 94
112 117 89
135 135 96
142 142 100
139 139 98
148 147 102
153 151 104
147 145 100
156 154 105
146 145 102
151 149 103
159 156 106
154 152 104
160 157 106
167 163 109
163 160 108
172 167 111
167 163 109
172 167 111
174 169 111
176 170 112
179 173 114
177 171 113
180 174 114
179 173 114
182 175 114
179 173 114
179 173 114
178 173 114
179 173 114
179 173 114
179 173 114
178 173 114
178 173 114
179 174 114
177 172 114
178 173 114
178 173 114
178 173 114
178 173 114
178 173 114
178 173 114
179 173 114
178 173 114
178 173 114
177 173 114
178 173 114
180 174 114
177 173 114
180 174 114
177 173 114
180 174 114
178 173 114
178 173 114
178 173 114
179 173 114
180 174 114
178 173 114
179 173 114
180 174 114
180 174 114
180 174 114
181 174 114
181 174 114
182 175 114
181 174 114
182 175 114
183 175 114
182 175 114
184 176 114
182 175 114
186 177 114
183 175 114
184 176 114
185 176 114
183 175 114
184 176 114
184 176 114
185 176 114
185 176 114
186 176 113
186 177 113
186 176 113
187 177 113
185 176 112
187 177 113
185 175 108
184 175 109
185 176 110
185 175 109
184 174 105
183 174 103
186 175 104
180 171 97
181 172 99
184 174 103
181 172 99
184 174 101
181 172 96
179 170 92
183 173 99
179 170 90
181 171 93
179 170 90
176 167 82
177 168 87
178 168 88
177 167 87
171 162 80
161 154 66
162 154 70
166 157 78
155 148 65
144 136 63
142 136 52
131 126 45
172 194 0
172 195 0
173 196 0
174 197 0
173 196 0
173 195 0
174 197 0
173 196 0
175 198 0
172 195 0
172 196 0
172 196 0
173 196 0
171 195 0
173 197 0
173 197 0
172 196 0
174 197 0
173 197 0
172 196 0
174 197 0
173 196 0
173 196 0
172 195 0
173 197 0
173 197 0
175 198 0
173 197 0
170 194 0
173 196 0
172 196 0
169 192 0
171 195 0
172 196 0
174 198 0
172 196 0
174 197 0
169 193 0
173 196 0
171 195 0
173 197 0
170 194 0
170 194 0
174 196 0
174 197 0
171 195 0
174 196 0
173 197 0
172 196 0
173 197 0
172 196 0
172 196 0
171 195 0
170 194 0
172 195 0
171 195 0
170 193 0
174 196 0
170 193 0
171 195 0
172 196 0
173 196 0
172 195 0
174 197 0
174 197 0
173 197 0
170 194 0
175 198 0
169 193 0
174 197 0
174 196 0
169 193 0
172 195 0
170 194 0
172 196 0
173 197 0
173 196 0
171 194 0
169 192 0
174 198 0
170 192 0
170 194 0
173 196 0
171 195 0
170 193 0
173 197 0
173 197 0
171 194 0
173 197 0
175 197 0
173 195 0
172 195 0
170 193 0
171 194 0
170 194 0
170 193 0
172 195 0
172 195 0
170 193 0
171 195 0
172 195 0
169 192 0
171 194 0
170 193 0
172 194 0
173 195 0
172 195 0
174 198 0
168 191 40
77 109 164
62 98 172
62 99 172
62 99 177
62 99 172
62 99 169
62 99 171
62 98 172
62 99 174
62 99 178
61 98 174
62 99 177
61 98 175
63 100 177
62 99 175
62 99 177
63 99 176
61 98 175
62 99 178
62 99 178
63 99 176
62 99 181
63 99 178
62 99 175
62 99 179
62 99 178
62 99 181
62 99 178
62 99 177
62 99 178
62 99 179
62 99 179
62 99 180
61 98 180
61 99 178
62 99 179
62 99 179
62 99 180
62 99 177
62 99 180
62 99 179
61 98 180
62 99 180
62 99 179
62 99 178
62 99 180
62 99 180
62 99 181
62 99 181
62 99 179
62 99 180
62 99 177
62 99 180
62 99 180
62 99 181
62 99 180
62 99 180
62 99 181
62 99 180
61 98 179
61 98 180
62 99 181
62 99 177
61 98 181
62 99 181
62 99 180
62 99 181
62 99 179
62 99 181
62 99 181
62 99 178
62 99 178
62 99 179
62 99 179
61 99 181
62 99 181
62 99 180
61 99 180
62 99 181
62 99 179
62 99 180
62 99 180
62 99 178
62 99 179
62 99 181
62 99 179
62 99 179
61 99 178
61 98 178
62 99 179
61 99 180
62 99 181
62 99 180
62 99 177
62 99 180
62 99 177
62 99 180
63 99 180
62 99 180
62 99 179
62 98 174
61 99 179
62 99 177
63 100 181
62 99 179
61 98 178
62 99 179
62 99 171
61 98 173
62 99 179
62 98 175
62 99 178
62 99 178
62 98 173
62 99 178
62 99 178
61 98 174
62 99 179
62 99 177
62 99 173
62 98 174
62 98 174
62 99 174
63 99 177
61 98 174
62 99 178
61 98 172
62 98 174
62 99 172
62 99 176
62 98 170
62 98 175
61 96 170
62 98 174
61 98 173
62 97 169
62 98 172
62 98 170
62 98 172
61 96 165
60 95 162
61 95 165
120 124 116
139 135 74
133 130 79
129 126 72
126 124 74
118 117 78
123 121 73
111 111 70
104 105 69
105 107 76
104 106 77
93 97 72
99 101 73
100 103 76
104 106 78
85 91 69
98 102 78
99 103 78
92 97 75
95 100 75
109 111 81
113 116 86
105 109 81
104 108 80
104 109 83
98 104 80
114 117 86
118 121 90
108 112 86
116 120 89
111 115 86
124 126 92
125 127 90
129 130 92
124 126 91
131 133 95
143 142 99
139 139 97
136 136 96
146 145 101
152 150 103
144 143 101
151 149 103
156 153 105
156 153 104
152 150 104
166 162 108
165 160 108
167 163 108
169 165 109
171 166 111
171 166 110
177 172 113
176 171 113
176 170 113
179 173 114
180 174 114
179 173 114
180 174 114
180 174 114
180 174 114
179 174 114
179 173 114
178 173 114
177 172 114
179 173 114
179 173 114
180 174 114
179 174 114
179 173 114
179 173 114
180 174 114
179 173 114
179 174 114
178 173 114
179 173 114
179 173 114
177 173 114
178 173 114
181 174 114
179 173 114
180 174 114
179 174 114
179 174 114
180 174 114
179 173 114
179 173 114
181 174 114
180 174 114
179 173 114
180 174 114
182 175 114
180 174 114
182 175 114
181 174 114
181 174 114
182 175 114
181 174 114
182 175 114
183 175 114
183 175 114
182 175 114
181 174 114
182 175 114
182 175 114
184 176 114
183 175 114
183 175 114
185 176 114
185 176 114
184 176 114
186 176 114
186 177 113
186 176 112
186 177 113
186 176 113
186 176 112
184 175 108
185 175 108
186 176 110
185 176 110
185 175 108
183 174 103
184 174 106
186 175 105
182 173 98
184 174 104
183 173 101
186 175 107
182 172 98
184 174 101
181 171 93
180 171 93
179 170 88
176 168 84
181 171 92
179 170 90
178 169 87
175 166 87
177 168 84
175 166 89
169 161 76
166 158 74
160 152 73
160 152 69
153 144 71
153 145 62
143 137 53
132 126 48
166 186 11
173 196 0
175 197 0
171 194 0
174 197 0
173 194 0
173 196 0
174 197 0
173 196 0
170 194 0
171 195 0
173 196 0
174 198 0
174 197 0
174 197 0
171 195 0
174 196 0
175 198 0
169 193 0
173 196 0
173 196 0
172 196 0
173 196 0
170 194 0
174 196 0
172 196 0
175 198 0
173 195 0
172 196 0
172 196 0
172 196 0
171 195 0
174 196 0
174 197 0
174 198 0
171 195 0
173 196 0
173 196 0
173 197 0
171 194 0
171 195 0
174 197 0
173 196 0
174 196 0
172 196 0
169 193 0
172 195 0
173 196 0
175 197 0
171 194 0
174 198 0
174 198 0
172 194 0
172 196 0
173 196 0
172 195 0
170 193 0
174 197 0
170 194 0
171 194 0
172 196 0
174 197 0
170 194 0
172 196 0
174 197 0
173 196 0
174 197 0
175 198 0
172 195 0
174 197 0
171 194 0
172 196 0
170 194 0
173 197 0
169 193 0
169 192 0
174 197 0
168 192 0
171 195 0
173 197 0
171 194 0
173 195 0
174 197 0
173 196 0
172 195 0
173 196 0
171 194 0
175 197 0
170 193 0
172 195 0
172 195 0
173 196 0
173 197 0
170 194 0
173 196 0
171 194 0
172 195 0
173 197 0
172 195 0
171 195 0
172 195 0
172 195 0
172 196 0
170 194 0
173 196 0
170 195 0
171 195 0
172 194 0
110 137 140
62 99 167
62 98 168
62 99 172
62 98 171
63 99 173
63 99 173
62 98 172
62 99 174
61 98 174
62 99 174
63 99 175
62 99 172
61 98 174
62 99 175
62 99 177
62 99 175
62 99 177
62 99 175
62 99 177
62 99 178
62 99 177
62 99 180
62 99 177
62 99 176
62 99 177
62 99 178
62 99 178
62 99 175
62 99 179
62 99 181
62 99 179
62 99 179
62 99 181
62 99 177
62 99 180
62 99 179
62 99 181
62 99 180
62 99 180
62 99 180
62 99 179
62 99 180
62 99 180
61 99 180
62 99 178
62 99 181
62 99 180
62 99 180
62 99 180
62 99 181
62 99 180
62 99 179
62 99 179
61 99 180
62 99 180
62 99 180
62 99 180
62 99 181
62 99 179
62 99 181
62 99 181
62 99 181
62 99 181
61 98 179
62 99 179
62 99 180
62 99 181
63 100 179
62 99 181
61 99 181
61 98 179
61 99 180
62 99 179
62 99 180
63 100 180
62 99 179
62 99 180
62 99 179
61 98 178
61 99 180
61 99 180
62 99 180
62 99 181
62 99 180
62 99 181
62 99 180
62 99 180
63 99 178
62 99 178
62 99 176
62 99 179
62 99 180
62 99 181
62 99 178
63 100 180
62 99 179
62 99 178
61 98 177
61 98 176
62 99 179
61 99 180
62 99 179
62 99 178
62 99 180
61 98 179
62 99 178
61 99 179
63 99 178
62 99 178
61 99 178
62 99 180
63 99 178
62 99 175
62 99 175
62 99 175
62 99 177
62 99 179
62 98 176
62 98 177
62 99 177
62 99 176
62 98 173
61 98 176
62 99 176
62 98 174
62 99 175
62 98 172
62 99 173
63 100 176
62 98 172
61 98 173
62 98 170
61 98 172
61 98 168
62 98 173
61 97 172
61 97 167
61 97 170
61 97 172
62 98 171
60 95 164
61 95 161
62 94 155
125 127 97
137 132 73
122 120 67
125 123 71
114 113 71
122 121 74
100 102 66
121 119 77
123 121 82
115 115 79
88 92 68
93 98 72
107 108 76
93 98 76
97 99 74
87 92 71
90 95 73
84 92 74
96 101 76
95 101 78
92 98 74
100 105 81
97 102 79
91 98 77
105 109 82
92 99 77
106 111 84
99 105 80
111 116 87
113 117 88
113 117 85
122 125 91
132 133 95
135 135 95
134 135 96
132 133 95
126 127 91
146 145 101
145 144 100
143 142 98
143 142 97
155 152 104
155 152 103
157 154 105
148 146 102
160 156 105
164 160 108
165 161 108
169 164 109
169 164 109
175 170 113
175 169 112
177 171 113
174 168 111
178 172 113
180 173 113
182 175 114
179 174 114
181 174 114
181 174 114
178 173 114
181 174 114
180 174 114
180 174 114
179 173 114
179 174 114
180 174 114
179 173 114
178 173 114
179 174 114
179 173 114
180 174 114
178 173 114
179 173 114
179 174 114
180 174 114
180 174 114
179 173 114
180 174 114
179 173 114
180 174 114
179 173 114
180 174 114
178 173 114
180 174 114
180 174 114
181 174 114
182 175 114
180 174 114
179 174 114
181 175 114
181 174 114
181 174 114
180 174 114
181 174 114
182 175 114
183 175 114
181 174 114
183 175 114
182 175 114
184 176 114
183 175 114
183 175 114
184 175 114
184 176 114
184 176 114
184 176 114
186 177 114
186 176 114
187 177 114
184 176 113
187 177 112
186 177 112
185 176 111
187 176 110
184 175 109
186 176 108
187 176 109
184 175 106
184 174 105
185 175 108
186 175 107
186 176 110
182 173 101
185 175 106
179 171 97
184 174 100
182 172 96
180 171 96
180 171 94
184 173 100
182 172 96
178 170 90
181 171 92
176 167 84
180 170 89
178 169 88
174 165 82
173 164 82
170 160 80
167 160 72
170 160 80
164 155 72
156 149 65
155 148 66
149 142 62
134 128 44
137 130 51
169 191 11
173 196 0
174 197 0
174 197 0
174 196 0
171 193 0
175 197 0
172 196 0
172 196 0
173 197 0
173 196 0
174 197 0
172 196 0
173 196 0
174 197 0
173 197 0
173 196 0
172 196 0
174 197 0
173 197 0
172 196 0
173 196 0
174 197 0
175 198 0
173 197 0
173 196 0
173 197 0
173 196 0
175 197 0
171 195 0
172 196 0
172 196 0
172 195 0
173 197 0
174 197 0
172 196 0
173 196 0
173 197 0
174 197 0
174 197 0
173 197 0
172 196 0
175 198 0
175 198 0
174 197 0
174 197 0
174 197 0
172 196 0
174 198 0
174 197 0
171 194 0
172 196 0
173 197 0
173 197 0
173 197 0
175 198 0
172 196 0
171 195 0
174 197 0
172 195 0
172 196 0
173 196 0
173 196 0
174 197 0
172 196 0
172 195 0
173 195 0
173 197 0
174 197 0
173 196 0
173 197 0
169 193 0
173 196 0
173 196 0
171 195 0
172 195 0
171 195 0
172 195 0
168 192 0
168 193 0
172 195 0
170 193 0
173 195 0
171 194 0
173 196 0
173 196 0
172 195 0
170 193 0
175 198 0
173 197 0
173 196 0
173 196 0
171 194 0
170 194 0
172 196 0
174 196 0
166 189 0
170 193 0
171 195 0
169 192 0
172 196 0
172 196 0
175 198 0
171 195 0
170 193 0
171 195 0
170 194 0
134 160 111
63 100 172
62 99 174
62 98 163
62 99 170
62 98 174
61 98 168
61 97 162
62 99 176
62 99 174
62 99 172
62 99 177
62 99 177
63 100 176
62 99 173
62 98 172
61 99 178
62 99 178
61 98 179
61 98 176
61 99 177
62 98 174
62 99 180
62 99 176
62 99 178
62 99 179
61 98 177
63 100 180
62 99 179
61 98 179
62 99 179
62 99 177
63 100 179
61 98 177
62 99 179
62 99 178
61 99 179
62 99 177
61 99 180
62 99 176
62 99 181
62 99 179
62 99 181
61 99 180
62 99 179
61 99 180
62 99 180
61 99 179
62 99 180
62 99 178
61 98 180
62 99 178
61 99 179
62 99 180
62 99 179
63 100 180
62 99 180
62 99 180
62 99 181
62 99 179
62 99 181
62 99 180
62 99 181
62 99 180
62 99 180
62 99 178
62 99 180
62 99 180
62 99 177
62 99 179
62 99 181
62 99 180
61 99 179
61 98 180
62 99 180
62 99 181
62 99 179
61 98 176
62 99 180
62 99 180
61 99 179
62 99 180
62 99 180
62 99 179
61 99 178
62 99 180
62 99 179
62 99 179
62 99 181
62 99 180
62 99 178
62 99 180
63 99 178
62 99 180
62 99 178
63 99 177
62 99 178
62 99 179
61 98 180
62 99 177
62 99 181
61 98 177
61 99 179
62 99 180
62 99 178
62 98 174
62 99 178
61 99 177
62 99 179
62 99 176
62 99 179
62 99 179
62 99 177
62 99 179
62 99 179
62 99 176
62 99 176
62 99 178
62 98 175
62 99 176
63 100 178
62 99 178
62 99 174
62 99 177
61 98 168
62 99 175
62 99 173
63 100 179
62 99 177
62 99 175
61 98 174
62 99 175
62 98 177
62 98 173
61 97 172
62 98 176
62 99 173
61 97 170
61 98 172
62 97 169
61 96 165
62 97 166
61 96 166
61 96 165
61 95 164
72 100 154
133 130 80
120 119 67
124 121 69
117 116 72
116 114 73
105 104 66
108 108 69
103 103 73
105 105 72
97 100 76
97 100 76
95 98 71
68 78 65
78 86 67
89 95 74
85 92 72
96 101 80
84 92 73
88 94 71
93 99 78
93 99 75
102 108 84
96 102 77
99 104 80
104 108 81
100 105 79
101 106 81
105 111 85
103 109 85
111 114 84
107 112 84
115 119 89
122 124 90
127 128 93
123 125 90
131 132 93
132 133 95
139 138 97
132 132 95
145 144 100
146 144 100
146 145 101
151 149 103
153 151 103
162 158 106
161 157 106
166 161 108
168 163 109
167 162 108
173 168 111
172 166 110
176 169 112
179 173 113
179 173 113
181 174 114
182 175 114
181 174 114
180 174 114
181 174 114
180 174 114
180 174 114
181 174 114
179 174 114
179 174 114
180 174 114
182 175 114
179 173 114
181 174 114
181 174 114
180 174 114
181 174 114
179 173 114
181 174 114
179 174 114
179 174 114
180 174 114
180 174 114
181 174 114
179 173 114
180 174 114
180 174 114
180 174 114
181 174 114
179 174 114
181 174 114
180 174 114
182 175 114
182 175 114
180 174 114
181 175 114
182 175 114
183 175 114
182 175 114
183 175 114
182 175 114
184 176 114
183 175 114
182 175 114
182 175 114
184 176 114
185 176 114
184 176 114
185 176 114
184 176 114
185 176 114
186 176 114
185 176 114
186 177 114
186 176 114
184 176 112
186 176 112
186 177 113
185 176 112
187 177 113
185 175 109
186 175 108
184 175 109
184 175 108
186 176 108
183 174 106
183 173 103
184 174 101
186 175 107
181 172 99
181 172 97
181 172 97
182 173 101
181 172 97
183 173 100
184 173 99
180 171 93
179 170 91
179 170 89
180 170 90
175 167 81
177 168 80
169 160 79
175 166 80
172 163 77
165 157 79
163 155 76
156 149 64
159 153 58
150 143 67
148 141 62
148 141 64
128 122 47
168 190 0
175 197 0
172 195 0
172 196 0
172 193 0
173 196 0
171 194 0
173 196 0
172 196 0
173 196 0
174 197 0
173 196 0
174 197 0
173 196 0
174 197 0
172 196 0
175 197 0
175 198 0
172 195 0
173 197 0
174 197 0
173 197 0
173 197 0
171 195 0
174 198 0
173 196 0
173 196 0
173 197 0
172 196 0
172 196 0
173 197 0
174 197 0
174 197 0
170 194 0
172 196 0
174 196 0
174 197 0
171 194 0
173 197 0
173 197 0
170 194 0
173 196 0
173 196 0
175 198 0
172 194 0
172 196 0
174 198 0
172 197 0
173 197 0
175 198 0
173 197 0
172 195 0
170 194 0
173 196 0
173 197 0
172 196 0
171 195 0
173 196 0
173 197 0
171 194 0
173 196 0
171 195 0
171 194 0
172 196 0
173 196 0
172 195 0
174 197 0
171 195 0
170 194 0
172 195 0
172 196 0
172 195 0
171 194 0
171 195 0
172 195 0
171 194 0
174 197 0
170 194 0
174 197 0
171 194 0
170 194 0
170 193 0
173 196 0
173 196 0
172 196 0
170 193 0
172 195 0
170 193 0
171 194 0
168 192 0
173 196 0
172 194 0
171 195 0
170 194 0
173 196 0
171 194 0
171 195 0
172 196 0
170 194 0
169 192 0
172 195 0
171 194 0
173 196 0
173 195 0
171 194 0
170 194 0
158 181 67
68 103 165
62 99 171
61 98 163
62 99 169
62 99 169
63 99 174
62 98 169
62 99 172
63 99 172
62 99 173
62 99 176
62 99 175
62 99 178
62 99 180
62 99 176
62 99 178
62 99 176
62 99 177
62 99 180
61 99 179
62 99 180
62 99 178
62 99 176
62 99 178
62 99 178
62 99 177
62 99 175
62 99 174
62 99 178
61 99 178
62 99 181
62 99 181
63 100 180
63 100 178
62 99 181
62 99 178
62 99 179
62 99 179
62 99 175
63 100 179
62 99 176
62 99 177
62 99 177
62 99 179
62 99 179
62 99 180
63 100 179
62 99 181
63 100 181
62 99 180
62 99 181
61 99 178
62 99 180
62 99 181
62 99 180
62 99 181
62 99 180
63 100 180
61 98 181
62 99 179
62 99 180
62 99 181
62 99 180
62 99 180
62 99 181
62 99 179
62 99 180
62 99 180
62 99 179
61 99 178
62 99 179
62 99 179
62 99 180
62 99 181
62 99 179
61 98 176
62 99 180
61 99 179
62 99 181
62 99 179
62 99 177
62 99 180
62 99 176
62 99 180
61 98 173
62 99 180
62 99 177
61 98 177
62 99 178
61 99 179
62 99 180
62 99 178
61 98 177
63 99 180
62 99 178
62 99 178
62 99 179
62 99 179
62 99 180
62 99 178
62 99 178
62 99 178
61 98 174
61 99 180
62 99 178
61 98 174
61 98 178
62 99 177
62 98 174
62 99 178
62 99 176
62 99 177
62 99 178
62 99 178
62 99 179
62 99 177
62 99 179
62 99 178
62 98 175
62 99 176
62 99 175
61 98 178
62 98 176
62 99 175
62 99 176
62 99 176
63 99 177
62 99 175
63 99 178
62 99 174
62 99 175
62 98 171
62 98 175
61 97 170
62 98 173
61 97 170
62 98 170
63 98 170
62 98 172
62 97 171
62 98 174
62 98 169
61 97 168
61 97 169
61 96 166
60 93 154
96 109 131
132 127 70
124 121 76
125 123 77
108 108 65
107 106 68
98 101 70
94 97 70
109 109 74
72 80 65
99 101 74
73 80 63
81 86 66
79 86 70
80 88 70
69 79 65
78 86 69
72 83 69
78 87 72
87 94 74
84 92 74
85 93 73
81 91 77
87 95 76
86 94 75
87 94 75
99 104 80
89 97 78
111 115 85
105 110 84
120 123 90
115 118 88
129 130 92
116 119 88
131 132 94
126 127 92
145 144 100
137 137 95
137 137 96
146 145 101
152 149 102
149 147 100
154 151 102
153 151 104
163 159 107
163 159 107
160 156 105
165 160 107
165 161 108
169 164 110
173 167 111
177 171 113
175 169 111
173 169 112
181 174 114
183 175 114
183 175 114
181 174 114
181 174 114
181 174 114
181 174 114
181 174 114
180 174 114
181 174 114
181 174 114
181 174 114
181 174 114
181 174 114
181 174 114
181 174 114
182 175 114
181 174 114
180 174 114
181 174 114
180 174 114
181 174 114
181 174 114
184 176 114
181 174 114
181 174 114
181 174 114
180 174 114
180 174 114
181 174 114
181 174 114
183 175 114
182 175 114
182 175 114
182 175 114
183 175 114
181 174 114
183 175 114
183 175 114
183 175 114
182 175 114
184 176 114
184 176 114
183 175 114
184 176 114
183 175 114
184 176 114
186 176 114
184 176 114
186 177 114
186 177 114
185 176 114
184 175 112
186 176 113
186 176 113
187 177 113
187 177 113
186 176 112
186 176 109
187 177 110
186 176 111
183 174 109
184 175 106
185 175 106
183 174 104
182 173 104
182 173 101
182 173 100
185 174 103
184 174 103
183 173 98
182 173 101
181 172 97
181 171 96
181 171 93
178 170 91
178 169 88
180 170 90
176 168 86
178 169 88
178 169 86
173 165 79
173 165 76
172 163 77
174 164 83
172 162 80
162 154 69
157 149 70
170 161 80
152 145 63
138 133 54
134 128 42
127 122 44
166 186 11
172 194 0
174 197 0
174 196 0
172 195 0
173 195 0
174 197 0
174 198 0
173 196 0
173 196 0
174 197 0
171 195 0
173 196 0
173 197 0
173 196 0
172 196 0
173 197 0
174 197 0
172 195 0
173 196 0
171 195 0
173 196 0
171 194 0
172 196 0
173 196 0
174 198 0
174 197 0
173 196 0
173 196 0
172 195 0
172 196 0
172 195 0
172 196 0
174 197 0
174 197 0
174 197 0
174 197 0
173 197 0
171 195 0
174 197 0
172 195 0
174 197 0
174 196 0
173 197 0
172 196 0
174 197 0
175 198 0
171 194 0
174 197 0
172 196 0
174 197 0
171 195 0
169 193 0
172 194 0
173 196 0
171 194 0
172 195 0
172 195 0
173 196 0
171 195 0
172 195 0
169 193 0
169 193 0
174 196 0
173 197 0
174 197 0
173 196 0
172 195 0
171 194 0
172 196 0
174 196 0
173 196 0
169 193 0
173 196 0
173 197 0
173 196 0
174 197 0
172 195 0
171 195 0
172 194 0
170 194 0
174 197 0
174 197 0
170 193 0
172 195 0
170 193 0
171 195 0
168 192 0
173 195 0
173 196 0
169 193 0
169 192 0
172 195 0
172 195 0
173 196 0
174 197 0
172 196 0
173 196 0
171 194 0
171 194 0
169 193 0
173 196 0
171 194 0
173 196 0
171 195 0
168 192 40
85 116 154
62 99 169
62 99 172
63 99 172
62 98 165
62 99 175
62 99 171
62 99 171
62 99 173
62 99 176
62 98 170
63 100 178
63 99 176
63 100 180
62 99 178
62 99 176
62 99 175
63 100 179
62 99 176
61 98 176
62 98 173
63 100 179
62 99 177
62 99 178
62 99 177
62 99 174
62 99 179
62 99 176
61 98 176
62 99 178
63 100 181
62 99 180
62 99 178
61 98 176
62 99 176
62 99 180
62 99 179
62 99 179
62 99 180
62 99 179
62 99 180
62 99 179
62 99 177
62 99 179
62 98 176
62 99 180
62 99 180
62 99 180
62 99 180
62 99 181
61 99 179
62 99 181
61 98 177
62 99 180
62 99 180
62 99 179
62 99 181
62 99 179
62 99 181
61 99 178
62 99 178
62 99 181
61 99 181
62 99 179
62 99 179
62 99 178
62 99 179
63 99 179
62 99 179
61 99 178
62 99 180
62 99 179
63 100 181
62 99 178
62 99 180
62 99 181
62 99 178
62 99 181
62 99 179
62 99 178
62 99 180
62 99 178
62 99 180
62 99 178
62 99 180
61 99 180
61 99 179
62 99 180
61 99 178
62 99 179
63 100 181
62 99 179
62 99 178
62 99 177
63 100 179
62 99 181
62 99 178
62 99 180
61 98 178
63 100 179
62 99 179
61 98 179
62 99 178
62 99 178
61 98 175
62 99 177
63 100 181
62 99 176
62 99 179
61 98 173
62 99 180
62 99 175
62 99 176
63 99 177
62 99 177
62 99 178
63 100 178
62 99 178
62 99 175
62 99 177
62 99 177
62 99 174
63 99 176
61 99 177
63 99 174
62 98 174
61 98 176
62 99 177
62 99 175
62 98 170
61 98 173
62 99 175
62 98 171
62 98 174
63 99 172
61 98 169
62 98 171
62 98 172
62 98 172
62 98 173
61 97 169
61 97 171
62 97 167
63 98 171
61 97 166
61 94 161
61 96 167
59 91 152
107 114 113
121 117 68
105 105 69
111 110 70
103 104 69
90 91 63
75 81 59
81 86 61
83 86 63
95 98 73
87 92 72
64 74 62
79 86 67
71 79 64
68 77 64
68 79 68
71 81 68
80 89 73
66 78 68
72 83 71
75 85 70
77 86 68
86 94 74
83 91 73
92 98 76
103 108 83
97 103 79
110 114 87
103 108 84
115 118 87
115 118 86
120 122 89
123 125 90
131 131 93
125 127 92
139 138 96
131 132 94
145 143 99
138 138 99
149 147 103
150 148 101
151 149 101
152 149 104
164 159 107
152 149 101
163 159 107
161 156 105
168 163 109
171 165 110
170 165 110
169 164 110
177 171 112
175 169 111
178 172 113
181 174 113
183 175 114
183 175 114
182 175 114
181 174 114
182 175 114
183 175 114
181 174 114
182 175 114
180 174 114
183 175 114
182 175 114
181 174 114
182 175 114
181 174 114
179 173 114
182 175 114
181 174 114
182 175 114
181 174 114
180 174 114
183 175 114
182 175 114
182 175 114
182 175 114
181 174 114
182 175 114
182 175 114
182 175 114
182 175 114
182 175 114
182 175 114
184 176 114
182 175 114
182 175 114
183 175 114
181 175 114
184 175 114
185 176 114
184 176 114
183 175 114
186 177 114
183 175 114
182 175 114
184 176 114
186 177 114
186 177 114
184 176 114
187 177 114
186 176 113
185 176 112
186 176 112
186 176 112
183 174 109
184 175 110
184 175 109
184 175 110
183 174 107
184 175 107
183 173 104
186 176 108
186 176 109
182 173 104
184 175 106
186 175 106
185 175 107
182 173 101
181 172 95
185 175 105
182 172 98
182 173 98
181 172 99
181 171 95
180 171 91
181 172 96
179 170 91
180 171 91
181 171 90
175 167 81
177 169 86
177 168 83
175 167 80
175 166 84
173 165 83
168 159 81
166 157 72
162 154 72
156 149 68
152 144 66
146 139 58
142 136 54
130 125 44
169 191 0
173 196 0
173 196 0
175 196 0
173 196 0
173 197 0
172 195 0
172 196 0
174 197 0
173 197 0
172 196 0
173 196 0
174 197 0
174 197 0
173 197 0
172 196 0
173 197 0
173 197 0
172 195 0
173 196 0
174 196 0
174 197 0
172 195 0
173 197 0
174 197 0
173 196 0
171 195 0
172 195 0
173 197 0
172 195 0
173 196 0
172 196 0
173 196 0
173 196 0
172 196 0
172 195 0
173 196 0
172 195 0
171 194 0
174 196 0
170 194 0
174 197 0
172 195 0
174 196 0
174 197 0
172 195 0
171 194 0
174 197 0
172 196 0
172 195 0
174 197 0
172 196 0
172 194 0
174 197 0
171 195 0
169 193 0
174 197 0
171 194 0
171 194 0
173 197 0
171 195 0
174 197 0
172 195 0
173 196 0
170 194 0
173 195 0
173 196 0
170 193 0
171 194 0
172 195 0
172 196 0
171 194 0
171 195 0
173 195 0
171 195 0
172 194 0
170 193 0
171 194 0
172 195 0
170 193 0
171 194 0
172 195 0
170 193 0
171 194 0
171 194 0
169 192 0
171 194 0
173 196 0
172 195 0
172 195 0
170 194 0
172 195 0
171 194 0
171 194 0
171 194 0
169 192 0
170 194 0
171 194 0
170 193 0
170 194 0
171 194 0
170 193 0
169 193 0
170 194 0
172 196 0
124 149 121
62 99 172
62 98 165
63 99 174
62 99 171
62 98 168
61 98 174
62 99 172
61 98 171
63 99 173
62 99 174
62 99 175
62 99 172
62 99 175
62 98 173
62 99 178
62 99 176
62 99 179
62 99 177
62 99 179
62 99 176
62 99 178
62 99 175
62 99 177
62 99 178
63 100 178
62 99 179
62 99 179
62 99 178
62 99 179
62 99 177
62 99 180
63 99 177
62 99 179
62 99 178
63 100 179
62 98 175
62 99 181
61 98 179
62 99 180
62 99 177
62 99 180
62 99 180
62 99 180
62 99 179
61 99 180
62 99 177
62 99 180
62 99 181
62 99 180
62 99 180
62 99 179
62 99 180
62 99 181
62 99 181
62 99 180
62 99 181
62 99 178
62 99 181
63 100 180
61 98 179
62 99 179
62 99 179
62 99 180
62 99 178
62 99 180
62 99 179
62 99 180
63 100 181
62 99 180
62 99 179
62 99 179
62 99 178
62 99 179
61 98 179
62 99 181
63 100 180
61 98 176
62 99 176
62 99 180
61 98 178
62 99 178
62 99 181
62 99 181
62 99 179
62 99 178
62 99 180
62 99 179
62 99 178
62 99 179
62 99 179
62 99 179
62 99 175
62 99 180
62 99 180
62 99 179
62 99 179
63 100 178
62 99 179
61 99 179
62 99 179
62 99 178
62 99 179
62 99 177
62 99 178
61 99 180
61 99 178
61 99 180
61 98 176
62 99 177
62 99 177
62 99 176
62 99 180
62 99 175
62 99 178
62 99 175
62 99 175
62 99 172
62 99 175
62 99 174
62 99 173
62 99 176
61 98 177
62 99 177
62 99 176
63 99 176
63 99 175
62 99 173
63 99 174
62 99 177
62 99 172
63 99 176
62 99 177
61 98 171
62 99 178
62 99 176
61 97 169
61 98 171
62 98 171
61 97 166
62 98 168
61 98 172
62 97 164
63 98 168
61 97 164
61 96 163
61 97 168
61 96 161
60 95 161
64 94 153
103 106 79
105 105 66
105 105 65
95 97 64
85 89 65
84 87 62
78 83 62
77 83 63
74 80 64
55 67 57
69 77 64
70 78 62
63 71 56
56 68 59
63 74 61
53 69 63
66 77 65
61 74 64
60 73 64
78 88 74
79 88 72
76 85 68
94 101 78
86 95 76
93 100 79
87 95 76
95 102 80
111 115 86
94 102 81
115 118 85
116 118 86
115 118 86
127 128 92
124 125 91
135 135 94
139 138 96
141 140 96
141 141 99
152 150 102
153 150 103
152 149 102
154 151 103
160 156 106
153 150 102
154 151 103
168 162 108
166 161 108
170 164 108
176 169 111
176 169 111
177 170 111
176 170 111
181 173 112
180 173 113
180 174 114
182 175 114
182 175 114
181 174 114
181 175 114
183 175 114
182 175 114
182 175 114
183 175 114
182 175 114
182 175 114
182 175 114
183 175 114
182 175 114
183 175 114
182 175 114
182 175 114
181 174 114
182 175 114
182 175 114
183 175 114
182 175 114
182 175 114
182 175 114
183 175 114
182 175 114
183 175 114
183 175 114
182 175 114
181 174 114
183 175 114
182 175 114
184 176 114
183 175 114
182 175 114
185 176 114
183 175 114
184 176 114
187 177 114
184 176 114
184 176 114
185 176 114
186 177 114
186 177 114
186 176 114
187 177 114
187 177 114
185 176 113
185 176 112
184 175 110
184 176 112
187 177 112
187 177 112
185 176 111
185 176 112
186 176 112
185 175 108
186 176 110
185 175 106
184 175 107
181 172 101
182 173 100
184 174 104
182 173 101
185 174 104
179 171 97
181 172 97
182 173 101
180 171 95
183 172 97
182 172 97
181 172 97
178 170 91
177 169 87
181 171 93
179 170 90
178 169 87
173 166 76
178 169 87
176 168 82
173 164 80
176 167 82
168 160 76
167 158 76
168 160 71
156 148 68
156 149 61
156 148 71
148 141 58
145 138 59
136 131 45
169 189 19
173 194 0
174 195 0
171 195 0
176 197 0
171 194 0
173 196 0
173 196 0
174 197 0
171 195 0
171 194 0
173 196 0
168 192 0
172 195 0
172 196 0
175 198 0
173 196 0
173 196 0
174 197 0
174 197 0
174 198 0
172 196 0
172 195 0
174 197 0
171 194 0
173 196 0
172 195 0
173 197 0
171 195 0
173 196 0
173 197 0
175 198 0
174 197 0
174 197 0
172 196 0
171 195 0
174 197 0
170 193 0
171 195 0
175 198 0
172 196 0
173 196 0
172 195 0
176 198 0
172 196 0
174 196 0
171 195 0
173 196 0
172 194 0
172 196 0
171 194 0
174 198 0
172 196 0
171 194 0
173 197 0
171 194 0
171 196 0
171 194 0
170 193 0
173 196 0
174 198 0
171 195 0
173 197 0
171 194 0
173 196 0
172 196 0
172 195 0
170 194 0
170 194 0
173 196 0
172 195 0
172 196 0
169 193 0
171 194 0
175 197 0
175 198 0
174 197 0
171 195 0
173 197 0
171 194 0
172 196 0
170 193 0
172 195 0
171 195 0
172 195 0
173 196 0
172 196 0
172 195 0
169 193 0
172 195 0
173 195 0
171 194 0
171 194 0
172 195 0
171 195 0
172 196 0
172 195 0
169 192 0
172 195 0
172 195 0
172 194 0
171 194 0
169 193 0
173 195 0
157 181 74
63 99 171
62 98 166
61 98 168
63 99 168
62 99 170
62 99 172
62 98 170
61 98 170
62 99 171
62 99 170
62 99 171
62 99 173
62 99 175
62 99 177
62 99 175
61 98 170
62 99 177
62 99 178
62 99 176
63 100 179
62 99 176
62 99 178
62 99 177
62 99 176
62 99 179
62 99 174
63 99 178
62 99 178
63 100 180
62 99 179
62 99 177
63 100 179
62 99 176
62 99 179
62 99 179
62 99 177
62 99 179
62 99 178
62 99 178
62 99 179
62 99 176
62 99 177
61 99 181
62 99 179
62 99 178
62 99 178
62 99 181
62 99 180
62 99 181
62 99 181
62 99 179
61 99 179
62 99 180
62 99 177
62 99 180
61 98 179
62 99 180
63 100 181
62 99 180
62 99 180
62 99 180
62 99 181
62 99 178
62 99 180
62 99 180
61 99 180
62 99 179
62 99 178
61 98 177
62 99 178
62 99 181
62 99 180
62 99 178
62 99 179
62 99 176
62 99 179
62 99 179
61 99 179
62 99 181
62 99 177
62 99 180
62 99 178
62 99 179
62 99 179
61 99 178
61 98 178
62 99 178
63 100 180
62 99 178
62 99 180
62 99 180
62 99 179
62 99 179
62 99 180
61 99 179
61 98 176
62 99 177
62 99 178
62 99 179
61 99 178
62 100 181
62 99 179
61 98 174
62 99 177
62 99 179
62 99 176
61 99 178
62 99 181
63 100 180
63 100 177
61 98 174
62 99 175
62 99 178
61 98 177
62 99 177
62 99 179
62 99 179
63 100 180
61 98 173
62 98 173
62 99 177
61 98 174
62 99 179
62 99 178
61 98 177
61 98 172
62 99 177
62 99 177
62 98 172
62 98 173
62 99 177
62 98 170
62 98 174
62 98 175
61 97 171
62 98 170
62 98 173
61 97 170
62 99 173
61 98 173
62 98 174
62 98 174
62 97 169
61 97 170
62 97 165
61 95 163
61 96 165
61 97 168
60 95 166
60 94 158
76 97 136
99 100 65
84 88 61
89 91 54
92 93 64
92 94 66
69 77 60
64 71 55
65 73 58
66 73 58
64 74 61
45 60 56
50 64 58
48 64 59
49 64 59
54 68 62
50 67 64
49 65 61
60 73 63
62 74 65
63 76 68
68 80 68
82 92 74
80 90 75
86 93 74
83 91 73
92 99 77
105 109 81
111 116 88
105 109 82
115 119 88
114 117 87
122 124 89
127 128 92
122 124 90
137 137 94
134 135 94
142 141 98
149 147 100
147 145 100
149 147 102
143 142 99
159 155 106
163 158 104
163 158 106
165 160 107
166 160 107
170 164 108
169 163 108
166 161 108
176 169 111
176 169 110
181 174 114
182 174 113
183 175 114
184 176 114
184 176 114
183 175 114
184 176 114
183 175 114
183 175 114
182 175 114
183 175 114
183 175 114
182 175 114
183 175 114
184 175 114
182 175 114
183 175 114
182 175 114
183 175 114
184 175 114
181 174 114
183 175 114
182 175 114
183 175 114
182 175 114
184 176 114
184 176 114
183 175 114
182 175 114
183 175 114
182 175 114
184 176 114
185 176 114
183 175 114
184 176 114
183 175 114
186 176 114
185 176 114
183 175 114
185 176 114
185 176 114
187 177 114
186 177 114
187 177 113
186 177 114
186 177 114
186 177 114
187 177 114
186 176 112
186 176 111
185 176 111
186 176 111
186 176 109
183 175 109
186 176 112
185 175 108
187 176 110
184 174 107
184 175 106
183 174 104
184 174 106
186 175 108
186 176 106
182 173 104
183 173 101
181 172 99
183 173 101
179 171 95
182 173 100
182 172 99
182 173 98
181 171 96
180 171 95
179 170 93
180 171 93
176 168 85
176 168 85
178 169 88
177 168 86
177 168 84
176 167 81
175 166 80
176 167 82
171 162 75
170 161 81
164 157 66
163 156 64
156 149 65
165 156 68
151 144 64
129 124 44
141 134 59
121 117 39
170 191 16
172 194 0
172 194 0
170 193 0
173 196 0
172 195 0
172 195 0
171 195 0
174 197 0
172 196 0
171 195 0
172 196 0
171 195 0
172 196 0
171 194 0
174 197 0
173 196 0
171 195 0
169 192 0
172 196 0
172 196 0
176 199 0
173 196 0
173 196 0
171 194 0
175 198 0
173 197 0
173 196 0
173 197 0
174 197 0
172 195 0
173 197 0
172 196 0
174 197 0
172 196 0
171 194 0
174 198 0
169 193 0
174 197 0
173 197 0
174 196 0
172 195 0
173 196 0
172 197 0
173 196 0
170 193 0
170 193 0
172 195 0
174 197 0
172 195 0
173 197 0
171 194 0
173 195 0
173 195 0
172 195 0
172 196 0
173 197 0
172 195 0
171 194 0
172 195 0
170 194 0
172 196 0
170 193 0
172 194 0
172 196 0
170 194 0
172 195 0
170 193 0
171 195 0
173 196 0
174 197 0
170 194 0
172 195 0
173 197 0
171 194 0
169 193 0
170 194 0
170 193 0
171 194 0
172 195 0
171 194 0
171 195 0
167 191 0
173 196 0
171 195 0
171 195 0
171 194 0
169 192 0
168 192 0
172 196 0
171 194 0
170 194 0
172 195 0
170 193 0
174 197 0
170 193 0
170 194 0
171 194 0
173 197 0
169 193 0
173 196 0
171 194 0
173 196 0
169 193 36
95 124 148
62 98 166
62 99 171
62 99 169
63 99 173
62 99 171
61 97 164
62 99 177
62 98 169
62 99 171
62 99 173
63 99 177
63 99 175
62 99 174
62 98 169
62 99 176
62 99 173
61 98 174
62 99 175
62 99 175
62 99 180
63 100 180
63 99 176
62 99 177
62 99 176
62 98 174
62 99 179
62 99 176
62 99 180
62 99 177
61 99 180
61 98 176
61 98 181
62 99 177
62 99 179
62 99 180
63 99 180
62 99 179
61 99 178
62 99 179
62 99 178
62 99 180
62 99 180
63 100 179
62 99 178
61 99 180
62 99 179
62 99 179
62 99 181
62 99 179
62 99 181
62 99 178
62 99 180
63 100 181
61 99 179
62 99 180
62 99 179
62 99 178
62 99 181
62 99 179
62 99 181
62 99 178
62 99 178
62 99 181
63 100 180
61 98 179
62 99 178
62 99 181
62 99 177
62 99 181
62 99 180
62 99 179
62 99 181
61 98 175
62 99 180
62 99 181
62 99 178
61 99 181
62 99 179
62 99 179
62 99 176
62 99 180
61 99 179
62 99 178
62 99 178
62 99 180
62 99 177
62 99 180
62 99 180
62 99 180
62 99 179
62 99 178
62 99 177
61 99 178
62 99 179
62 99 178
62 99 180
62 99 179
62 99 179
62 99 180
63 100 180
62 99 179
62 99 178
61 98 176
62 99 179
61 98 177
63 99 178
62 99 175
62 99 179
63 99 178
61 98 174
62 99 178
62 99 176
61 98 173
63 100 179
62 99 176
62 99 178
62 99 176
62 99 175
63 100 176
62 98 171
62 99 176
62 99 178
62 99 174
61 97 169
61 98 172
63 99 173
62 99 171
62 99 172
63 99 175
61 98 173
62 98 172
62 98 170
62 99 170
61 98 170
61 98 170
61 98 173
61 97 169
61 98 169
62 98 174
62 98 171
62 99 174
61 98 172
61 97 168
61 97 165
62 97 166
61 96 162
60 96 164
61 97 166
62 98 167
62 96 161
59 92 149
80 91 105
100 100 64
74 79 51
81 86 62
76 81 62
63 70 52
49 59 49
49 63 56
48 61 51
45 60 55
46 61 56
49 65 59
47 63 60
46 60 52
47 62 54
46 62 57
48 64 58
48 65 61
48 64 61
55 71 67
52 69 67
65 77 67
71 81 67
78 88 72
81 90 72
98 104 78
95 101 78
108 113 86
98 103 79
111 115 84
111 114 82
121 123 90
133 133 93
124 125 88
131 130 92
142 140 97
140 138 95
146 144 99
150 147 100
156 152 103
153 150 102
147 144 99
162 156 104
166 160 106
163 158 106
163 157 105
169 163 108
168 162 108
172 166 110
171 165 109
175 168 110
183 174 113
176 170 112
181 173 113
184 176 114
184 176 114
185 176 114
183 175 114
186 176 114
184 176 114
185 176 114
183 175 114
184 176 114
184 176 114
181 174 114
184 176 114
184 176 114
181 175 114
183 175 114
184 176 114
184 176 114
183 175 114
182 175 114
185 176 114
186 177 114
183 175 114
184 176 114
184 176 114
183 175 114
184 176 114
183 175 114
183 175 114
184 176 114
185 176 114
185 176 114
184 176 114
185 176 114
186 176 114
185 176 114
187 177 114
184 176 114
185 176 114
186 176 114
189 178 114
185 176 114
184 176 113
185 176 112
185 176 113
187 177 112
186 176 112
184 175 110
186 176 111
186 176 111
184 175 109
184 175 106
184 175 106
183 174 106
185 175 108
184 175 106
184 174 106
183 174 105
184 174 104
185 175 106
183 173 103
182 173 101
182 173 101
183 173 101
184 173 100
182 172 98
184 174 101
181 172 99
181 171 93
180 171 95
177 168 86
180 171 90
179 170 91
178 169 88
179 169 89
177 169 87
176 168 84
178 169 86
171 163 73
175 166 77
175 166 83
176 166 86
168 161 76
169 161 77
163 155 65
161 154 64
149 142 63
157 149 64
148 142 59
142 135 54
118 114 37
171 193 0
174 196 0
175 197 0
173 196 0
172 194 0
172 195 0
174 197 0
172 196 0
173 196 0
172 195 0
172 196 0
174 198 0
172 196 0
171 194 0
171 195 0
171 194 0
172 196 0
174 197 0
173 197 0
172 196 0
172 196 0
170 194 0
174 197 0
174 197 0
172 195 0
172 196 0
172 196 0
175 198 0
172 197 0
173 196 0
174 197 0
171 195 0
172 195 0
173 196 0
172 196 0
174 197 0
172 195 0
173 196 0
173 196 0
174 197 0
173 195 0
170 193 0
169 194 0
174 197 0
173 195 0
171 195 0
174 197 0
175 198 0
170 194 0
172 196 0
169 193 0
174 197 0
173 196 0
174 197 0
173 195 0
174 197 0
173 197 0
173 195 0
170 194 0
170 194 0
172 196 0
172 195 0
172 195 0
171 194 0
172 195 0
171 194 0
173 197 0
173 196 0
170 194 0
173 196 0
172 195 0
172 194 0
173 196 0
169 193 0
173 197 0
169 193 0
170 193 0
173 195 0
172 195 0
173 196 0
170 194 0
172 195 0
173 197 0
171 195 0
173 196 0
170 194 0
171 195 0
174 197 0
170 193 0
171 195 0
166 190 0
170 193 0
169 193 0
173 197 0
172 195 0
171 194 0
168 191 0
170 193 0
169 193 0
169 193 0
165 188 0
168 192 0
170 193 0
126 152 122
62 98 166
62 99 172
62 99 174
62 98 168
62 98 170
62 99 172
62 98 169
62 99 170
62 99 174
62 99 174
63 99 174
61 98 172
62 99 171
62 99 176
62 99 174
62 99 174
62 99 174
63 100 175
62 99 178
62 99 177
62 99 178
62 99 176
62 99 177
62 99 178
62 99 179
62 99 174
63 99 177
63 100 181
61 98 177
62 99 178
63 99 178
62 99 179
62 99 176
62 99 181
62 99 180
63 100 179
62 99 177
62 99 180
62 99 179
62 99 177
62 99 179
63 100 181
62 99 180
62 99 178
62 99 179
62 99 179
62 99 180
62 99 180
62 99 177
62 99 176
62 99 180
62 99 179
62 99 179
62 99 178
62 99 178
62 99 177
62 99 180
62 99 178
62 99 179
62 99 180
62 99 179
62 99 179
63 99 179
62 99 179
62 99 179
62 99 177
63 100 181
62 99 178
62 99 178
62 99 180
62 99 180
62 99 179
62 99 178
62 99 180
62 99 177
62 99 178
61 99 179
62 99 179
62 99 179
62 99 181
62 99 179
62 99 178
62 99 180
62 99 178
61 99 180
62 99 178
62 99 178
62 99 177
62 99 177
62 99 180
62 99 179
62 99 178
62 99 179
61 98 175
62 99 181
62 99 180
61 98 178
62 99 178
62 99 179
62 99 176
62 99 180
63 99 178
62 99 177
62 99 176
62 99 177
63 99 178
62 99 176
62 99 172
62 99 177
62 99 179
61 98 176
62 99 179
62 99 174
62 99 177
62 99 176
62 99 176
62 99 179
62 99 178
62 99 178
62 99 177
61 98 175
62 99 176
62 99 176
62 99 178
62 99 173
63 99 175
62 99 174
62 99 172
62 98 173
62 98 170
62 99 175
62 98 171
62 99 177
62 99 177
62 99 176
62 98 167
61 98 170
61 97 167
62 98 170
61 97 168
62 99 175
62 98 169
62 98 174
62 98 170
62 98 173
62 98 170
62 98 172
61 96 163
61 97 163
59 94 161
61 97 166
60 94 157
67 96 156
77 83 57
79 81 51
78 81 55
64 71 54
66 72 57
45 57 50
45 60 55
45 61 57
43 57 51
46 60 54
45 59 52
46 61 53
45 59 52
49 65 61
46 62 58
49 64 59
50 66 62
51 67 61
47 63 57
51 67 61
56 70 60
74 84 69
76 86 72
74 84 71
75 86 71
94 99 76
114 116 82
96 102 77
97 104 81
109 113 85
123 124 88
126 127 92
126 127 90
129 129 91
137 136 95
134 133 94
145 143 98
137 136 94
145 142 98
150 147 100
154 150 101
158 153 101
157 152 103
165 160 105
159 154 102
163 157 105
170 164 108
170 164 107
176 170 111
177 170 111
181 173 112
181 172 112
181 173 113
183 175 113
184 176 114
186 176 114
184 176 114
185 176 114
183 175 114
183 175 114
184 176 114
185 176 114
184 176 114
184 175 114
185 176 114
182 175 114
184 176 114
185 176 114
185 176 114
184 176 114
184 176 114
185 176 114
184 176 114
183 175 114
183 175 114
183 175 114
183 175 114
184 176 114
184 176 114
184 176 114
185 176 114
184 176 114
185 176 114
184 176 114
185 176 114
187 177 114
185 176 114
184 175 114
184 176 114
184 176 113
187 177 114
187 177 113
186 176 112
184 175 111
185 176 112
185 176 112
186 177 112
186 176 112
185 176 111
184 175 109
185 176 110
187 176 109
184 175 109
184 174 106
183 174 104
182 174 106
186 176 110
183 174 108
182 173 101
184 174 103
180 172 101
183 173 102
180 171 97
183 173 101
183 173 99
180 171 97
180 171 95
182 173 99
182 173 99
183 173 101
180 171 94
179 170 90
177 168 86
178 169 88
180 171 93
179 170 92
178 169 87
179 169 86
180 171 90
177 168 84
175 167 80
174 166 80
175 167 84
169 162 74
168 160 77
168 159 76
164 156 75
162 154 70
156 149 63
146 140 54
141 135 54
142 136 51
132 128 44
174 195 0
175 198 0
171 193 0
173 195 0
173 196 0
172 194 0
172 196 0
172 196 0
172 195 0
174 198 0
175 198 0
173 197 0
173 196 0
174 197 0
176 199 0
171 195 0
172 196 0
173 196 0
173 196 0
171 195 0
172 196 0
173 197 0
173 196 0
173 197 0
174 197 0
169 193 0
173 196 0
169 193 0
175 198 0
172 195 0
175 198 0
171 195 0
175 198 0
170 194 0
172 196 0
173 196 0
170 195 0
171 194 0
171 194 0
172 195 0
171 195 0
173 196 0
171 195 0
175 198 0
171 195 0
171 195 0
172 195 0
171 195 0
174 197 0
173 197 0
172 196 0
169 193 0
171 195 0
170 194 0
172 196 0
170 194 0
171 194 0
171 194 0
173 196 0
173 196 0
173 196 0
173 197 0
172 195 0
172 195 0
173 196 0
171 195 0
172 195 0
171 195 0
172 195 0
173 196 0
172 196 0
169 193 0
173 197 0
171 194 0
166 190 0
174 197 0
171 194 0
172 196 0
171 194 0
169 193 0
171 194 0
170 194 0
173 196 0
172 196 0
173 195 0
170 192 0
170 193 0
172 196 0
171 195 0
171 196 0
172 195 0
169 193 0
172 195 0
171 195 0
170 193 0
170 194 0
170 194 0
171 194 0
171 195 0
174 197 0
171 195 0
171 195 0
164 187 65
75 108 160
61 97 168
61 98 167
62 99 170
62 99 170
62 99 172
62 99 176
63 99 172
63 99 171
62 99 171
62 99 173
62 99 173
62 99 176
62 99 176
63 99 173
62 99 172
62 99 170
62 99 175
62 99 172
62 99 174
62 99 173
61 98 173
62 99 176
62 99 174
62 99 177
62 99 177
62 99 176
63 100 177
62 99 178
62 99 174
63 99 179
62 99 179
62 99 180
61 99 179
62 99 179
62 99 178
63 100 178
62 99 179
62 99 178
63 100 179
62 99 178
63 99 179
62 99 176
62 99 180
62 99 176
63 99 177
62 99 178
62 99 179
62 99 177
62 99 176
61 99 180
62 99 180
61 99 181
61 99 180
62 99 179
62 99 181
62 99 178
62 99 177
62 99 179
62 99 180
62 99 178
61 99 180
62 99 179
61 99 179
63 100 181
62 99 178
62 98 172
62 99 178
62 99 180
62 99 179
62 99 180
62 99 178
62 99 181
62 99 177
61 99 181
62 99 179
62 99 178
62 99 177
63 100 179
62 99 177
62 99 180
62 99 180
63 100 180
62 99 178
62 99 179
62 99 180
62 99 179
62 99 179
62 99 180
61 98 175
62 99 176
62 99 178
61 98 175
61 99 180
62 99 179
62 99 180
62 99 175
62 99 176
62 99 178
62 99 177
62 99 176
62 99 177
62 99 177
62 99 178
62 99 176
62 99 179
62 99 180
62 99 177
62 99 178
62 99 176
62 99 180
62 99 177
62 99 173
62 99 178
62 99 179
61 98 175
62 99 176
62 99 180
62 99 177
62 99 174
62 99 176
63 99 176
63 99 177
62 99 174
62 99 178
62 99 179
61 98 172
61 98 171
61 98 174
62 98 171
62 99 176
62 99 174
62 99 174
62 99 176
62 99 175
62 98 172
62 99 173
62 99 176
61 97 168
62 99 174
62 98 174
62 98 167
62 98 170
61 97 169
61 97 166
60 96 161
61 98 169
61 96 166
61 97 167
61 96 164
61 96 162
60 94 159
61 96 163
58 92 157
67 86 121
68 75 54
62 67 45
61 68 52
46 57 47
42 56 50
44 58 52
43 57 51
46 61 56
42 55 48
43 57 48
44 57 51
45 59 54
45 60 53
44 59 55
47 63 57
47 62 55
48 64 60
49 65 60
50 68 65
51 68 63
64 77 68
63 76 66
61 74 64
78 88 72
76 86 70
110 113 85
100 105 81
100 105 80
110 114 85
104 108 79
111 114 83
138 136 95
136 135 95
140 138 96
139 137 94
145 143 98
146 143 97
138 137 94
149 146 100
149 145 97
160 155 104
168 162 107
153 149 101
165 159 105
167 162 106
169 163 107
167 161 106
176 169 109
179 171 110
173 167 110
181 173 111
181 173 111
184 175 113
186 176 114
186 176 114
186 177 114
185 176 114
184 176 114
184 176 114
185 176 114
185 176 114
185 176 114
183 175 114
185 176 114
186 176 114
184 176 114
184 176 114
186 177 114
185 176 114
187 177 114
185 176 114
186 176 114
184 176 114
185 176 114
184 176 114
185 176 114
184 176 114
185 176 114
187 177 114
184 176 114
185 176 113
186 177 114
185 176 114
186 177 113
187 177 114
186 177 114
185 176 112
185 176 113
184 175 113
186 176 113
184 175 112
186 176 111
185 176 111
188 177 113
185 175 110
185 176 110
184 175 110
183 174 106
185 176 110
184 175 108
185 175 108
185 175 108
185 175 109
185 175 106
183 174 106
184 174 104
184 174 104
182 173 101
183 174 103
181 172 97
186 175 105
183 174 101
185 175 104
184 174 102
182 172 99
183 173 97
179 170 90
181 172 98
182 172 97
180 171 93
180 170 93
178 169 87
178 169 86
177 169 87
180 170 90
175 167 83
179 170 89
178 169 86
174 166 78
174 166 75
176 167 79
172 164 77
171 163 74
164 156 70
167 160 71
158 149 71
157 150 58
157 149 64
140 134 57
148 141 57
140 134 52
129 128 34
174 196 0
174 197 0
174 196 0
173 196 0
174 196 0
172 195 0
168 191 0
170 194 0
174 197 0
172 195 0
173 197 0
173 196 0
174 197 0
171 195 0
175 198 0
173 197 0
174 196 0
174 196 0
172 196 0
174 197 0
172 196 0
174 198 0
171 195 0
172 195 0
173 196 0
172 195 0
170 195 0
172 196 0
171 195 0
171 195 0
172 195 0
172 195 0
173 196 0
172 196 0
172 195 0
176 198 0
174 196 0
174 197 0
172 196 0
169 193 0
172 195 0
172 196 0
172 195 0
171 195 0
173 196 0
174 196 0
173 196 0
170 194 0
171 194 0
172 196 0
170 194 0
168 192 0
171 194 0
173 196 0
173 196 0
170 194 0
173 196 0
172 196 0
172 196 0
170 193 0
174 197 0
174 197 0
173 197 0
169 194 0
169 192 0
171 195 0
170 193 0
170 193 0
173 196 0
172 196 0
171 194 0
170 194 0
173 197 0
173 196 0
173 196 0
169 193 0
169 192 0
171 194 0
171 195 0
172 195 0
174 197 0
172 196 0
164 189 0
168 191 0
170 194 0
171 194 0
170 193 0
173 196 0
170 193 0
170 194 0
172 195 0
167 191 0
172 195 0
171 194 0
171 194 0
172 195 0
171 194 0
170 193 0
172 195 0
171 194 0
171 193 0
169 193 0
111 137 131
62 98 168
62 99 169
62 99 170
62 98 169
62 99 172
61 98 167
62 99 172
62 98 171
62 99 172
62 99 173
62 99 171
62 99 174
62 99 178
62 99 176
62 99 174
61 98 170
62 99 176
61 98 170
61 98 173
62 99 177
62 99 177
62 98 172
62 99 173
62 99 178
63 100 180
63 100 178
62 99 177
61 98 171
61 98 174
63 99 179
62 99 176
62 99 178
63 99 177
62 99 177
62 99 174
62 99 173
62 99 177
63 100 179
62 99 178
63 100 181
63 100 179
63 99 177
62 99 180
62 99 179
62 99 180
62 99 178
63 100 181
61 99 178
62 99 180
62 99 179
62 99 180
61 98 177
62 99 179
62 99 179
62 99 176
62 99 181
62 99 179
62 99 180
62 99 177
62 99 179
62 99 178
62 99 180
61 99 180
62 99 179
62 99 175
62 99 180
62 99 178
63 100 179
62 99 177
61 98 176
63 100 181
62 99 180
62 99 177
62 99 178
62 99 177
62 99 180
62 99 177
62 99 178
62 99 179
62 99 179
62 99 180
62 99 180
61 99 180
62 99 179
62 99 179
63 99 178
62 99 180
62 98 175
62 99 180
63 100 181
62 99 178
62 99 180
61 98 179
62 99 178
62 99 177
61 98 176
63 100 181
62 99 181
62 99 177
62 99 176
62 99 177
62 99 177
62 99 176
63 99 176
63 99 172
62 99 176
62 99 178
62 99 180
62 99 180
63 100 180
61 98 177
62 99 173
62 99 179
61 98 173
62 99 178
62 99 178
62 99 175
62 99 179
63 100 178
62 98 175
63 100 179
62 99 176
62 99 178
62 98 176
62 99 171
61 98 172
62 99 174
62 99 174
62 99 174
62 98 171
62 98 171
62 98 172
62 99 174
62 98 170
62 98 169
62 98 168
62 99 173
62 99 175
61 97 171
61 98 173
62 99 174
61 97 169
62 98 171
61 97 167
61 98 171
62 98 171
61 96 160
61 97 167
61 97 166
61 96 163
62 98 169
62 98 171
61 95 160
61 96 166
61 94 157
64 74 74
65 69 51
44 55 46
43 57 51
41 55 48
43 58 53
43 57 52
42 55 47
42 56 50
43 57 50
41 53 46
47 63 58
46 61 56
48 63 55
47 63 58
49 65 60
48 64 61
48 63 58
50 67 62
50 66 60
49 64 57
57 72 65
76 86 71
78 87 73
80 88 70
92 100 79
97 103 78
93 99 77
107 112 85
97 102 75
117 119 84
115 117 84
127 127 90
127 128 91
135 134 93
150 147 100
142 140 96
151 147 98
145 142 98
146 143 96
149 146 100
151 147 100
162 157 103
150 147 97
165 159 104
165 159 102
169 163 105
172 166 108
174 166 106
177 170 110
179 171 110
180 172 111
180 173 112
183 175 113
186 176 112
185 176 113
185 176 113
184 176 114
184 175 113
186 177 114
186 176 114
187 177 113
186 177 114
184 176 114
185 176 114
185 176 114
184 176 114
185 176 113
186 177 114
185 176 114
186 177 114
184 176 114
185 176 114
185 176 114
185 176 114
186 177 113
186 177 114
185 176 113
185 176 113
185 176 113
186 177 112
186 177 114
185 176 113
187 177 112
186 176 113
185 176 113
185 176 110
186 177 113
186 176 113
187 177 113
187 177 113
185 176 112
186 176 110
184 174 104
185 175 108
186 176 110
185 176 110
183 174 108
183 174 107
185 175 107
185 175 109
183 174 105
182 173 105
184 174 103
184 175 107
184 175 105
183 174 106
183 174 102
183 173 102
183 173 103
183 173 101
181 172 98
179 170 93
178 169 92
182 173 99
179 170 91
179 170 91
183 173 97
179 170 89
183 173 96
180 170 91
177 169 87
180 170 90
177 168 83
179 170 87
178 169 85
173 165 78
177 168 84
177 168 84
175 166 79
175 167 78
172 163 78
170 162 71
169 161 68
165 157 70
164 157 66
153 147 54
152 145 61
150 143 58
150 143 54
141 135 48
136 138 39
173 195 0
172 195 0
174 196 0
173 192 0
173 196 0
173 195 0
174 198 0
173 197 0
175 198 0
175 198 0
173 196 0
171 194 0
172 195 0
175 198 0
170 193 0
173 196 0
172 195 0
173 195 0
173 195 0
171 194 0
171 195 0
171 195 0
173 196 0
173 196 0
170 193 0
173 197 0
174 197 0
173 197 0
173 196 0
175 198 0
173 196 0
173 195 0
172 195 0
173 196 0
167 190 0
171 194 0
169 192 0
175 198 0
172 195 0
172 196 0
171 196 0
172 195 0
174 197 0
171 195 0
169 192 0
173 197 0
170 193 0
170 195 0
171 195 0
170 193 0
171 193 0
171 195 0
174 197 0
170 194 0
173 196 0
173 197 0
169 192 0
170 194 0
173 195 0
172 195 0
171 194 0
176 198 0
174 197 0
172 195 0
171 195 0
172 195 0
173 197 0
173 196 0
171 194 0
172 195 0
172 194 0
170 193 0
171 194 0
171 196 0
171 194 0
173 196 0
173 196 0
171 194 0
166 189 0
167 190 0
171 195 0
172 196 0
171 195 0
171 195 0
173 197 0
172 195 0
172 195 0
171 194 0
172 195 0
171 194 0
170 194 0
173 196 0
171 195 0
171 194 0
172 196 0
171 193 0
174 197 0
169 191 0
171 194 0
171 195 0
170 194 0
152 176 70
62 99 164
61 98 167
62 98 169
62 98 167
62 99 168
62 98 168
62 99 172
62 99 172
62 98 164
62 99 172
62 99 171
62 99 174
62 99 174
62 99 175
61 98 172
62 99 173
61 98 169
62 99 173
62 99 180
62 99 174
62 99 172
63 100 180
63 99 177
62 99 176
62 99 177
62 99 173
62 99 178
62 99 176
62 99 176
62 99 174
62 99 176
61 98 178
61 99 179
62 99 179
61 98 175
62 99 178
62 99 179
62 99 177
63 100 177
62 99 180
62 99 178
62 99 178
62 99 180
62 99 178
63 100 179
62 99 181
62 99 181
63 100 179
62 99 181
62 99 179
62 99 178
63 100 181
62 99 179
62 99 178
62 99 178
62 99 177
62 99 176
62 99 179
62 99 177
62 99 181
62 99 178
62 99 179
62 99 177
62 99 180
62 99 179
62 99 177
62 99 178
62 99 181
62 99 178
62 99 180
61 98 172
63 100 181
62 99 181
62 99 178
62 99 179
62 99 179
62 99 179
62 99 178
62 99 179
62 99 180
62 99 176
62 99 180
62 99 177
62 99 181
62 99 180
62 99 178
62 99 176
62 99 177
62 99 179
62 99 179
62 99 178
61 99 179
63 100 179
62 99 180
62 99 180
62 99 177
62 99 176
62 99 178
62 99 180
62 99 177
61 99 179
62 99 177
62 99 179
62 99 179
62 99 176
62 99 175
62 99 177
62 99 179
62 99 175
62 99 175
62 99 180
62 99 178
62 99 180
61 98 176
62 99 178
62 99 175
61 98 177
62 99 177
62 99 176
61 98 171
62 98 173
62 99 174
62 99 173
62 99 176
62 99 174
62 99 172
63 99 172
62 99 175
61 98 172
63 99 176
62 98 171
62 99 178
61 98 171
62 99 175
61 98 171
62 99 170
61 97 168
63 99 174
63 99 171
62 99 171
62 98 174
62 98 170
63 99 174
62 98 170
61 97 165
63 99 174
62 99 171
62 98 168
62 98 169
61 96 157
61 97 169
61 96 164
60 95 164
60 95 161
60 94 158
60 94 151
54 83 128
55 63 46
37 49 39
41 53 45
41 53 46
40 53 46
43 58 52
45 59 52
42 56 50
43 56 50
46 60 55
43 55 47
47 62 55
48 63 56
46 62 56
47 63 59
45 60 52
47 61 54
49 65 60
49 67 61
49 66 62
50 68 63
55 72 68
59 73 68
70 82 68
81 91 76
86 94 75
100 106 83
97 102 78
108 111 82
113 116 84
116 118 85
136 135 93
116 118 84
126 125 89
130 130 93
140 139 95
145 142 98
144 141 95
154 149 100
156 151 100
160 155 101
155 151 99
166 160 104
162 156 103
163 158 103
172 165 106
175 168 107
170 164 106
175 168 105
183 173 108
181 173 110
183 174 112
185 176 113
184 175 112
185 176 112
185 176 113
186 177 113
184 175 110
184 175 110
185 176 110
184 175 110
185 176 113
186 176 113
187 177 112
186 177 114
185 176 113
183 175 112
184 175 113
186 177 113
186 176 112
185 176 112
185 176 112
186 176 113
185 176 112
186 177 112
187 177 113
185 176 113
185 176 113
186 177 113
185 176 112
186 176 111
184 176 112
184 176 112
184 175 110
184 175 109
185 176 113
186 176 112
184 175 108
184 175 108
182 174 106
186 176 112
185 176 111
186 176 111
184 175 108
182 174 105
184 174 108
186 176 111
182 173 104
182 174 107
183 174 104
184 174 104
184 175 106
184 174 104
183 173 101
184 174 106
185 174 102
185 175 106
181 172 97
181 172 97
180 171 94
180 171 95
183 173 101
182 173 98
182 172 101
182 172 96
181 172 97
179 170 90
181 171 93
177 168 86
177 168 84
181 171 93
177 168 84
176 168 84
178 168 87
176 167 84
178 169 85
177 168 82
173 165 74
174 166 76
174 165 76
168 161 71
170 162 74
169 161 73
170 160 76
162 154 60
152 146 57
154 147 60
151 144 58
140 134 48
130 125 39
142 148 25
173 194 0
172 194 0
175 197 0
172 194 0
174 196 0
172 194 0
174 197 0
172 196 0
172 196 0
175 198 0
176 198 0
171 195 0
173 196 0
173 196 0
174 197 0
174 197 0
172 196 0
174 197 0
171 195 0
173 197 0
172 196 0
173 196 0
172 195 0
170 194 0
174 197 0
175 198 0
172 195 0
171 195 0
172 195 0
174 197 0
171 196 0
173 196 0
172 196 0
173 196 0
171 195 0
173 196 0
167 191 0
173 196 0
172 194 0
173 197 0
175 198 0
171 195 0
173 196 0
171 195 0
171 195 0
170 193 0
171 194 0
172 195 0
171 194 0
169 193 0
173 196 0
173 197 0
173 197 0
172 196 0
172 196 0
172 194 0
171 194 0
173 197 0
174 197 0
168 192 0
168 192 0
173 196 0
173 197 0
169 193 0
172 196 0
171 194 0
173 196 0
169 192 0
170 194 0
172 196 0
172 196 0
173 196 0
173 196 0
172 195 0
170 192 0
171 195 0
173 196 0
172 194 0
169 192 0
172 195 0
171 195 0
173 196 0
171 195 0
170 193 0
169 192 0
170 193 0
168 192 0
173 196 0
173 197 0
173 196 0
170 193 0
173 197 0
172 196 0
172 196 0
173 196 0
172 196 0
172 195 0
170 193 0
170 193 0
173 196 0
173 196 18
97 125 143
62 99 170
62 98 162
63 99 172
61 98 165
62 99 170
62 99 167
62 98 165
63 99 176
62 99 172
61 98 172
62 99 173
61 98 170
62 99 176
63 99 174
62 99 179
62 99 174
62 98 169
62 99 176
62 99 175
62 99 174
62 99 178
62 99 175
62 99 176
63 100 181
62 99 175
62 99 178
62 99 176
62 99 177
62 99 176
62 99 178
61 98 176
62 99 177
63 100 177
62 99 177
63 100 181
62 99 177
62 99 175
62 99 177
63 100 180
63 99 177
62 99 176
62 99 177
62 99 178
63 100 179
62 99 178
62 99 178
62 99 176
62 99 180
61 99 178
62 99 178
62 99 181
62 99 179
62 99 178
62 99 179
62 99 179
62 99 179
62 99 177
61 99 177
62 99 180
62 99 180
62 99 179
62 99 178
62 99 177
63 99 178
62 99 179
62 99 178
62 99 179
62 99 178
62 99 176
63 100 177
61 98 173
62 99 179
62 99 180
62 99 178
61 99 179
63 99 178
62 99 176
62 99 178
62 99 179
62 99 179
61 98 176
62 99 180
62 99 179
63 100 179
62 99 179
63 100 179
62 99 178
62 99 180
62 99 178
62 99 177
62 99 179
62 99 178
62 99 179
62 99 178
62 99 180
62 99 179
62 99 177
62 99 179
61 99 177
62 99 178
62 99 178
62 99 174
62 99 173
62 99 178
61 99 177
62 99 175
62 99 175
62 99 179
62 99 179
62 99 175
62 99 178
62 99 176
61 98 175
62 99 180
62 99 175
62 98 173
62 99 173
62 99 172
62 99 178
62 99 174
62 99 174
62 98 171
62 99 177
62 98 169
62 99 173
63 99 177
63 99 177
62 99 175
62 99 176
62 99 174
62 99 173
62 99 177
62 99 172
62 98 169
62 99 177
63 99 175
62 99 173
62 98 174
62 98 168
62 98 173
62 98 171
61 97 165
63 99 171
62 98 170
61 97 167
62 99 172
62 97 165
61 97 166
62 97 167
62 97 162
62 97 164
61 97 164
60 96 166
61 97 169
61 97 166
60 93 154
60 93 152
50 69 92
39 51 43
39 50 40
41 53 46
40 53 48
42 55 50
41 54 47
43 57 49
45 59 51
43 56 49
43 57 48
43 56 48
47 61 54
47 62 56
46 61 54
47 63 56
47 63 57
48 62 55
49 65 59
50 67 63
49 66 60
56 71 64
52 68 62
70 82 72
82 90 71
92 100 79
91 98 78
102 105 79
108 111 82
106 110 81
120 120 86
122 122 87
127 127 89
125 125 88
131 130 89
142 139 95
146 143 97
151 147 98
158 153 100
155 150 97
160 156 101
158 153 99
167 161 103
156 152 95
170 164 105
170 163 104
169 162 105
173 166 106
176 169 107
174 167 106
182 173 108
179 171 108
184 176 113
185 176 112
185 176 111
187 177 113
184 175 111
186 176 112
185 176 111
186 176 111
185 175 110
187 177 113
185 176 113
184 175 111
186 176 112
186 176 112
187 177 112
185 175 111
186 176 111
184 175 112
186 176 112
183 175 110
184 175 111
186 176 112
184 175 112
186 177 113
186 176 112
187 177 112
186 176 113
186 176 111
184 175 112
187 177 111
185 175 109
186 176 110
185 176 110
186 176 112
183 174 107
186 176 109
185 175 106
182 173 104
185 175 109
185 175 108
183 174 108
187 177 110
184 175 107
182 173 104
181 173 104
184 175 107
183 174 104
181 173 103
182 173 101
182 173 101
182 173 101
181 172 99
182 172 98
184 174 103
181 172 99
182 172 99
182 173 100
185 174 103
183 173 101
181 172 97
183 173 98
179 170 93
183 173 98
183 173 96
180 171 92
176 168 82
182 172 97
179 170 90
179 170 88
176 168 82
178 169 90
179 170 87
176 168 82
172 165 75
174 166 76
176 167 80
175 166 76
174 165 76
171 163 73
167 159 67
168 159 74
163 156 64
156 149 61
159 151 62
149 142 52
151 145 57
142 136 54
131 126 37
144 149 39
173 196 0
174 196 0
173 194 0
172 194 0
171 193 0
173 196 0
175 197 0
173 197 0
173 197 0
173 196 0
173 196 0
173 196 0
173 196 0
172 196 0
169 193 0
172 195 0
172 196 0
173 196 0
173 196 0
174 197 0
172 196 0
172 195 0
173 197 0
172 195 0
174 197 0
174 197 0
173 196 0
173 197 0
169 194 0
173 196 0
172 196 0
172 196 0
171 194 0
171 193 0
171 194 0
170 194 0
174 197 0
172 196 0
173 196 0
172 196 0
173 196 0
170 193 0
172 196 0
174 197 0
174 197 0
169 192 0
173 196 0
168 192 0
171 194 0
171 195 0
173 196 0
171 195 0
173 196 0
171 194 0
171 195 0
170 192 0
172 195 0
170 194 0
170 193 0
172 195 0
172 196 0
170 194 0
173 196 0
173 197 0
171 194 0
173 196 0
172 196 0
170 194 0
172 194 0
168 192 0
171 195 0
170 194 0
172 195 0
170 193 0
172 194 0
170 194 0
170 193 0
174 197 0
171 194 0
168 192 0
174 196 0
171 195 0
169 193 0
172 195 0
170 194 0
171 194 0
172 196 0
173 196 0
169 192 0
173 197 0
174 197 0
169 192 0
170 194 0
173 196 0
170 193 0
171 194 0
170 193 0
170 193 0
168 190 0
172 195 0
147 171 95
62 98 163
62 99 168
62 99 170
62 98 171
61 98 163
63 99 175
63 99 169
62 99 172
62 98 173
62 99 175
61 98 174
61 98 167
62 99 176
62 99 173
62 99 173
62 99 174
62 99 176
62 99 174
61 98 175
62 99 171
62 99 178
63 100 174
62 99 176
62 99 176
63 100 179
62 99 173
62 99 177
62 99 178
62 99 177
62 99 174
61 98 173
62 99 179
61 98 178
62 99 177
62 99 178
62 99 177
63 99 175
62 99 179
62 99 178
62 99 176
62 99 179
62 99 178
62 99 178
63 100 177
62 99 179
62 99 179
62 99 180
62 99 179
63 99 179
62 99 179
62 99 177
62 99 180
62 99 180
62 99 178
62 99 175
62 99 178
62 99 175
62 99 179
62 99 179
62 99 177
62 99 179
62 99 180
62 99 177
62 99 176
62 99 178
62 99 177
62 99 179
63 99 178
62 99 178
62 99 179
62 99 178
62 99 179
62 99 178
61 99 177
63 99 178
62 99 176
62 99 178
62 99 179
62 99 177
62 99 179
62 99 176
62 99 177
62 99 176
62 99 178
62 99 179
62 98 174
62 99 177
62 99 178
62 99 178
63 100 181
62 99 180
62 99 179
62 99 175
62 99 177
62 99 179
61 98 176
62 99 177
62 99 174
62 99 173
62 99 178
61 99 180
62 99 176
62 99 176
62 99 180
62 99 177
62 99 175
62 99 178
62 99 177
61 98 175
63 100 181
62 99 177
62 99 176
63 99 176
62 99 179
62 99 178
63 99 176
62 99 172
61 98 175
62 99 177
61 98 173
62 99 176
62 99 176
62 99 175
62 99 175
62 99 174
62 99 175
62 99 173
62 99 176
63 99 178
62 98 171
63 99 175
62 98 166
62 99 175
61 98 169
61 98 172
62 99 171
62 98 170
62 98 171
62 99 173
62 98 173
62 99 171
61 97 166
61 98 169
62 98 172
61 97 169
62 98 172
62 98 169
62 97 167
62 98 163
61 97 165
61 97 162
60 96 162
61 96 164
61 97 165
61 96 161
62 97 166
61 96 164
61 95 155
56 86 137
38 50 43
38 51 45
38 49 42
36 47 39
41 53 45
42 54 47
43 56 49
41 53 45
41 54 45
42 56 51
44 59 52
45 59 51
45 59 51
46 60 51
46 61 53
48 64 59
49 65 58
48 63 57
49 65 59
49 64 56
50 67 60
53 69 65
69 79 66
79 86 66
87 94 73
83 91 73
104 108 80
88 95 73
105 109 80
118 119 82
113 115 83
127 127 87
120 121 85
144 141 95
136 134 91
150 146 95
146 142 94
150 146 95
150 146 96
156 150 99
152 148 98
164 158 101
165 159 101
169 162 103
167 161 102
167 161 101
174 166 104
175 167 105
176 168 105
180 172 106
182 173 108
182 173 109
184 175 108
184 175 109
185 176 110
186 177 112
185 176 111
184 175 109
187 177 112
183 174 109
183 174 109
186 176 111
184 175 109
186 176 110
184 175 111
184 175 110
183 174 108
185 176 112
184 175 112
184 175 110
185 176 110
185 176 111
185 176 111
184 175 108
186 176 110
184 175 111
185 176 110
186 176 113
184 175 109
185 175 110
183 174 106
181 173 107
185 176 110
185 176 110
184 175 109
184 175 108
184 175 108
184 175 106
184 175 107
183 174 105
183 174 105
182 173 104
185 175 106
183 174 105
180 172 99
184 175 106
182 173 100
183 173 101
183 174 104
182 173 103
185 175 106
183 173 102
180 171 97
182 172 97
182 172 99
182 173 100
181 172 95
182 172 99
180 170 93
180 171 92
182 172 97
181 171 92
178 169 93
182 173 99
182 172 93
176 168 84
177 168 85
180 171 93
178 169 85
174 166 81
178 169 85
176 167 80
176 168 83
180 171 90
176 167 77
173 165 75
172 165 74
174 165 75
171 163 68
166 160 69
166 159 62
167 158 73
167 159 72
158 151 61
151 145 52
149 142 54
152 145 63
142 136 49
130 125 37
156 168 19
173 195 0
174 196 0
172 194 0
175 197 0
174 195 0
174 196 0
173 197 0
172 195 0
172 196 0
173 197 0
172 196 0
172 196 0
171 194 0
172 195 0
171 195 0
171 194 0
174 197 0
172 196 0
172 196 0
172 195 0
171 194 0
174 197 0
174 197 0
173 197 0
173 197 0
173 196 0
172 195 0
172 196 0
174 198 0
172 196 0
172 196 0
172 195 0
172 195 0
170 193 0
174 198 0
173 196 0
172 195 0
172 195 0
170 194 0
173 197 0
172 196 0
174 198 0
172 196 0
172 195 0
171 194 0
171 194 0
172 196 0
172 196 0
173 196 0
175 198 0
174 197 0
174 197 0
174 196 0
171 195 0
172 194 0
170 194 0
171 195 0
169 193 0
172 195 0
172 195 0
171 195 0
173 196 0
174 198 0
171 195 0
172 196 0
172 196 0
174 197 0
173 196 0
169 192 0
173 197 0
169 193 0
171 194 0
172 196 0
172 196 0
168 192 0
172 194 0
173 195 0
174 197 0
174 196 0
172 195 0
169 193 0
170 192 0
171 195 0
173 195 0
169 193 0
171 194 0
169 193 0
171 194 0
168 192 0
172 196 0
166 189 0
170 193 0
171 194 0
169 192 0
172 196 0
172 196 0
170 192 0
172 194 0
171 194 0
171 194 25
86 117 163
62 99 164
62 98 167
63 99 172
62 99 171
62 99 174
63 99 169
62 99 170
62 98 166
61 98 171
62 99 172
63 99 175
63 99 176
62 99 169
62 99 173
63 100 179
63 100 176
62 99 174
63 99 174
62 99 175
62 99 177
62 99 171
62 99 175
62 99 173
62 98 174
61 98 174
62 99 175
62 99 176
62 98 174
63 99 179
62 99 177
62 99 177
62 99 178
62 99 178
62 99 176
62 99 175
62 99 179
62 99 177
62 99 176
62 99 180
62 99 177
62 99 178
63 100 178
61 99 181
62 99 180
63 99 178
62 98 172
62 99 178
62 99 176
62 99 175
62 99 180
63 100 179
61 99 179
62 99 179
62 99 178
62 99 176
62 99 180
62 99 179
62 99 178
62 99 179
62 99 178
62 99 180
62 99 178
61 98 176
62 99 179
62 99 177
62 99 179
62 99 176
62 99 177
62 99 178
63 99 178
62 99 179
62 99 179
62 99 176
62 99 179
62 99 178
62 99 178
62 99 178
62 99 178
62 99 176
62 99 178
62 99 178
62 99 178
62 99 180
61 98 176
62 99 181
62 99 175
63 100 181
62 99 177
62 99 178
62 99 178
62 99 176
63 100 174
62 99 175
62 99 179
62 99 176
62 98 175
62 99 177
62 99 178
62 99 176
62 99 176
62 99 181
62 99 176
62 99 178
61 98 175
62 99 178
62 99 175
62 99 177
62 99 180
61 98 177
62 99 178
62 98 175
62 98 172
62 99 176
62 99 175
62 99 177
63 99 177
62 99 175
62 99 174
62 99 173
62 99 174
63 100 177
62 99 174
62 99 176
62 99 173
62 99 175
62 98 170
62 99 174
62 98 170
62 99 176
62 99 173
62 99 174
62 99 177
62 99 175
63 99 173
62 99 175
62 99 174
62 99 175
62 98 170
62 98 174
62 98 170
61 98 172
61 98 170
62 98 173
61 97 167
61 98 169
61 97 161
62 98 168
62 98 166
62 96 161
62 98 168
61 98 170
62 98 173
62 97 167
61 97 163
60 94 156
62 97 165
62 96 160
60 94 156
60 94 155
46 66 91
37 48 40
38 49 40
37 49 41
41 54 47
37 49 43
41 54 46
42 56 49
40 53 44
41 53 46
42 55 46
45 60 54
47 62 57
45 59 54
47 62 54
46 60 49
45 59 52
48 64 57
49 66 60
47 63 56
47 62 54
51 68 63
56 71 63
67 80 70
77 87 70
80 89 73
94 99 75
104 107 78
107 109 79
119 120 84
113 114 83
124 125 88
128 128 88
135 133 90
129 129 89
141 139 93
138 135 91
151 147 95
144 142 93
151 147 93
155 151 99
162 156 100
156 152 98
167 160 102
167 160 100
176 168 103
170 163 101
176 169 105
177 169 107
175 167 105
182 173 107
180 172 107
185 175 109
183 175 108
184 175 109
183 175 110
186 176 112
186 176 110
185 175 108
182 173 104
183 174 108
183 175 109
186 176 112
185 176 109
183 175 108
186 176 112
181 173 106
186 176 111
184 175 109
186 176 109
184 175 109
186 176 112
183 175 109
185 176 112
184 174 107
184 175 107
183 174 108
184 175 109
184 175 108
183 174 106
184 175 108
185 176 110
184 175 109
185 175 108
183 174 104
186 176 108
185 175 107
184 175 108
185 175 106
182 174 106
182 173 104
183 174 103
182 172 99
184 174 106
181 172 99
184 174 106
184 175 105
183 173 99
184 174 104
185 175 104
181 172 99
181 173 102
181 172 95
183 173 99
183 173 101
182 172 99
183 173 100
180 171 95
181 172 95
181 171 93
182 172 97
178 169 90
177 168 87
177 168 84
178 169 89
179 170 88
180 170 90
176 168 86
178 169 85
178 169 86
177 168 85
177 169 87
174 165 78
174 165 75
174 166 78
171 164 73
176 167 80
172 164 74
171 163 69
170 163 66
170 162 68
165 157 68
160 153 59
163 155 64
149 142 54
150 143 56
154 147 59
142 135 54
130 125 37
151 167 19
172 193 0
174 198 0
173 196 0
171 194 0
171 194 0
172 194 0
172 196 0
174 197 0
171 195 0
172 196 0
172 195 0
173 196 0
173 196 0
174 198 0
174 197 0
173 196 0
173 197 0
174 196 0
172 196 0
174 197 0
174 198 0
171 194 0
174 197 0
173 197 0
173 196 0
172 196 0
175 198 0
173 196 0
173 197 0
172 195 0
173 197 0
171 194 0
169 191 0
168 191 0
172 196 0
172 195 0
174 197 0
171 195 0
171 195 0
173 196 0
168 191 0
173 196 0
173 196 0
173 196 0
174 197 0
172 196 0
172 195 0
175 198 0
173 196 0
174 197 0
172 196 0
172 195 0
168 192 0
172 195 0
171 194 0
171 194 0
167 191 0
171 195 0
171 195 0
171 195 0
171 195 0
169 194 0
171 195 0
174 196 0
171 194 0
169 192 0
171 194 0
169 192 0
174 198 0
170 194 0
170 194 0
172 196 0
169 193 0
171 194 0
170 193 0
169 192 0
173 195 0
172 195 0
172 195 0
167 190 0
173 197 0
173 196 0
173 196 0
174 197 0
173 196 0
170 193 0
170 193 0
169 192 0
170 192 0
172 194 0
170 194 0
170 193 0
173 195 0
170 193 0
169 192 0
169 193 0
172 195 0
170 193 0
167 191 0
144 169 100
62 98 158
62 98 166
62 98 165
62 98 167
62 99 173
63 99 171
62 98 168
61 98 165
61 98 168
62 99 171
62 98 168
63 99 175
62 99 170
62 99 170
62 98 168
62 99 170
62 99 175
62 99 178
62 99 173
62 99 172
62 98 170
62 99 175
63 100 176
62 99 176
62 98 174
62 99 174
63 99 174
62 99 173
62 99 176
63 100 178
63 100 177
63 99 177
62 99 174
62 99 176
62 99 177
62 99 179
62 99 179
62 99 174
61 98 175
62 99 180
63 100 179
62 99 174
62 99 179
62 99 177
62 99 180
61 98 175
62 99 177
61 98 175
61 98 175
62 99 178
62 99 178
62 99 180
62 99 177
62 99 177
62 99 179
62 99 179
62 99 177
62 99 176
62 99 179
62 99 179
62 99 179
62 99 181
62 99 181
62 99 179
62 99 177
62 99 180
62 99 179
63 100 179
62 99 176
62 99 175
62 99 179
62 99 179
62 99 179
62 99 177
62 99 178
62 99 175
62 99 176
62 99 177
62 99 176
62 99 176
62 99 176
62 99 176
62 99 177
62 99 180
62 99 174
62 99 176
62 99 181
62 98 173
61 98 177
62 99 178
62 99 175
62 99 177
62 99 180
62 99 176
61 98 176
62 99 181
62 99 177
61 99 179
62 99 174
61 99 178
62 99 175
62 99 174
62 99 178
62 99 177
62 99 173
62 99 177
62 99 175
62 99 174
62 99 177
62 99 177
61 98 174
62 99 177
63 99 180
62 99 177
62 99 179
62 99 177
62 99 177
62 99 176
62 99 176
62 99 174
62 99 179
62 99 175
62 99 176
63 100 178
63 99 173
62 99 176
62 99 175
62 98 170
62 98 172
63 99 178
62 99 176
61 98 171
62 99 176
63 100 175
62 99 175
62 99 175
62 99 172
61 97 168
61 98 172
62 99 169
62 99 176
62 98 174
63 99 171
61 98 170
62 98 168
61 97 167
63 99 168
61 97 165
61 97 167
62 98 166
62 97 166
62 99 170
62 99 175
61 97 166
61 97 166
61 96 161
60 95 160
62 97 162
61 96 164
61 95 161
58 89 148
41 56 55
35 46 36
37 49 42
41 53 45
38 49 39
40 53 47
41 54 48
38 50 43
41 53 45
44 56 47
44 58 51
46 61 55
47 62 54
47 62 56
45 60 54
46 62 55
46 61 54
50 66 59
49 64 56
49 66 61
50 67 60
52 67 58
63 75 63
73 83 68
90 96 72
94 100 76
89 95 73
107 109 79
114 115 81
105 109 81
115 117 81
129 129 88
120 120 82
133 132 90
134 133 89
142 139 90
147 143 94
162 156 101
151 147 92
152 148 97
149 145 92
157 152 97
159 154 100
167 160 100
161 155 96
169 161 99
173 166 103
176 168 104
175 167 100
176 169 102
183 174 108
183 174 106
184 175 109
184 175 108
186 176 111
182 173 103
183 174 106
183 174 108
186 176 109
184 175 108
186 176 110
183 174 108
183 174 106
185 175 108
185 175 108
183 174 107
185 176 109
183 174 105
185 175 107
184 174 106
184 175 108
186 176 109
185 175 109
184 175 107
183 174 106
185 175 109
186 176 108
186 176 109
183 174 106
183 174 108
185 175 108
186 176 109
185 175 109
183 174 106
182 173 104
186 175 107
181 172 97
183 174 104
185 175 108
182 173 103
183 174 103
184 174 103
183 173 102
181 172 99
183 173 103
183 173 102
183 173 103
183 173 101
181 172 98
180 171 96
181 172 96
179 170 93
181 171 97
184 174 102
181 172 95
182 172 98
180 171 93
180 171 93
179 170 90
183 173 97
180 170 92
180 171 93
181 171 93
179 170 90
179 170 87
177 169 85
175 167 82
179 170 89
177 168 84
177 168 83
176 168 82
173 165 74
176 167 80
171 163 71
177 167 80
172 164 69
169 163 65
170 162 71
167 160 67
170 162 70
166 159 64
151 144 53
154 148 56
147 140 58
150 143 56
150 142 53
134 130 37
133 127 49
159 177 11
174 195 0
172 194 0
172 194 0
172 194 0
174 195 0
172 195 0
172 196 0
174 196 0
173 196 0
171 195 0
173 197 0
173 197 0
175 198 0
172 196 0
172 195 0
173 196 0
171 195 0
169 193 0
169 193 0
170 193 0
172 196 0
172 196 0
173 196 0
172 195 0
173 196 0
171 194 0
174 196 0
173 196 0
174 197 0
173 197 0
172 196 0
173 196 0
169 193 0
174 197 0
173 196 0
170 194 0
169 192 0
173 196 0
171 195 0
173 196 0
172 195 0
172 195 0
174 197 0
170 194 0
172 195 0
172 195 0
172 196 0
171 194 0
173 196 0
173 196 0
174 197 0
172 195 0
167 190 0
169 193 0
174 198 0
170 193 0
167 191 0
168 192 0
172 195 0
172 196 0
171 194 0
172 195 0
170 194 0
173 196 0
171 194 0
171 195 0
171 194 0
170 193 0
170 193 0
173 196 0
170 194 0
171 195 0
170 193 0
169 193 0
172 195 0
172 195 0
173 196 0
172 195 0
173 196 0
172 196 0
174 197 0
172 195 0
173 196 0
171 195 0
174 197 0
170 193 0
169 192 0
172 195 0
172 196 0
170 194 0
171 194 0
168 192 0
173 196 0
170 193 0
172 194 0
172 196 0
170 193 0
173 196 0
170 195 0
89 120 150
62 98 164
62 98 160
62 98 162
61 98 162
62 98 166
62 98 167
62 99 172
62 98 166
62 99 167
62 98 168
62 98 166
62 99 174
62 98 168
62 99 171
63 100 176
62 98 173
62 99 170
62 99 175
62 99 176
63 99 177
62 98 173
62 99 172
62 99 178
62 99 175
63 99 179
62 99 177
62 99 175
62 99 175
62 99 175
63 99 178
62 99 175
62 99 173
63 100 180
63 100 180
62 99 179
62 99 179
62 99 178
62 99 173
62 99 177
62 99 176
62 99 176
62 98 175
62 99 175
63 99 178
63 99 176
62 99 174
63 99 179
62 99 178
62 99 176
62 99 180
62 99 173
62 99 175
61 98 178
63 99 175
62 99 181
62 99 173
62 99 178
63 100 181
63 99 177
63 100 180
62 99 175
62 99 177
63 99 178
61 98 177
63 100 179
62 99 177
62 99 177
61 98 179
62 99 178
62 99 177
62 99 178
62 99 177
63 100 181
62 99 177
62 99 179
62 99 177
62 99 176
62 99 180
62 99 176
62 99 178
62 99 177
62 99 179
62 99 176
62 99 180
62 99 176
62 99 175
62 99 178
62 99 178
62 99 179
62 99 180
62 99 177
62 99 181
62 99 177
61 98 174
63 100 179
63 99 178
62 98 174
62 99 175
62 99 178
62 99 174
62 99 176
62 99 177
61 98 175
61 98 175
62 99 177
61 98 174
62 99 176
62 99 180
63 100 181
62 99 175
63 99 176
62 99 178
62 98 177
61 98 174
62 99 175
62 99 177
62 99 171
62 99 175
63 100 176
62 99 173
62 99 172
62 99 175
62 99 172
63 99 175
62 99 179
62 99 173
62 98 174
61 98 174
62 99 175
62 98 170
62 99 171
62 98 171
62 99 172
61 98 171
62 99 176
62 99 177
62 99 172
62 99 175
62 99 173
63 99 172
63 99 174
61 97 170
62 98 168
62 98 168
61 98 169
62 98 172
62 98 168
62 98 170
62 98 164
62 97 166
62 98 169
62 97 166
61 96 160
61 96 162
61 97 165
62 97 164
61 96 157
60 94 151
61 97 163
60 94 155
60 94 155
46 68 99
38 50 43
38 50 41
39 51 42
41 53 43
35 47 39
42 54 45
39 51 45
45 60 53
44 58 51
44 58 51
47 61 52
45 59 52
48 64 58
46 60 50
47 63 56
48 63 54
46 62 56
47 63 55
49 65 57
50 67 61
50 65 59
63 77 66
72 84 69
72 83 66
103 105 77
93 97 71
98 103 78
110 113 79
106 109 77
121 122 86
103 107 78
117 118 81
130 129 89
142 139 92
146 143 91
143 140 93
137 135 90
156 151 97
162 156 101
164 158 98
163 157 98
164 157 99
165 159 97
172 165 102
170 163 102
172 165 99
171 163 98
179 171 104
178 169 107
181 172 103
180 172 104
183 174 106
182 173 103
183 174 104
187 176 109
183 173 102
183 174 106
183 174 106
183 174 105
184 175 107
184 174 106
182 173 104
184 175 109
184 174 106
185 175 109
186 176 110
186 176 109
181 173 104
183 174 107
182 174 106
184 175 107
184 175 108
184 175 107
184 175 108
185 176 109
184 174 106
184 174 104
184 174 105
184 174 106
184 174 106
186 176 109
186 176 110
185 175 108
184 175 106
184 174 104
182 173 103
185 175 106
183 174 103
183 173 104
183 173 101
182 172 99
184 174 104
184 174 103
183 174 103
179 170 92
183 173 101
182 173 100
184 174 101
181 172 99
184 174 101
180 171 94
181 172 96
180 171 95
179 170 92
182 172 97
179 170 93
181 171 93
181 171 95
181 171 92
178 169 88
177 168 87
177 168 84
178 169 86
173 165 76
176 167 80
177 168 82
179 169 88
178 169 84
176 167 80
174 165 77
174 166 77
178 168 84
174 166 81
175 167 78
174 165 73
170 163 67
172 163 73
168 160 68
169 161 70
161 154 65
152 146 49
156 149 60
153 146 54
147 142 47
144 137 49
127 123 37
119 115 22
171 191 16
171 192 0
173 194 0
174 195 0
172 194 0
175 197 0
171 193 0
172 196 0
170 194 0
171 194 0
174 197 0
173 196 0
172 196 0
173 197 0
174 198 0
173 197 0
172 195 0
174 197 0
175 198 0
172 195 0
172 196 0
171 195 0
172 195 0
172 195 0
172 196 0
172 195 0
173 196 0
168 192 0
172 196 0
170 194 0
173 195 0
174 197 0
174 197 0
171 195 0
174 197 0
172 196 0
172 196 0
172 195 0
174 197 0
173 197 0
171 194 0
169 192 0
170 194 0
172 195 0
170 194 0
174 197 0
171 195 0
175 198 0
172 196 0
172 195 0
173 196 0
172 197 0
172 195 0
172 195 0
172 196 0
173 196 0
174 197 0
171 195 0
170 193 0
172 196 0
173 196 0
172 195 0
170 194 0
171 195 0
172 196 0
171 195 0
169 192 0
170 194 0
171 195 0
171 195 0
169 193 0
171 195 0
170 193 0
169 192 0
173 196 0
172 195 0
171 195 0
172 194 0
168 192 0
172 196 0
170 192 0
172 195 0
171 195 0
173 196 0
170 193 0
171 195 0
172 195 0
171 194 0
170 194 0
172 196 0
170 194 0
171 194 0
171 194 0
170 193 0
173 195 0
173 196 0
172 195 0
169 192 0
172 196 0
150 172 78
62 98 165
61 97 163
61 98 165
61 97 162
63 99 168
62 98 169
62 99 169
61 98 167
62 99 170
61 98 170
62 98 173
62 99 172
62 98 167
62 99 174
62 99 173
61 98 170
62 99 172
62 99 176
62 99 172
62 99 172
61 98 173
62 99 172
63 100 177
63 99 176
62 99 173
62 99 175
62 99 174
62 99 177
62 99 176
62 99 175
62 98 174
63 100 181
63 100 179
62 99 179
62 99 177
62 99 176
62 98 172
62 99 174
62 99 176
61 98 177
62 99 177
62 99 177
62 99 173
62 99 180
63 99 176
61 98 173
62 99 181
62 99 177
62 99 178
62 99 176
63 99 178
62 99 178
62 99 174
62 99 179
62 99 178
61 98 176
62 99 180
63 99 178
62 99 179
62 99 177
61 98 175
62 99 177
62 99 177
61 98 176
62 99 176
62 99 177
62 99 176
62 99 179
63 100 180
62 99 179
62 99 181
62 99 180
62 99 177
61 98 171
62 99 175
62 99 176
63 99 178
62 99 174
62 99 171
62 99 174
62 99 175
61 98 174
62 99 179
61 98 177
63 99 179
62 99 177
62 99 180
62 99 175
62 99 178
62 99 179
62 99 177
61 99 179
61 98 175
62 99 178
62 99 175
62 99 173
62 99 177
62 99 173
62 99 176
62 99 176
62 99 177
62 99 174
62 99 177
62 99 179
61 98 175
62 99 177
62 99 172
62 99 172
62 99 176
62 99 176
62 99 180
61 99 176
63 99 175
62 99 179
62 99 177
62 99 175
62 98 173
62 99 175
62 99 177
62 99 179
62 99 175
62 99 173
62 99 177
62 99 173
63 99 175
62 99 177
62 99 175
62 98 173
62 99 176
62 98 173
62 99 169
62 98 171
62 98 166
61 98 169
62 98 170
63 99 173
62 98 170
62 98 172
62 98 166
62 98 170
61 98 167
61 98 167
61 97 164
62 98 165
62 98 166
62 99 171
62 98 169
62 98 169
62 98 170
62 98 170
61 96 164
61 97 168
62 98 169
62 98 167
62 97 165
61 97 166
60 95 163
61 96 166
61 97 164
61 94 152
61 96 159
60 93 158
55 86 139
37 49 44
35 45 39
39 52 44
35 46 39
35 46 40
39 52 47
41 55 50
41 55 49
42 54 42
43 57 50
45 59 53
46 61 52
42 55 48
45 60 51
47 62 54
48 63 55
47 62 53
49 65 57
49 65 59
50 66 57
50 67 59
54 70 63
62 75 63
61 74 64
84 91 70
85 92 69
101 104 74
113 115 81
114 115 80
129 128 87
122 123 85
128 127 86
129 128 85
142 139 92
145 142 90
136 134 88
154 149 95
151 146 94
158 152 98
157 152 92
164 157 93
158 152 96
161 156 92
166 159 99
171 163 100
171 164 97
171 164 98
180 170 103
175 167 99
179 171 100
181 172 104
183 174 104
184 174 106
184 174 104
182 173 101
184 175 106
184 174 106
185 175 109
183 174 105
184 174 106
183 174 103
183 174 106
184 174 104
186 176 108
182 173 104
184 175 106
183 174 104
184 174 105
182 173 104
184 174 106
184 174 105
182 173 101
186 176 110
183 174 104
183 174 104
185 175 106
182 173 102
183 174 103
184 175 107
182 173 99
185 175 107
182 173 99
185 175 106
183 174 104
185 175 106
185 175 104
185 175 104
183 174 103
184 174 104
183 174 103
182 172 99
183 174 103
182 173 103
182 173 100
181 172 99
178 169 88
183 173 101
183 173 101
182 173 101
184 174 102
180 171 99
180 171 95
181 172 95
180 171 94
181 171 94
181 172 95
177 169 89
177 169 88
179 170 92
177 168 84
177 168 83
176 168 83
180 170 89
176 168 83
175 167 80
178 169 86
179 169 86
179 169 85
176 167 81
173 165 73
174 166 75
172 164 73
173 165 73
174 166 79
174 166 78
170 162 64
169 162 67
167 159 61
165 159 61
162 155 60
161 154 64
154 148 51
157 151 57
143 138 41
148 142 51
139 132 51
137 136 36
171 193 0
172 194 0
171 193 0
174 196 0
171 193 0
171 192 0
174 196 0
173 197 0
173 197 0
171 195 0
173 195 0
172 196 0
171 194 0
173 197 0
175 197 0
172 196 0
173 196 0
174 196 0
172 196 0
174 197 0
171 195 0
172 196 0
172 196 0
174 196 0
173 196 0
172 196 0
173 197 0
173 195 0
172 196 0
168 192 0
168 192 0
170 193 0
171 194 0
173 197 0
171 195 0
172 196 0
172 195 0
173 196 0
173 196 0
174 196 0
174 198 0
173 197 0
170 193 0
173 197 0
174 197 0
173 197 0
169 192 0
174 197 0
173 196 0
173 197 0
172 195 0
170 194 0
170 194 0
173 196 0
170 193 0
173 196 0
171 195 0
172 196 0
173 196 0
173 196 0
172 195 0
173 197 0
173 196 0
172 195 0
173 197 0
171 194 0
171 194 0
171 194 0
172 196 0
168 192 0
173 196 0
171 193 0
173 197 0
172 195 0
172 195 0
172 195 0
172 196 0
169 191 0
170 193 0
169 192 0
172 195 0
174 197 0
170 194 0
172 195 0
173 196 0
167 190 0
170 193 0
170 193 0
167 190 0
173 196 0
174 197 0
171 194 0
169 193 0
172 195 0
171 194 0
170 194 0
168 192 0
171 194 0
171 194 0
82 114 152
62 98 163
63 99 171
62 99 167
61 98 162
61 98 169
63 99 169
62 99 169
61 98 170
63 99 172
62 99 172
62 98 170
62 99 173
62 99 173
62 99 171
62 99 172
62 99 173
62 99 171
63 99 174
62 99 172
62 99 171
62 98 170
62 99 172
62 99 176
61 98 173
61 98 174
61 98 171
62 99 175
63 99 173
62 99 177
61 98 171
63 99 174
61 99 178
62 99 175
62 99 176
62 99 175
62 99 174
62 99 174
63 100 179
62 99 176
62 99 174
62 99 175
62 99 179
62 99 175
62 99 175
62 99 178
62 99 178
62 99 176
62 99 178
61 98 174
61 98 174
62 99 173
63 99 177
62 99 179
62 99 176
63 99 178
62 99 176
62 99 175
62 99 176
62 98 170
62 99 179
62 99 177
62 99 177
62 99 177
61 98 177
62 99 177
63 100 179
62 99 173
63 100 179
62 99 179
63 100 179
63 100 178
62 99 177
62 99 180
62 99 175
62 99 178
62 99 179
63 99 174
61 98 178
62 99 177
62 99 179
62 99 176
63 99 176
62 99 177
63 100 180
61 99 177
62 99 179
62 99 175
62 99 177
62 99 176
62 99 176
62 99 179
62 99 177
62 99 179
62 99 175
62 99 176
62 99 178
63 100 176
62 99 176
62 99 176
63 99 176
62 99 178
62 99 178
62 99 178
62 99 177
62 98 170
62 99 178
63 99 180
62 98 177
62 99 174
63 99 173
62 98 174
62 99 173
62 99 178
63 99 173
63 99 177
63 100 179
62 99 174
62 99 178
62 99 177
61 98 173
62 99 172
62 99 176
62 99 173
62 99 173
62 99 177
62 99 171
62 99 173
62 99 172
62 99 175
61 98 171
63 99 178
63 99 173
63 99 173
62 99 173
62 98 171
62 98 173
62 98 172
63 99 174
61 98 169
63 99 173
61 98 166
62 99 174
62 98 164
62 98 169
61 98 169
61 96 164
62 99 170
61 98 168
62 98 171
61 98 166
61 97 165
62 98 168
62 98 164
62 98 171
62 97 165
61 96 164
62 97 165
61 96 163
61 96 161
61 96 161
60 94 152
61 95 158
60 93 155
48 69 95
37 49 40
36 48 40
34 45 36
37 48 40
40 53 43
39 52 45
40 52 42
42 55 48
43 56 50
45 59 50
46 60 51
45 60 56
46 60 50
48 63 56
47 62 54
48 64 56
47 61 53
47 64 57
48 64 58
50 66 56
49 65 58
55 69 60
59 73 60
81 88 70
93 97 73
80 89 71
112 113 79
107 109 76
120 120 82
115 116 79
128 127 82
130 129 84
133 131 83
137 134 87
140 137 91
143 139 91
151 147 93
162 156 97
158 152 95
160 154 94
157 152 93
166 159 99
169 162 99
170 163 96
169 162 95
178 169 103
173 165 98
179 170 103
177 169 103
182 172 101
180 172 102
184 174 104
184 175 105
186 175 107
183 173 101
185 175 106
185 175 107
184 174 105
183 174 103
184 174 106
186 176 107
182 173 103
182 173 102
184 174 105
182 173 101
181 172 101
185 175 108
184 174 106
183 174 106
184 174 107
183 174 102
180 172 100
184 174 104
182 173 103
181 172 101
184 174 104
186 175 106
183 174 103
184 174 103
183 173 101
182 173 101
185 175 106
179 171 97
184 174 101
180 172 98
184 174 103
182 173 100
180 171 96
182 173 101
183 173 100
182 173 100
183 173 100
182 172 97
181 172 98
182 172 97
180 171 95
184 174 101
177 169 88
183 173 97
180 171 94
181 171 93
183 173 98
179 170 91
179 170 87
179 170 89
181 171 93
179 170 90
180 171 93
176 168 83
178 169 87
176 167 82
177 168 85
174 165 76
174 166 78
174 166 79
172 165 73
175 167 78
171 163 70
176 167 80
178 169 87
173 165 76
173 165 75
175 166 77
172 164 71
173 165 72
170 162 65
166 159 63
163 156 59
158 151 56
152 145 56
148 142 53
149 142 59
137 131 41
143 137 49
134 129 39
141 147 28
173 196 0
173 194 0
171 192 0
172 195 0
172 195 0
173 195 0
169 191 0
173 196 0
173 196 0
172 196 0
172 195 0
173 196 0
172 195 0
173 196 0
170 193 0
174 197 0
172 196 0
173 197 0
172 195 0
169 193 0
173 197 0
173 196 0
169 193 0
174 197 0
173 196 0
170 193 0
171 195 0
172 195 0
174 197 0
172 196 0
174 197 0
173 196 0
172 195 0
172 196 0
173 196 0
172 195 0
174 197 0
172 196 0
174 197 0
176 198 0
170 193 0
173 196 0
172 195 0
176 198 0
173 197 0
172 196 0
174 197 0
172 196 0
172 195 0
169 193 0
170 193 0
171 195 0
170 195 0
173 197 0
173 196 0
171 195 0
171 195 0
171 194 0
171 195 0
171 194 0
172 196 0
169 193 0
172 195 0
173 196 0
170 193 0
168 192 0
174 198 0
170 194 0
166 188 0
171 194 0
170 194 0
171 194 0
170 194 0
168 192 0
171 195 0
168 191 0
174 197 0
173 196 0
171 194 0
171 195 0
171 195 0
169 192 0
171 193 0
171 195 0
169 193 0
172 195 0
167 191 0
172 196 0
172 195 0
170 194 0
170 193 0
170 193 0
167 190 0
172 194 0
172 196 0
172 195 0
172 195 0
169 191 0
152 177 84
63 99 166
62 99 166
62 98 165
62 99 166
62 98 163
63 99 171
62 98 165
62 99 168
62 98 168
63 99 176
63 99 168
62 99 168
63 99 169
63 99 175
62 98 171
62 99 174
62 99 172
62 99 168
62 98 170
61 98 176
63 100 176
62 99 174
62 99 176
62 98 169
62 99 175
62 98 169
62 99 179
62 99 174
62 98 174
62 99 176
62 99 177
61 98 173
63 100 179
62 99 174
61 98 173
62 99 177
62 99 174
62 99 174
62 99 176
62 99 177
61 98 175
62 99 179
62 99 176
62 99 177
62 99 178
62 99 177
62 99 176
62 99 176
62 99 175
61 98 177
62 99 176
63 99 179
61 98 174
62 99 178
62 99 180
62 99 176
62 99 177
62 99 176
62 98 174
63 100 178
61 99 178
63 100 179
62 99 176
62 99 177
62 99 178
63 99 176
62 98 178
63 99 177
62 99 176
62 99 178
62 99 179
61 99 177
62 99 178
62 99 180
61 98 178
61 98 174
62 99 174
62 99 175
63 100 180
62 99 177
62 99 180
62 98 170
61 99 177
62 99 177
62 99 177
62 99 177
62 99 177
63 100 179
61 98 174
62 99 178
63 99 177
62 99 178
63 100 179
62 98 173
62 99 175
62 99 173
62 99 177
62 99 177
62 99 173
61 98 175
62 99 175
62 99 174
62 99 172
63 100 179
62 99 176
62 99 177
63 100 176
62 99 179
62 99 175
62 99 174
62 99 176
63 99 174
62 99 178
63 99 176
62 99 177
62 99 177
62 99 170
62 99 172
62 99 171
62 99 172
62 99 174
62 99 173
62 98 166
62 99 174
62 99 175
61 98 172
62 99 173
62 99 175
62 99 177
63 100 176
61 98 172
62 99 176
62 99 174
62 99 179
62 98 172
61 98 172
62 99 177
62 98 172
62 98 172
62 98 168
62 98 168
62 98 172
62 98 171
63 99 173
62 98 167
63 99 172
60 97 163
62 97 163
62 98 173
61 98 170
62 98 167
61 98 162
61 97 161
61 97 166
62 98 166
61 96 160
62 97 164
61 97 163
61 98 168
62 97 161
61 96 160
60 95 160
60 96 163
59 92 151
56 85 138
36 46 38
32 43 39
33 44 37
38 49 39
37 49 42
38 50 41
42 54 47
42 54 44
44 57 44
43 56 47
41 55 49
44 58 47
43 57 48
45 59 50
47 62 54
49 64 58
48 63 56
48 64 55
49 64 54
51 67 59
49 64 56
52 67 57
67 78 64
85 92 72
89 94 70
101 104 74
108 109 77
104 107 76
114 115 78
125 125 82
129 128 87
134 132 84
136 133 84
123 123 81
144 141 89
148 143 92
154 149 92
152 147 93
154 149 95
163 157 94
153 147 91
155 151 91
160 155 95
164 157 96
174 166 100
170 163 97
171 164 95
175 168 99
178 170 98
181 172 101
183 173 104
180 171 97
181 172 100
182 173 101
182 172 99
181 173 102
184 174 103
183 173 103
183 173 103
181 172 99
186 176 109
183 173 101
182 173 104
182 173 103
181 172 100
182 173 99
184 174 104
182 173 100
183 173 103
184 174 103
183 173 101
184 174 104
181 172 101
184 174 101
184 174 101
180 172 99
182 173 100
180 171 97
181 172 99
180 171 99
179 171 97
183 173 99
183 173 102
183 173 101
180 172 99
181 172 95
183 173 98
182 172 97
183 173 100
179 170 93
184 174 103
178 170 93
182 172 96
181 171 93
180 171 96
182 172 97
184 173 99
182 172 97
178 169 89
180 171 92
183 173 98
179 170 91
180 171 93
179 170 90
175 167 83
178 169 87
181 171 93
178 169 89
176 168 84
176 168 83
177 168 85
175 167 84
175 166 79
176 167 84
176 167 82
176 167 84
174 166 78
174 166 74
171 163 72
171 164 72
174 166 75
172 164 71
170 163 65
170 162 66
172 164 70
166 159 60
163 156 63
160 154 58
158 152 59
153 147 51
156 149 54
158 150 59
147 139 60
138 133 44
135 129 39
143 150 25
171 193 0
172 195 0
174 198 0
172 193 0
172 193 0
172 194 0
172 194 0
172 195 0
173 197 0
169 193 0
172 195 0
172 195 0
173 196 0
174 197 0
175 197 0
171 195 0
174 197 0
170 193 0
172 196 0
171 194 0
171 194 0
172 196 0
173 196 0
173 196 0
171 194 0
171 195 0
172 195 0
171 195 0
173 196 0
170 194 0
170 193 0
171 195 0
173 196 0
173 196 0
172 195 0
173 197 0
171 194 0
172 196 0
174 197 0
174 197 0
172 196 0
170 193 0
173 196 0
171 195 0
174 197 0
171 195 0
172 195 0
172 195 0
172 196 0
172 195 0
172 195 0
173 197 0
172 196 0
171 194 0
174 196 0
167 191 0
172 196 0
171 194 0
173 195 0
170 192 0
169 192 0
172 196 0
173 197 0
174 197 0
173 196 0
174 197 0
173 196 0
171 194 0
170 193 0
173 195 0
173 196 0
170 193 0
168 192 0
168 191 0
173 196 0
172 195 0
169 193 0
173 196 0
167 191 0
169 193 0
170 193 0
172 194 0
169 192 0
171 194 0
171 195 0
171 195 0
170 193 0
173 196 0
170 193 0
173 195 0
172 195 0
170 193 0
167 191 0
169 193 0
172 195 0
172 195 0
168 191 0
170 193 0
116 142 124
62 98 158
61 98 162
62 98 160
62 98 167
62 99 169
62 98 163
62 99 171
62 99 176
62 99 176
62 99 168
63 100 174
62 99 175
62 99 173
63 99 175
62 99 170
62 99 174
62 99 173
62 99 172
62 99 175
62 99 173
62 98 174
62 99 174
62 99 173
62 99 176
61 98 171
62 99 173
62 98 167
62 99 174
62 98 175
62 99 173
62 99 175
62 98 176
62 98 174
62 99 176
62 99 176
62 99 175
62 99 174
62 99 175
63 99 178
62 99 179
63 99 178
63 100 180
63 100 176
62 99 176
61 99 177
62 99 176
62 99 178
63 99 176
62 99 179
61 98 175
61 98 175
61 98 171
62 99 177
62 99 177
62 99 179
62 99 175
62 99 180
63 100 176
61 98 177
62 99 179
62 99 174
63 99 180
62 99 178
62 99 176
62 99 177
62 99 178
62 99 178
62 99 178
62 99 179
61 99 178
62 98 175
62 99 176
62 99 175
62 99 175
62 99 180
62 99 179
62 99 178
62 98 174
61 98 175
62 99 176
62 99 177
62 99 177
63 99 178
62 99 178
62 99 178
63 100 177
62 99 174
62 99 178
62 98 172
62 99 177
62 99 178
62 99 175
63 99 177
62 99 176
62 99 173
62 99 177
63 99 177
63 100 178
62 99 175
61 98 172
62 99 179
61 98 173
62 99 174
63 100 177
62 99 177
61 98 176
62 99 173
62 99 174
62 99 177
61 98 171
62 99 179
62 99 175
62 99 178
62 98 173
62 99 178
62 99 175
62 99 174
62 99 173
62 99 175
62 98 171
63 99 176
62 99 172
62 99 176
61 98 168
62 99 174
61 98 171
62 99 172
62 99 170
61 98 172
63 99 176
62 99 176
62 98 172
62 98 169
62 98 167
61 98 168
62 99 176
63 99 170
62 98 170
62 99 173
62 98 169
62 98 168
62 98 170
61 97 168
62 98 169
61 98 168
62 98 168
62 98 170
63 99 171
62 98 169
61 97 165
62 99 173
63 98 170
61 97 166
61 97 170
62 98 171
60 97 164
62 97 160
61 97 168
62 97 162
61 96 159
61 96 165
61 96 160
61 96 166
60 93 148
60 93 151
40 56 74
34 45 38
35 46 39
38 50 39
40 52 41
39 51 43
39 51 46
43 56 45
38 50 41
45 58 49
44 58 48
45 59 53
44 57 48
46 60 51
47 63 51
47 61 53
49 65 58
49 65 59
49 64 56
50 66 57
50 66 58
50 66 56
62 75 62
90 96 75
75 84 68
104 106 79
94 99 69
104 107 74
100 104 76
113 114 77
131 129 85
112 114 77
145 141 89
129 128 84
132 130 82
146 142 91
145 141 81
150 146 92
155 150 90
168 161 100
151 147 90
155 150 90
164 158 93
163 157 92
171 164 95
172 165 98
172 165 91
176 168 102
179 170 99
181 172 97
180 171 98
184 174 105
180 171 97
183 174 102
183 173 103
183 173 102
182 172 99
182 173 101
182 173 99
186 175 104
181 172 100
182 172 100
182 173 102
182 173 101
182 173 99
183 174 103
180 171 97
180 172 99
185 175 105
181 172 98
183 174 104
183 173 100
181 171 98
184 174 101
181 172 99
185 175 103
183 173 100
178 170 93
182 172 99
181 172 99
182 173 99
183 173 101
183 172 96
182 172 98
182 172 99
183 173 100
179 170 92
181 171 95
180 170 93
177 168 87
181 171 94
180 170 92
183 173 99
181 171 94
181 171 95
177 168 87
178 169 86
178 169 91
177 168 85
179 170 93
180 170 90
182 172 94
177 169 86
180 171 91
178 169 91
175 167 82
176 168 84
176 167 81
177 168 84
178 169 86
179 169 87
176 167 82
177 167 84
174 165 75
177 168 80
177 167 82
174 165 78
177 168 83
171 164 71
173 165 75
172 164 69
170 163 68
171 162 67
168 160 58
167 160 63
165 158 63
162 156 59
162 156 57
160 153 57
147 142 48
152 146 54
151 145 51
135 130 41
139 133 45
118 115 19
157 173 0
173 194 0
170 191 0
173 194 0
172 193 0
172 194 0
172 194 0
171 194 0
173 197 0
171 194 0
168 192 0
172 195 0
172 195 0
175 198 0
172 196 0
171 195 0
171 194 0
174 197 0
174 197 0
173 195 0
174 197 0
171 195 0
171 194 0
170 192 0
170 194 0
172 196 0
173 196 0
172 196 0
172 196 0
173 196 0
173 196 0
172 195 0
175 198 0
174 198 0
172 195 0
175 197 0
172 195 0
172 195 0
172 196 0
173 196 0
170 193 0
172 195 0
170 194 0
171 196 0
173 196 0
171 195 0
171 195 0
173 196 0
169 192 0
174 197 0
171 194 0
167 191 0
171 194 0
171 194 0
169 193 0
170 193 0
171 195 0
170 193 0
170 193 0
170 194 0
173 195 0
173 196 0
171 194 0
171 194 0
173 197 0
170 193 0
171 194 0
169 193 0
170 193 0
171 195 0
173 196 0
168 192 0
169 191 0
169 193 0
170 195 0
173 196 0
170 194 0
167 192 0
172 196 0
168 191 0
171 194 0
172 196 0
172 195 0
170 194 0
170 193 0
170 194 0
169 191 0
172 194 0
170 192 0
169 192 0
170 193 0
173 195 0
174 197 0
172 195 0
170 193 0
168 191 0
168 190 0
169 193 0
162 186 44
64 100 160
62 98 157
61 98 163
62 98 164
62 99 169
62 99 169
61 98 169
63 99 166
62 98 167
63 99 173
61 98 169
62 99 174
62 98 169
62 99 171
62 99 172
62 98 170
63 100 177
62 99 174
62 98 169
62 99 173
61 98 173
61 98 172
62 99 173
61 98 170
62 99 174
62 99 175
62 98 172
62 99 170
63 99 177
62 99 176
62 99 172
62 99 180
62 99 176
62 99 173
63 99 177
62 99 173
62 99 177
62 99 176
63 100 176
61 99 179
62 99 170
62 99 174
62 99 177
62 99 175
63 99 176
62 99 179
63 99 177
63 100 180
62 99 177
62 99 175
63 100 180
63 99 175
62 99 177
63 99 177
62 99 177
62 99 178
62 99 172
62 99 176
62 99 178
62 99 178
62 99 174
62 99 174
62 99 180
62 99 179
62 99 179
62 99 177
62 99 178
62 99 177
63 100 178
62 99 178
62 99 176
62 99 178
62 99 174
62 99 179
62 99 177
62 99 177
62 99 176
62 99 175
62 99 176
62 99 177
62 99 179
62 99 175
62 99 178
62 99 178
61 98 173
62 99 177
62 99 176
62 99 175
63 100 181
62 99 174
62 99 176
62 99 178
62 99 178
63 99 177
63 100 176
62 99 177
62 99 176
62 99 173
62 99 175
63 100 174
62 98 172
62 99 176
63 99 176
62 99 174
62 99 173
62 99 176
62 99 173
61 98 174
61 98 169
62 99 174
62 99 174
62 99 177
62 98 168
61 98 173
62 99 173
62 98 171
61 98 172
61 98 167
62 99 175
62 98 169
62 99 175
62 99 172
62 99 174
62 99 176
63 99 174
62 99 178
63 99 169
62 98 172
62 99 169
63 99 168
62 99 173
63 99 172
62 99 171
62 99 169
61 97 167
61 98 167
61 98 169
62 99 173
62 99 176
62 98 171
62 98 170
62 99 170
62 99 173
61 97 162
61 98 169
62 98 169
61 97 161
62 97 162
62 98 168
62 98 172
61 98 166
62 98 170
62 99 170
61 97 161
61 97 165
61 97 163
61 97 168
61 97 162
62 98 169
62 97 168
60 95 160
61 95 158
61 95 157
60 93 150
60 93 151
60 93 154
49 74 109
37 49 42
33 43 33
34 45 38
38 50 42
37 49 41
36 46 30
41 54 43
40 53 44
38 50 44
42 56 46
45 59 50
44 58 46
46 61 53
43 57 47
44 58 52
48 63 51
48 63 54
46 62 54
49 65 55
48 63 52
61 72 56
65 77 64
73 82 66
80 87 66
94 99 70
113 114 80
113 114 77
115 116 80
108 111 78
120 120 79
131 129 79
126 125 80
136 133 85
135 133 82
129 129 78
145 142 90
149 145 85
160 154 89
149 145 84
159 154 92
164 157 93
161 155 85
166 159 95
163 156 94
176 168 94
170 163 96
177 168 94
180 171 101
181 171 99
184 174 104
175 168 92
182 172 99
183 173 101
183 173 102
183 173 101
184 173 101
180 171 97
180 171 96
180 171 95
181 172 99
183 173 99
181 172 100
182 172 99
181 172 96
182 173 99
183 173 101
183 173 101
182 172 97
183 174 103
183 173 103
182 172 98
179 170 93
184 174 104
181 171 95
181 172 97
184 174 102
183 174 103
182 173 100
182 172 98
180 171 97
179 170 91
179 170 93
181 172 97
180 171 97
184 174 100
183 173 100
183 173 99
182 172 97
182 172 96
180 171 95
182 172 96
178 169 91
180 171 95
181 171 96
179 170 90
181 171 95
182 172 95
179 170 90
177 168 86
178 169 89
177 169 87
178 169 90
175 166 84
178 169 87
175 167 81
176 167 84
177 168 85
172 165 73
177 169 86
176 167 82
178 168 84
174 165 78
175 166 78
173 165 74
173 165 74
177 167 82
170 163 68
170 163 68
170 163 65
170 163 67
169 161 62
172 164 73
170 162 63
169 161 68
168 161 65
165 158 60
161 154 57
162 155 62
150 144 45
155 147 58
139 134 49
141 136 37
132 128 37
128 125 25
167 185 0
173 194 0
173 196 0
172 193 0
172 194 0
174 196 0
172 193 0
173 194 0
170 194 0
172 196 0
173 196 0
168 192 0
173 197 0
171 194 0
173 196 0
172 194 0
173 197 0
169 192 0
172 195 0
171 194 0
175 197 0
173 196 0
174 197 0
173 196 0
171 195 0
171 195 0
174 197 0
169 192 0
170 194 0
172 195 0
171 195 0
172 194 0
169 192 0
173 197 0
171 195 0
174 197 0
170 194 0
171 194 0
173 196 0
169 192 0
172 195 0
170 193 0
173 196 0
171 194 0
171 195 0
172 195 0
171 194 0
174 197 0
173 197 0
172 195 0
174 196 0
172 196 0
172 195 0
174 196 0
169 192 0
175 197 0
175 197 0
174 196 0
171 194 0
170 193 0
171 195 0
173 196 0
172 195 0
172 195 0
169 193 0
169 193 0
167 190 0
172 196 0
172 195 0
172 195 0
169 192 0
171 194 0
170 193 0
168 192 0
171 194 0
169 192 0
170 192 0
173 196 0
169 192 0
171 194 0
171 195 0
173 197 0
172 194 0
169 193 0
170 192 0
169 193 0
164 187 0
170 194 0
171 194 0
170 193 0
171 194 0
171 194 0
171 194 0
167 190 0
166 190 0
174 195 0
170 193 0
174 197 0
131 157 114
62 99 170
61 96 153
63 99 170
62 98 161
62 98 165
62 98 165
63 100 172
63 99 169
62 98 167
62 99 170
62 99 167
62 98 166
62 98 170
62 98 170
63 99 171
62 99 173
61 98 167
62 99 171
62 98 171
62 98 171
63 100 174
63 99 175
62 99 176
62 99 175
63 99 171
62 99 178
62 99 173
62 99 172
62 99 175
62 99 172
61 98 170
63 99 175
63 100 178
61 98 173
62 99 176
63 99 175
63 99 177
62 99 173
62 99 178
62 99 174
62 99 177
62 99 174
62 99 175
62 99 175
62 99 178
62 99 178
62 99 177
62 99 175
62 99 178
63 99 177
62 99 177
62 99 175
62 99 177
62 99 178
63 100 177
62 99 177
62 99 178
62 98 171
62 99 173
62 99 177
62 99 176
63 99 176
62 99 177
62 99 178
62 99 176
62 99 178
62 99 177
63 100 181
62 98 175
63 99 179
62 99 177
63 99 179
62 99 175
62 99 177
62 99 179
62 99 178
62 99 179
62 99 176
63 99 178
62 99 177
62 99 176
62 99 176
62 98 172
62 99 177
63 100 179
62 99 175
62 99 175
62 99 175
62 99 177
63 100 181
62 99 176
62 99 176
62 98 171
61 98 173
62 99 179
62 99 177
62 99 178
62 99 176
62 99 169
62 99 176
63 100 177
62 99 177
62 99 174
62 99 177
62 98 173
62 99 176
62 98 170
62 98 173
62 99 176
62 99 170
62 99 174
62 99 174
62 98 168
62 99 175
62 99 175
63 100 178
62 99 171
62 98 171
61 98 169
61 98 170
62 99 177
62 98 173
62 98 169
63 99 176
62 98 171
62 98 170
62 99 174
62 99 175
62 99 172
62 99 172
62 98 169
62 99 170
62 99 173
62 98 167
62 98 172
62 99 173
63 99 172
62 98 174
62 99 174
61 98 166
62 99 170
62 98 163
62 98 170
62 99 171
62 99 170
63 99 174
62 99 171
62 99 172
63 99 173
61 97 163
63 99 171
63 99 172
61 96 160
62 98 167
61 97 167
61 97 161
62 98 166
62 98 167
62 97 157
61 96 162
61 96 156
62 98 165
60 95 155
61 95 154
61 95 157
59 92 150
59 92 142
38 50 49
36 48 40
37 47 38
35 45 33
38 49 39
40 52 43
42 54 43
39 53 45
43 56 46
41 54 47
44 56 43
46 61 53
46 60 50
44 57 47
47 61 53
46 61 52
48 63 52
47 62 55
46 61 50
48 64 55
48 64 53
62 73 60
73 83 64
98 100 69
86 93 68
95 99 66
102 106 72
115 116 81
106 108 76
118 118 73
130 128 85
133 130 83
125 125 77
136 134 79
134 132 77
135 134 83
145 142 82
150 145 85
160 154 92
156 150 87
166 159 94
158 153 89
166 160 92
172 164 94
169 162 91
169 162 93
175 166 100
174 166 93
177 168 95
178 170 93
176 168 90
178 169 90
182 173 99
181 171 98
183 173 97
182 172 99
182 172 98
179 170 93
181 172 102
183 173 101
181 172 99
181 172 98
180 171 97
181 172 97
182 172 98
180 170 95
184 174 102
182 172 99
181 172 97
180 172 97
181 171 95
180 171 97
181 172 100
181 172 100
181 172 97
180 171 95
184 174 101
179 170 93
179 170 94
182 172 96
179 170 92
178 169 92
180 171 95
176 168 88
181 171 96
178 169 92
180 171 95
182 173 98
182 172 95
178 169 90
181 172 95
182 172 97
181 172 96
179 170 91
177 168 86
176 168 84
179 169 88
178 169 86
176 168 84
178 169 86
179 170 90
178 169 87
175 167 81
175 167 81
176 167 82
177 168 83
178 168 84
178 169 84
175 167 81
176 168 82
176 167 80
171 164 72
177 168 84
174 166 76
173 165 75
170 163 70
168 161 65
173 165 74
167 160 58
174 165 74
171 163 73
169 162 65
172 164 69
161 154 52
165 158 61
165 156 69
157 150 56
153 147 52
149 144 45
144 138 44
143 137 45
142 136 52
135 131 30
132 131 32
171 193 0
173 194 0
171 191 0
170 192 0
171 193 0
172 193 0
170 193 0
174 195 0
174 197 0
172 196 0
173 197 0
174 197 0
172 196 0
171 195 0
171 195 0
172 195 0
173 197 0
171 194 0
170 193 0
174 197 0
169 193 0
173 196 0
172 195 0
173 196 0
173 197 0
175 198 0
170 193 0
172 196 0
172 195 0
173 196 0
176 198 0
167 192 0
175 198 0
170 194 0
170 193 0
174 197 0
172 196 0
173 196 0
172 195 0
168 191 0
172 195 0
171 195 0
172 195 0
173 196 0
172 196 0
174 196 0
172 195 0
169 192 0
172 195 0
171 195 0
172 195 0
172 196 0
173 197 0
173 196 0
169 192 0
172 195 0
172 196 0
173 196 0
170 194 0
171 194 0
169 192 0
168 192 0
170 195 0
170 194 0
170 194 0
171 194 0
173 196 0
169 193 0
172 195 0
174 197 0
171 194 0
171 194 0
172 195 0
172 196 0
172 195 0
170 193 0
168 191 0
173 196 0
171 194 0
168 192 0
169 192 0
171 195 0
170 194 0
173 196 0
171 194 0
167 190 0
170 193 0
170 194 0
169 192 0
169 192 0
170 193 0
170 194 0
171 195 0
171 195 0
169 192 0
167 190 0
170 192 0
168 191 18
90 120 139
62 99 163
62 98 164
62 98 163
62 98 162
62 98 166
62 98 164
61 98 164
62 99 171
62 99 172
62 98 168
61 98 165
62 98 172
62 99 177
62 99 171
62 99 173
62 98 167
62 99 174
61 98 168
62 99 174
62 99 172
62 98 172
62 99 178
62 99 171
62 99 173
63 99 171
62 99 175
62 99 177
62 99 173
63 100 181
62 99 173
63 99 175
61 98 176
63 100 178
62 99 176
62 99 176
62 99 173
62 99 179
61 98 171
61 98 175
62 99 174
62 99 173
62 99 177
62 99 175
63 99 178
62 99 177
63 100 180
62 99 175
62 99 175
61 98 173
63 99 173
61 98 171
62 99 177
62 99 174
61 98 174
62 99 178
62 99 178
63 100 177
62 99 179
61 98 176
62 99 178
63 99 177
62 99 174
62 99 180
63 99 178
62 99 175
62 99 178
62 99 177
62 99 179
63 100 179
62 99 178
62 99 177
62 99 174
62 99 176
61 98 172
61 98 176
62 99 176
62 99 177
62 99 177
62 99 176
63 100 177
62 99 179
63 99 176
62 99 175
63 100 178
61 98 173
62 99 176
62 99 175
63 99 175
62 99 175
62 99 179
62 99 176
62 99 177
62 99 178
62 99 180
63 99 175
62 99 178
63 99 174
62 99 173
61 98 177
62 99 175
62 99 175
62 99 176
61 98 172
62 98 171
62 99 174
62 99 176
62 99 176
63 99 174
62 99 174
62 99 176
61 98 172
63 99 174
61 98 176
62 99 172
63 99 172
61 98 171
61 98 171
61 98 164
63 100 178
62 99 174
62 99 174
62 99 176
62 98 172
62 99 172
62 99 173
61 98 170
63 99 174
62 98 170
63 99 173
61 97 164
63 99 178
62 99 171
62 99 176
62 99 170
62 99 175
63 99 171
63 99 171
62 98 165
61 98 164
63 99 169
62 98 172
62 98 173
62 98 165
62 98 169
62 99 171
62 98 167
62 98 171
62 98 166
61 98 170
62 99 171
62 98 168
62 98 171
62 98 169
61 97 163
62 97 160
61 97 162
61 97 165
60 96 161
61 97 159
62 98 169
61 96 162
60 95 154
60 96 159
60 94 154
60 94 161
62 96 157
59 91 139
46 66 96
34 44 35
39 51 42
34 44 35
38 49 43
40 53 43
39 51 42
39 50 40
42 53 40
43 56 47
42 56 50
45 60 53
46 59 47
42 55 45
48 63 52
48 63 53
46 60 48
48 63 49
49 65 57
45 61 52
53 68 59
63 73 55
56 70 58
75 83 64
85 91 63
95 100 67
100 104 74
110 112 73
106 109 71
103 107 70
128 126 80
119 119 77
135 132 82
133 131 83
133 132 82
143 140 83
142 138 86
145 141 83
146 142 83
161 155 86
157 151 85
160 154 88
162 156 91
167 159 87
164 157 90
171 164 90
174 166 92
175 166 96
178 170 96
175 167 87
180 171 95
182 172 97
181 172 96
179 171 97
183 173 101
179 171 95
183 173 97
183 172 100
182 172 97
183 173 99
179 170 97
181 172 96
182 173 99
181 172 98
178 170 91
180 171 95
181 172 95
179 170 93
178 170 91
183 173 98
182 172 99
182 172 97
179 170 94
183 173 99
180 170 93
180 170 92
183 173 97
179 169 90
182 173 99
178 169 93
180 171 95
179 170 91
181 172 97
180 171 95
182 171 94
181 171 95
179 170 90
176 168 85
182 172 95
177 168 90
181 171 92
180 170 93
182 172 95
176 168 85
176 168 84
179 170 89
177 168 85
178 169 87
176 167 83
176 168 83
176 167 82
178 169 90
175 167 83
179 169 87
177 168 84
176 168 82
174 166 77
174 166 78
171 164 73
174 166 78
173 165 74
172 165 74
170 163 69
174 166 78
172 164 75
175 166 74
170 163 68
169 162 63
170 163 71
169 162 64
170 163 67
165 158 58
163 157 53
167 160 65
163 157 59
165 157 59
164 157 59
153 145 57
147 141 48
139 133 47
143 138 39
139 132 49
137 132 30
142 150 28
170 192 0
171 193 0
171 193 0
173 194 0
172 194 0
173 194 0
171 193 0
172 193 0
170 194 0
171 195 0
172 196 0
172 196 0
173 196 0
173 196 0
171 195 0
172 195 0
174 197 0
170 193 0
174 197 0
170 194 0
172 195 0
172 196 0
171 194 0
172 195 0
173 196 0
169 193 0
168 192 0
170 194 0
171 194 0
171 193 0
172 195 0
172 196 0
167 191 0
172 196 0
171 195 0
171 193 0
172 196 0
172 196 0
171 193 0
173 196 0
174 197 0
171 194 0
174 197 0
171 195 0
171 195 0
172 196 0
170 194 0
170 194 0
173 197 0
172 195 0
171 194 0
173 196 0
172 195 0
168 192 0
170 194 0
172 196 0
170 194 0
170 194 0
172 195 0
171 195 0
170 193 0
171 195 0
173 196 0
167 191 0
175 198 0
171 194 0
169 192 0
167 191 0
171 194 0
171 194 0
170 193 0
171 194 0
173 195 0
171 194 0
170 193 0
171 194 0
171 193 0
171 195 0
171 195 0
172 194 0
170 194 0
170 193 0
172 194 0
170 193 0
168 192 0
168 191 0
171 194 0
171 194 0
171 193 0
169 193 0
168 191 0
168 191 0
170 193 0
172 196 0
168 191 0
174 196 0
173 195 0
153 177 72
62 97 155
62 98 163
62 98 164
62 98 162
62 99 168
61 97 158
62 98 165
63 99 169
62 98 164
62 98 167
63 99 173
61 98 169
62 99 171
63 99 170
62 98 169
62 99 173
62 98 168
62 99 173
62 98 172
61 98 163
62 98 171
63 100 179
62 98 170
62 99 175
62 99 171
62 99 175
62 99 172
63 99 179
63 99 175
63 100 179
63 99 176
62 99 175
62 99 172
62 99 175
62 99 177
62 99 174
63 100 177
61 98 176
62 99 175
62 98 169
62 99 173
62 99 176
62 99 171
63 99 175
62 99 174
62 99 177
62 99 178
62 99 174
62 98 175
61 98 174
63 99 174
62 99 174
62 99 172
62 99 173
63 100 181
62 99 177
61 98 175
62 99 177
63 99 178
62 99 177
62 99 177
62 99 175
62 99 177
62 99 175
62 99 178
62 99 179
62 99 177
61 98 173
62 99 176
63 100 180
62 99 177
61 98 173
62 99 173
62 99 176
63 100 177
62 98 173
63 100 179
62 99 177
62 99 179
62 99 180
62 99 176
62 99 175
62 99 175
61 98 176
62 99 177
62 99 177
62 99 173
62 99 175
62 99 175
62 99 175
61 98 174
62 99 176
62 99 178
62 99 176
63 99 176
62 99 177
63 99 177
62 99 177
62 99 179
63 100 179
62 99 173
62 99 177
62 99 172
62 99 172
62 99 175
62 98 173
62 99 172
62 99 172
63 99 170
63 99 175
62 98 171
62 99 174
62 99 173
63 99 175
62 98 171
61 98 171
62 99 173
62 99 173
63 99 175
62 99 174
63 99 173
62 99 176
63 99 176
63 100 178
62 99 171
62 99 172
62 99 174
62 98 171
62 99 174
62 99 171
62 99 172
62 98 167
63 99 173
62 99 175
61 98 170
63 99 173
62 99 174
62 98 168
61 98 170
62 98 172
62 99 175
62 99 174
62 99 177
62 98 163
61 98 165
62 98 170
63 99 172
62 99 170
63 99 173
61 97 167
62 98 164
62 98 170
62 98 169
62 98 171
61 97 165
62 97 163
62 99 169
61 97 161
61 96 156
60 95 160
61 95 160
62 97 167
62 98 162
61 96 161
60 93 149
60 95 152
61 96 162
61 96 162
56 85 136
35 46 38
35 45 36
36 46 34
38 50 37
39 51 44
40 51 42
40 52 43
42 53 41
41 53 41
43 55 45
43 57 47
46 60 49
47 62 52
46 59 47
44 57 46
48 64 55
47 62 49
49 64 54
49 65 55
48 64 53
63 74 57
67 77 61
76 83 62
79 86 64
88 94 67
111 112 71
98 101 63
110 112 73
123 122 76
117 117 71
129 128 78
140 136 80
137 133 85
140 138 78
149 145 85
148 144 87
149 145 84
146 142 82
159 153 91
163 157 86
164 157 91
160 154 88
164 158 93
165 158 91
170 162 93
172 164 88
178 169 96
178 169 92
175 167 89
176 168 88
178 170 93
180 171 93
181 171 94
178 169 91
181 171 96
179 170 93
175 167 84
182 172 98
177 169 92
181 172 96
179 170 95
180 171 94
179 170 95
179 170 93
181 172 96
180 170 91
180 171 95
182 172 97
180 171 95
181 172 99
179 170 92
179 170 92
180 171 96
182 172 97
178 169 90
181 171 97
178 168 91
175 167 86
179 170 91
176 168 87
176 168 85
181 171 93
182 172 95
181 171 96
178 169 87
182 172 95
181 172 96
181 171 95
178 169 89
178 168 87
178 169 87
180 171 94
182 172 94
175 167 84
179 170 89
179 169 87
180 170 92
175 167 80
177 169 86
175 166 84
182 172 95
174 166 79
175 167 80
176 167 80
173 165 75
173 166 76
174 166 75
172 164 73
176 167 80
174 165 76
176 166 79
171 163 67
169 162 67
173 165 74
170 163 67
170 163 68
172 164 69
170 163 67
166 160 59
166 160 59
166 159 57
168 160 62
166 159 58
159 152 51
158 150 56
157 152 44
152 146 48
154 148 48
148 143 48
149 142 51
124 121 28
132 126 39
160 174 16
170 192 0
173 195 0
171 191 0
171 193 0
171 195 0
173 195 0
173 196 0
170 191 0
172 195 0
171 195 0
174 197 0
173 196 0
173 196 0
172 196 0
172 196 0
171 195 0
168 191 0
174 197 0
171 194 0
174 197 0
172 196 0
172 195 0
171 194 0
172 196 0
172 195 0
173 197 0
169 193 0
172 195 0
172 196 0
172 195 0
172 194 0
172 195 0
172 196 0
172 195 0
171 195 0
172 195 0
174 198 0
173 196 0
170 193 0
173 196 0
174 197 0
171 194 0
172 195 0
169 193 0
169 193 0
170 194 0
172 196 0
170 193 0
170 193 0
169 193 0
171 194 0
173 197 0
171 194 0
172 196 0
172 195 0
171 194 0
173 196 0
172 195 0
172 195 0
170 194 0
170 194 0
170 193 0
171 195 0
170 193 0
172 195 0
171 195 0
171 194 0
171 194 0
172 196 0
168 191 0
170 193 0
171 194 0
168 192 0
171 195 0
170 192 0
169 192 0
170 193 0
173 196 0
173 196 0
172 195 0
171 195 0
171 194 0
167 191 0
173 195 0
169 193 0
172 195 0
169 193 0
171 195 0
171 194 0
169 193 0
168 190 0
166 190 0
168 192 0
168 191 0
171 194 0
169 193 0
170 194 0
124 150 120
62 98 161
62 98 167
61 97 164
62 98 164
62 99 170
62 98 164
61 97 159
62 99 167
62 99 172
62 99 168
62 99 168
62 99 170
62 98 168
63 99 170
61 98 164
62 98 169
62 99 172
62 99 172
62 98 168
62 99 169
62 99 171
62 99 173
62 98 170
62 98 168
62 99 175
62 99 176
63 100 178
62 98 172
62 99 175
61 98 170
62 99 171
62 99 176
62 99 177
63 100 174
62 99 179
63 100 176
62 99 173
63 99 174
63 99 177
63 99 177
62 99 176
62 99 175
62 99 175
63 99 178
62 99 178
61 98 173
61 98 171
62 99 176
62 99 176
62 99 174
62 99 173
62 99 175
62 99 176
61 99 177
62 99 177
62 99 176
62 98 172
62 99 178
63 99 174
62 99 175
62 99 176
63 99 175
62 99 176
62 99 174
62 99 176
62 98 173
63 99 175
62 99 177
62 99 176
62 99 175
62 99 178
62 99 174
61 98 173
61 98 175
62 99 173
62 99 175
63 99 173
62 99 173
62 99 175
62 99 175
63 99 175
62 99 174
62 99 175
62 99 175
62 99 175
62 99 174
62 99 175
63 99 176
62 99 177
62 99 174
63 99 176
61 98 176
62 99 176
62 99 172
62 98 172
62 99 178
62 99 178
62 99 173
62 99 176
62 99 177
62 99 173
62 99 176
63 99 178
62 99 174
62 99 173
62 99 175
61 98 169
62 99 173
62 99 173
62 99 176
63 100 176
62 99 175
61 98 171
63 99 176
62 98 170
62 98 173
63 99 174
62 99 172
63 100 177
62 99 174
62 98 170
62 98 172
62 99 173
63 99 175
62 99 174
62 99 174
62 99 173
62 99 170
62 99 174
63 99 173
62 99 175
61 98 169
63 99 176
61 97 165
62 99 171
63 99 172
62 99 173
62 99 170
62 98 167
62 98 170
61 97 166
62 98 165
62 99 170
62 98 170
62 98 172
61 97 165
62 98 167
62 98 166
63 99 170
61 98 171
61 97 167
62 98 170
61 97 168
61 97 167
61 98 166
62 98 166
62 98 167
61 97 162
61 97 162
60 95 150
62 98 165
62 98 164
61 96 161
62 97 163
62 97 156
60 94 152
60 94 153
61 95 156
60 94 153
36 51 60
34 44 36
33 44 32
37 48 39
37 49 42
40 52 39
39 51 40
43 56 46
40 53 44
42 56 45
46 60 48
44 58 47
45 60 50
47 60 47
47 61 50
45 59 45
47 62 51
48 63 51
47 62 53
49 65 58
61 74 59
68 78 55
77 84 59
86 92 63
100 102 68
101 105 67
102 106 70
116 117 75
115 116 75
120 120 75
127 126 74
126 124 73
136 133 83
132 131 79
138 136 81
141 138 79
148 144 82
156 150 86
150 145 79
153 148 86
153 148 83
164 157 86
158 153 85
164 157 88
164 157 89
170 162 90
176 167 96
183 173 100
176 167 90
178 169 91
178 169 90
180 171 93
180 170 95
181 172 96
179 170 91
177 168 90
177 169 91
177 169 88
180 171 92
175 167 81
179 171 95
178 169 93
183 173 99
179 170 94
181 171 94
180 171 93
181 172 95
183 173 97
179 170 93
183 173 98
182 172 95
177 169 91
183 173 98
180 170 91
184 173 99
179 170 90
179 170 90
178 169 90
180 171 91
178 169 90
177 169 86
180 171 92
178 169 88
180 170 92
179 170 90
179 169 87
175 167 81
182 172 94
179 170 90
178 169 88
178 169 85
181 171 91
177 169 87
177 169 84
175 166 80
174 166 80
178 169 85
175 167 83
177 168 84
175 166 80
175 166 77
176 168 81
173 165 75
173 165 75
174 165 80
171 163 70
174 166 77
175 166 76
174 166 75
172 164 74
169 162 66
176 167 79
172 164 72
169 161 66
170 162 66
174 165 74
169 161 65
169 161 67
169 162 68
166 160 58
165 158 59
171 163 71
166 159 60
159 153 51
160 153 54
155 149 56
157 150 45
150 144 47
148 142 47
139 134 42
136 132 30
130 126 28
169 189 0
171 193 0
174 195 0
171 194 0
172 195 0
171 194 0
171 194 0
170 192 0
172 194 0
172 195 0
174 197 0
174 197 0
173 196 0
172 195 0
172 195 0
171 194 0
172 195 0
170 193 0
172 195 0
173 197 0
172 195 0
172 196 0
170 194 0
171 194 0
171 195 0
172 195 0
173 197 0
173 196 0
171 195 0
172 195 0
175 198 0
170 193 0
172 195 0
173 196 0
171 194 0
170 194 0
171 195 0
171 194 0
170 194 0
173 196 0
168 192 0
173 197 0
173 197 0
174 197 0
168 191 0
173 195 0
169 193 0
171 195 0
173 196 0
173 197 0
171 195 0
172 195 0
171 194 0
167 190 0
171 194 0
170 193 0
170 193 0
172 195 0
172 194 0
171 194 0
170 194 0
172 195 0
167 192 0
173 196 0
170 193 0
169 193 0
172 196 0
174 196 0
169 192 0
169 192 0
173 196 0
169 193 0
172 195 0
169 193 0
172 194 0
172 195 0
169 192 0
169 193 0
172 196 0
170 194 0
172 194 0
171 194 0
172 195 0
168 192 0
172 195 0
171 194 0
174 198 0
173 196 0
170 193 0
174 197 0
172 195 0
168 192 0
173 195 0
169 192 0
170 192 0
168 192 0
167 190 0
165 188 31
86 117 144
62 98 167
62 99 166
63 99 167
62 98 166
61 97 162
62 99 169
62 98 165
62 98 166
62 99 167
62 98 164
63 99 174
63 99 172
62 99 167
63 99 173
62 99 172
62 99 172
62 98 170
62 99 173
62 99 171
63 99 168
61 98 167
62 99 176
63 99 174
62 98 167
63 100 174
62 98 170
62 99 174
63 99 176
62 99 174
62 99 177
62 99 173
63 99 175
62 99 174
62 99 170
62 99 173
62 98 172
62 98 173
62 99 177
62 99 180
62 99 177
62 99 173
62 99 173
62 99 177
62 99 176
62 99 175
62 99 177
62 99 178
62 99 177
62 99 174
62 99 176
61 98 172
62 99 175
62 99 177
63 99 178
62 99 177
61 98 174
63 100 179
63 99 177
62 99 177
62 98 172
62 99 177
62 99 177
62 98 173
62 99 176
62 99 179
61 98 173
62 99 176
62 99 172
61 98 173
63 99 178
63 99 173
62 99 176
63 99 177
62 99 175
62 99 174
62 99 173
61 98 173
62 99 175
62 99 176
62 99 176
62 99 175
63 100 179
62 99 178
62 99 177
62 99 176
62 99 176
62 99 177
62 99 176
63 99 174
62 99 175
63 99 178
62 99 173
62 99 177
63 99 173
62 99 176
62 99 174
62 99 176
62 99 172
62 99 174
62 99 176
62 99 172
62 99 178
62 99 176
62 99 176
62 99 175
62 99 173
62 99 177
63 100 178
62 99 176
62 99 174
61 98 171
62 99 173
62 99 176
62 99 176
62 99 173
62 98 170
62 99 174
62 99 173
62 99 174
62 99 174
63 99 176
62 99 174
62 99 172
62 99 175
62 98 172
62 99 175
63 99 172
62 99 173
62 99 171
62 99 173
62 99 171
62 99 170
61 98 170
62 98 170
62 98 171
62 99 174
62 99 172
62 98 171
62 98 166
62 98 169
62 99 167
62 98 167
62 98 165
61 97 168
62 99 174
62 99 167
63 99 170
61 97 162
62 98 166
62 98 167
62 98 164
63 99 169
61 98 163
62 97 165
62 98 165
62 99 174
61 97 162
61 97 165
62 98 169
61 97 166
61 95 157
62 98 167
60 95 154
61 95 149
61 96 158
61 96 158
60 93 149
60 93 154
60 95 154
45 69 100
35 45 33
34 43 31
37 47 34
38 50 38
39 51 40
38 50 41
40 53 42
43 55 45
41 54 41
42 53 39
43 55 43
42 55 46
43 56 45
47 62 54
44 59 44
45 59 49
48 63 52
48 64 53
49 66 56
60 72 57
72 81 57
84 90 63
84 90 62
92 97 64
106 108 69
115 115 73
117 118 74
108 110 73
122 121 74
119 119 73
124 123 76
135 133 82
132 130 75
139 136 78
151 146 83
149 145 83
149 144 78
151 146 84
157 151 87
157 151 82
158 152 84
169 161 92
162 156 84
170 162 87
168 161 90
173 165 93
174 166 90
178 169 89
175 167 87
177 169 89
177 169 87
175 167 84
179 170 93
180 171 95
176 167 85
180 171 95
180 171 91
176 167 83
180 171 93
180 171 92
179 170 91
180 171 94
179 170 90
174 166 85
178 169 88
179 170 90
178 169 91
176 168 87
179 170 91
182 172 95
178 169 93
177 169 92
176 168 87
178 169 91
181 171 94
179 170 89
179 169 89
175 167 82
181 171 95
180 170 90
180 171 93
183 173 97
178 169 88
175 166 83
177 168 85
178 169 88
175 167 82
178 169 89
177 169 87
179 170 88
176 167 82
176 167 83
181 171 92
176 168 81
175 167 80
177 168 85
177 168 83
176 167 80
174 165 75
180 170 88
174 166 77
174 165 74
173 164 77
173 165 77
173 164 72
170 163 69
174 165 75
174 165 75
173 165 75
173 165 72
171 164 73
174 165 78
170 163 66
174 165 74
170 163 65
166 159 58
167 161 61
164 158 53
168 162 61
166 159 62
164 158 54
162 156 52
159 152 57
159 153 49
148 142 49
147 142 39
143 137 48
142 137 41
136 131 32
126 122 25
135 137 32
171 192 0
173 194 0
173 194 0
171 192 0
172 194 0
175 196 0
174 196 0
174 194 0
172 193 0
174 197 0
171 195 0
173 197 0
170 193 0
168 191 0
172 196 0
171 194 0
171 195 0
171 194 0
172 197 0
171 195 0
173 196 0
172 196 0
170 193 0
172 196 0
172 196 0
171 195 0
170 194 0
171 194 0
172 195 0
169 192 0
174 196 0
172 195 0
171 194 0
171 195 0
173 195 0
171 194 0
170 193 0
174 197 0
171 195 0
170 193 0
171 195 0
173 196 0
172 195 0
173 196 0
172 196 0
172 195 0
173 196 0
174 197 0
171 195 0
169 193 0
172 195 0
169 193 0
169 193 0
170 194 0
171 194 0
173 197 0
172 195 0
170 194 0
173 196 0
173 196 0
171 195 0
172 195 0
171 194 0
170 194 0
170 194 0
168 192 0
168 192 0
171 194 0
174 198 0
173 196 0
168 191 0
168 192 0
167 190 0
170 193 0
171 194 0
171 194 0
169 192 0
172 195 0
168 192 0
170 194 0
170 194 0
166 190 0
170 193 0
171 195 0
172 195 0
170 194 0
165 188 0
170 194 0
171 195 0
172 196 0
168 192 0
169 192 0
169 193 0
171 194 0
172 195 0
173 196 0
171 194 0
143 168 86
61 96 149
62 99 166
62 99 167
62 98 165
62 98 168
62 98 161
62 99 169
62 99 167
61 97 159
63 99 166
62 98 166
62 99 172
62 99 171
63 100 174
62 98 169
62 99 173
62 99 171
62 99 170
62 98 167
63 99 175
62 98 172
61 98 168
63 99 171
62 99 176
62 99 175
62 98 169
62 99 174
62 98 166
62 98 174
62 99 177
61 98 167
62 99 175
62 99 169
63 99 176
62 99 178
63 99 178
62 98 171
62 99 177
62 99 175
61 98 170
62 99 174
63 100 177
62 99 175
62 99 175
62 99 178
62 99 175
62 98 174
62 99 176
62 99 175
62 99 174
62 99 176
62 99 172
62 98 171
63 99 178
62 99 173
62 98 174
62 99 172
62 99 175
62 99 175
62 99 176
62 99 173
63 100 179
62 99 179
63 100 179
62 99 175
62 99 179
62 99 176
62 99 173
62 99 177
62 99 176
62 99 178
62 98 172
62 99 176
62 99 177
62 99 174
63 99 175
62 99 177
61 98 168
62 99 171
62 99 175
62 99 173
62 99 174
62 99 175
62 99 175
62 99 176
62 99 177
62 99 177
62 98 175
63 100 179
62 99 172
62 99 178
62 99 175
62 99 174
62 98 175
62 99 178
62 99 173
63 100 177
62 99 176
62 99 175
63 99 174
61 98 173
62 99 173
62 99 175
62 99 175
63 100 178
62 99 177
61 98 169
61 98 170
62 99 175
63 99 175
61 98 170
62 98 171
62 98 170
62 99 174
62 99 172
63 100 177
62 99 176
62 98 170
62 99 173
62 99 173
62 99 173
62 98 172
63 99 169
62 99 174
63 99 173
62 99 169
62 99 172
62 99 173
62 99 174
61 98 170
62 99 173
62 99 174
63 99 170
62 98 169
62 98 170
62 98 166
62 98 167
62 98 170
62 98 170
62 99 169
62 99 169
64 100 177
61 98 165
62 98 173
62 98 170
61 97 164
62 99 173
62 99 174
63 99 170
62 98 169
62 99 171
62 98 162
62 98 167
63 99 171
62 98 168
62 97 165
61 97 164
62 98 167
62 97 159
62 98 166
61 97 163
63 98 166
62 98 163
61 95 154
61 97 164
61 96 156
61 96 162
60 95 156
60 94 151
59 92 139
55 85 133
30 39 28
36 46 37
39 50 38
39 51 39
35 46 36
40 52 38
41 54 45
42 55 43
40 52 40
42 55 45
44 57 45
43 55 43
45 58 46
46 60 47
47 62 53
48 63 51
46 61 51
48 64 51
49 66 56
56 70 56
64 74 54
72 80 61
90 95 55
81 88 60
111 112 68
108 110 63
109 110 63
128 125 75
123 123 73
136 133 79
126 125 70
129 127 70
133 130 75
141 138 76
144 140 79
144 141 76
152 147 77
155 149 80
158 153 83
153 148 86
158 152 82
166 159 85
164 157 85
169 162 90
172 163 89
175 166 89
175 167 90
176 168 91
176 168 84
178 169 87
175 167 83
179 170 93
178 169 88
178 169 87
178 169 91
175 167 84
177 169 90
174 166 87
177 169 86
178 169 90
176 167 86
178 169 90
180 171 92
179 170 89
179 170 91
173 165 83
178 169 88
183 173 97
179 170 91
180 170 92
178 169 87
177 169 90
178 169 89
177 168 87
176 168 87
179 170 88
180 171 92
178 170 90
178 170 90
176 168 84
174 166 79
175 166 80
177 168 86
178 169 87
177 168 84
176 168 84
177 168 83
172 164 81
172 164 75
179 169 89
178 169 86
174 166 79
178 168 87
176 168 83
176 167 81
172 164 75
175 167 79
176 167 80
176 167 81
174 166 77
174 166 77
170 163 67
174 166 76
171 163 68
167 161 61
170 162 68
174 166 77
170 162 68
172 164 68
173 165 75
171 162 71
170 163 68
168 161 59
168 161 61
168 161 64
166 160 57
167 160 60
171 163 65
166 159 57
166 159 56
163 157 53
159 152 51
159 152 51
152 145 47
153 147 45
145 138 41
143 137 42
142 138 37
132 127 30
142 136 39
150 163 19
172 194 0
172 194 0
170 189 0
172 193 0
169 191 0
170 192 0
171 194 0
173 194 0
171 193 0
171 195 0
172 195 0
172 196 0
173 197 0
173 195 0
173 196 0
174 198 0
171 195 0
171 195 0
170 193 0
172 196 0
175 198 0
174 197 0
171 194 0
172 194 0
171 195 0
172 195 0
173 196 0
170 194 0
171 195 0
170 193 0
173 196 0
172 194 0
173 197 0
171 195 0
173 196 0
171 195 0
171 194 0
171 194 0
171 195 0
170 194 0
169 193 0
170 193 0
171 194 0
172 196 0
170 194 0
171 195 0
170 194 0
170 194 0
169 193 0
174 197 0
173 196 0
174 197 0
169 193 0
170 193 0
170 193 0
168 192 0
172 195 0
169 192 0
170 193 0
172 194 0
170 193 0
173 196 0
173 196 0
173 196 0
173 195 0
171 194 0
173 196 0
168 193 0
171 195 0
173 197 0
167 191 0
170 193 0
170 192 0
170 193 0
170 193 0
167 189 0
174 197 0
170 194 0
170 193 0
168 191 0
169 193 0
170 193 0
168 191 0
168 191 0
173 196 0
172 195 0
170 194 0
170 193 0
168 192 0
170 193 0
167 190 0
172 195 0
169 192 0
169 192 0
171 194 0
168 191 0
170 193 0
114 141 126
62 98 163
63 99 165
62 98 162
62 98 166
62 98 163
62 98 165
61 97 162
62 99 166
62 98 166
62 99 170
62 98 166
62 99 171
62 98 164
61 98 170
62 98 162
62 98 161
62 98 165
62 98 168
61 98 171
62 98 169
62 99 174
62 99 174
62 99 174
63 100 176
62 99 169
62 99 172
62 99 171
62 98 168
63 100 179
62 98 170
62 99 174
61 98 173
62 98 175
62 99 177
63 99 175
62 99 173
62 99 170
62 99 173
62 99 176
62 99 173
63 100 178
63 100 178
62 99 177
63 99 175
63 100 178
62 99 180
62 99 173
62 98 173
62 99 176
62 99 179
62 98 170
62 99 176
62 99 174
63 100 179
62 99 178
63 99 178
62 99 175
62 99 177
62 99 178
61 98 174
62 99 176
62 99 176
62 99 176
62 99 175
62 99 174
62 99 177
62 99 172
63 99 177
62 99 176
62 99 175
62 99 178
62 99 177
63 99 175
62 99 178
63 100 177
61 98 172
62 98 170
62 99 178
62 99 178
62 99 178
62 99 173
63 100 174
62 99 178
61 98 174
62 99 173
63 99 174
62 98 172
62 99 174
63 99 177
62 99 175
62 99 172
62 99 172
62 99 173
61 98 175
63 100 178
62 99 178
62 99 173
61 98 169
61 98 170
62 99 177
62 99 176
62 99 173
63 99 174
63 100 176
62 98 171
63 99 176
63 99 175
62 99 176
63 99 176
62 99 174
62 99 172
62 98 170
62 99 174
63 100 175
62 99 176
62 99 174
62 98 172
62 99 174
62 99 172
62 99 172
62 99 170
62 99 171
62 99 172
63 99 174
62 98 172
62 99 175
62 99 172
63 99 174
61 98 169
62 99 170
62 98 166
62 99 170
62 98 170
62 99 173
62 98 169
62 98 171
62 98 170
61 98 168
62 98 168
62 99 169
62 99 173
62 99 170
62 98 165
63 99 172
62 99 171
62 98 161
62 99 169
62 98 165
61 97 159
62 98 170
62 98 166
62 99 172
62 98 168
63 99 169
61 97 161
61 97 163
61 96 161
62 97 162
62 98 167
61 97 167
62 98 163
61 97 155
61 96 159
61 96 156
60 96 156
62 97 158
61 96 160
61 95 156
61 96 155
61 96 159
58 90 141
41 56 61
36 46 37
36 47 37
36 47 38
38 49 38
40 52 39
40 52 37
42 54 43
43 56 44
40 52 42
42 55 44
44 58 45
45 60 50
45 59 47
46 61 49
45 60 46
48 64 54
49 64 52
51 67 53
63 76 55
66 77 55
79 86 57
75 84 60
80 88 58
96 100 66
111 112 60
107 109 65
115 116 67
114 115 71
126 125 72
133 131 72
126 126 70
130 129 72
137 133 76
138 136 72
145 141 70
146 142 79
153 148 81
153 147 84
159 153 86
160 154 80
168 160 88
164 157 82
164 157 81
167 160 84
175 167 88
173 164 84
173 164 83
172 165 78
179 169 89
177 169 90
178 169 87
179 170 90
174 166 81
178 169 84
176 168 87
179 170 87
175 167 84
178 169 90
179 169 89
179 169 90
177 168 86
176 168 87
177 168 86
178 169 87
178 169 89
174 166 83
178 169 88
178 169 89
179 169 87
179 170 88
180 170 91
178 169 88
178 169 90
179 170 91
176 167 82
179 170 88
179 169 90
179 169 88
173 165 79
177 169 86
175 167 82
178 169 88
178 169 86
177 168 85
174 166 81
169 162 72
177 168 84
176 167 84
175 166 80
177 168 84
177 168 87
177 168 86
176 168 84
174 166 77
175 167 79
172 164 71
175 166 80
174 166 77
173 165 74
172 163 73
171 163 71
172 164 72
173 165 75
164 158 61
175 166 75
172 164 70
171 163 66
172 163 71
168 161 61
172 163 74
168 161 62
166 160 59
171 163 67
167 160 58
169 161 61
167 160 59
165 160 54
169 162 60
164 157 58
158 153 47
157 150 52
156 152 37
154 149 39
146 140 51
151 145 36
145 140 39
142 136 39
124 119 19
126 121 28
163 181 0
173 194 0
172 193 0
172 194 0
171 194 0
170 192 0
172 193 0
173 194 0
171 193 0
173 195 0
174 197 0
173 196 0
171 195 0
174 198 0
172 195 0
172 195 0
171 194 0
173 195 0
173 196 0
169 192 0
172 196 0
171 194 0
172 196 0
172 195 0
172 196 0
172 195 0
168 191 0
171 195 0
173 197 0
172 195 0
174 197 0
172 195 0
169 192 0
174 198 0
171 195 0
171 194 0
172 195 0
170 193 0
172 196 0
173 196 0
174 197 0
171 194 0
171 195 0
170 194 0
170 194 0
170 194 0
173 196 0
170 194 0
171 195 0
173 196 0
173 196 0
172 195 0
169 192 0
173 196 0
170 193 0
172 196 0
170 193 0
173 196 0
169 192 0
172 195 0
172 194 0
170 194 0
171 194 0
170 193 0
172 195 0
170 194 0
171 194 0
171 194 0
169 193 0
167 190 0
171 194 0
170 193 0
166 189 0
170 193 0
166 190 0
170 194 0
171 194 0
170 191 0
170 193 0
167 190 0
169 192 0
169 192 0
169 192 0
170 193 0
169 193 0
171 194 0
169 192 0
167 190 0
171 194 0
167 190 0
172 196 0
171 195 0
170 194 0
171 195 0
170 193 0
169 193 0
167 190 0
173 196 0
80 112 151
62 98 161
61 97 154
62 98 157
63 99 164
62 98 164
62 98 165
62 98 166
61 98 163
62 98 166
61 97 163
62 98 162
61 98 169
61 97 162
62 99 173
62 99 171
61 97 160
62 98 168
62 98 169
62 99 170
61 98 163
62 99 172
62 98 164
62 98 170
62 99 173
61 98 170
62 99 169
61 98 168
62 99 171
62 99 171
62 98 173
62 99 171
62 99 172
63 99 177
62 99 173
62 98 170
62 99 174
62 99 177
62 99 179
62 98 169
62 99 172
63 99 176
62 98 174
62 99 178
62 99 178
62 99 176
62 99 175
62 98 172
62 99 177
62 99 174
62 98 174
63 100 175
63 99 176
62 98 171
63 100 177
61 98 171
63 99 173
63 99 175
62 98 172
62 99 177
62 98 172
62 98 172
61 98 172
63 99 174
62 99 173
62 99 174
62 99 177
62 99 173
62 99 174
62 99 174
62 99 175
62 99 179
62 98 173
62 98 172
62 99 174
63 99 175
62 99 173
62 99 173
62 99 171
62 99 179
62 99 175
62 99 175
62 99 175
61 98 172
62 99 177
63 99 175
62 99 176
62 99 176
62 99 173
62 99 174
62 99 173
62 99 172
62 99 173
63 100 177
62 99 179
62 99 172
62 98 170
62 99 172
62 99 173
62 99 174
61 98 175
63 100 176
62 98 175
62 99 174
62 99 175
61 98 173
62 99 177
61 98 173
62 98 172
62 99 174
62 99 171
61 98 175
62 99 173
62 98 170
63 99 174
62 99 174
62 99 171
63 99 169
61 98 166
62 98 169
62 98 170
63 99 174
62 99 170
62 98 171
62 98 173
62 98 164
61 98 170
62 99 172
62 98 166
62 99 175
62 99 167
61 98 172
62 99 170
62 99 169
62 99 170
63 99 175
61 97 164
62 98 169
62 98 166
62 99 170
63 99 172
63 99 172
62 98 166
62 99 170
62 99 168
61 98 169
62 98 167
62 99 166
61 97 162
62 98 172
63 99 174
62 98 163
62 98 165
62 97 161
62 98 162
62 98 170
61 98 167
62 98 163
61 97 163
62 97 162
62 98 165
62 98 163
62 98 165
63 99 172
61 96 158
61 97 157
61 95 155
61 97 156
60 94 145
60 94 144
59 93 148
60 94 152
46 68 96
36 47 35
39 52 41
39 51 38
38 49 38
37 48 39
40 53 39
40 51 37
42 55 43
43 56 45
43 56 43
42 55 42
45 59 50
48 63 51
47 62 51
46 60 45
46 60 48
46 60 48
48 63 51
69 79 57
69 78 50
79 86 53
84 91 58
96 100 60
98 102 59
112 113 65
96 100 56
113 115 65
122 122 69
135 132 70
124 123 70
137 134 67
138 135 74
135 132 75
143 138 80
153 148 81
144 141 77
153 148 82
154 148 75
157 152 76
160 153 84
154 149 76
167 159 84
161 155 79
170 162 85
168 161 82
177 168 90
174 166 84
178 169 87
170 162 77
177 168 85
178 169 87
177 168 86
177 169 87
175 167 84
178 169 90
175 166 80
176 167 85
177 169 87
177 168 84
179 170 90
178 169 87
175 167 87
178 169 86
177 169 87
171 164 74
177 168 84
178 169 87
177 168 84
176 167 82
177 168 82
179 170 88
178 169 87
176 167 84
179 170 90
176 167 83
172 164 73
176 167 83
175 167 83
175 167 84
180 170 87
177 168 85
175 166 84
175 167 81
177 168 85
174 166 78
175 166 79
171 163 71
174 166 79
178 169 84
178 169 86
178 169 85
177 168 84
170 163 74
172 164 72
173 165 75
173 166 77
173 165 75
170 163 67
175 167 79
174 166 78
173 164 72
174 166 76
172 164 71
170 162 69
170 163 67
172 164 70
169 162 63
169 162 63
170 162 68
166 158 57
169 162 67
168 161 62
165 158 51
168 161 61
163 158 51
169 161 63
167 161 57
167 160 58
159 154 47
162 156 51
160 153 56
158 152 49
151 146 41
144 139 36
147 142 37
138 134 30
136 132 36
131 126 36
129 132 16
170 191 0
172 193 0
171 191 0
172 193 0
171 191 0
171 192 0
171 194 0
172 192 0
172 193 0
168 189 0
171 195 0
172 196 0
173 196 0
173 197 0
173 196 0
173 196 0
170 193 0
172 196 0
172 196 0
172 195 0
174 197 0
170 193 0
169 192 0
170 194 0
175 198 0
173 196 0
174 197 0
171 195 0
172 196 0
170 193 0
173 197 0
171 194 0
171 194 0
171 194 0
171 194 0
172 196 0
169 193 0
174 197 0
169 192 0
174 197 0
173 196 0
172 195 0
171 193 0
174 196 0
170 194 0
172 196 0
172 195 0
170 194 0
171 195 0
170 193 0
169 193 0
171 194 0
170 194 0
170 194 0
171 195 0
174 196 0
170 193 0
175 198 0
174 197 0
169 193 0
169 193 0
173 196 0
174 197 0
172 196 0
167 190 0
173 196 0
172 195 0
172 195 0
170 193 0
170 192 0
169 192 0
169 193 0
168 191 0
169 191 0
170 193 0
170 193 0
167 190 0
171 195 0
167 189 0
172 195 0
171 195 0
172 196 0
169 193 0
169 193 0
169 192 0
171 194 0
170 193 0
169 192 0
166 190 0
170 193 0
169 192 0
173 195 0
173 196 0
168 191 0
168 191 0
166 190 0
169 191 0
153 177 60
61 96 154
63 99 163
62 98 160
62 98 166
61 97 157
62 98 159
61 97 151
62 98 165
62 98 163
62 98 163
62 98 159
62 99 169
62 98 166
61 97 164
62 98 170
62 98 170
62 99 169
62 99 172
62 98 165
62 98 163
62 99 171
62 99 171
62 99 169
62 99 172
62 99 177
62 99 175
62 99 174
62 99 172
62 99 174
62 99 175
62 99 171
62 99 175
62 99 173
61 98 170
62 99 175
62 99 169
63 99 178
61 98 172
62 99 175
62 98 172
62 99 175
62 99 177
62 98 173
62 99 175
62 99 174
62 99 170
63 100 177
62 99 172
62 99 175
62 99 168
63 99 172
62 99 175
62 99 174
61 98 167
62 98 168
62 99 176
61 98 171
63 100 175
62 99 175
62 99 174
62 99 175
62 98 168
62 99 177
63 99 178
62 99 174
61 98 170
62 99 175
62 99 176
62 99 174
62 99 176
63 99 175
62 99 176
63 99 176
62 99 174
62 99 177
62 99 177
62 99 177
62 99 176
62 99 175
62 99 170
62 99 179
62 99 175
63 99 176
62 99 177
62 99 176
62 99 176
62 99 176
62 98 171
62 99 178
62 99 174
62 99 172
62 99 177
61 98 171
62 99 174
62 98 175
63 99 175
62 99 173
62 99 170
62 99 173
62 99 175
62 99 178
62 99 173
62 99 174
62 99 173
62 99 175
63 99 171
62 99 175
62 99 171
63 99 173
62 99 177
61 98 174
62 98 173
62 99 170
62 99 175
63 100 176
62 99 172
62 99 171
62 98 170
62 99 174
62 99 174
61 98 167
62 98 167
62 99 171
62 98 172
62 99 172
62 99 174
62 99 176
61 98 168
63 99 170
61 98 169
61 98 167
63 99 175
62 98 166
62 98 167
62 99 173
61 97 164
62 99 167
62 99 173
61 98 169
62 99 172
62 99 169
62 99 169
62 98 166
63 99 165
62 98 163
62 98 166
62 99 170
62 99 170
62 98 168
62 98 163
63 99 174
61 98 165
62 98 170
62 98 171
61 97 164
62 98 166
61 97 162
63 99 170
62 98 164
62 98 166
61 97 162
62 97 160
62 97 162
60 95 153
62 98 162
62 97 158
61 95 152
60 94 146
61 96 157
60 93 149
61 95 154
61 96 158
50 77 120
33 43 31
36 46 34
38 49 36
38 49 37
38 49 35
41 53 42
39 50 37
39 49 32
41 54 42
40 52 39
43 57 44
46 60 49
46 61 52
46 60 46
47 62 49
47 62 51
49 65 55
47 62 48
61 73 50
67 78 51
73 82 58
79 86 54
82 88 57
97 102 58
95 100 62
110 112 59
101 104 63
114 116 67
115 116 64
117 118 61
131 129 65
134 131 75
142 139 81
141 138 74
146 142 73
144 140 71
147 142 75
152 146 75
152 148 71
156 151 74
169 162 82
164 157 77
163 157 81
171 164 82
168 161 77
174 165 87
172 164 80
176 167 87
176 167 84
174 166 81
176 168 84
177 168 85
175 166 84
180 170 90
174 166 80
178 169 87
177 168 86
172 165 75
174 166 82
177 168 85
175 166 82
177 168 87
175 167 83
177 167 87
175 166 82
173 165 79
175 167 83
170 163 73
178 169 86
175 167 82
176 167 84
178 168 86
177 169 85
178 169 88
178 169 87
176 167 80
178 169 87
176 167 84
179 169 86
177 168 84
171 163 70
174 166 82
174 165 80
172 165 75
176 167 80
177 168 87
176 167 81
173 165 74
175 167 79
173 164 75
173 165 75
172 164 73
173 165 77
169 162 66
171 163 69
171 164 70
171 163 71
171 163 69
169 162 68
171 163 68
172 164 72
166 160 61
171 163 72
172 163 71
167 160 62
170 162 68
170 163 69
172 163 70
169 162 64
169 161 63
166 159 57
169 162 62
161 156 47
169 161 65
166 158 57
162 156 49
165 159 53
164 157 51
158 151 52
158 151 47
160 152 58
156 150 44
151 145 41
147 143 36
151 146 42
142 137 32
130 126 19
119 115 22
150 162 0
171 191 0
171 191 0
171 192 0
171 191 0
170 190 0
173 194 0
169 189 0
173 194 0
171 192 0
170 192 0
171 195 0
172 195 0
174 197 0
171 196 0
171 195 0
173 197 0
174 197 0
172 196 0
171 193 0
173 196 0
172 196 0
172 196 0
172 195 0
172 196 0
173 196 0
170 193 0
174 196 0
172 196 0
172 195 0
171 195 0
172 195 0
170 195 0
172 195 0
175 197 0
172 195 0
174 198 0
172 194 0
173 197 0
170 194 0
170 195 0
173 197 0
170 194 0
173 196 0
172 195 0
172 195 0
171 195 0
168 192 0
172 195 0
171 194 0
171 195 0
173 196 0
171 194 0
172 195 0
173 196 0
169 192 0
172 195 0
172 196 0
169 192 0
169 192 0
169 193 0
172 195 0
167 190 0
170 194 0
171 194 0
169 191 0
173 196 0
173 196 0
170 193 0
173 195 0
169 191 0
170 193 0
173 196 0
167 190 0
168 191 0
170 193 0
167 191 0
168 191 0
170 194 0
172 195 0
170 193 0
169 193 0
168 192 0
170 194 0
167 191 0
171 194 0
170 194 0
172 196 0
171 195 0
172 194 0
170 193 0
168 192 0
170 193 0
171 194 0
169 193 0
173 196 0
169 190 0
168 192 0
128 152 110
62 99 168
61 97 157
63 99 167
62 98 161
61 98 159
62 98 162
63 99 164
62 98 163
62 99 166
61 97 161
62 98 164
62 98 168
62 99 168
62 98 165
63 99 164
62 98 169
62 98 167
63 99 173
62 98 164
61 98 169
62 98 167
62 98 168
62 98 166
62 99 174
62 98 168
62 99 173
62 98 171
62 99 171
62 98 166
63 99 173
62 99 171
61 98 169
62 99 175
62 99 177
62 98 172
62 99 173
62 99 174
62 99 173
62 98 173
63 100 174
61 98 174
63 99 174
62 99 177
62 99 172
62 99 176
62 98 173
62 99 176
62 99 174
63 100 179
62 99 176
62 99 174
62 99 172
62 99 175
62 99 179
62 99 177
63 99 175
62 99 177
62 99 175
62 99 175
62 99 175
62 99 173
62 99 176
62 99 177
62 99 175
61 98 174
63 99 176
63 99 175
63 99 175
62 99 177
63 99 175
62 99 175
62 99 178
62 98 174
62 99 174
62 98 169
62 99 173
62 99 178
62 99 177
62 99 173
62 99 169
62 99 172
62 99 174
62 99 175
62 99 176
62 98 170
63 99 176
62 99 176
61 98 174
62 99 174
63 99 174
63 100 177
63 99 175
61 98 169
62 99 173
62 98 167
62 98 173
63 99 177
63 99 175
62 99 173
62 99 173
62 99 173
62 99 175
62 99 177
63 99 177
63 99 175
62 98 168
62 98 171
62 99 174
62 98 172
62 99 172
61 98 171
62 98 172
62 99 172
61 97 163
62 98 167
63 99 172
62 99 174
62 99 174
62 99 172
62 99 173
63 99 174
62 99 173
61 98 172
62 99 172
62 99 172
62 98 169
62 98 170
62 98 169
62 99 171
62 98 166
62 99 173
61 98 172
62 99 171
62 99 176
62 98 167
62 99 169
61 97 163
62 99 170
61 98 166
63 99 171
61 98 164
62 99 169
62 99 166
62 99 167
62 99 167
62 99 168
62 98 165
62 98 171
62 98 167
62 98 169
62 98 158
62 98 170
62 99 172
61 97 163
62 98 162
63 99 168
61 97 166
61 97 162
62 98 160
63 99 170
61 97 167
61 97 163
62 98 169
63 98 166
62 97 163
61 96 157
61 96 159
61 96 159
61 97 163
61 95 155
60 93 143
58 91 140
60 92 150
39 53 57
32 41 29
37 47 36
38 49 35
36 47 35
40 52 38
40 51 40
42 54 42
36 47 30
42 54 40
44 57 44
45 58 45
43 55 38
46 61 50
47 61 46
46 61 49
46 60 45
53 66 51
63 75 51
69 79 54
81 88 56
84 91 53
88 95 52
91 96 56
106 109 58
113 113 65
100 103 63
123 122 59
120 121 65
124 123 67
131 128 72
129 128 74
140 137 74
134 132 68
138 135 70
142 139 73
151 146 76
154 149 71
152 147 75
160 153 76
160 155 75
165 158 80
170 162 86
167 160 81
168 161 78
173 164 83
168 161 75
176 167 82
173 164 81
170 163 75
171 164 72
175 167 79
172 163 75
175 166 82
176 167 80
175 167 80
177 168 84
176 167 87
175 167 82
176 168 85
175 166 80
174 166 81
178 168 88
178 169 84
172 164 78
178 168 88
174 165 82
174 166 82
176 167 82
179 169 86
174 165 80
175 166 80
174 166 78
179 169 86
173 165 80
177 168 85
178 169 84
170 163 74
178 168 84
178 169 87
176 168 80
178 169 85
171 164 71
175 167 79
177 168 83
174 166 76
176 167 82
175 166 79
174 165 75
175 166 79
174 166 75
172 164 70
171 163 67
170 163 71
169 162 69
166 160 58
169 162 64
171 163 68
173 165 73
171 162 72
170 163 68
167 160 58
169 162 63
168 161 65
172 164 71
170 162 68
169 161 62
169 162 66
164 158 54
166 158 54
162 157 49
168 161 60
166 160 59
165 158 59
165 158 53
166 159 57
160 155 48
161 154 51
155 149 45
153 149 28
160 154 45
144 141 22
148 143 39
141 137 30
146 140 45
144 140 32
125 122 25
119 115 11
170 191 0
172 194 0
172 193 0
172 193 0
169 190 0
171 191 0
172 193 0
171 193 0
172 193 0
171 192 0
172 194 0
172 195 0
173 196 0
173 197 0
172 195 0
173 196 0
171 195 0
174 198 0
172 195 0
172 195 0
172 195 0
172 196 0
170 193 0
171 195 0
171 194 0
173 197 0
173 197 0
172 196 0
173 197 0
174 197 0
173 196 0
171 194 0
170 194 0
171 194 0
166 190 0
172 196 0
170 194 0
170 194 0
171 194 0
173 196 0
173 196 0
171 195 0
170 194 0
174 197 0
173 196 0
173 196 0
171 194 0
173 196 0
171 195 0
170 193 0
170 194 0
175 198 0
169 191 0
173 196 0
170 194 0
170 195 0
170 193 0
174 196 0
172 195 0
167 190 0
171 195 0
167 191 0
171 194 0
171 193 0
170 193 0
169 192 0
170 194 0
170 194 0
169 193 0
172 196 0
170 193 0
173 197 0
171 194 0
169 193 0
170 193 0
171 193 0
171 195 0
172 196 0
168 191 0
172 195 0
170 194 0
169 193 0
170 194 0
170 193 0
164 187 0
168 192 0
167 190 0
166 189 0
170 193 0
166 190 0
173 196 0
174 197 0
168 191 0
169 192 0
168 192 0
172 196 0
168 192 0
169 192 0
103 130 131
62 98 161
62 97 156
61 97 160
63 99 159
62 99 170
61 97 157
62 98 162
62 98 170
62 98 166
63 99 166
62 99 170
63 99 172
62 98 162
62 98 167
62 98 162
63 99 167
63 100 175
62 98 167
62 98 169
62 99 170
62 98 165
62 99 174
62 99 174
61 98 166
61 98 170
62 98 169
62 98 170
62 99 177
61 98 167
62 99 173
62 98 169
61 98 170
62 99 176
62 99 174
62 98 174
62 99 171
63 99 175
62 99 173
63 99 174
63 99 177
62 99 175
62 99 171
62 99 175
62 99 176
62 99 176
62 99 176
62 99 176
62 99 177
62 99 176
61 98 173
63 99 173
62 99 170
62 99 177
62 98 170
62 99 176
63 99 178
62 99 175
62 99 176
62 99 173
62 99 177
63 99 174
62 99 174
62 99 171
62 99 177
63 99 176
62 98 170
62 98 172
62 99 175
63 100 176
63 99 176
62 99 174
62 99 176
62 98 171
63 99 175
62 99 170
62 99 175
62 99 178
62 99 173
62 99 172
62 99 176
62 99 178
61 98 174
62 98 170
62 99 171
62 98 170
62 99 174
62 99 176
62 99 179
63 99 176
63 100 177
62 99 172
62 99 174
62 99 173
62 99 173
63 99 176
63 99 175
61 98 174
63 99 175
63 99 175
62 98 167
62 99 170
63 99 176
62 99 174
62 99 177
62 99 171
61 98 169
62 99 175
62 99 174
62 99 173
62 99 172
62 99 174
61 98 167
62 99 173
62 99 175
63 99 174
62 99 173
62 99 174
62 99 170
63 99 172
61 98 165
62 99 170
62 98 169
62 99 170
61 98 166
61 98 170
62 99 171
63 100 173
62 99 169
62 99 176
62 99 173
62 98 169
62 99 170
62 98 167
62 99 172
61 98 169
62 98 165
63 99 170
62 99 169
62 98 171
63 99 173
62 98 165
63 99 171
62 98 162
62 98 166
63 99 168
63 99 169
63 99 169
62 98 164
62 98 169
61 97 164
62 99 167
63 99 172
62 98 162
61 97 166
62 97 164
62 98 168
62 98 171
62 97 164
62 98 167
60 95 153
61 97 158
61 96 157
63 98 162
60 96 159
61 97 160
62 97 166
62 97 162
61 96 154
61 96 157
61 97 158
61 95 155
59 92 141
61 94 149
43 61 67
35 44 31
33 44 31
38 49 36
38 50 37
36 46 29
37 48 34
39 51 35
40 51 37
41 54 43
43 56 40
43 56 43
45 58 43
42 55 41
45 59 45
45 59 45
49 63 47
48 62 48
66 76 46
70 80 48
83 90 48
81 87 46
89 95 48
96 101 53
97 101 63
104 106 60
98 101 59
112 113 57
123 123 63
124 122 67
132 130 66
126 124 55
132 131 69
139 136 72
143 139 65
142 138 65
150 146 67
149 145 69
146 142 63
159 153 74
162 155 80
157 151 72
164 157 76
162 156 75
164 157 75
169 162 74
173 165 79
172 164 75
168 161 72
172 164 74
175 166 83
174 165 80
172 164 79
174 166 78
170 163 71
174 166 79
177 167 85
169 162 67
173 165 75
172 164 76
171 164 74
175 167 83
172 164 77
175 166 82
179 169 87
174 166 77
172 164 74
176 167 81
177 167 85
180 170 87
177 168 81
172 164 75
171 164 71
174 166 78
171 163 75
175 167 82
173 165 80
174 165 81
174 166 77
172 164 73
175 166 81
171 163 76
175 166 80
171 164 71
175 166 80
171 163 74
177 168 83
169 162 65
169 162 66
172 164 71
173 165 74
173 165 72
171 163 69
171 164 67
175 166 77
171 163 68
170 162 66
177 167 80
172 164 70
170 163 64
171 164 70
167 160 60
172 164 69
166 159 58
168 161 62
169 162 66
168 161 57
167 160 57
169 161 65
166 160 56
163 157 52
163 157 54
167 160 61
165 158 53
158 154 37
164 158 53
161 155 52
157 151 41
157 152 39
152 148 41
150 145 39
150 143 37
143 138 32
147 143 36
139 133 37
139 134 37
124 120 25
137 141 22
168 188 0
171 191 0
172 192 0
171 193 0
173 194 0
171 193 0
170 192 0
172 194 0
173 192 0
173 193 0
173 194 0
172 195 0
173 196 0
171 195 0
172 195 0
172 196 0
171 194 0
170 193 0
172 196 0
172 195 0
172 196 0
172 195 0
173 197 0
168 192 0
172 195 0
172 195 0
170 193 0
173 196 0
173 197 0
171 194 0
171 194 0
170 194 0
172 195 0
172 195 0
172 196 0
173 196 0
168 192 0
170 193 0
171 193 0
171 194 0
173 196 0
169 192 0
172 195 0
173 197 0
171 194 0
172 195 0
171 194 0
169 194 0
170 194 0
172 195 0
171 194 0
170 194 0
171 195 0
168 191 0
170 194 0
169 192 0
171 193 0
171 194 0
171 195 0
173 194 0
169 192 0
171 195 0
172 195 0
168 191 0
170 193 0
166 189 0
169 192 0
168 192 0
169 192 0
172 195 0
171 195 0
170 194 0
167 191 0
171 194 0
169 192 0
172 195 0
169 192 0
168 192 0
170 194 0
170 193 0
168 190 0
173 196 0
164 188 0
170 194 0
171 195 0
166 188 0
171 195 0
168 191 0
168 192 0
170 194 0
165 188 0
169 193 0
167 190 0
172 195 0
169 192 0
168 192 0
167 190 0
166 190 36
61 97 158
63 98 159
60 96 158
61 97 155
62 98 156
62 98 159
62 98 165
62 98 163
63 99 168
63 99 164
61 98 162
62 98 166
62 98 170
63 100 175
62 98 167
62 99 173
61 98 167
62 98 171
63 99 175
63 99 177
62 99 172
62 98 165
63 99 172
62 98 170
61 97 168
62 98 169
62 98 170
61 98 175
63 99 173
62 98 171
62 99 175
63 99 173
63 99 172
62 98 173
61 98 168
61 97 163
61 98 169
62 98 173
62 99 173
63 99 167
62 99 173
62 99 174
62 98 166
62 99 171
62 99 175
62 99 174
61 98 172
63 99 175
62 98 167
62 99 174
62 99 171
63 99 173
62 98 174
62 99 175
62 99 178
62 99 172
61 98 173
62 99 175
62 99 174
62 99 169
63 100 178
62 98 174
61 98 175
62 98 173
62 99 175
63 100 177
62 99 174
62 99 174
64 100 175
61 98 174
63 99 176
62 99 173
62 99 174
62 99 175
61 98 175
62 99 174
62 99 172
62 99 172
62 99 175
62 98 173
61 98 169
63 100 177
62 98 175
63 100 177
62 98 170
62 99 173
62 99 176
61 98 173
62 99 171
62 99 174
62 99 175
61 98 174
62 99 174
62 99 177
62 99 177
62 99 175
61 98 168
62 99 179
63 100 174
62 99 173
63 99 174
62 99 174
62 98 168
63 99 175
62 99 174
62 99 172
63 100 176
62 99 173
62 99 174
61 98 168
62 98 170
63 99 171
62 99 172
62 99 173
62 99 175
61 98 169
62 99 171
62 99 174
62 98 170
61 98 165
61 98 171
61 98 170
62 98 171
62 99 173
63 99 169
62 99 170
62 98 171
62 99 172
61 97 165
62 99 177
62 99 170
63 99 171
62 98 167
62 99 170
62 98 167
62 98 168
63 99 173
62 99 169
62 98 168
62 99 170
62 98 170
62 98 167
63 99 172
62 98 169
62 99 169
62 98 169
62 98 162
62 98 161
63 99 170
62 99 173
61 98 164
62 98 171
62 98 164
62 98 164
62 98 168
62 97 159
61 97 161
62 98 169
62 97 160
62 98 165
62 98 164
62 98 159
62 98 161
61 97 159
62 98 168
61 97 159
61 96 154
60 95 157
61 95 156
61 95 155
60 95 155
61 95 152
59 94 150
60 94 149
47 70 90
32 41 27
37 48 36
34 44 30
37 48 35
39 51 37
40 51 35
39 50 33
42 54 42
40 51 34
42 56 47
42 54 35
44 57 42
47 61 47
46 60 50
45 58 41
50 63 44
51 64 46
58 69 44
70 78 42
78 85 46
73 82 51
97 101 50
101 103 52
103 106 57
106 109 60
114 114 61
101 104 56
115 116 61
125 124 60
118 119 61
135 132 66
147 142 69
135 133 59
141 137 73
150 145 69
148 143 74
151 147 70
148 144 69
157 151 73
158 152 73
161 155 71
158 153 71
169 161 80
162 156 69
173 164 80
174 166 80
172 164 73
176 167 82
172 165 74
171 164 74
175 166 81
168 161 71
169 162 74
174 166 79
177 168 80
175 167 80
174 165 80
176 167 80
173 165 76
172 165 75
175 167 80
171 163 75
174 166 81
174 165 82
175 166 82
179 170 89
174 165 76
170 163 70
172 164 79
173 165 75
172 164 74
172 163 75
172 164 73
171 163 72
176 167 79
173 165 75
173 165 76
172 164 74
174 166 79
175 166 76
172 164 73
166 160 62
170 163 69
175 166 79
169 162 67
173 165 75
170 163 69
174 165 74
169 162 67
175 166 76
170 163 73
172 163 72
171 163 67
172 165 72
173 165 72
169 162 65
171 163 70
167 161 63
167 160 62
169 162 65
170 162 67
168 161 61
169 162 60
167 160 63
167 160 54
166 159 56
163 157 51
168 160 63
164 158 51
161 156 47
164 158 48
163 158 49
164 158 49
161 155 44
164 157 53
163 156 51
157 151 36
159 153 47
153 148 28
155 149 48
151 145 39
140 135 36
138 134 22
133 127 28
135 131 34
130 126 25
146 160 11
171 192 0
172 191 0
171 191 0
173 194 0
171 191 0
172 194 0
171 193 0
170 192 0
172 193 0
171 194 0
173 195 0
174 197 0
172 195 0
170 193 0
172 195 0
174 197 0
173 196 0
172 196 0
171 194 0
173 196 0
173 197 0
170 193 0
171 193 0
172 196 0
169 193 0
170 194 0
170 194 0
171 194 0
172 196 0
171 195 0
171 195 0
172 196 0
171 195 0
172 196 0
172 195 0
172 196 0
172 195 0
165 189 0
171 194 0
172 195 0
170 194 0
172 195 0
173 196 0
171 194 0
168 191 0
171 195 0
168 191 0
170 192 0
169 192 0
172 195 0
171 194 0
169 193 0
171 195 0
170 194 0
167 191 0
168 193 0
169 194 0
174 197 0
170 192 0
168 191 0
171 194 0
168 192 0
173 197 0
171 195 0
171 194 0
170 193 0
171 195 0
171 194 0
173 196 0
168 191 0
167 190 0
171 194 0
171 195 0
172 195 0
168 193 0
171 194 0
168 192 0
170 193 0
166 190 0
172 196 0
168 191 0
168 192 0
171 194 0
166 189 0
170 193 0
173 196 0
170 193 0
166 189 0
167 191 0
169 192 0
167 191 0
172 195 0
171 195 0
169 192 0
169 192 0
166 190 0
171 194 0
145 170 94
60 95 145
61 97 152
62 98 161
63 99 163
62 98 156
61 98 159
63 99 168
62 98 164
61 97 164
63 99 170
62 98 165
61 98 164
62 98 168
62 99 171
62 98 164
62 99 168
62 98 167
62 98 168
61 97 168
61 98 162
62 99 170
61 98 162
62 99 178
62 99 171
63 99 168
62 99 170
62 98 169
62 99 170
63 99 171
62 98 165
62 99 170
62 99 172
63 99 171
62 99 172
63 99 174
62 99 171
61 98 170
61 98 163
62 99 175
63 99 174
61 98 171
63 99 172
62 99 175
61 98 176
62 99 172
63 99 174
62 99 174
62 99 171
63 99 176
62 99 177
62 98 169
62 99 175
63 99 169
63 99 170
62 99 172
62 99 171
62 99 168
62 99 174
62 99 176
62 99 175
62 98 171
63 99 175
62 99 171
62 99 174
62 99 172
63 100 176
62 99 172
63 100 178
62 99 176
62 99 175
62 99 178
63 99 177
62 99 176
62 99 177
63 99 178
62 98 173
61 98 174
62 99 173
63 99 175
63 100 178
61 98 171
63 100 176
61 98 172
62 99 173
63 100 179
63 99 176
62 99 177
62 99 175
63 99 177
63 99 172
62 99 175
62 99 175
62 99 171
63 99 173
63 99 177
62 98 169
61 98 171
62 99 173
62 99 173
62 99 176
62 99 177
63 99 177
63 99 177
62 99 170
62 99 173
62 99 168
62 99 173
62 99 175
62 98 169
62 99 172
61 98 167
62 99 172
62 99 172
63 99 175
61 98 174
62 98 168
62 99 171
62 99 174
63 100 173
61 98 165
62 99 174
62 99 175
61 98 171
62 98 167
62 98 164
61 98 169
61 98 168
62 98 167
62 98 169
62 99 173
62 99 168
63 99 170
61 97 163
63 99 172
62 98 168
62 99 169
62 99 172
63 99 173
63 99 168
62 99 175
62 98 162
61 97 162
63 99 169
61 98 161
62 99 171
61 97 161
63 99 171
63 99 170
63 99 163
62 99 169
62 97 161
63 99 165
62 98 165
61 98 165
62 98 165
61 97 159
62 98 163
62 98 163
62 98 163
62 97 161
61 97 163
62 98 165
63 98 165
62 97 157
61 96 156
61 97 162
61 96 156
61 95 151
61 96 156
60 95 150
59 92 141
61 95 160
61 95 148
59 92 148
56 86 140
36 47 32
32 42 27
34 45 27
38 48 31
37 48 35
41 53 36
39 51 38
39 51 40
42 55 38
42 55 42
43 56 40
42 55 40
45 58 44
45 58 45
51 67 56
51 63 42
46 61 47
65 74 48
66 76 50
72 80 40
82 90 51
89 93 50
90 95 50
105 108 56
99 102 54
102 105 53
107 110 53
123 123 61
130 129 65
128 127 62
137 134 67
134 132 68
139 137 66
132 130 67
144 140 68
143 139 70
152 146 71
155 149 74
149 144 72
158 152 71
162 155 74
154 149 69
163 157 70
163 156 78
169 161 72
171 163 73
171 163 74
171 164 75
173 164 77
169 162 70
176 167 82
174 166 77
172 164 77
171 164 75
167 161 70
175 166 83
180 170 87
167 161 66
172 164 75
172 164 74
172 164 71
174 165 80
175 166 76
175 167 78
175 166 76
175 166 80
171 162 76
171 164 73
173 165 75
174 166 76
172 165 75
172 164 75
175 166 80
174 166 80
173 165 77
168 161 64
170 163 74
172 165 73
175 167 79
173 165 75
176 166 77
174 166 76
173 165 75
172 164 75
173 165 75
169 161 68
172 164 69
167 160 62
171 164 69
170 162 66
171 163 66
170 163 65
172 164 74
171 163 66
165 159 59
167 159 62
167 160 64
168 161 64
170 162 69
168 161 65
165 158 57
170 162 68
162 157 52
167 161 64
167 160 60
162 157 49
166 159 58
164 158 51
163 157 52
163 157 45
161 155 45
160 155 49
160 155 44
162 155 47
161 155 41
157 153 39
152 146 39
158 151 48
149 144 36
149 144 34
144 140 30
138 134 22
137 133 19
142 138 30
125 121 22
124 122 30
166 187 0
173 195 0
173 194 0
168 187 0
172 193 0
169 188 0
170 190 0
172 194 0
172 193 0
171 193 0
169 191 0
173 193 0
173 196 0
172 196 0
173 196 0
174 198 0
174 197 0
173 197 0
172 195 0
171 194 0
174 197 0
171 195 0
170 194 0
171 194 0
169 194 0
171 194 0
172 195 0
171 194 0
167 191 0
172 196 0
171 195 0
173 196 0
170 194 0
170 194 0
172 195 0
170 194 0
170 195 0
170 193 0
172 195 0
169 193 0
169 193 0
170 193 0
175 198 0
173 197 0
171 194 0
169 193 0
173 197 0
171 194 0
170 194 0
170 193 0
172 195 0
170 194 0
170 194 0
172 196 0
171 193 0
174 197 0
170 194 0
170 193 0
165 188 0
166 190 0
171 194 0
170 193 0
167 191 0
173 197 0
170 193 0
170 193 0
171 194 0
171 195 0
170 194 0
171 194 0
171 195 0
172 195 0
170 193 0
169 192 0
174 197 0
166 190 0
172 196 0
173 196 0
169 192 0
170 193 0
168 192 0
173 196 0
169 192 0
173 196 0
173 196 0
170 194 0
168 192 0
169 192 0
167 191 0
168 191 0
168 191 0
171 194 0
168 191 0
171 195 0
168 192 0
167 190 0
168 192 0
170 192 0
128 153 107
62 98 158
63 98 164
62 98 164
61 97 160
62 99 165
62 98 169
62 98 165
62 99 165
62 99 171
62 99 170
62 98 166
62 98 166
62 99 170
61 98 166
63 99 169
62 98 160
61 98 168
62 99 167
62 98 166
61 98 166
62 98 171
61 98 171
61 98 170
63 99 175
62 98 166
61 98 176
62 99 173
61 98 167
62 98 170
63 100 175
61 98 165
62 99 170
62 99 177
62 99 172
62 99 173
63 99 173
63 99 174
62 98 165
62 99 176
63 99 176
62 99 172
62 99 173
62 98 174
63 99 177
62 99 176
62 99 173
62 99 174
62 98 168
62 98 168
62 99 174
62 99 177
62 99 175
61 98 171
61 98 167
62 99 176
63 99 174
62 98 169
63 99 176
62 98 173
62 99 172
63 99 173
62 99 175
62 99 175
62 99 176
62 99 176
62 98 169
62 99 172
61 98 173
62 98 174
62 99 176
62 99 175
62 98 171
62 99 176
62 99 176
62 99 175
62 99 174
62 99 173
62 99 173
62 98 172
62 99 172
63 99 172
62 99 172
62 99 172
63 99 177
61 98 172
62 98 171
62 98 174
62 99 176
61 98 174
62 99 179
62 99 176
62 98 171
62 99 175
63 99 174
62 99 175
63 100 179
62 98 170
62 99 168
62 99 172
61 98 171
62 99 169
62 99 171
63 99 173
62 99 167
62 98 167
62 99 171
63 99 171
62 99 170
62 99 172
63 99 173
62 98 173
62 98 168
62 98 170
62 99 170
63 99 177
62 99 172
61 98 161
62 98 173
61 98 170
63 99 174
61 98 166
63 99 175
62 98 169
63 99 174
62 99 171
62 99 169
62 99 176
61 98 170
62 99 167
62 98 160
62 98 167
61 97 164
62 98 165
62 98 166
63 99 169
62 98 168
62 99 171
62 99 173
63 99 170
62 98 159
63 99 172
61 97 156
63 99 172
63 100 175
62 98 165
62 98 169
62 99 171
62 98 168
63 100 174
63 99 170
61 97 163
62 98 163
62 98 168
62 98 163
61 98 163
61 98 165
61 97 168
62 98 164
63 99 165
62 98 163
61 98 164
63 99 164
61 96 157
61 97 164
62 98 163
61 96 158
62 98 167
61 96 156
61 97 166
60 95 153
60 94 145
60 95 148
60 95 148
61 95 156
57 89 133
34 47 37
37 47 29
36 46 30
38 50 39
38 48 33
38 49 33
38 49 37
42 53 38
39 52 37
39 50 36
42 56 42
43 56 40
43 56 39
44 57 40
48 63 50
54 67 46
55 67 42
64 74 46
67 77 46
71 80 45
85 91 44
96 101 54
100 103 50
102 105 47
109 110 55
108 110 53
111 113 55
115 116 47
127 126 61
121 121 55
132 130 63
127 127 56
129 127 61
140 136 60
153 148 72
141 138 66
147 143 66
159 153 69
164 158 76
158 152 62
158 152 69
166 159 81
162 156 73
168 161 77
164 157 72
169 162 72
166 160 65
167 160 66
168 162 65
170 163 71
171 163 75
166 160 60
172 164 79
173 165 75
171 163 75
174 165 81
173 164 78
172 164 75
173 165 76
173 165 80
171 163 74
172 164 72
168 161 71
176 167 80
172 164 76
176 167 82
174 166 78
169 162 73
171 164 73
175 166 80
173 164 77
173 165 75
176 167 80
170 163 70
172 165 71
172 164 76
172 165 74
175 166 78
168 161 66
167 161 61
173 164 74
173 165 75
171 163 67
165 159 61
170 163 68
167 160 62
171 163 67
170 163 61
172 163 68
166 159 63
166 159 62
168 161 66
168 161 63
166 160 57
167 160 63
168 161 61
169 161 65
164 157 59
168 162 64
169 162 62
166 160 56
166 159 57
167 160 57
166 159 54
167 160 59
169 162 60
165 159 58
161 156 45
163 155 47
164 158 49
162 156 45
163 158 49
165 159 51
161 156 42
155 150 39
155 150 30
154 149 34
153 146 51
148 143 39
147 143 30
143 138 39
145 141 34
132 128 25
139 134 32
124 118 28
148 156 19
170 192 0
173 193 0
169 189 0
172 193 0
172 192 0
173 194 0
170 191 0
172 193 0
170 192 0
173 195 0
174 195 0
173 193 0
174 197 0
170 194 0
172 196 0
172 196 0
170 194 0
169 192 0
173 195 0
171 195 0
170 194 0
174 197 0
170 194 0
170 194 0
172 196 0
172 195 0
172 196 0
170 194 0
172 195 0
172 195 0
172 195 0
172 195 0
170 194 0
170 194 0
170 193 0
172 195 0
171 194 0
166 190 0
173 196 0
170 193 0
171 194 0
171 195 0
171 194 0
168 192 0
171 194 0
170 193 0
172 196 0
173 196 0
171 195 0
170 194 0
171 195 0
170 193 0
171 195 0
171 195 0
172 195 0
168 192 0
171 194 0
166 190 0
171 194 0
171 195 0
166 189 0
171 194 0
171 195 0
172 196 0
170 193 0
169 193 0
168 192 0
170 193 0
172 195 0
168 192 0
169 192 0
165 190 0
173 196 0
172 195 0
172 196 0
170 193 0
172 195 0
169 192 0
169 192 0
169 193 0
170 192 0
166 190 0
168 191 0
171 195 0
169 191 0
167 189 0
172 195 0
167 190 0
167 190 0
168 191 0
170 194 0
166 190 0
168 191 0
171 195 0
165 187 0
175 197 0
168 191 0
168 191 0
103 130 133
62 98 155
62 98 153
62 98 160
62 98 160
61 97 156
61 98 163
61 97 160
61 97 161
63 99 166
61 98 163
62 98 169
61 97 163
62 99 169
62 99 168
62 98 167
62 98 164
62 99 169
61 98 170
61 97 157
63 99 166
62 99 175
62 98 171
62 98 169
63 99 170
63 99 171
61 98 170
62 99 169
62 98 167
62 98 172
62 98 170
62 98 166
62 99 171
62 99 173
62 99 176
61 98 172
61 97 169
62 99 173
62 98 171
63 100 175
62 99 172
62 98 169
63 99 172
62 99 171
62 98 171
63 99 175
63 100 177
62 99 171
62 99 175
63 100 177
62 99 171
61 98 169
62 99 174
62 99 174
62 99 175
62 98 172
63 99 174
61 98 168
62 99 172
62 99 172
62 99 174
63 100 179
62 99 171
63 99 173
62 99 174
62 99 171
62 98 174
62 99 171
62 98 169
63 99 177
61 98 172
62 99 176
61 98 172
63 99 176
63 99 172
61 98 170
62 98 168
62 99 174
61 98 170
62 99 177
62 99 174
62 99 171
62 98 172
62 98 166
61 98 166
61 98 168
62 99 171
62 98 168
62 99 176
61 98 170
63 99 174
62 98 169
62 99 173
62 98 173
61 98 166
63 99 174
62 99 174
63 99 175
61 98 167
62 99 173
63 99 175
60 97 164
61 98 169
63 100 177
63 99 173
63 99 176
62 99 168
62 99 171
62 99 173
62 99 174
63 99 166
62 98 168
62 99 171
61 97 164
62 99 173
62 98 172
62 98 169
62 99 172
62 98 167
61 98 168
63 99 171
62 99 172
62 99 174
63 99 175
62 98 170
62 99 165
62 99 173
62 98 172
62 99 170
62 99 169
63 99 172
61 98 168
62 99 174
62 98 169
62 98 168
63 99 169
61 98 168
61 98 161
62 98 167
62 99 168
62 99 172
62 98 167
62 98 168
62 99 168
62 98 167
62 99 167
61 98 164
62 98 167
62 98 166
62 98 163
61 97 160
62 98 162
62 98 167
62 99 168
61 98 162
62 98 163
62 98 166
62 98 162
62 98 163
62 98 167
62 99 166
61 96 156
61 97 165
61 97 161
62 97 157
62 97 162
61 96 151
62 98 166
61 95 151
61 96 152
61 96 155
62 97 161
62 96 155
61 94 152
61 95 159
59 92 143
41 58 76
34 44 28
38 50 36
38 49 36
37 48 33
40 52 38
40 52 37
41 52 36
39 52 38
43 55 40
43 55 42
45 60 44
44 58 40
47 61 41
46 59 38
63 73 48
68 76 44
72 79 42
72 79 36
84 89 40
90 95 44
99 102 45
91 96 47
113 114 51
102 106 54
104 106 49
120 120 52
111 112 59
109 111 51
127 126 59
127 125 63
127 126 66
140 137 62
139 136 62
150 145 66
146 143 61
146 143 65
151 146 66
159 152 70
148 144 58
161 155 67
158 153 66
161 154 69
161 155 68
166 159 71
171 162 75
168 161 70
167 161 66
174 165 76
166 159 67
170 162 68
167 161 62
168 161 65
168 161 67
168 161 64
171 163 75
173 165 77
173 165 75
169 162 65
170 163 71
172 164 73
171 163 75
169 162 69
169 162 72
169 161 70
172 164 75
174 165 74
170 163 69
173 164 75
167 160 64
171 163 70
167 160 67
168 161 66
173 165 74
168 161 68
169 162 69
170 162 68
171 163 70
168 161 63
168 161 68
171 164 73
169 162 67
171 163 70
167 161 58
166 159 54
171 163 68
167 161 61
170 162 67
169 161 65
171 163 66
166 159 60
164 158 56
170 162 62
161 155 48
165 158 60
168 161 61
170 162 65
167 161 61
160 155 45
165 158 57
165 159 60
164 158 54
166 159 58
169 161 62
165 158 53
168 161 57
164 158 54
162 157 42
163 157 48
160 154 36
162 156 44
163 156 48
157 153 41
161 154 47
157 152 39
151 147 32
152 147 42
152 147 32
146 141 22
151 146 32
138 133 36
143 138 28
134 129 22
130 127 22
129 125 16
166 186 0
173 194 0
171 190 0
172 192 0
170 191 0
170 191 0
170 191 0
172 192 0
169 190 0
168 189 0
171 192 0
170 191 0
173 195 0
172 195 0
172 195 0
173 196 0
171 195 0
175 198 0
171 195 0
171 194 0
173 197 0
174 197 0
174 196 0
171 195 0
171 194 0
171 194 0
173 197 0
172 195 0
172 196 0
173 196 0
171 195 0
173 196 0
171 195 0
171 194 0
172 195 0
172 196 0
168 191 0
173 196 0
171 195 0
170 193 0
171 194 0
171 195 0
171 195 0
169 192 0
172 195 0
172 195 0
169 192 0
166 190 0
168 193 0
169 192 0
171 195 0
173 196 0
172 195 0
169 193 0
169 193 0
171 195 0
173 196 0
172 195 0
173 196 0
171 194 0
172 196 0
166 190 0
169 192 0
171 195 0
169 193 0
169 192 0
169 192 0
170 194 0
170 192 0
170 194 0
168 192 0
170 193 0
171 195 0
170 193 0
169 192 0
170 193 0
171 194 0
163 188 0
171 194 0
171 195 0
170 193 0
169 192 0
173 195 0
169 192 0
168 191 0
169 192 0
168 190 0
172 195 0
171 194 0
168 190 0
164 186 0
165 189 0
170 194 0
165 188 0
165 188 0
166 189 0
169 191 0
168 191 0
169 191 0
72 105 145
62 97 156
61 97 156
60 96 155
61 97 156
63 99 163
62 98 160
61 97 152
61 97 162
61 97 160
61 98 160
62 98 165
62 98 164
61 97 162
62 98 167
63 99 167
62 98 168
61 97 163
62 98 164
62 98 163
62 98 167
62 98 164
62 99 173
61 98 163
62 98 166
62 99 171
62 98 170
62 99 173
62 98 170
62 98 170
62 98 168
62 99 174
62 99 173
62 98 168
62 98 170
63 99 170
63 100 177
62 99 171
63 99 175
62 98 170
62 98 171
62 98 171
62 99 175
62 99 173
62 99 171
62 99 170
61 98 174
62 99 178
62 99 171
63 100 177
63 100 179
63 99 174
62 99 174
62 99 174
62 99 173
62 99 177
61 98 168
62 99 175
62 99 173
62 98 171
62 98 174
63 99 174
62 99 176
62 99 175
61 98 173
62 99 170
62 98 168
62 98 170
62 99 175
62 99 173
61 98 171
62 99 173
62 99 173
63 99 175
62 99 177
62 99 171
62 99 176
62 99 174
61 98 176
62 99 173
62 98 170
62 99 174
62 99 175
62 98 171
62 99 174
62 99 174
62 99 173
62 99 175
62 99 173
63 99 174
62 99 177
62 98 170
62 99 173
62 99 172
62 99 174
63 99 170
62 99 174
62 99 173
62 99 172
62 99 172
62 98 169
62 99 175
62 99 169
62 99 174
62 98 170
63 99 175
62 99 173
62 99 171
62 98 167
61 98 164
63 99 173
63 99 174
62 99 172
62 99 168
62 99 166
62 99 171
62 98 171
62 98 173
62 98 165
62 99 173
63 99 175
62 99 173
62 99 173
62 98 170
62 99 175
63 99 175
62 99 173
62 98 170
62 99 171
62 99 171
62 98 166
61 98 168
63 99 171
62 98 169
62 98 166
63 99 172
62 99 171
63 99 172
61 98 166
62 99 170
62 98 166
63 99 172
62 98 166
62 99 169
62 98 165
62 99 166
62 97 164
62 98 164
62 99 164
62 98 167
61 97 160
62 99 169
62 98 166
61 97 161
62 98 167
63 99 172
62 98 165
62 98 169
63 99 166
61 97 164
62 97 162
61 97 158
62 98 163
62 98 164
62 98 163
60 95 147
61 96 153
61 97 160
61 96 153
62 97 156
62 97 156
61 96 156
61 95 151
61 95 155
60 93 146
60 93 148
48 72 105
39 51 33
34 46 30
38 50 32
35 46 30
36 47 29
42 55 40
40 52 33
43 56 40
45 57 39
43 56 41
45 58 39
45 59 44
55 66 39
53 65 40
59 69 42
56 67 43
63 72 38
77 83 41
82 89 44
96 99 46
86 92 45
95 99 41
109 111 52
99 103 46
100 102 41
123 122 49
119 119 58
126 125 53
126 125 54
138 134 60
124 124 55
126 125 63
136 133 62
140 137 57
150 144 73
141 139 56
145 142 56
150 145 66
140 136 60
158 153 62
160 154 71
163 156 66
165 158 65
162 156 64
171 163 72
169 162 64
167 160 69
167 160 68
164 158 64
166 160 61
170 162 74
168 161 65
173 165 78
167 160 60
166 159 65
164 158 62
164 158 62
170 162 70
166 159 65
172 164 74
170 162 71
170 162 70
167 160 63
163 157 64
172 164 72
171 163 71
174 165 76
168 161 63
169 162 63
170 162 68
169 162 64
172 164 73
171 164 68
166 160 62
168 161 65
167 161 63
164 158 54
166 159 62
168 160 66
169 161 70
166 159 61
166 160 59
168 161 64
173 165 74
170 163 67
168 161 62
163 157 52
161 156 48
163 157 53
166 159 58
167 161 60
165 159 57
167 161 59
163 157 56
167 160 59
165 159 58
167 159 56
166 160 53
163 157 49
163 156 49
164 158 48
164 158 49
167 160 56
164 158 48
162 156 48
162 156 52
160 155 39
163 156 49
161 156 41
161 156 41
160 154 32
157 152 32
155 149 30
150 146 28
151 147 28
149 143 34
149 145 30
143 139 22
140 135 34
139 134 25
133 127 25
127 123 19
123 117 22
144 154 16
168 188 0
169 189 0
172 192 0
168 188 0
168 188 0
169 189 0
172 192 0
171 190 0
171 191 0
171 192 0
169 189 0
170 192 0
170 188 0
171 195 0
172 195 0
172 195 0
170 194 0
170 193 0
170 194 0
171 195 0
171 195 0
172 196 0
174 197 0
171 194 0
171 195 0
171 195 0
172 195 0
173 197 0
171 195 0
171 194 0
170 194 0
172 195 0
174 197 0
173 196 0
175 198 0
172 195 0
171 194 0
168 192 0
170 193 0
168 191 0
170 193 0
173 196 0
172 196 0
175 198 0
172 195 0
171 195 0
164 188 0
171 194 0
173 196 0
170 194 0
172 196 0
171 195 0
169 193 0
173 196 0
170 193 0
171 194 0
171 193 0
171 196 0
174 197 0
170 193 0
169 192 0
170 193 0
170 193 0
170 193 0
173 196 0
171 194 0
168 191 0
173 195 0
170 194 0
169 192 0
168 191 0
170 193 0
167 191 0
169 192 0
170 192 0
171 195 0
172 195 0
167 190 0
168 191 0
169 192 0
169 191 0
171 194 0
171 193 0
170 193 0
167 190 0
167 190 0
167 191 0
166 191 0
170 193 0
165 188 0
172 194 0
169 193 0
166 190 0
169 192 0
169 192 0
170 193 0
168 191 0
169 193 0
158 180 62
61 97 156
60 96 148
61 96 148
62 98 155
62 98 158
61 97 157
62 98 163
62 98 161
63 100 172
63 99 163
61 98 162
62 97 161
61 97 161
61 98 163
61 98 166
62 98 168
61 97 156
62 98 169
62 99 165
62 99 170
62 99 169
62 99 175
61 98 164
62 99 172
63 99 172
62 99 172
62 98 164
62 98 170
62 99 171
62 98 169
62 99 171
61 98 173
61 98 166
61 98 166
62 99 170
61 98 171
62 98 171
63 99 173
62 99 171
62 98 168
62 98 168
62 98 172
62 99 169
61 98 172
62 99 166
62 99 173
62 98 168
62 99 172
62 99 176
62 99 175
62 99 175
62 99 175
62 98 172
62 99 170
61 98 170
61 98 168
63 99 176
62 98 171
63 99 171
62 98 170
63 99 175
63 99 173
62 99 169
62 99 173
63 100 175
62 99 171
62 98 170
62 99 174
61 98 169
62 99 173
62 99 175
62 98 174
63 99 175
62 98 168
61 98 171
62 99 174
61 98 167
62 99 174
61 98 170
62 99 173
62 98 172
62 98 162
63 100 176
62 99 174
62 99 173
62 99 172
63 99 175
63 100 177
62 99 172
63 99 173
62 98 168
62 99 171
62 99 170
61 98 171
62 98 170
62 99 172
63 99 175
62 99 171
63 99 172
62 99 170
63 99 175
62 99 170
61 98 171
63 99 175
61 98 167
62 99 172
62 99 172
62 99 175
62 99 173
63 99 176
62 99 174
62 99 171
62 99 170
62 98 169
62 98 163
62 99 170
62 98 167
61 98 167
62 99 171
62 98 169
63 99 173
62 98 170
62 99 171
63 99 169
62 99 175
62 99 172
63 99 171
62 99 170
62 98 169
61 98 168
62 99 173
62 99 166
62 98 162
62 99 169
63 99 171
62 99 172
62 99 170
62 98 164
62 99 168
62 99 168
63 99 176
62 99 168
62 99 168
62 98 169
61 98 165
62 99 166
63 99 170
62 98 169
61 97 164
62 98 164
61 97 163
62 98 165
61 98 167
62 98 161
62 98 165
62 98 165
62 98 165
62 98 165
62 98 164
61 97 154
61 97 161
63 99 164
62 98 165
62 98 164
61 95 151
61 95 150
63 98 158
60 95 153
61 96 158
62 96 154
60 96 159
61 96 158
60 94 147
59 92 144
59 93 145
58 91 139
54 82 128
37 47 33
35 45 27
37 47 27
37 48 31
38 50 33
40 51 31
39 50 30
40 52 39
42 55 37
43 56 39
48 59 29
55 66 45
52 62 39
56 67 44
66 75 42
61 73 41
67 76 41
74 81 39
83 89 37
91 96 46
85 92 43
100 104 46
86 92 44
106 108 49
115 116 51
107 109 51
119 120 49
131 129 62
112 113 55
127 127 54
127 126 60
138 135 57
137 135 56
144 140 62
140 137 55
143 140 57
154 150 62
156 151 63
152 148 64
160 154 66
158 152 65
153 149 56
164 157 62
163 157 61
165 158 63
166 159 65
168 161 64
167 160 62
170 162 72
167 161 61
167 160 64
173 165 75
171 163 73
169 161 67
168 162 65
169 162 73
167 160 63
163 157 56
171 163 72
170 163 68
169 161 66
168 161 69
167 161 65
172 164 71
167 160 66
168 161 64
166 160 57
164 158 57
172 164 72
168 161 68
167 160 65
169 162 61
171 163 71
167 159 62
168 161 63
170 162 66
163 157 56
167 161 60
165 159 58
169 161 65
170 163 65
166 159 58
163 157 51
163 158 54
166 159 58
169 161 64
166 159 58
168 161 61
166 159 54
165 158 58
166 160 56
165 159 54
168 160 63
166 159 56
167 160 63
164 159 52
163 157 51
168 160 58
166 160 53
168 161 59
160 153 42
163 157 49
159 154 36
162 156 45
162 156 45
162 157 44
157 152 36
160 154 36
160 154 39
159 154 41
158 152 32
159 153 41
156 151 34
153 147 39
151 146 30
148 143 25
153 149 32
144 140 25
138 134 22
137 134 11
133 130 22
132 128 19
116 112 16
161 177 0
173 194 0
169 188 0
169 189 0
170 191 0
170 188 0
171 191 0
172 191 0
171 191 0
172 190 0
172 192 0
171 192 0
168 187 0
173 191 0
170 193 0
174 197 0
170 193 0
171 195 0
172 196 0
171 195 0
171 194 0
173 197 0
172 196 0
174 197 0
171 194 0
172 195 0
171 195 0
172 196 0
172 195 0
169 193 0
172 196 0
172 196 0
171 194 0
171 194 0
167 191 0
174 196 0
170 193 0
170 194 0
171 194 0
166 190 0
173 197 0
170 194 0
168 191 0
172 195 0
169 192 0
172 196 0
170 193 0
173 197 0
170 194 0
171 194 0
173 196 0
169 192 0
169 192 0
170 194 0
169 193 0
169 193 0
172 196 0
171 194 0
171 194 0
172 196 0
168 191 0
167 190 0
170 192 0
173 196 0
172 195 0
170 193 0
171 194 0
171 195 0
172 195 0
168 192 0
167 190 0
166 189 0
168 192 0
165 188 0
171 193 0
167 191 0
167 190 0
170 195 0
169 191 0
163 186 0
170 192 0
170 193 0
168 191 0
164 188 0
170 194 0
169 192 0
169 193 0
164 187 0
171 195 0
167 191 0
164 188 0
171 194 0
168 191 0
170 193 0
168 191 0
170 194 0
165 188 0
172 195 0
170 193 0
140 163 80
61 97 153
63 99 163
62 98 163
62 98 156
61 96 156
61 97 159
62 98 162
61 97 155
62 99 170
62 98 164
62 98 159
61 98 162
62 98 171
61 97 166
61 97 160
61 98 163
63 99 173
62 98 162
63 99 168
62 99 169
61 97 158
62 98 169
62 98 167
61 98 169
61 98 164
62 99 174
62 99 168
61 97 164
62 98 170
62 98 171
63 99 169
61 98 168
62 98 171
62 99 174
62 99 171
62 99 175
62 99 171
62 99 176
62 98 167
62 99 174
62 99 173
61 98 172
62 99 171
62 99 171
62 99 172
61 98 175
62 98 168
62 99 174
62 99 174
62 99 174
62 98 171
62 99 177
63 99 176
62 99 173
62 98 174
62 99 172
63 99 173
62 99 172
62 99 174
62 99 173
62 98 176
62 99 173
62 99 175
62 99 173
62 99 172
62 99 174
62 98 173
63 99 175
62 99 169
62 98 172
62 99 169
62 98 164
62 98 171
62 99 171
62 99 174
62 99 172
62 99 177
62 99 169
62 99 174
62 99 176
62 99 171
62 99 172
63 99 177
63 99 172
62 98 161
62 99 172
62 99 172
62 99 173
62 98 165
62 98 171
62 99 170
62 99 173
62 99 177
62 98 166
62 98 172
62 99 172
62 98 169
62 99 173
62 98 166
62 99 170
62 99 174
62 99 175
62 98 168
62 99 170
62 98 165
61 98 167
62 99 171
61 98 166
62 98 168
61 98 166
62 99 175
61 98 171
62 98 169
61 97 162
62 99 172
62 99 170
62 98 169
61 98 164
62 98 165
62 99 171
63 99 169
62 99 174
61 98 166
62 99 176
63 99 168
62 98 171
62 99 172
62 99 172
62 98 168
62 98 165
63 100 175
62 98 169
62 98 167
62 98 167
62 99 168
61 97 160
63 99 173
62 99 171
62 98 166
62 99 168
61 97 158
62 98 164
62 98 159
62 99 169
61 97 161
62 98 167
62 98 166
62 98 165
62 98 165
62 98 163
63 99 166
62 98 163
61 96 159
62 99 170
62 98 164
62 99 170
62 98 167
61 97 153
62 98 165
62 98 159
62 98 162
62 98 162
61 97 163
63 99 170
62 97 161
62 98 164
61 96 161
62 97 155
61 96 156
61 96 151
61 96 157
61 96 152
61 96 152
61 96 155
61 94 148
60 94 147
56 86 125
41 49 29
35 46 29
43 52 28
37 49 33
41 53 33
45 55 31
38 49 35
42 52 34
41 51 30
47 58 28
52 63 39
54 65 37
57 67 39
58 69 42
54 65 39
73 80 39
72 80 39
75 82 37
77 85 39
83 89 36
84 92 46
101 102 41
110 112 42
110 112 45
104 107 45
106 108 43
110 112 49
118 119 45
122 122 56
130 129 55
133 130 56
137 134 51
138 135 59
138 136 55
145 141 61
134 132 56
142 139 52
153 148 61
155 151 52
160 153 66
153 148 58
161 155 64
162 155 66
164 158 61
164 158 61
170 162 70
162 155 58
163 157 57
170 162 71
167 160 65
167 160 63
166 159 62
165 159 60
165 159 59
168 161 60
164 158 61
167 160 65
170 162 69
164 158 56
172 164 72
167 160 64
166 160 61
167 161 60
165 159 58
165 159 60
167 160 64
164 158 59
168 161 68
161 156 56
169 162 66
166 160 62
167 160 66
166 159 63
171 162 71
165 158 59
167 160 60
165 159 62
166 159 62
168 161 63
161 155 51
168 159 62
164 159 52
167 160 63
164 159 58
168 161 65
164 157 58
165 159 52
164 158 56
165 158 53
164 159 52
168 160 59
166 159 54
164 157 52
162 157 48
162 157 49
166 160 53
164 158 49
161 156 48
164 158 53
164 157 51
164 158 48
163 157 53
162 156 51
162 155 47
159 154 37
159 154 37
163 157 47
158 154 30
156 152 28
160 154 42
157 152 28
159 154 41
152 148 22
155 150 34
149 145 25
152 146 28
143 138 22
141 137 11
145 139 28
130 126 11
123 120 19
126 122 16
141 147 0
173 192 0
171 191 0
169 188 0
173 192 0
173 196 0
171 191 0
172 193 0
171 190 0
169 189 0
169 189 0
168 188 0
171 193 0
171 192 0
173 194 0
174 198 0
174 197 0
172 195 0
170 194 0
171 195 0
169 193 0
172 196 0
168 192 0
170 193 0
173 196 0
171 195 0
169 192 0
171 194 0
171 193 0
170 193 0
173 196 0
169 193 0
174 197 0
172 195 0
168 191 0
175 198 0
172 195 0
171 194 0
173 197 0
171 194 0
170 192 0
168 192 0
170 194 0
169 192 0
169 192 0
172 196 0
169 194 0
173 197 0
172 194 0
171 194 0
167 190 0
171 195 0
169 193 0
172 195 0
170 194 0
171 194 0
166 189 0
172 195 0
169 192 0
171 194 0
171 194 0
172 195 0
170 194 0
167 191 0
169 192 0
173 196 0
166 190 0
169 192 0
172 196 0
173 196 0
171 194 0
171 195 0
167 190 0
167 191 0
173 195 0
170 194 0
168 190 0
168 191 0
174 197 0
167 190 0
168 192 0
166 189 0
166 189 0
167 190 0
170 194 0
170 194 0
171 194 0
166 190 0
168 192 0
166 190 0
171 193 0
168 192 0
170 193 0
167 189 0
168 191 0
169 193 0
165 188 0
170 192 0
172 196 0
171 195 0
119 146 117
62 98 156
61 97 158
61 97 160
61 96 147
62 98 167
61 97 158
62 98 159
62 98 163
61 98 161
62 99 168
61 97 158
62 98 165
61 97 160
62 98 166
62 98 165
61 98 164
62 98 166
63 99 166
62 98 167
63 99 168
62 98 168
61 98 166
62 98 168
62 98 171
61 98 164
62 98 166
61 98 169
61 98 169
62 99 173
61 97 165
61 98 168
62 99 174
62 99 171
61 98 168
63 99 168
63 99 175
62 99 171
62 99 171
61 98 168
62 99 170
63 99 175
63 99 172
62 98 169
62 99 176
62 98 173
62 99 171
62 98 167
62 99 176
63 100 175
63 100 172
62 98 168
62 99 172
63 99 175
62 98 169
62 99 176
62 99 173
62 99 174
62 98 168
62 98 172
62 99 174
62 98 168
63 99 174
62 99 171
62 99 170
62 99 173
62 99 167
62 99 174
62 99 174
62 99 173
63 100 178
62 99 175
61 97 167
62 99 172
62 98 168
62 98 169
62 99 173
62 99 176
62 99 176
62 99 175
62 98 170
62 98 170
62 99 173
62 99 178
62 99 171
62 99 169
62 99 169
61 98 164
61 97 164
62 99 172
63 99 174
61 98 170
62 98 169
62 99 173
63 99 175
62 99 174
62 98 168
62 99 176
62 99 167
62 98 166
62 99 175
62 98 167
62 99 167
63 99 172
62 99 175
62 99 173
62 99 173
62 99 173
62 98 169
62 98 168
62 98 172
62 99 172
62 99 172
62 99 172
62 99 172
63 99 170
63 99 174
63 99 173
62 99 171
62 98 166
63 99 167
62 98 163
62 99 168
63 99 172
62 98 167
63 99 167
62 99 172
63 99 173
62 99 173
62 98 166
62 98 169
63 99 170
62 99 166
62 98 166
61 98 163
62 98 161
63 99 169
62 98 169
63 99 167
62 99 169
62 99 171
62 98 166
62 98 161
61 98 164
62 98 162
63 99 169
63 99 169
62 98 159
62 98 166
63 99 167
60 97 159
61 97 160
62 98 163
61 98 168
61 97 156
62 98 167
61 97 165
61 97 162
62 98 162
61 97 160
62 98 163
62 98 166
61 97 156
61 97 158
62 98 156
62 98 160
61 96 158
61 96 158
61 96 155
60 95 151
61 97 156
63 98 161
61 95 154
60 94 146
62 96 158
60 94 147
59 92 145
58 91 136
43 53 47
43 52 27
44 53 24
41 50 30
51 59 35
48 57 29
44 54 35
43 55 35
47 58 34
47 57 32
59 69 38
56 65 36
63 72 35
62 71 39
64 73 39
70 78 35
79 85 38
60 71 41
76 84 41
83 89 41
92 97 38
94 99 36
100 103 35
114 113 45
104 106 41
108 111 46
120 119 43
115 116 45
125 125 55
127 127 41
126 124 48
118 118 51
136 133 57
140 135 56
137 134 54
148 144 55
147 142 63
148 144 52
152 147 56
156 151 60
154 150 50
153 148 49
164 157 64
157 151 55
164 158 62
164 158 59
159 155 39
161 154 62
161 156 58
167 160 66
163 156 61
164 157 57
167 160 65
161 155 57
166 159 66
164 158 58
168 161 62
169 162 68
164 158 60
166 159 61
165 158 57
168 160 62
165 158 59
168 160 65
168 161 68
165 159 62
165 159 62
166 159 64
167 160 62
167 159 64
168 160 65
165 159 54
167 160 61
165 159 54
165 159 54
164 158 57
166 159 63
165 159 60
169 161 59
168 161 62
164 158 54
166 159 59
165 157 60
168 161 61
163 157 52
166 160 61
173 164 71
166 159 57
166 159 61
166 159 59
166 159 56
160 154 45
163 156 49
163 157 56
162 157 47
164 157 53
162 157 48
162 156 45
156 152 36
159 154 41
159 153 41
160 155 42
157 151 41
163 157 49
157 153 34
159 153 37
160 155 37
159 154 34
161 157 39
159 153 36
158 152 36
149 144 22
153 148 28
148 143 30
148 144 22
140 136 22
146 142 19
133 130 0
142 138 19
132 129 11
129 124 16
134 129 16
166 182 11
168 186 0
169 188 0
169 190 0
171 189 0
169 189 0
170 191 0
170 189 0
170 189 0
171 190 0
174 194 0
170 190 0
172 192 0
171 191 0
170 190 0
170 194 0
169 193 0
175 197 0
172 196 0
171 195 0
171 195 0
173 196 0
167 190 0
173 196 0
172 196 0
170 194 0
173 197 0
170 195 0
171 195 0
172 196 0
170 194 0
170 193 0
171 193 0
172 195 0
172 195 0
168 192 0
171 195 0
172 195 0
170 194 0
168 191 0
171 194 0
169 192 0
169 193 0
170 193 0
170 194 0
173 195 0
172 195 0
170 193 0
171 194 0
171 195 0
172 195 0
171 195 0
170 194 0
171 195 0
171 194 0
170 194 0
172 194 0
169 191 0
171 194 0
172 195 0
171 195 0
171 195 0
170 193 0
169 193 0
171 195 0
167 191 0
168 191 0
170 193 0
169 193 0
173 197 0
170 193 0
166 189 0
171 195 0
169 192 0
170 193 0
171 194 0
169 193 0
167 190 0
168 191 0
174 196 0
169 193 0
168 192 0
169 192 0
167 191 0
168 191 0
165 188 0
169 191 0
167 190 0
170 192 0
170 193 0
170 192 0
167 191 0
168 191 0
167 190 0
168 192 0
169 192 0
165 189 0
165 188 0
168 191 0
168 191 0
109 136 125
61 96 147
62 98 158
62 98 161
60 96 146
62 99 168
61 97 162
61 97 163
61 97 158
62 98 160
61 97 160
61 97 155
62 98 164
62 98 158
62 98 165
62 98 166
61 97 164
62 98 168
62 98 165
60 97 166
61 97 160
61 98 162
61 98 169
62 99 170
60 97 164
61 98 170
61 98 170
61 98 169
62 99 170
62 98 166
62 99 171
62 98 169
61 98 173
61 98 161
62 98 166
62 98 165
63 99 170
61 98 164
62 98 165
62 99 175
62 98 171
61 98 167
61 98 170
61 97 166
63 99 172
61 98 168
61 98 168
62 99 172
62 98 174
61 98 172
61 98 168
61 98 167
62 99 175
62 99 175
62 99 170
62 99 174
62 98 164
62 99 174
62 99 174
62 99 171
62 98 170
62 99 174
62 99 174
62 99 176
62 99 176
62 99 175
62 98 171
62 98 165
62 99 170
63 99 169
63 99 176
63 99 174
62 99 176
63 99 174
61 98 169
62 99 174
62 98 169
62 98 169
62 99 173
62 99 169
62 99 175
62 98 169
62 99 169
61 98 171
61 98 174
62 99 175
62 99 173
62 98 170
63 99 177
62 99 176
62 99 172
62 99 170
62 99 175
61 98 168
62 99 171
62 98 169
62 99 170
61 98 168
62 99 174
63 100 177
62 98 173
62 99 174
63 99 174
62 98 170
62 98 171
62 99 172
62 99 172
62 98 169
62 99 174
62 98 171
62 99 171
62 98 171
62 98 165
62 99 171
62 99 172
63 99 172
63 100 176
62 99 173
63 99 168
62 99 171
63 99 173
61 97 163
62 99 171
63 99 172
61 98 162
61 98 164
62 98 162
61 97 157
61 98 164
63 99 173
62 99 173
63 99 173
63 99 168
62 99 169
62 99 171
62 98 167
62 98 168
62 99 175
62 99 166
62 98 163
62 98 165
62 98 165
61 98 166
62 98 161
63 99 172
62 98 164
62 98 162
62 98 164
62 98 166
62 98 167
63 99 168
61 97 159
63 99 166
62 98 163
62 98 164
62 98 166
62 98 161
62 99 168
63 99 167
62 98 160
62 98 163
62 98 168
62 98 165
61 97 159
62 98 162
62 98 166
62 98 160
61 97 158
62 97 157
62 97 158
60 95 151
61 95 151
60 95 145
61 96 153
61 96 154
61 96 157
60 94 144
59 92 141
54 67 72
45 50 19
38 48 28
55 60 25
43 53 28
47 57 34
54 60 32
43 54 35
51 60 31
56 66 38
46 57 38
62 70 38
50 60 33
66 74 35
59 68 35
83 88 39
72 79 35
84 89 30
80 88 39
81 87 35
94 98 32
90 95 37
98 102 39
105 107 37
107 109 42
106 109 46
124 122 41
123 122 48
115 116 41
127 126 45
128 127 51
134 132 51
131 131 38
142 139 46
145 142 55
146 141 54
145 142 55
151 146 55
149 145 57
156 151 53
157 152 55
157 151 53
158 152 58
159 153 57
163 157 59
162 156 54
161 154 51
164 158 54
161 154 58
162 157 57
165 158 59
167 160 61
163 157 60
158 152 53
160 155 49
167 160 65
165 159 59
162 156 54
162 157 49
165 159 64
167 160 62
163 158 57
166 160 61
163 157 54
162 157 51
166 160 59
164 158 57
164 157 57
163 157 53
166 160 59
163 158 54
166 159 56
162 157 49
161 156 51
163 157 56
165 159 54
166 159 62
165 159 56
164 158 54
164 157 54
168 161 58
161 156 48
164 158 52
161 155 45
163 157 54
161 156 51
161 156 42
165 157 58
164 157 56
159 154 32
160 155 45
163 157 51
164 158 56
163 157 47
160 154 45
163 157 52
160 155 41
160 153 44
164 158 45
162 155 41
157 153 36
158 153 34
158 152 36
157 153 34
157 153 28
157 152 25
158 152 32
159 152 36
156 151 25
157 154 32
149 145 16
153 148 22
156 151 25
149 144 19
142 138 19
152 148 16
142 138 19
136 132 0
135 131 19
134 130 11
124 121 16
134 141 0
168 188 0
170 189 0
169 188 0
171 191 0
171 191 0
171 190 0
170 190 0
172 193 0
171 192 0
174 194 0
172 192 0
172 193 0
169 188 0
174 194 0
171 193 0
172 195 0
171 195 0
167 192 0
173 196 0
172 197 0
169 192 0
170 193 0
168 192 0
175 198 0
173 195 0
172 196 0
173 196 0
171 195 0
173 196 0
169 193 0
168 192 0
172 195 0
168 192 0
172 195 0
171 195 0
170 194 0
166 191 0
172 195 0
173 195 0
170 194 0
171 194 0
168 191 0
170 193 0
172 194 0
171 195 0
169 191 0
170 193 0
170 194 0
168 192 0
167 191 0
171 194 0
170 193 0
170 193 0
169 193 0
168 191 0
169 191 0
172 196 0
170 194 0
173 196 0
172 195 0
171 193 0
169 192 0
172 195 0
168 190 0
169 193 0
170 194 0
170 193 0
170 193 0
170 193 0
170 194 0
170 193 0
169 193 0
168 192 0
171 194 0
165 189 0
167 190 0
167 190 0
170 193 0
172 195 0
170 193 0
167 191 0
172 194 0
169 193 0
167 190 0
168 191 0
170 193 0
170 193 0
168 191 0
166 190 0
166 189 0
164 188 0
169 192 0
169 192 0
170 193 0
168 193 0
168 191 0
169 192 0
170 193 0
165 188 0
166 190 0
94 122 128
62 98 154
62 98 162
61 97 155
62 98 156
62 98 164
62 98 158
62 97 158
61 97 154
62 98 162
61 97 161
61 97 156
61 97 153
62 98 164
62 98 166
62 98 169
62 98 163
61 97 165
62 98 164
62 98 168
61 97 167
62 98 167
62 98 168
62 98 171
62 98 168
62 98 166
62 98 171
62 98 167
62 99 173
62 99 170
62 99 172
62 99 172
62 98 170
61 98 167
62 98 168
62 98 163
62 99 170
62 98 174
61 97 165
62 98 167
62 98 168
62 98 174
62 98 166
62 98 168
62 99 173
62 98 170
62 99 173
62 99 174
62 99 175
63 99 175
62 98 170
62 99 175
62 98 171
62 99 177
62 99 171
63 99 175
63 99 175
62 98 171
62 98 170
62 99 170
61 98 171
62 99 174
62 98 167
62 99 174
62 98 172
62 99 172
62 99 173
61 98 172
61 98 169
62 99 169
62 99 174
62 99 172
62 98 170
62 98 173
62 99 169
62 99 171
62 98 167
62 99 177
62 99 171
63 99 171
61 98 167
62 98 169
62 99 173
61 98 170
62 98 167
62 99 165
62 98 169
62 98 168
62 99 171
63 99 172
62 99 173
62 99 168
62 98 167
62 98 169
62 98 171
62 99 171
63 99 177
62 98 169
62 99 171
62 98 167
62 99 170
62 98 168
63 99 166
62 99 177
61 98 166
62 98 169
63 99 173
62 99 171
62 98 164
62 99 170
62 98 169
62 99 170
62 98 168
62 99 174
62 98 170
63 99 174
63 99 171
62 99 172
62 99 169
62 99 173
62 98 165
62 99 169
63 99 173
63 99 168
62 98 165
62 99 169
62 99 169
61 98 166
61 98 164
61 98 171
62 98 171
62 98 168
62 99 169
61 98 169
62 98 166
62 99 169
61 98 167
62 98 171
62 99 171
62 99 169
63 99 174
62 99 170
61 98 158
63 99 165
61 96 156
62 98 165
62 98 162
62 97 160
62 98 168
61 97 160
62 98 159
63 99 164
62 98 161
62 98 166
61 97 164
63 99 170
62 98 160
62 98 164
62 98 155
61 97 160
61 97 160
61 98 163
61 96 155
62 98 165
62 98 163
61 96 160
61 96 154
61 96 148
62 96 150
61 96 155
60 95 148
60 95 154
60 95 150
61 96 160
61 95 151
60 94 154
60 94 150
60 93 142
59 75 87
52 58 28
49 56 28
51 58 27
52 58 28
47 53 22
49 59 37
56 62 30
62 68 27
60 67 32
65 72 32
62 70 37
65 72 35
63 72 38
69 78 47
74 80 35
75 83 40
73 82 40
84 90 42
93 97 34
92 96 37
88 94 41
99 101 33
90 95 40
103 106 46
108 110 38
114 113 37
113 115 36
125 123 46
137 134 53
132 131 46
128 128 45
138 136 44
132 131 50
138 135 50
141 138 48
143 140 52
147 143 43
150 146 50
153 148 55
148 144 44
156 151 47
154 148 58
156 151 52
156 152 52
163 157 53
162 156 54
158 153 52
159 152 52
160 154 54
157 152 48
163 157 54
159 154 48
163 156 61
168 160 61
162 157 54
164 158 60
164 158 61
163 157 56
163 157 53
161 156 44
162 156 53
164 157 59
164 158 54
165 159 56
165 158 53
166 159 60
169 162 63
162 157 49
164 158 58
161 155 48
166 160 58
164 158 56
165 158 60
167 160 61
160 155 47
167 161 61
163 158 52
162 157 49
163 158 48
165 159 59
162 157 48
166 159 52
161 155 52
163 157 48
161 155 47
161 154 52
158 153 37
162 156 44
161 156 44
160 154 44
161 155 44
158 154 34
163 157 52
159 154 41
158 152 41
158 152 39
160 154 44
157 151 34
157 152 37
159 153 36
157 152 30
161 156 37
154 151 25
158 154 30
157 153 28
155 150 34
158 153 36
153 150 28
154 150 16
153 149 22
153 148 16
148 144 11
150 146 11
141 138 0
143 139 0
135 130 0
131 128 0
128 124 0
128 124 22
130 126 19
164 181 0
169 188 0
170 192 0
171 189 0
169 189 0
173 193 0
167 187 0
167 188 0
171 190 0
167 186 0
168 188 0
170 189 0
171 193 0
171 192 0
171 191 0
169 188 0
173 196 0
169 192 0
169 193 0
172 195 0
171 194 0
170 194 0
169 192 0
171 194 0
171 195 0
173 195 0
171 195 0
169 193 0
172 196 0
172 195 0
173 196 0
167 192 0
173 197 0
173 196 0
171 194 0
173 195 0
174 197 0
170 193 0
173 197 0
170 193 0
169 192 0
171 194 0
173 197 0
172 196 0
170 194 0
170 194 0
171 194 0
170 194 0
170 193 0
170 193 0
170 194 0
169 193 0
172 196 0
169 193 0
172 196 0
172 196 0
174 197 0
170 194 0
168 191 0
169 193 0
168 191 0
171 195 0
171 194 0
171 194 0
170 193 0
171 194 0
170 193 0
174 197 0
172 195 0
167 191 0
170 193 0
170 193 0
166 189 0
169 192 0
168 192 0
170 193 0
171 193 0
170 192 0
166 189 0
169 192 0
163 186 0
169 193 0
168 191 0
171 194 0
168 191 0
170 193 0
169 192 0
173 196 0
167 190 0
170 193 0
167 189 0
167 190 0
167 190 0
171 194 0
170 193 0
167 191 0
167 191 0
165 189 0
166 189 0
169 191 0
168 190 18
70 103 144
61 96 149
61 96 143
61 97 150
62 97 153
61 98 158
61 97 155
62 98 164
61 97 156
62 99 168
63 98 166
62 98 165
62 98 163
61 97 158
61 97 160
61 97 161
62 98 162
62 99 167
62 98 167
63 99 166
61 97 162
62 98 162
61 98 167
62 99 172
62 98 166
62 99 173
62 98 166
62 99 168
63 99 172
61 98 171
61 98 167
62 98 172
62 98 167
62 98 167
62 98 166
61 98 163
62 98 168
62 99 171
62 99 172
62 99 173
62 98 171
63 99 169
62 98 167
63 99 170
62 98 169
62 98 171
62 98 170
62 99 170
61 98 168
63 99 174
61 98 168
62 99 169
62 99 176
62 98 169
61 98 168
62 98 169
63 99 171
62 98 165
63 100 176
62 99 171
61 98 168
62 98 169
62 99 173
61 98 169
62 99 171
62 98 172
62 99 171
62 99 172
62 99 168
62 99 176
62 99 169
62 99 170
63 100 175
62 98 163
62 99 173
63 99 176
62 99 175
62 98 171
62 99 175
62 99 172
61 97 166
62 99 169
61 98 172
62 99 171
62 99 170
61 98 173
61 98 166
62 99 176
62 98 165
62 99 172
62 98 169
61 98 167
62 99 173
62 99 175
63 99 171
62 99 171
61 97 165
62 98 169
61 98 161
62 98 170
62 99 173
62 98 170
62 98 164
61 98 166
61 98 167
62 99 169
61 98 167
63 99 174
62 98 169
62 99 172
62 99 164
61 98 161
62 99 172
62 98 164
62 98 167
62 99 174
62 99 173
63 99 170
62 98 167
62 99 171
62 98 169
62 98 167
61 97 165
62 98 164
62 98 166
62 99 168
62 99 171
62 98 164
62 98 164
63 99 174
62 98 165
62 98 161
62 98 162
63 99 174
62 98 165
62 98 165
62 99 171
62 98 166
63 99 167
62 98 159
62 98 165
62 98 164
62 98 165
62 98 166
61 96 155
62 98 166
62 99 167
62 98 163
62 98 164
63 99 170
63 99 166
62 98 161
62 98 162
62 98 165
61 97 161
61 97 163
62 98 162
61 97 160
62 98 154
62 98 164
61 97 154
63 99 166
62 97 160
61 97 161
61 97 161
62 98 162
62 97 159
61 97 163
62 97 158
62 97 158
62 96 157
61 95 151
60 95 153
61 95 149
61 96 149
59 92 141
60 94 148
59 91 131
52 77 105
53 59 27
45 52 16
47 54 26
54 61 31
64 68 29
49 58 33
63 68 31
65 71 32
61 68 30
58 66 34
62 69 33
64 72 38
65 72 28
80 85 35
68 76 39
83 87 33
79 84 34
89 92 31
96 100 35
88 94 36
103 106 31
98 101 33
113 115 36
93 97 35
105 107 40
119 119 32
123 122 25
115 116 40
123 123 41
122 122 36
124 124 45
139 136 46
134 131 46
141 139 46
135 133 47
149 145 51
155 151 55
143 140 44
147 143 50
152 148 47
161 155 57
165 158 60
159 154 48
161 156 49
162 156 56
153 148 44
157 152 52
159 154 48
155 151 44
157 151 51
160 154 58
161 155 44
164 157 56
159 153 45
156 152 42
157 152 44
163 157 60
167 160 64
163 157 56
162 157 53
159 154 51
160 154 52
163 157 54
162 156 51
160 155 51
159 154 49
159 154 39
163 157 56
163 156 54
164 159 51
160 154 49
164 157 54
161 155 41
165 159 57
166 158 57
165 157 56
163 157 48
166 159 56
164 157 51
161 155 49
161 156 45
161 154 49
160 155 45
162 156 51
159 154 41
160 155 44
158 153 39
157 153 39
161 155 47
161 156 42
159 154 34
160 155 42
158 152 32
157 152 34
160 155 45
155 152 34
156 151 32
158 153 36
158 154 37
155 151 30
157 153 30
157 153 34
156 151 25
151 148 22
158 153 32
156 151 11
155 151 25
153 149 11
156 151 30
151 147 16
145 142 0
150 145 16
140 135 11
144 138 0
136 133 0
137 134 0
136 132 0
122 119 0
132 127 16
151 163 11
168 187 0
172 191 0
170 190 0
169 188 0
169 189 0
170 190 0
171 191 0
170 189 0
171 191 0
171 191 0
171 190 0
171 191 0
171 192 0
171 191 0
172 193 0
171 190 0
174 197 0
170 194 0
174 197 0
170 192 0
170 194 0
172 196 0
172 196 0
171 194 0
171 195 0
172 195 0
169 193 0
172 195 0
172 194 0
173 196 0
170 194 0
172 195 0
169 193 0
172 195 0
171 195 0
172 194 0
171 194 0
168 191 0
170 194 0
172 196 0
172 195 0
172 195 0
170 194 0
170 194 0
171 195 0
171 194 0
169 193 0
171 195 0
171 194 0
172 195 0
173 197 0
173 195 0
171 194 0
170 193 0
167 189 0
170 194 0
169 192 0
171 194 0
168 192 0
169 192 0
171 194 0
171 195 0
165 189 0
171 195 0
172 195 0
170 193 0
173 196 0
167 191 0
173 196 0
165 188 0
170 193 0
171 194 0
166 189 0
169 193 0
170 194 0
164 188 0
165 190 0
167 191 0
171 194 0
170 193 0
171 193 0
169 192 0
167 191 0
168 193 0
167 190 0
168 190 0
166 189 0
169 192 0
173 195 0
167 191 0
168 191 0
166 189 0
168 192 0
166 188 0
167 190 0
170 193 0
165 188 0
168 190 0
165 188 0
168 190 0
166 189 40
62 98 154
61 96 147
61 97 152
61 97 154
60 96 149
62 99 166
62 97 159
62 98 161
61 97 152
62 98 163
61 97 158
61 97 159
62 98 163
61 97 158
61 97 161
62 98 163
61 97 162
61 97 159
61 97 163
62 98 168
62 99 166
62 99 168
63 99 167
62 98 166
62 98 167
62 98 170
62 99 173
60 96 156
62 98 165
62 98 163
62 99 169
63 99 171
62 98 168
62 98 168
61 98 170
62 98 167
62 99 168
62 99 170
61 98 162
61 98 168
62 99 172
62 99 174
62 98 169
62 99 173
62 99 172
61 98 169
62 98 169
61 98 166
62 98 172
62 99 174
62 99 171
62 98 166
62 99 176
62 99 170
61 98 167
63 100 174
62 99 167
62 99 177
62 98 162
62 98 169
62 98 169
63 99 172
62 98 167
62 99 170
62 99 172
62 98 167
61 98 173
61 97 167
62 99 173
62 99 171
61 98 167
63 99 175
62 98 170
61 98 168
62 98 166
62 99 170
62 99 173
62 98 169
63 99 170
63 99 176
63 99 170
62 99 172
62 98 169
62 99 170
62 99 166
62 99 171
61 98 171
62 98 162
63 99 173
63 99 168
62 98 170
62 99 173
63 99 172
63 99 170
62 99 174
62 99 171
62 99 174
62 98 165
61 98 171
62 98 168
61 97 163
62 98 168
62 98 163
62 99 168
62 99 171
62 99 165
62 99 169
62 99 171
62 99 167
63 99 163
62 98 168
62 99 168
62 99 170
62 99 175
63 99 175
62 98 168
62 99 172
62 98 173
62 99 169
63 99 172
62 99 172
61 98 164
63 99 167
62 98 166
62 98 166
62 98 165
62 99 169
62 98 164
63 99 166
61 98 165
61 98 165
63 99 169
62 98 163
62 98 167
62 98 166
62 98 167
63 99 165
62 98 161
62 99 166
62 98 164
62 98 164
62 99 167
62 99 167
63 99 175
63 99 169
62 98 164
61 98 163
62 98 164
62 98 165
63 99 162
61 98 161
62 97 159
63 99 169
61 97 159
62 98 159
62 98 164
62 98 164
61 97 158
62 98 162
62 97 163
62 98 164
62 98 161
61 97 158
61 96 156
62 98 160
61 97 156
61 97 155
61 97 163
61 97 162
60 95 147
61 97 160
61 96 151
61 95 151
62 96 154
61 96 152
61 95 148
60 94 142
60 94 148
56 77 98
53 59 28
60 64 23
54 59 26
60 64 26
56 61 25
66 70 25
52 57 27
61 66 24
55 61 29
67 73 33
61 69 33
68 75 32
84 87 28
78 84 30
75 81 35
80 86 39
87 91 32
95 99 36
81 86 34
85 89 34
93 96 36
93 97 35
96 100 39
103 106 36
114 115 34
112 113 29
119 119 34
117 117 35
117 117 37
123 122 30
120 121 31
125 125 43
134 133 37
142 139 36
144 141 41
140 137 42
154 149 55
141 138 50
146 141 43
151 146 53
148 145 39
149 144 37
159 154 51
161 156 51
160 154 52
160 155 48
158 153 44
153 148 45
158 153 48
160 155 44
161 155 44
164 158 54
161 155 49
158 152 42
163 157 54
158 152 48
162 156 48
159 154 51
158 152 41
159 153 47
157 152 39
161 155 41
164 158 54
164 158 53
161 156 42
157 152 37
161 155 48
157 152 37
160 155 53
159 154 48
160 154 52
161 154 49
160 154 49
158 154 37
157 153 39
165 159 54
158 152 42
161 156 45
163 156 53
163 157 56
162 156 42
163 157 52
162 156 47
163 157 53
158 154 39
159 153 36
159 155 41
162 157 45
164 157 48
158 152 34
162 156 47
159 154 36
158 155 34
158 153 34
158 153 22
156 151 28
157 152 36
156 152 22
157 152 22
153 148 19
156 152 28
157 153 30
154 151 16
154 150 19
155 151 19
154 149 19
153 149 16
149 145 16
151 147 16
153 148 11
141 138 0
142 137 0
138 134 0
143 138 0
140 136 0
134 130 0
138 133 0
127 122 0
123 121 11
173 192 0
169 189 0
171 189 0
171 191 0
169 188 0
170 188 0
172 193 0
172 191 0
167 185 0
167 186 0
170 190 0
172 191 0
168 188 0
168 188 0
171 192 0
168 187 0
172 193 0
171 194 0
170 194 0
171 195 0
172 195 0
169 193 0
173 196 0
171 195 0
170 194 0
172 195 0
171 194 0
174 197 0
174 197 0
172 195 0
171 195 0
171 194 0
173 196 0
171 195 0
170 194 0
173 196 0
168 192 0
174 197 0
171 196 0
169 192 0
172 195 0
166 190 0
168 192 0
171 195 0
173 197 0
172 195 0
169 192 0
167 190 0
171 193 0
174 197 0
170 194 0
168 192 0
167 191 0
170 193 0
170 194 0
171 194 0
172 195 0
170 193 0
169 192 0
173 196 0
169 192 0
168 191 0
171 194 0
169 193 0
171 193 0
168 191 0
167 190 0
171 194 0
167 191 0
174 196 0
167 190 0
169 192 0
169 192 0
168 191 0
169 192 0
169 193 0
167 191 0
165 188 0
169 193 0
167 190 0
169 192 0
168 191 0
170 194 0
167 190 0
165 189 0
165 188 0
169 192 0
163 186 0
168 191 0
164 188 0
171 195 0
167 190 0
164 187 0
169 193 0
171 195 0
164 187 0
167 191 0
169 193 0
170 194 0
169 193 0
166 189 0
153 177 70
62 98 151
61 96 145
62 97 153
62 98 160
61 96 154
61 97 161
61 97 157
61 97 151
62 98 165
61 97 163
61 98 162
62 98 167
62 98 161
61 98 165
61 98 162
61 98 167
62 98 162
62 98 169
62 98 164
61 97 158
62 98 165
60 96 156
62 98 164
61 98 166
62 98 164
61 97 162
62 98 165
62 98 166
62 98 171
62 99 168
61 98 170
61 98 162
61 98 170
62 98 165
62 99 172
62 98 170
62 98 173
62 98 171
62 99 175
62 98 165
62 98 163
63 99 169
62 98 173
62 98 172
61 98 169
61 98 166
62 98 171
62 98 172
63 99 173
62 98 167
62 98 170
63 99 173
62 99 172
61 98 169
62 99 173
62 98 165
62 99 175
63 99 168
62 99 171
61 98 172
62 98 168
61 97 164
62 98 169
63 99 171
62 98 166
62 99 175
62 98 167
61 98 170
62 98 171
62 99 171
63 99 174
62 99 175
62 98 167
62 99 172
62 99 171
62 99 169
62 99 171
63 99 174
62 99 170
62 99 172
62 98 173
62 99 172
62 98 164
62 99 175
62 99 176
63 99 176
62 98 165
62 99 170
61 98 173
62 99 171
62 99 170
63 100 175
62 98 171
62 99 172
63 99 175
63 99 169
62 98 165
62 99 175
62 98 172
62 99 170
62 99 167
62 98 170
63 100 179
62 98 167
62 99 171
63 100 177
62 98 164
62 98 167
62 99 169
62 99 164
61 98 163
63 99 169
62 98 164
63 99 178
62 99 171
62 99 168
62 98 166
63 99 172
62 98 166
62 99 168
63 99 168
62 98 165
62 98 167
63 99 162
61 98 162
62 99 169
61 97 161
63 99 167
61 98 165
62 98 165
61 97 161
62 98 166
62 99 173
63 99 167
62 99 168
62 98 163
61 97 164
61 97 163
62 98 162
62 98 164
62 98 163
62 98 167
62 98 159
62 99 163
62 98 163
62 98 162
62 99 167
62 98 164
63 99 166
62 98 167
63 99 163
61 97 154
61 97 158
61 97 160
63 99 164
62 98 162
62 99 168
62 98 163
62 97 159
61 96 154
62 97 160
62 98 162
61 96 159
61 97 159
61 97 151
62 98 168
62 98 158
61 96 151
62 98 163
61 96 151
61 96 147
61 96 154
60 95 149
61 95 155
60 94 144
61 96 152
60 93 139
59 91 130
62 87 117
60 65 28
63 68 28
52 57 22
55 61 26
69 73 30
69 73 24
72 75 21
67 72 33
74 79 30
62 69 29
60 66 26
71 75 32
71 76 31
68 74 26
74 80 32
92 95 32
82 88 37
93 96 27
82 88 29
98 101 27
99 101 32
98 100 30
103 105 27
100 103 32
111 112 28
117 117 37
112 114 30
128 128 29
125 125 29
123 122 30
126 125 33
134 131 44
130 129 29
138 136 35
134 132 31
139 137 25
142 139 41
148 145 45
150 146 46
154 149 45
158 153 53
158 152 41
151 147 34
155 151 42
154 149 48
157 153 44
155 151 45
160 154 52
158 152 47
155 150 44
156 151 44
157 153 42
155 151 39
157 153 41
157 152 41
158 154 36
165 158 58
159 153 42
162 156 49
160 154 41
158 154 45
160 154 51
161 155 52
159 154 42
163 158 48
159 154 39
158 152 34
157 152 37
161 156 49
159 155 41
158 153 44
159 154 47
165 159 49
153 149 36
158 153 42
158 153 41
157 153 41
156 151 41
162 156 48
162 156 44
158 153 39
157 153 37
158 153 32
159 154 42
160 155 39
154 149 28
158 154 30
158 153 37
157 152 30
159 154 37
155 151 28
157 152 34
158 153 30
155 151 19
159 154 32
156 151 30
154 150 19
154 150 25
150 147 11
155 151 11
153 148 16
151 148 0
155 152 11
153 149 16
154 151 0
155 152 0
149 145 0
149 145 0
147 143 0
145 141 0
144 139 0
139 136 0
142 138 0
141 136 0
142 138 0
131 126 0
129 125 0
124 119 16
156 172 0
170 187 0
170 189 0
167 186 0
169 191 0
172 189 0
169 188 0
170 189 0
170 188 0
168 189 0
171 191 0
172 192 0
171 190 0
170 188 0
170 190 0
170 190 0
173 196 0
175 197 0
172 195 0
168 193 0
171 194 0
169 193 0
172 194 0
171 195 0
170 194 0
168 191 0
174 198 0
169 193 0
174 197 0
171 194 0
169 193 0
170 194 0
169 192 0
173 196 0
172 195 0
174 197 0
170 193 0
172 195 0
174 197 0
170 193 0
170 194 0
172 194 0
174 197 0
171 194 0
171 194 0
167 191 0
169 193 0
173 197 0
171 194 0
169 193 0
169 193 0
166 190 0
171 195 0
168 192 0
167 191 0
168 191 0
170 194 0
170 193 0
166 189 0
169 192 0
166 189 0
169 193 0
171 194 0
167 191 0
167 190 0
170 193 0
168 192 0
168 192 0
170 192 0
172 195 0
168 190 0
165 189 0
163 187 0
170 193 0
166 189 0
166 189 0
168 192 0
169 191 0
168 192 0
164 187 0
165 188 0
171 194 0
167 190 0
168 192 0
165 188 0
170 193 0
166 190 0
169 192 0
166 190 0
168 192 0
169 193 0
165 188 0
167 190 0
167 190 0
167 191 0
168 192 0
166 189 0
167 191 0
169 191 0
170 194 0
168 191 0
168 191 0
135 161 84
61 97 156
61 96 152
62 98 155
62 98 156
62 98 157
63 98 158
62 98 155
62 98 159
60 96 154
61 97 153
62 98 160
60 96 152
62 99 168
61 98 166
62 98 164
61 97 160
62 98 164
61 97 164
62 98 158
62 99 167
63 99 173
61 97 167
62 98 168
62 98 167
61 97 165
61 98 164
62 98 170
61 98 167
62 99 170
62 98 168
61 97 161
61 98 170
62 98 170
61 97 165
62 98 166
62 98 171
62 98 170
62 99 171
62 99 167
63 99 171
62 98 168
62 98 170
62 99 172
62 98 164
62 99 173
62 98 168
62 99 169
62 99 172
61 98 167
62 99 171
61 98 164
62 98 169
62 98 170
62 99 171
63 99 173
62 98 169
62 98 171
62 98 168
62 99 173
62 98 170
61 98 168
62 99 176
62 99 170
62 98 171
63 99 170
62 98 170
62 98 171
63 99 170
62 99 171
61 98 167
61 98 168
62 98 169
62 99 172
62 99 173
63 99 168
62 99 171
62 98 169
61 98 166
62 98 166
63 99 170
61 98 164
62 99 171
62 98 168
62 99 173
63 100 172
62 99 169
62 98 172
63 99 172
63 99 173
63 99 177
63 99 174
62 98 166
62 98 165
62 99 170
63 99 166
62 99 174
62 98 166
63 99 174
62 98 170
62 98 170
62 99 170
62 99 171
62 99 170
62 99 168
62 99 167
62 99 167
62 99 170
62 99 173
62 99 170
63 99 175
62 98 172
62 98 168
62 99 168
62 98 168
62 99 172
62 99 170
62 98 168
63 99 171
61 97 162
62 99 168
61 98 163
62 98 160
62 98 168
63 99 170
62 98 165
63 99 167
62 98 164
62 98 163
61 98 166
61 97 160
62 99 171
62 99 169
62 99 171
61 97 160
63 99 170
63 99 172
62 99 168
63 99 168
62 98 167
63 99 165
62 98 168
62 98 165
62 98 172
62 98 168
62 98 161
62 98 166
62 98 167
62 98 165
61 97 164
62 98 166
63 99 166
62 98 165
62 98 162
61 98 166
61 97 162
62 99 164
62 98 160
62 98 159
62 97 158
62 98 158
61 97 156
61 96 155
62 97 153
61 97 157
61 97 154
62 98 162
61 96 147
61 97 161
60 95 147
62 97 159
60 95 150
61 96 152
60 93 144
60 94 151
60 95 146
59 93 145
60 93 142
59 91 137
59 87 125
60 66 21
64 66 17
52 57 19
78 78 20
67 70 22
64 68 32
67 71 26
65 71 28
64 70 22
73 76 22
62 71 32
66 73 25
66 74 34
73 77 24
74 79 24
91 93 31
85 89 31
91 94 29
92 95 23
94 97 26
105 107 31
98 101 26
109 109 23
104 106 34
109 110 24
117 117 31
108 110 27
113 114 27
126 126 34
115 115 31
126 126 22
131 131 35
126 125 36
136 135 26
143 140 38
144 142 34
142 139 33
148 144 41
145 141 33
147 144 30
150 146 30
154 150 36
156 150 41
149 145 30
151 146 37
156 150 41
153 149 39
151 147 34
152 148 41
159 154 47
156 152 37
155 151 39
155 151 37
156 152 30
161 156 47
154 150 34
156 152 32
163 157 48
157 152 37
157 152 39
155 151 36
156 152 37
152 148 28
161 156 45
159 154 39
157 153 41
159 153 45
161 155 49
155 151 37
155 151 32
153 149 34
153 150 19
154 150 39
157 152 37
154 150 37
157 153 30
160 154 39
154 151 28
153 149 32
161 156 41
154 149 28
157 152 37
152 149 25
157 151 30
158 153 32
153 149 25
152 147 19
156 151 34
160 155 34
154 150 25
154 150 19
154 151 19
156 151 30
152 148 22
154 148 19
155 152 22
153 150 11
152 149 16
156 150 16
152 148 11
153 149 16
150 147 0
151 146 0
154 149 0
151 146 0
152 148 0
152 149 0
146 141 0
144 140 0
144 141 0
144 140 0
140 135 0
136 131 0
131 127 0
132 128 0
128 124 0
124 119 0
129 132 0
169 187 0
171 190 0
170 188 0
169 189 0
170 190 0
172 191 0
171 190 0
171 189 0
169 189 0
170 190 0
175 195 0
170 191 0
170 190 0
170 190 0
170 191 0
171 190 0
171 191 0
170 190 0
167 191 0
171 193 0
173 196 0
173 197 0
172 195 0
173 197 0
169 192 0
171 194 0
168 191 0
171 195 0
173 197 0
169 192 0
170 194 0
173 196 0
170 193 0
171 194 0
170 193 0
172 194 0
174 198 0
173 196 0
170 194 0
172 195 0
170 192 0
169 192 0
172 196 0
175 198 0
169 192 0
168 192 0
170 192 0
168 190 0
174 197 0
171 195 0
166 190 0
170 194 0
169 193 0
169 193 0
171 194 0
173 196 0
170 193 0
171 194 0
169 192 0
170 194 0
169 193 0
167 190 0
169 193 0
169 193 0
170 193 0
174 197 0
168 191 0
163 187 0
168 190 0
171 194 0
167 191 0
168 191 0
169 193 0
171 194 0
167 191 0
172 195 0
171 194 0
169 192 0
171 193 0
172 196 0
169 192 0
168 192 0
168 191 0
167 191 0
168 192 0
169 192 0
167 191 0
166 189 0
165 189 0
170 194 0
173 196 0
167 190 0
167 190 0
167 191 0
169 191 0
169 192 0
166 189 0
161 185 0
169 192 0
164 188 0
166 188 0
166 190 0
133 158 86
61 97 150
60 96 154
61 96 151
62 98 155
61 97 160
61 97 156
61 97 152
61 97 158
61 97 155
62 97 161
60 96 159
61 97 161
61 96 158
61 97 161
61 98 168
62 98 164
62 98 163
62 99 173
63 99 169
61 98 165
62 98 163
61 98 169
62 98 163
61 97 159
61 98 163
62 98 171
61 98 163
63 99 170
62 98 163
62 98 166
61 98 162
62 99 170
63 99 173
61 98 164
62 99 169
61 97 159
62 99 168
62 98 168
61 98 161
61 98 169
62 99 169
62 98 168
61 98 165
62 99 173
62 98 167
61 98 166
62 98 170
62 99 171
62 98 170
61 98 168
63 99 170
62 99 174
62 99 173
62 99 171
63 99 171
62 98 164
61 98 170
62 98 168
62 98 172
62 98 163
62 98 172
62 98 168
62 99 171
62 99 173
62 98 169
62 98 168
63 99 172
61 98 173
62 98 169
62 99 173
61 97 163
62 98 171
61 98 171
63 99 172
63 99 175
61 98 167
61 98 168
61 98 167
62 98 166
62 99 170
63 99 173
62 98 169
62 99 169
62 98 165
62 99 173
62 99 174
62 99 167
62 99 168
61 98 171
62 98 171
62 99 174
62 99 168
62 99 171
63 99 172
62 98 170
63 99 175
63 99 173
62 98 168
62 98 170
62 99 176
62 99 171
63 100 171
62 99 172
62 98 170
62 99 170
62 99 170
62 99 174
63 99 170
62 98 166
63 99 163
63 100 173
62 98 165
63 99 169
63 99 172
62 99 169
62 98 164
63 99 173
63 99 175
62 98 168
61 97 164
61 98 164
62 99 173
63 99 170
62 98 165
62 99 167
61 97 159
61 97 160
62 98 163
61 97 161
62 98 161
62 98 162
62 99 166
62 98 168
63 99 168
62 99 173
62 99 165
62 98 166
62 99 170
62 98 157
62 98 166
63 99 163
62 98 170
61 98 165
63 99 168
61 97 160
61 97 163
62 98 164
60 97 158
62 98 162
61 98 162
63 99 167
62 98 162
61 97 161
62 98 160
62 98 164
62 98 167
62 98 164
62 97 150
62 98 165
61 97 156
62 98 161
62 97 159
63 99 168
61 97 156
61 96 152
61 97 162
61 97 158
61 97 154
62 97 155
62 97 161
63 98 159
61 97 158
61 95 146
61 95 152
61 96 157
60 94 144
61 95 143
59 92 143
60 93 136
68 70 33
64 65 19
79 80 17
60 63 22
61 65 22
70 74 25
74 79 20
60 65 26
72 75 28
67 73 27
70 75 34
73 79 32
77 81 27
74 77 27
86 88 22
80 84 28
95 97 28
97 99 31
91 94 30
91 94 33
107 108 26
101 104 31
103 105 25
112 114 33
106 108 27
111 112 27
114 115 29
119 120 28
120 121 34
121 121 26
129 128 24
126 126 34
123 124 25
134 132 38
135 134 22
138 136 19
141 139 34
151 147 33
144 141 28
146 143 26
148 144 30
144 142 30
152 148 37
150 147 25
155 150 32
150 147 28
148 146 25
153 150 25
152 148 22
148 146 25
152 148 39
150 147 28
150 146 28
156 152 37
159 154 47
157 152 42
156 151 34
154 150 39
151 148 34
158 152 39
154 151 36
152 147 28
156 151 37
156 153 30
155 150 30
160 156 37
156 151 37
156 151 36
158 153 36
156 151 36
154 151 22
158 153 37
158 152 36
158 153 34
155 151 30
154 151 30
153 149 36
155 151 30
159 153 34
157 153 36
157 153 25
159 155 36
153 149 19
159 154 32
157 152 34
158 154 30
157 153 28
155 151 19
155 150 22
154 150 30
155 150 28
155 150 25
156 151 30
154 151 19
153 149 19
155 150 16
153 149 0
152 148 0
152 149 0
155 151 0
155 151 11
150 148 0
154 150 0
151 146 0
150 147 0
149 144 0
152 148 0
144 140 0
144 140 0
137 132 0
140 134 0
143 139 0
138 135 0
133 129 0
127 124 0
118 112 0
121 118 0
159 176 0
166 184 0
171 190 0
170 192 0
170 189 0
170 191 0
170 190 0
169 187 0
172 191 0
169 188 0
169 188 0
172 191 0
168 187 0
172 191 0
171 192 0
170 188 0
169 189 0
167 188 0
171 191 0
172 196 0
170 194 0
173 196 0
174 197 0
172 195 0
170 194 0
173 196 0
173 197 0
170 193 0
169 193 0
170 194 0
172 195 0
172 196 0
170 194 0
172 196 0
170 192 0
171 194 0
170 194 0
173 196 0
169 193 0
169 193 0
171 195 0
171 195 0
173 196 0
169 193 0
175 197 0
170 192 0
174 197 0
172 195 0
169 192 0
171 194 0
169 192 0
170 193 0
171 194 0
172 195 0
168 192 0
168 193 0
169 191 0
167 191 0
168 192 0
170 194 0
169 191 0
168 191 0
167 190 0
167 191 0
169 193 0
172 195 0
167 190 0
170 193 0
171 193 0
170 193 0
167 191 0
173 196 0
169 191 0
169 192 0
166 190 0
169 192 0
167 190 0
170 192 0
165 188 0
167 191 0
165 189 0
167 191 0
169 193 0
172 195 0
172 196 0
170 193 0
167 191 0
165 188 0
169 192 0
166 189 0
167 190 0
167 190 0
169 192 0
167 190 0
165 188 0
170 193 0
172 195 0
168 191 0
168 193 0
170 193 0
170 193 0
168 191 0
168 192 0
134 159 94
61 97 152
61 96 153
61 96 145
61 97 150
61 96 151
61 97 158
62 98 156
60 96 155
61 97 159
61 97 157
61 97 159
61 97 160
62 98 165
62 98 164
62 98 164
62 98 161
61 97 159
61 97 163
61 97 161
61 97 164
63 99 167
62 98 168
60 96 160
61 97 160
62 98 167
61 97 168
61 97 160
61 97 164
61 98 162
61 97 160
62 98 161
62 98 165
62 99 172
61 97 159
62 99 173
62 98 168
62 99 168
61 97 162
62 99 175
62 98 168
62 98 170
62 98 164
61 98 171
62 99 172
61 98 170
62 99 173
62 98 169
62 99 169
61 98 167
62 98 172
62 98 171
63 100 177
62 99 175
62 99 167
61 97 167
62 98 168
61 97 166
62 98 170
62 99 173
62 99 165
62 98 172
61 98 165
62 99 174
62 99 170
62 99 166
62 98 174
61 98 171
62 98 168
61 98 169
62 98 168
62 98 163
62 99 171
62 98 167
61 98 168
62 99 171
63 99 172
62 98 168
62 98 172
62 99 172
63 99 176
61 98 167
62 98 167
62 99 171
62 99 167
62 99 168
61 98 169
62 98 169
62 98 168
61 97 159
62 99 168
63 99 176
62 98 165
62 98 164
62 98 164
61 97 160
61 97 166
62 99 167
62 98 169
62 98 166
62 98 164
62 98 167
62 99 172
63 99 173
62 98 168
61 98 166
62 99 170
62 99 172
62 99 165
62 99 168
62 99 169
63 99 168
62 98 163
62 99 171
62 98 163
62 99 168
62 99 165
63 99 168
62 98 172
62 98 162
62 99 166
62 99 169
62 99 170
62 98 169
62 99 167
62 98 163
62 99 165
61 97 158
62 99 171
62 99 167
62 99 169
62 99 166
63 99 170
63 99 165
62 98 163
62 99 170
61 98 160
62 98 163
62 97 156
63 99 169
61 97 159
62 98 167
62 99 166
61 98 159
62 99 166
62 99 166
61 97 158
61 97 158
62 98 167
62 98 162
62 98 163
61 97 155
62 99 166
62 98 164
62 98 161
62 98 162
61 96 155
62 98 160
61 96 156
61 96 147
61 96 153
61 98 158
62 98 158
62 97 158
62 98 161
61 97 159
62 97 159
61 97 158
61 96 158
62 97 153
61 96 156
61 95 146
61 96 153
61 96 152
61 96 158
60 94 142
61 95 149
60 94 144
60 93 142
59 91 131
84 87 41
67 70 22
68 71 24
62 66 14
70 73 18
62 67 17
67 70 24
79 81 20
66 72 25
75 78 28
78 82 28
80 81 21
77 81 23
72 78 30
80 85 33
83 87 30
86 88 26
91 94 27
98 100 25
103 105 27
99 101 25
98 101 26
102 105 25
99 102 28
110 111 30
102 105 30
105 108 31
115 116 21
116 116 30
128 126 16
118 118 26
132 131 22
131 129 20
133 133 16
133 132 18
132 130 24
140 138 21
145 142 16
140 138 11
151 147 22
147 144 22
148 146 19
152 147 36
147 144 11
151 146 34
146 143 22
149 146 22
148 144 37
146 144 22
151 147 28
152 149 28
155 151 28
150 147 32
151 147 32
155 151 32
154 151 19
151 148 25
153 149 36
151 147 30
156 151 32
156 151 32
156 152 32
151 148 22
154 149 36
152 148 19
158 154 37
157 152 37
158 153 41
155 151 19
156 152 32
155 150 25
158 153 25
159 153 32
155 151 32
154 151 25
159 154 37
155 150 19
157 152 28
157 151 34
156 151 25
157 152 25
154 150 22
154 149 19
152 148 22
154 150 19
157 153 28
157 152 22
155 151 22
154 150 11
156 151 25
151 148 11
151 148 0
153 149 16
149 145 0
153 149 11
154 151 0
152 149 0
151 147 0
151 147 0
151 146 0
151 146 0
153 150 0
152 149 0
151 148 0
151 147 0
148 144 0
151 147 0
145 142 0
145 141 0
141 138 0
143 139 0
138 133 0
132 127 0
137 134 0
128 125 0
116 112 0
149 161 0
168 186 0
170 191 0
164 181 0
168 188 0
169 186 0
167 184 0
169 186 0
168 188 0
170 189 0
169 189 0
167 187 0
168 187 0
169 189 0
171 190 0
171 190 0
170 189 0
172 193 0
173 194 0
167 187 0
171 194 0
174 198 0
171 195 0
172 196 0
172 195 0
174 197 0
169 193 0
169 191 0
170 194 0
169 193 0
171 195 0
172 195 0
170 193 0
169 193 0
173 196 0
171 195 0
173 196 0
173 195 0
174 197 0
170 194 0
167 191 0
171 194 0
171 194 0
171 194 0
168 191 0
172 195 0
171 195 0
168 192 0
173 196 0
172 195 0
168 190 0
168 191 0
172 195 0
172 195 0
170 194 0
170 193 0
167 190 0
172 194 0
170 194 0
168 192 0
169 193 0
173 196 0
172 195 0
169 192 0
168 191 0
170 193 0
171 195 0
169 193 0
168 192 0
169 193 0
170 194 0
171 195 0
170 193 0
167 191 0
168 191 0
172 194 0
167 191 0
168 191 0
170 194 0
167 191 0
171 193 0
170 194 0
170 193 0
170 193 0
170 192 0
170 192 0
168 192 0
166 190 0
167 190 0
165 188 0
167 191 0
167 190 0
168 190 0
166 190 0
168 191 0
164 187 0
166 190 0
162 185 0
162 185 0
163 186 0
165 188 0
165 188 0
166 189 0
167 190 0
114 140 120
62 98 156
61 96 151
62 97 152
61 97 152
60 96 148
61 97 157
62 97 153
61 97 156
61 97 159
62 98 162
61 97 154
61 97 152
62 98 167
62 98 158
61 98 163
62 98 159
61 97 164
62 98 162
63 99 167
62 99 166
62 98 167
61 97 167
62 99 168
61 98 163
62 99 174
61 97 165
62 98 168
62 98 163
61 97 160
62 98 166
62 99 171
62 98 167
62 98 167
61 98 167
62 99 171
62 98 170
62 98 170
62 97 159
62 98 168
62 98 165
61 97 163
61 97 166
62 98 166
62 99 174
62 98 173
62 99 169
62 99 167
61 98 167
61 97 162
62 98 172
62 99 170
62 99 169
61 98 167
62 99 168
62 98 169
62 98 165
62 99 174
63 99 167
62 98 171
63 99 176
63 99 174
62 99 174
62 99 174
62 99 172
62 98 172
62 99 171
62 98 168
62 99 174
62 98 167
62 99 165
63 99 168
62 99 170
62 99 170
62 99 171
62 99 172
62 98 164
62 98 167
62 98 168
62 98 165
61 97 167
62 99 171
62 99 175
63 99 170
62 99 173
61 98 166
62 99 174
62 98 172
62 98 167
62 99 176
62 98 167
61 98 167
62 98 167
62 98 165
61 98 164
62 99 171
63 99 172
62 98 170
63 99 170
62 98 163
61 97 160
62 98 165
62 99 174
62 98 167
62 99 171
61 97 164
62 98 168
62 98 166
62 98 164
62 98 162
62 98 168
62 98 162
62 99 172
62 98 166
62 99 169
62 98 165
62 98 166
62 99 166
62 98 167
62 98 167
62 98 163
63 99 171
62 98 169
62 98 169
63 99 166
62 98 164
62 99 169
63 99 172
61 98 164
62 99 167
62 98 166
63 99 166
62 98 161
62 98 163
62 98 165
62 98 166
62 98 170
61 97 154
62 98 161
63 99 169
62 98 164
62 99 166
61 98 163
62 98 161
62 98 161
62 97 157
61 97 160
62 98 157
62 98 162
60 96 151
62 98 160
61 97 159
61 97 155
62 98 167
62 98 162
62 98 163
62 98 163
62 98 163
62 97 154
61 97 159
62 98 159
61 97 159
62 97 159
62 97 160
62 98 157
61 97 155
61 97 153
61 96 155
61 96 151
62 97 159
62 97 154
62 97 156
61 97 156
60 95 146
60 95 148
61 95 148
61 96 157
59 93 138
60 94 143
58 91 134
72 82 69
77 76 13
75 77 19
82 82 20
71 73 22
80 80 21
71 75 20
79 81 24
84 87 29
77 78 18
79 81 23
80 83 25
86 90 30
76 80 29
91 94 32
92 95 27
87 90 31
85 89 34
91 92 28
89 91 27
99 102 28
98 99 23
106 108 27
107 109 22
109 111 30
102 105 26
114 115 23
116 117 15
119 119 19
123 122 23
125 125 16
129 128 21
124 123 24
131 129 22
135 133 8
128 127 14
140 138 8
136 135 0
139 138 11
147 144 0
141 138 0
145 143 11
145 143 0
144 142 19
149 146 0
147 144 19
149 147 25
151 148 28
149 147 16
153 149 25
150 147 19
149 146 22
147 144 22
149 146 22
151 148 22
153 148 28
149 147 11
152 150 22
152 149 11
153 149 22
155 151 28
151 150 16
155 152 28
145 143 25
154 151 32
150 147 25
153 150 22
154 150 19
150 146 19
152 147 22
155 151 22
154 149 19
152 149 25
154 150 19
153 149 16
153 150 22
153 150 19
156 150 22
157 152 19
150 146 19
150 146 0
152 149 19
149 147 11
151 147 19
153 149 11
155 151 16
152 147 16
151 147 0
152 149 0
152 148 11
153 149 0
152 148 0
150 145 0
155 151 0
151 148 0
150 146 0
154 149 0
150 146 0
153 150 0
151 147 0
151 147 0
149 145 0
150 145 0
148 143 0
148 143 0
149 144 0
144 140 0
148 144 0
139 135 0
138 133 0
133 129 0
130 126 0
132 127 0
128 122 0
129 124 0
128 130 0
169 186 0
169 187 0
168 186 0
168 187 0
171 190 0
167 185 0
169 189 0
170 191 0
172 190 0
169 187 0
169 188 0
169 187 0
169 188 0
169 189 0
170 188 0
170 190 0
170 189 0
168 187 0
170 190 0
172 191 0
171 194 0
173 196 0
171 194 0
172 195 0
171 194 0
169 193 0
169 193 0
172 196 0
173 195 0
168 191 0
173 195 0
170 192 0
170 194 0
168 192 0
173 196 0
170 193 0
166 189 0
171 194 0
171 195 0
170 193 0
169 192 0
170 193 0
171 194 0
173 196 0
172 195 0
167 191 0
172 195 0
170 193 0
168 192 0
167 191 0
175 197 0
171 193 0
171 195 0
171 194 0
169 192 0
169 192 0
169 192 0
169 193 0
168 192 0
168 192 0
167 189 0
169 192 0
169 192 0
167 190 0
169 192 0
171 193 0
167 189 0
167 190 0
169 192 0
168 192 0
172 195 0
166 190 0
168 191 0
168 192 0
166 190 0
169 192 0
166 189 0
171 193 0
173 195 0
168 191 0
168 192 0
168 191 0
168 192 0
168 192 0
166 190 0
168 191 0
166 190 0
171 195 0
170 192 0
164 188 0
169 192 0
167 190 0
166 189 0
164 187 0
165 189 0
167 190 0
166 190 0
166 189 0
166 189 0
170 192 0
168 191 0
168 192 0
166 189 0
167 190 0
110 136 108
61 96 153
61 96 153
61 96 151
61 97 151
62 98 159
61 98 162
62 98 157
61 96 155
60 96 151
63 99 165
62 98 163
62 98 161
62 98 163
61 97 159
62 98 161
61 97 153
61 97 160
61 97 160
63 99 169
62 98 163
62 99 165
61 97 162
61 97 165
62 98 160
61 97 165
62 99 170
62 98 169
61 97 160
61 97 161
62 98 167
62 98 169
61 98 166
63 99 168
61 97 163
62 98 162
62 98 164
62 99 169
62 98 163
62 98 169
62 98 169
62 98 171
61 98 170
62 99 172
62 98 172
62 99 174
61 98 160
61 98 167
61 98 169
61 97 167
62 99 172
62 98 166
61 97 166
62 99 167
62 98 171
62 98 168
61 98 166
62 98 168
61 97 167
62 99 170
62 99 174
62 99 170
62 98 166
62 99 169
61 98 166
61 97 165
62 99 170
61 98 168
62 99 169
62 99 172
61 98 167
62 98 162
63 99 171
61 98 168
61 98 169
62 98 169
61 98 170
61 98 171
62 99 169
62 98 166
62 99 169
63 99 169
61 97 158
61 98 166
62 99 169
62 98 167
63 99 172
62 98 164
63 99 170
62 99 174
62 98 167
62 99 174
62 99 172
62 98 167
62 98 168
62 98 163
63 99 170
62 99 173
63 99 172
62 98 167
61 97 162
62 98 167
62 99 167
61 98 169
63 99 173
62 99 168
63 99 170
63 99 170
61 97 159
62 99 169
62 98 165
62 98 168
62 98 165
62 99 168
62 99 166
62 98 169
62 98 164
62 98 160
62 98 164
62 98 164
62 99 168
62 98 166
62 98 169
63 99 166
62 98 169
63 99 170
62 98 163
62 99 168
62 99 171
62 98 166
62 98 161
62 98 164
62 98 165
62 99 172
62 99 165
62 98 162
62 99 165
62 99 167
63 99 161
62 97 158
62 98 165
61 97 159
61 97 155
61 97 159
62 98 165
61 97 159
62 98 165
63 98 164
62 98 164
62 98 158
60 96 154
62 98 161
61 97 161
62 99 166
62 98 158
61 96 152
61 96 157
61 97 156
63 99 162
61 97 154
62 98 160
61 97 155
61 96 150
61 97 160
61 96 157
62 98 158
62 97 157
63 98 161
61 96 152
61 96 153
61 97 159
61 95 149
61 96 149
61 96 153
61 96 156
60 94 145
59 93 144
61 96 153
60 94 144
58 91 137
84 88 46
74 76 20
82 82 14
89 89 17
71 74 21
74 75 17
79 82 27
75 77 18
74 77 25
78 80 25
89 90 22
77 81 20
86 88 21
88 88 24
84 86 20
94 95 22
82 86 28
93 94 28
96 98 24
103 104 23
96 97 23
98 100 26
110 110 14
114 114 24
110 111 25
112 112 19
118 118 20
119 119 16
118 118 21
126 125 16
122 122 12
130 129 18
130 128 14
128 127 14
135 134 11
136 135 18
139 137 11
139 136 0
141 138 8
142 139 0
142 139 0
145 142 0
142 140 0
143 141 0
146 144 0
145 143 0
148 144 16
145 141 16
144 142 16
148 145 0
149 146 11
151 147 16
149 145 22
150 147 11
147 145 11
147 144 19
146 144 11
147 143 16
148 145 16
152 149 16
151 148 16
150 147 16
151 148 0
152 149 25
151 147 16
153 149 19
154 149 19
156 153 19
151 148 0
150 146 19
154 151 22
153 150 16
153 150 16
152 148 16
155 150 19
148 145 0
149 146 16
154 151 16
149 146 0
152 149 16
151 148 0
151 148 0
149 146 0
152 149 0
153 149 0
154 149 0
151 148 0
151 146 0
151 148 0
151 148 0
152 149 0
151 148 0
153 149 0
152 148 0
153 148 0
153 149 0
152 148 0
153 148 0
150 146 0
153 149 0
156 152 0
151 146 0
150 146 0
150 146 0
142 140 0
147 142 0
142 138 0
143 140 0
143 139 0
140 135 0
132 127 0
136 132 0
127 124 0
127 122 0
123 121 0
162 177 0
172 191 0
168 184 0
171 189 0
169 188 0
167 186 0
167 185 0
167 185 0
168 188 0
166 184 0
168 186 0
170 189 0
169 189 0
168 189 0
169 189 0
170 189 0
168 189 0
170 188 0
168 187 0
171 191 0
172 193 0
173 197 0
172 195 0
169 192 0
171 195 0
171 194 0
172 195 0
174 197 0
172 194 0
173 196 0
171 195 0
170 194 0
171 195 0
167 191 0
170 192 0
170 193 0
170 193 0
172 195 0
170 193 0
174 196 0
170 194 0
170 193 0
170 194 0
171 194 0
173 196 0
171 194 0
170 193 0
170 193 0
166 189 0
171 195 0
172 194 0
170 192 0
172 196 0
170 193 0
171 195 0
168 190 0
171 194 0
172 195 0
171 195 0
172 196 0
172 194 0
171 194 0
171 194 0
169 191 0
166 189 0
168 191 0
168 192 0
170 193 0
171 194 0
172 194 0
172 195 0
171 193 0
168 192 0
167 190 0
168 192 0
166 190 0
169 192 0
168 192 0
168 191 0
171 194 0
171 194 0
169 192 0
167 191 0
169 191 0
170 193 0
168 191 0
163 186 0
164 186 0
164 187 0
169 191 0
170 193 0
169 192 0
167 190 0
159 182 0
166 191 0
164 187 0
165 188 0
169 193 0
164 187 0
168 191 0
165 189 0
166 190 0
170 194 0
166 189 0
166 188 0
102 129 122
62 97 150
61 96 148
62 97 157
61 97 153
61 97 148
61 97 152
61 97 152
61 97 153
61 97 160
61 97 161
61 96 156
62 98 164
62 98 162
62 98 164
60 96 154
62 98 161
61 97 160
62 99 168
62 98 168
62 98 164
61 97 161
61 98 164
62 98 164
62 98 162
61 98 166
61 98 166
61 97 160
62 98 164
61 97 159
62 98 165
61 97 168
61 97 166
62 98 170
62 98 165
62 99 170
62 98 172
61 97 158
62 99 170
62 99 169
62 98 164
61 97 165
62 98 163
61 97 165
62 98 169
62 99 172
61 98 165
62 99 167
61 98 165
62 98 168
62 98 169
62 98 169
62 99 168
60 97 161
62 99 168
62 99 172
62 99 172
62 99 171
62 98 170
61 98 165
62 98 169
61 97 163
61 98 168
62 98 166
63 99 171
61 98 161
62 98 170
62 98 166
61 97 167
62 98 171
62 98 168
62 98 169
61 97 163
62 99 169
62 98 168
63 99 169
62 98 168
62 99 172
62 99 169
62 99 169
62 98 164
62 99 173
62 99 168
62 99 170
61 98 165
62 98 171
62 99 173
62 99 168
61 98 168
62 98 164
62 98 168
62 99 167
62 98 168
63 99 172
62 98 165
63 100 174
62 98 166
63 99 165
63 99 169
61 98 163
62 98 163
62 98 168
62 98 169
62 99 168
62 99 168
62 98 165
63 99 165
62 99 169
61 97 163
62 99 171
62 98 166
62 98 158
62 99 168
62 98 166
62 98 165
62 99 168
62 98 161
63 99 168
62 98 165
62 98 163
62 99 165
62 99 166
62 99 170
62 99 167
63 99 169
62 98 169
61 97 160
63 99 165
62 98 165
62 98 158
62 98 170
62 98 163
63 99 164
63 99 164
62 99 167
62 98 161
62 98 165
61 98 163
62 98 165
62 99 167
63 99 163
63 99 163
62 98 159
62 98 157
62 98 161
61 98 165
62 98 159
61 97 157
62 98 164
63 99 165
61 97 157
62 97 156
62 98 162
62 98 160
62 97 153
63 98 161
62 97 158
62 97 156
61 97 153
61 97 153
62 98 163
62 97 158
62 97 159
61 96 151
62 98 166
62 98 158
61 97 155
61 97 159
61 96 155
61 96 152
62 97 161
61 96 152
61 97 157
61 96 152
60 95 146
60 95 146
60 95 143
61 95 148
58 92 133
58 90 133
79 86 71
92 91 13
85 84 18
82 83 20
76 76 17
74 76 21
84 84 18
77 78 17
76 79 22
85 86 23
76 79 22
86 88 19
81 84 26
94 94 20
84 86 22
102 100 20
87 89 25
90 92 19
94 95 25
106 106 28
102 101 21
95 98 22
102 102 16
113 113 16
113 114 20
113 113 14
116 116 20
121 120 14
120 120 20
120 120 20
124 123 14
126 125 12
126 126 16
127 126 14
137 135 18
138 136 8
140 138 11
139 137 0
143 139 0
141 140 0
147 144 0
140 137 0
146 143 0
141 138 0
142 139 0
146 141 0
151 148 0
149 146 0
143 140 0
147 145 0
142 138 0
145 143 0
150 147 0
147 144 0
143 141 0
148 144 0
147 145 0
148 146 0
149 146 0
147 144 11
149 145 0
147 144 0
151 146 0
152 149 0
146 143 0
153 149 0
153 149 11
149 145 11
145 144 0
151 148 0
151 148 0
148 145 0
151 149 0
148 144 0
148 144 0
152 149 0
151 146 0
151 148 0
150 147 0
148 144 0
150 146 0
153 150 0
152 149 0
154 149 0
149 145 0
153 149 0
149 146 0
152 148 0
152 149 0
152 148 0
148 144 0
151 148 0
151 148 0
151 146 0
153 149 0
151 148 0
155 151 0
149 146 0
154 150 0
151 146 0
149 145 0
153 148 0
152 147 0
147 143 0
144 140 0
141 138 0
140 135 0
141 136 0
140 136 0
138 133 0
131 127 0
129 125 0
117 113 0
119 116 0
151 162 0
171 190 0
169 187 0
169 188 0
169 187 0
169 187 0
166 184 0
170 187 0
168 186 0
172 192 0
172 191 0
171 189 0
168 188 0
170 189 0
168 186 0
170 189 0
168 187 0
170 190 0
168 186 0
172 190 0
171 190 0
168 186 0
173 196 0
172 194 0
172 195 0
173 195 0
169 192 0
169 193 0
172 195 0
171 195 0
175 198 0
171 195 0
169 193 0
170 193 0
174 197 0
170 193 0
174 196 0
172 195 0
165 188 0
171 194 0
170 193 0
170 193 0
171 195 0
171 194 0
173 196 0
168 191 0
170 193 0
169 192 0
168 191 0
172 196 0
168 191 0
172 196 0
170 194 0
170 194 0
170 193 0
172 195 0
172 195 0
171 194 0
175 198 44
174 197 51
168 191 44
174 196 72
172 195 51
174 197 51
174 196 72
174 196 62
173 196 62
173 195 51
171 193 0
169 192 25
169 193 0
170 194 0
168 192 0
173 196 0
168 191 0
168 191 0
167 190 0
166 191 0
167 189 0
167 190 0
170 194 0
166 189 0
166 190 0
170 193 0
167 190 0
172 195 0
168 191 0
170 193 0
168 191 0
170 193 0
166 189 0
165 188 0
165 188 0
167 191 0
163 187 0
169 192 0
166 188 0
171 194 0
165 188 0
164 188 0
165 188 0
164 187 0
161 185 0
169 192 0
167 192 0
169 191 0
98 126 131
60 96 142
62 97 149
61 96 155
61 96 152
61 97 154
61 97 163
61 97 157
61 96 154
61 96 158
61 97 158
62 98 163
61 97 164
61 97 160
61 97 157
60 96 155
61 97 160
61 98 165
61 97 161
61 97 160
61 97 160
61 98 166
62 98 167
60 96 162
62 98 162
62 99 167
59 95 158
61 97 166
62 98 161
62 98 169
62 98 168
61 97 156
61 98 170
61 97 162
62 98 166
61 97 171
61 98 165
62 99 174
62 99 172
61 98 169
62 99 170
61 98 163
61 97 159
61 98 164
62 98 173
62 98 165
62 98 167
61 98 167
61 97 163
61 98 167
62 98 168
62 98 169
62 98 168
62 98 167
62 98 165
62 99 170
61 98 165
62 98 165
62 98 165
61 98 166
63 99 169
62 98 169
62 98 168
62 98 171
61 98 169
63 99 171
61 98 168
62 98 161
63 99 174
62 99 170
63 99 171
61 98 169
61 98 167
62 99 169
63 100 173
62 99 168
62 99 174
63 99 171
62 98 161
62 99 169
63 99 166
62 98 167
62 98 163
62 98 167
62 98 163
62 98 170
62 98 168
62 98 162
61 98 167
62 98 166
62 98 170
62 99 169
62 98 166
61 97 155
62 98 171
62 99 166
62 98 163
62 99 172
61 98 169
63 99 168
62 99 172
63 99 171
62 99 170
62 99 171
62 98 167
62 99 167
62 99 166
62 99 167
61 98 163
63 99 171
62 98 161
63 99 173
62 98 170
63 99 170
61 97 159
62 98 170
62 98 164
62 98 164
62 98 162
62 98 169
61 98 164
62 99 166
62 98 164
62 98 160
62 98 165
62 98 162
62 98 162
62 98 167
62 99 170
62 98 168
62 99 168
62 99 167
62 98 162
62 98 164
61 98 166
62 98 168
62 98 162
61 97 158
62 97 158
62 98 155
62 98 163
63 99 164
62 98 164
63 99 166
61 98 161
62 98 158
63 99 165
63 99 168
62 98 165
61 98 161
63 99 163
62 98 162
62 98 162
62 99 165
62 98 163
62 98 166
61 97 156
62 98 161
62 98 161
61 97 156
62 97 156
62 98 156
62 97 158
62 98 158
62 97 155
61 97 156
61 96 151
61 97 155
61 96 154
62 98 159
61 95 155
60 95 146
60 96 150
61 96 153
61 96 154
61 96 148
61 94 142
59 93 142
59 92 141
58 90 134
79 85 72
88 86 17
87 87 17
79 80 22
93 91 14
76 77 18
82 80 14
80 78 16
83 83 20
84 86 21
89 89 26
81 83 25
93 93 16
90 91 22
97 98 18
104 102 12
94 96 24
95 95 18
104 105 21
100 100 16
109 109 21
109 107 23
116 116 16
110 111 27
115 114 21
115 114 14
123 121 22
120 118 16
120 119 14
115 115 16
112 113 18
121 120 18
128 126 14
126 124 14
131 129 8
137 134 11
138 135 11
141 138 0
137 135 0
144 141 0
140 137 0
139 137 0
141 138 0
142 140 0
150 147 0
140 138 0
146 144 0
144 142 0
144 142 0
149 146 0
143 141 0
148 144 0
151 148 0
150 147 0
144 142 0
149 147 0
146 143 0
148 146 0
148 144 0
146 145 0
147 144 0
148 146 0
151 148 0
150 147 0
152 149 0
148 145 0
150 146 0
152 150 0
149 147 0
152 149 0
147 145 0
153 149 0
146 144 0
151 147 0
154 151 0
151 147 0
150 147 0
150 147 0
152 147 0
154 151 0
151 147 0
151 148 0
152 148 0
150 147 0
152 149 0
150 147 0
152 149 0
151 148 0
154 150 0
149 145 0
152 148 0
149 146 0
144 141 0
147 142 0
152 148 0
148 144 0
153 148 0
149 145 0
152 148 0
151 147 0
150 144 0
147 143 0
147 143 0
145 141 0
144 139 0
141 135 0
142 137 0
137 133 0
130 125 0
130 125 0
127 123 0
126 122 0
122 118 0
140 148 0
169 188 0
166 182 0
169 188 0
169 188 0
166 182 0
167 185 0
169 187 0
168 185 0
169 188 0
170 188 0
172 191 0
167 187 0
165 182 0
169 189 0
165 182 0
170 189 0
169 188 0
170 190 0
170 191 0
169 189 0
169 188 0
168 188 0
171 194 0
172 195 0
173 197 0
171 195 0
167 191 0
170 194 0
172 196 0
173 196 0
170 193 0
169 192 0
170 194 0
169 192 0
170 193 0
170 194 0
171 195 0
168 192 0
170 194 0
170 193 0
168 192 0
170 194 0
172 195 0
172 195 0
170 194 0
169 193 0
168 191 0
171 195 0
171 194 67
177 199 76
175 197 80
180 201 99
181 202 102
182 203 105
183 203 111
188 207 130
183 203 133
192 211 153
192 211 161
186 206 135
188 207 142
191 209 147
179 200 105
186 206 135
184 203 128
187 207 144
186 205 144
190 209 142
184 205 128
188 208 135
181 202 130
179 199 125
179 199 111
187 207 142
178 200 114
180 202 95
177 198 76
176 197 80
169 192 57
174 196 44
166 190 0
163 186 0
170 194 0
170 193 0
167 190 0
166 189 0
167 190 0
166 190 0
174 197 0
169 192 0
170 193 0
164 188 0
169 193 0
167 191 0
168 191 0
169 192 0
167 191 0
169 192 0
167 190 0
168 191 0
167 191 0
167 191 0
165 189 0
162 186 0
165 187 0
170 194 0
106 134 128
59 95 142
60 95 140
62 98 161
61 97 158
60 96 148
62 98 158
62 97 158
61 96 158
62 98 154
61 97 159
61 97 154
62 98 163
60 96 155
61 98 162
61 97 157
61 97 161
61 97 161
61 97 154
61 97 159
60 96 159
60 96 154
62 98 163
61 97 162
62 99 168
61 97 163
62 98 165
62 98 166
61 97 158
62 98 164
62 98 162
61 98 170
62 98 167
63 100 177
62 98 166
62 98 166
62 99 170
62 98 165
61 98 166
61 97 161
61 97 164
62 98 161
62 98 170
62 98 164
60 97 163
63 99 169
62 98 166
62 99 169
61 97 161
61 98 170
62 99 172
62 98 168
62 99 172
61 98 168
62 99 169
61 97 163
62 98 167
62 99 173
62 98 169
62 99 170
61 97 164
61 98 169
62 98 172
62 98 166
62 98 164
62 98 169
61 98 167
62 98 168
63 99 168
62 99 169
61 98 165
62 98 167
62 98 163
62 99 173
61 97 155
62 98 172
62 98 169
62 98 166
62 98 165
62 99 168
62 98 169
62 98 166
62 98 168
63 99 169
62 98 170
63 99 167
62 98 167
62 98 169
61 98 162
62 98 166
62 99 169
62 99 170
62 98 161
62 99 170
62 99 168
62 98 165
63 99 173
63 99 169
63 99 167
62 98 160
63 98 161
62 99 171
62 98 161
62 98 164
62 98 167
62 98 164
61 98 170
63 99 175
62 98 166
62 98 169
63 99 169
62 99 170
62 98 158
62 99 166
62 98 161
62 99 169
62 98 165
63 100 173
62 98 168
62 98 160
62 98 161
62 99 167
61 98 168
62 98 160
62 98 167
61 98 161
63 99 167
62 98 164
62 98 160
63 99 167
62 99 166
62 98 161
62 97 157
62 99 167
62 98 163
62 98 156
61 97 156
61 97 156
62 98 163
63 99 162
61 97 154
61 97 161
62 98 159
62 97 160
61 98 162
63 99 166
62 98 158
62 98 165
63 99 165
63 99 165
62 97 151
62 98 164
63 98 165
62 98 160
62 97 161
62 97 159
62 97 158
61 97 161
61 97 156
62 98 158
62 98 165
62 97 156
60 96 146
61 97 155
62 98 160
62 97 156
62 97 150
61 97 161
62 97 151
60 95 147
62 97 156
60 95 152
61 96 150
61 96 151
61 96 151
61 96 151
60 94 145
59 92 140
59 93 144
59 92 142
81 90 86
86 88 6
88 86 9
84 86 18
80 79 11
87 85 11
86 87 12
81 82 12
87 87 14
92 92 20
83 86 19
89 90 23
85 87 22
86 86 14
94 96 26
108 107 14
93 93 29
99 99 15
85 88 22
98 98 18
107 106 18
113 113 16
104 106 22
102 103 20
114 113 14
111 111 21
113 114 16
114 113 21
116 115 14
127 125 16
125 125 16
119 118 19
126 124 11
129 128 16
135 133 11
135 133 11
131 129 14
132 129 0
138 136 0
138 136 0
136 134 0
137 135 0
140 138 0
146 143 0
141 139 0
145 143 0
144 141 0
141 137 0
147 145 0
145 143 0
146 144 0
144 142 0
145 142 0
151 148 0
142 139 0
147 144 0
142 140 0
149 145 0
146 142 0
148 146 0
151 148 0
147 145 0
148 146 0
150 148 0
150 147 0
150 147 0
148 146 0
149 146 0
148 144 0
149 146 0
148 145 0
151 147 0
149 146 0
150 144 0
151 148 0
149 146 0
151 147 0
152 149 0
149 147 0
150 147 0
149 147 0
149 145 0
151 148 0
151 146 0
149 146 0
149 147 0
150 146 0
148 144 0
153 149 0
151 148 0
150 147 0
152 149 0
150 147 0
151 147 0
152 148 0
151 147 0
151 144 0
151 147 0
149 144 0
150 145 0
147 141 0
147 142 0
144 139 0
145 140 0
138 134 0
142 135 0
140 137 0
136 130 0
136 132 0
131 126 0
124 119 0
115 111 0
140 143 0
169 185 0
170 186 0
166 182 0
170 187 0
170 188 0
168 186 0
168 186 0
169 184 0
169 187 0
169 188 0
171 188 0
167 185 0
171 188 0
172 191 0
168 186 0
169 190 0
172 192 0
168 188 0
167 188 0
171 192 0
172 191 0
171 191 0
171 190 0
172 195 0
171 194 0
174 197 0
171 194 0
175 198 0
175 198 0
168 191 0
167 191 0
171 194 0
172 195 0
168 192 0
171 194 0
171 195 0
172 195 0
166 189 0
170 194 0
172 194 0
170 193 0
168 191 0
171 194 0
172 196 25
175 196 72
181 202 99
181 202 99
178 199 95
191 210 142
182 202 117
186 206 135
185 205 140
186 206 130
188 207 144
188 206 147
184 205 120
186 206 130
182 202 128
185 206 122
188 208 130
185 206 117
185 206 128
188 208 142
182 203 105
187 207 130
184 205 122
183 204 122
187 208 135
184 205 120
178 200 102
180 200 120
183 203 125
182 203 120
182 203 120
184 205 120
183 203 117
182 201 114
187 206 130
190 208 155
183 203 117
184 204 130
183 203 125
185 206 128
178 199 95
179 200 88
170 192 67
170 193 25
166 190 0
166 188 0
168 192 0
164 188 0
167 190 0
167 190 0
166 190 0
169 191 0
170 194 0
170 194 0
166 190 0
167 190 0
161 185 0
163 185 0
166 188 0
171 195 0
167 190 0
167 189 0
168 191 0
166 189 0
88 117 130
60 95 148
61 96 147
61 96 142
60 96 148
60 96 152
60 96 152
61 97 153
62 98 158
61 97 160
61 97 163
61 98 163
61 98 158
61 97 156
61 97 157
61 97 154
61 97 159
62 98 160
61 97 162
62 98 162
62 98 155
62 98 165
61 97 162
62 99 171
61 96 158
62 98 164
61 97 157
62 99 169
62 98 162
62 99 170
62 99 168
62 98 164
61 97 161
62 98 170
61 98 167
61 97 163
61 97 161
62 98 166
61 97 163
63 99 175
61 97 162
61 98 162
62 98 167
62 98 167
62 99 169
62 98 165
62 98 173
62 98 166
62 99 171
61 97 163
62 98 166
62 98 169
62 98 170
62 98 166
62 99 173
61 98 168
62 98 167
62 98 168
61 98 168
62 99 170
61 98 165
62 98 168
62 99 164
62 98 161
63 99 174
62 98 173
61 97 165
62 98 166
62 98 168
62 99 170
61 98 163
63 99 174
61 98 163
62 98 171
62 98 166
62 99 164
62 99 170
62 98 169
61 97 161
63 99 172
63 99 168
63 99 172
61 98 167
62 98 170
62 99 164
63 100 175
62 98 166
61 97 163
62 98 169
62 98 167
61 98 163
62 99 171
62 98 170
62 98 168
62 99 166
62 99 169
62 99 171
62 99 170
62 99 165
62 98 165
63 99 164
62 97 161
62 98 172
62 99 171
61 98 165
62 98 162
61 98 164
62 98 162
62 98 164
61 97 162
62 99 166
62 98 162
62 98 167
62 98 166
62 99 170
62 99 170
62 98 166
62 98 166
63 99 169
62 98 168
62 99 164
61 97 159
62 98 166
62 98 164
62 99 167
62 98 163
62 98 158
62 98 165
61 98 162
62 98 164
62 98 157
62 98 160
63 99 167
62 98 167
62 98 160
62 98 162
62 98 162
62 98 158
62 98 161
61 97 155
61 98 164
63 99 170
62 98 161
62 97 157
62 98 164
62 98 158
62 98 165
62 97 155
61 97 157
61 97 156
62 98 162
63 99 162
62 98 159
62 98 159
62 98 159
62 98 159
61 97 160
63 98 168
63 99 162
61 97 153
61 97 152
62 97 160
60 96 150
61 96 155
61 96 151
62 97 154
61 96 156
62 97 156
62 97 156
61 95 149
62 97 161
60 95 152
61 96 155
61 96 147
60 95 147
60 94 150
60 95 144
61 95 148
60 94 145
60 94 142
88 95 78
90 88 11
87 87 16
81 80 8
73 75 19
88 88 16
90 89 13
86 87 21
93 92 14
88 88 17
95 93 21
94 94 21
91 91 20
88 91 18
91 91 24
91 90 19
103 102 22
92 93 18
99 98 11
101 101 19
103 105 18
104 103 16
109 109 23
106 106 18
118 117 14
111 111 20
129 126 12
119 117 20
124 122 14
123 123 11
120 119 14
127 124 11
130 128 0
124 122 0
133 132 11
141 138 8
140 138 0
136 133 0
135 132 0
136 135 0
137 135 0
133 131 0
139 137 0
138 136 0
136 133 0
140 138 0
144 142 0
143 140 0
146 144 0
145 144 0
141 139 0
142 139 0
145 142 0
144 142 0
148 145 0
147 144 0
146 144 0
149 146 0
152 148 0
145 142 0
149 145 0
148 144 0
150 146 0
148 145 0
148 145 0
145 143 0
152 148 0
150 147 0
148 144 0
149 146 0
148 145 0
150 146 0
150 146 0
148 144 0
150 147 0
151 147 0
147 143 0
149 146 0
149 144 0
151 148 0
148 144 0
150 146 0
150 145 0
151 147 0
151 147 0
148 143 0
151 146 0
151 148 0
151 147 0
152 147 0
152 148 0
151 146 0
150 146 0
153 148 0
147 141 0
150 145 0
152 148 0
150 146 0
147 142 0
148 144 0
150 146 0
143 137 0
144 139 0
142 137 0
141 134 0
139 134 0
137 133 0
136 131 0
130 124 0
122 116 0
131 125 0
129 128 0
161 178 0
168 184 0
167 184 0
170 186 0
171 187 0
171 189 0
167 183 0
167 182 0
166 184 0
167 183 0
167 186 0
170 189 0
168 186 0
168 187 0
169 189 0
168 185 0
170 190 0
169 187 0
170 189 0
171 191 0
168 185 0
170 189 0
171 189 0
172 191 0
173 196 0
169 192 0
173 196 0
174 196 0
169 192 0
171 195 0
172 195 0
171 194 0
173 196 0
171 194 0
172 196 0
171 194 0
173 196 0
173 196 0
168 192 0
170 194 0
178 200 84
181 202 99
179 200 92
186 205 135
187 207 135
186 205 144
187 207 130
184 205 122
189 209 142
191 211 142
181 203 108
180 202 114
185 205 133
190 210 147
181 203 117
178 201 102
187 207 130
180 201 105
181 202 108
184 205 117
186 207 125
178 200 99
183 204 117
183 204 111
180 202 95
181 203 105
182 204 99
181 203 105
185 206 117
185 206 128
180 202 92
178 200 99
188 208 128
181 202 111
180 201 102
185 206 125
181 203 108
182 204 111
182 203 120
183 205 114
183 203 120
186 206 135
179 201 108
181 202 108
185 206 122
182 203 114
176 197 99
184 203 133
186 205 140
180 200 99
171 193 62
174 196 51
168 191 0
166 189 0
167 191 0
168 191 0
167 189 0
167 191 0
166 189 0
163 185 0
167 190 0
165 189 0
169 192 0
169 191 0
166 188 0
166 188 0
164 188 0
167 192 0
97 125 126
62 97 152
61 97 154
61 96 149
61 97 152
60 95 147
61 97 157
61 97 155
61 97 158
61 96 157
61 96 154
62 98 157
62 98 160
61 97 155
60 96 153
60 96 155
62 98 161
61 97 156
62 98 165
61 97 162
61 97 157
62 98 163
61 97 159
62 98 168
62 98 165
61 97 162
61 97 162
61 98 167
61 96 157
61 97 165
62 98 161
62 98 163
61 97 161
61 98 162
61 97 161
61 98 170
61 97 162
62 98 164
62 98 166
61 98 171
62 99 169
61 97 166
61 97 160
60 97 166
61 98 170
62 99 173
61 97 161
61 97 165
62 98 162
62 98 165
62 99 172
61 97 164
61 97 161
61 97 163
62 98 165
61 97 165
61 98 166
62 98 169
62 98 163
62 98 170
61 98 167
62 99 171
62 98 165
62 99 168
62 98 172
62 99 174
62 98 172
62 98 164
62 99 169
61 98 162
63 99 172
62 98 169
61 98 169
61 98 163
63 99 168
62 98 166
61 97 160
62 99 167
61 97 163
62 99 167
62 99 170
63 99 168
62 99 165
61 98 163
62 98 170
63 99 174
62 98 165
62 98 163
63 99 171
62 98 163
62 98 161
62 99 167
62 98 164
62 98 166
62 99 166
62 99 170
62 97 159
61 97 165
63 99 168
62 98 162
62 99 168
62 98 165
61 97 154
62 99 166
62 98 167
63 99 170
61 98 164
61 98 162
62 98 167
62 98 164
62 99 163
61 97 161
63 99 164
62 98 159
62 98 166
63 99 169
61 97 160
62 98 165
62 99 168
62 99 171
61 98 164
61 98 164
62 98 162
61 97 160
62 98 162
61 98 162
62 98 161
62 98 165
62 98 161
62 98 163
63 99 171
62 98 158
63 99 164
62 98 165
62 99 167
62 98 157
61 97 156
63 99 171
62 98 164
62 98 166
62 98 164
62 98 156
62 98 165
62 98 162
62 98 163
62 98 162
62 98 159
61 97 154
61 97 155
62 98 160
62 97 156
62 98 168
62 98 165
62 98 159
62 98 162
62 97 159
61 97 155
62 98 158
62 98 162
62 97 154
62 98 162
62 98 156
62 98 162
62 97 153
61 96 151
61 97 158
63 98 158
61 97 153
60 95 146
61 97 154
63 98 160
61 96 151
60 95 145
60 95 148
61 96 152
60 94 140
59 93 137
60 93 139
59 93 135
59 92 138
88 96 74
96 93 12
90 89 8
96 93 12
99 96 8
78 79 16
95 92 9
87 88 14
79 79 9
81 83 22
93 90 15
88 87 12
89 89 14
96 97 12
95 95 16
95 96 20
99 98 23
95 95 21
99 99 22
95 96 16
105 104 13
114 112 16
106 106 18
114 112 16
112 111 14
118 115 12
127 124 11
111 110 8
123 122 11
124 121 8
121 121 16
131 130 8
128 126 8
133 131 0
127 125 0
134 131 0
129 127 0
133 129 0
133 131 0
136 135 0
131 130 0
140 137 0
146 142 0
141 140 0
145 143 0
142 139 0
144 141 0
141 139 0
139 136 0
142 140 0
143 140 0
143 141 0
144 142 0
144 142 0
140 137 0
142 139 0
150 146 0
147 143 0
148 145 0
146 143 0
149 146 0
149 146 0
143 142 0
149 145 0
145 142 0
147 144 0
146 143 0
145 141 0
147 143 0
147 143 0
146 144 0
147 144 0
147 144 0
151 147 0
149 145 0
149 145 0
149 145 0
151 148 0
148 144 0
148 144 0
152 148 0
149 146 0
147 143 0
150 147 0
146 142 0
149 146 0
150 147 0
151 146 0
153 149 0
151 146 0
152 149 0
149 145 0
152 148 0
151 147 0
150 146 0
149 144 0
151 147 0
148 143 0
147 141 0
148 144 0
148 142 0
146 142 0
144 138 0
142 137 0
137 132 0
138 133 0
135 130 0
130 125 0
131 126 0
128 121 0
121 119 0
161 175 0
169 188 0
169 184 0
165 180 0
168 183 0
166 183 0
171 190 0
168 184 0
171 188 0
170 189 0
169 186 0
172 190 0
166 184 0
170 187 0
169 188 0
170 188 0
170 188 0
169 187 0
166 184 0
168 186 0
172 191 0
169 187 0
171 190 0
169 188 0
170 189 0
172 195 0
172 195 0
172 196 0
169 193 0
167 190 0
174 197 0
168 191 0
172 195 0
171 195 0
172 195 0
169 192 0
169 193 0
175 197 57
182 204 105
178 199 102
186 207 128
182 202 117
186 206 140
183 204 122
188 208 140
184 205 117
181 202 120
183 204 105
184 205 120
181 203 114
182 204 114
178 200 88
182 203 114
184 204 122
182 203 120
184 206 122
184 205 114
179 200 88
182 204 105
180 202 102
188 209 142
178 200 84
181 202 99
182 204 108
181 203 105
178 201 99
182 204 114
180 201 88
183 205 108
181 203 88
180 203 99
183 204 114
180 202 102
181 203 105
184 206 120
181 203 95
183 204 108
183 204 120
179 201 105
183 205 120
181 203 105
182 204 114
181 202 111
182 203 117
185 206 125
180 202 108
187 207 128
184 205 120
183 204 130
182 202 125
181 203 108
184 204 122
189 208 147
181 202 117
171 193 76
168 191 51
169 191 36
169 193 0
169 192 0
165 189 0
167 190 0
171 194 0
167 190 0
168 192 0
135 158 80
142 166 84
158 181 47
166 189 0
169 193 0
92 121 130
59 94 141
62 97 152
60 96 147
60 96 153
61 96 154
60 96 150
61 97 153
62 98 164
62 98 159
61 97 158
61 97 157
61 97 155
61 97 162
61 97 162
61 97 159
61 97 155
61 98 164
61 97 160
62 98 163
60 96 151
60 97 162
61 97 158
60 96 157
61 98 164
61 97 163
61 97 163
62 99 168
62 98 164
60 97 160
63 99 172
62 98 171
61 97 161
62 98 165
62 98 171
62 98 167
62 98 165
62 99 170
61 97 160
61 97 167
62 98 163
62 98 168
62 98 167
61 97 168
62 98 166
61 97 161
62 99 168
61 97 162
62 98 170
63 99 172
62 98 168
61 97 162
62 98 166
61 97 159
62 98 169
62 98 168
62 98 170
62 98 168
61 98 173
62 98 168
62 98 167
62 99 170
62 98 167
62 98 169
61 97 165
63 99 172
62 98 161
62 99 170
63 99 170
62 98 167
62 99 169
62 99 172
61 98 170
62 99 172
61 98 164
62 99 169
62 98 170
61 98 164
62 98 164
62 98 163
62 98 167
61 98 166
62 98 165
62 98 167
61 98 166
62 99 171
62 99 163
63 99 165
61 97 161
62 98 165
62 98 170
62 99 166
61 98 162
62 98 167
62 98 167
62 99 168
63 100 177
62 99 165
62 98 160
61 97 166
63 100 174
62 99 165
62 98 164
62 98 164
61 98 168
62 98 168
62 98 160
63 99 164
62 97 160
61 97 154
62 99 169
62 98 169
62 98 165
61 97 158
62 98 170
61 97 161
62 98 166
62 98 164
62 99 167
62 98 164
62 99 168
62 98 162
62 98 166
62 98 170
62 99 169
62 98 161
61 98 164
61 98 162
62 97 155
62 99 168
61 97 161
62 98 163
61 97 156
62 98 161
61 97 159
62 98 161
62 98 163
63 99 164
62 99 165
61 98 160
63 99 164
61 97 164
62 98 160
61 97 159
63 99 169
61 97 149
62 98 162
63 98 163
62 97 156
62 98 160
60 96 151
62 97 155
62 98 158
62 98 161
62 98 159
62 98 164
61 96 150
62 98 161
62 98 164
61 96 153
61 97 155
61 97 155
62 98 159
61 96 157
62 97 154
61 97 156
61 96 149
62 97 157
61 96 148
60 95 150
62 97 149
60 96 145
62 97 153
60 95 148
61 95 151
61 96 149
61 95 149
60 94 138
60 94 142
59 92 130
93 97 80
92 89 9
94 91 11
88 89 12
97 95 11
103 100 5
105 101 0
94 91 14
94 92 15
90 88 4
89 89 19
91 90 16
97 94 14
99 98 17
86 86 14
102 100 11
98 96 14
98 97 14
103 103 17
108 108 18
101 102 16
109 107 19
113 112 8
105 105 8
110 108 14
116 117 14
119 116 0
124 122 18
115 113 12
126 125 14
114 114 8
127 124 0
127 124 0
123 121 0
136 132 0
132 130 0
126 125 0
139 136 0
135 133 0
138 134 0
130 130 0
138 136 0
136 134 0
136 133 0
141 138 0
140 138 0
145 141 0
143 139 0
143 140 0
141 138 0
140 137 0
144 140 0
144 141 0
142 138 0
150 147 0
143 140 0
147 143 0
143 141 0
147 144 0
147 143 0
148 145 0
152 148 0
147 144 0
147 144 0
149 145 0
143 140 0
149 145 0
150 147 0
148 144 0
150 145 0
149 146 0
148 144 0
145 141 0
152 149 0
146 142 0
150 147 0
150 145 0
146 142 0
150 145 0
145 142 0
149 145 0
147 144 0
152 147 0
153 149 0
149 145 0
150 146 0
146 142 0
151 146 0
151 145 0
147 141 0
152 147 0
150 145 0
152 147 0
149 145 0
149 144 0
151 144 0
151 147 0
150 146 0
148 142 0
136 131 0
143 138 0
136 130 0
142 136 0
138 133 0
133 129 0
135 129 0
127 121 0
119 114 0
129 124 0
117 112 0
152 165 0
168 182 0
164 178 0
166 181 0
169 186 0
168 186 0
166 183 0
168 187 0
169 187 0
167 184 0
168 185 0
168 186 0
168 187 0
170 188 0
165 183 0
169 187 0
173 192 0
167 185 0
169 186 0
170 188 0
170 189 0
168 184 0
169 188 0
171 189 0
169 189 0
169 188 0
172 195 0
166 190 0
170 195 0
170 194 0
170 193 0
168 191 0
172 195 0
170 194 0
172 196 36
176 198 57
181 201 114
184 203 122
189 209 133
183 204 114
187 207 125
184 205 122
186 207 130
184 206 111
181 203 108
184 206 111
179 201 102
182 204 105
184 204 111
182 203 114
179 201 105
180 202 95
182 204 99
184 206 122
181 203 99
182 204 102
182 204 114
181 203 99
181 203 92
181 202 102
181 203 92
183 205 111
182 204 102
182 204 102
179 202 88
184 206 114
180 202 102
179 202 84
179 202 84
182 204 105
181 203 102
183 205 105
180 202 95
178 201 80
178 201 84
181 203 102
178 201 88
183 204 108
179 201 105
182 204 108
176 198 84
182 204 99
179 201 88
180 203 95
179 201 92
179 201 92
183 204 117
185 206 117
183 203 128
184 205 117
178 199 114
180 202 99
179 200 111
184 204 117
182 202 130
182 202 128
178 198 122
185 205 130
178 199 102
178 199 88
172 195 57
169 191 0
168 192 0
167 190 0
161 184 40
130 155 100
124 149 100
114 140 121
117 144 124
129 154 95
93 121 121
61 96 148
61 96 149
61 96 149
60 95 139
60 96 148
61 96 150
61 96 152
61 95 145
61 97 151
62 98 165
61 97 154
61 97 156
60 95 149
61 96 154
60 97 160
61 97 159
62 97 157
62 98 163
61 97 157
61 97 161
61 97 163
60 96 154
61 98 161
62 98 167
61 97 166
61 97 165
62 98 165
62 98 166
61 97 163
62 98 163
61 98 164
61 97 160
61 97 161
61 97 166
62 98 165
61 98 163
61 97 165
61 97 160
61 98 169
62 98 168
61 98 169
61 97 163
61 97 162
61 97 167
62 98 166
62 98 165
62 98 167
63 99 173
62 98 170
62 99 171
61 98 165
62 98 170
61 98 166
61 98 161
61 97 165
62 98 170
62 98 165
62 98 167
62 98 170
62 98 170
62 98 167
61 97 160
62 98 168
62 98 162
62 99 171
61 97 162
62 98 167
62 98 166
62 98 170
62 98 166
62 98 162
62 98 164
62 98 162
61 97 157
62 99 172
62 98 168
61 97 162
61 97 162
62 98 164
62 98 165
62 98 166
62 99 170
63 99 165
62 98 164
62 98 169
63 99 164
62 98 169
62 98 168
62 99 168
62 99 167
62 98 165
61 98 165
62 99 169
62 98 167
62 98 166
61 98 168
62 98 162
63 99 169
62 98 169
61 97 157
62 98 162
63 99 170
63 99 174
63 99 173
62 98 163
62 98 164
62 98 162
62 98 165
62 98 159
62 98 164
62 97 157
62 99 166
62 98 162
61 97 163
62 98 163
62 98 161
61 97 157
62 98 163
63 99 170
62 98 162
61 97 163
61 98 162
62 99 168
62 98 164
62 98 160
61 97 151
61 98 167
62 98 164
62 98 160
61 98 161
61 98 162
62 98 165
63 99 169
62 98 159
62 98 160
61 97 163
62 98 163
62 98 159
61 97 158
61 97 156
62 98 161
61 97 156
61 97 153
62 98 161
61 97 157
61 97 156
62 98 158
63 99 161
62 98 157
62 98 164
61 97 155
62 99 164
61 97 157
62 98 159
62 97 159
62 98 159
61 97 159
61 97 160
61 96 148
63 99 162
61 97 151
62 97 150
62 97 157
61 97 154
63 98 156
61 96 151
61 96 149
60 95 150
62 97 155
61 97 150
61 96 148
60 95 145
61 97 154
61 96 150
59 93 142
60 93 134
61 96 151
60 93 144
60 94 141
85 90 64
105 102 11
98 96 0
104 100 11
93 91 11
88 90 12
97 94 12
88 87 11
104 101 14
93 91 14
93 92 18
88 88 14
95 94 13
97 95 16
100 99 17
111 109 12
100 99 14
95 94 12
99 97 14
105 105 11
107 106 11
112 111 14
117 115 11
112 110 0
115 113 8
110 111 14
114 112 16
118 117 8
119 118 11
124 121 0
129 125 8
128 125 11
124 121 8
136 134 0
134 133 0
134 132 0
137 135 0
136 134 0
139 137 0
143 140 0
141 138 0
140 138 0
137 136 0
143 139 0
141 139 0
135 133 0
139 137 0
135 132 0
134 132 0
138 136 0
143 139 0
145 143 0
142 138 0
140 136 0
145 141 0
143 139 0
142 139 0
143 140 0
147 143 0
145 141 0
142 139 0
146 143 0
148 145 0
149 147 0
148 144 0
145 142 0
148 145 0
147 143 0
148 145 0
150 145 0
149 145 0
149 145 0
148 145 0
144 140 0
147 144 0
147 144 0
149 143 0
150 146 0
144 140 0
149 145 0
150 147 0
147 144 0
148 146 0
149 145 0
150 146 0
150 146 0
148 144 0
150 146 0
146 142 0
150 147 0
148 143 0
150 146 0
148 143 0
151 146 0
148 143 0
148 143 0
149 146 0
149 145 0
145 141 0
142 137 0
141 136 0
139 135 0
141 138 0
138 131 0
133 126 0
129 126 0
127 123 0
122 116 0
111 104 0
149 158 0
164 178 0
167 182 0
166 183 0
167 182 0
167 184 0
165 180 0
168 182 0
169 188 0
169 185 0
171 188 0
169 185 0
167 184 0
169 187 0
169 189 0
168 185 0
166 182 0
171 191 0
168 185 0
168 186 0
169 188 0
170 188 0
171 188 0
171 189 0
170 191 0
172 191 0
168 186 0
170 193 0
170 193 0
170 193 0
168 191 0
172 196 0
172 196 0
178 200 88
181 203 99
184 204 137
188 208 135
185 205 128
185 206 125
184 205 122
182 203 117
178 200 102
185 206 133
178 200 88
181 203 111
184 205 122
178 200 99
181 202 102
184 205 125
178 200 92
181 203 105
177 199 95
183 205 117
179 201 99
181 203 95
183 205 120
181 203 95
178 201 84
179 201 88
181 203 95
178 200 84
179 202 80
179 202 84
180 202 92
182 204 105
182 204 108
180 201 88
180 202 99
180 202 102
178 201 76
179 201 88
181 203 99
180 203 99
181 203 88
180 202 88
178 200 76
179 202 88
178 201 76
178 201 84
180 203 105
182 203 105
184 206 117
177 200 72
179 201 80
181 203 102
178 201 92
181 203 99
183 205 120
183 205 120
183 204 117
183 204 117
180 202 102
180 202 114
179 201 99
179 200 108
180 201 108
185 205 130
182 202 122
178 200 105
188 209 135
178 199 111
183 203 120
181 202 99
176 198 80
168 192 0
161 185 0
152 176 67
133 158 105
124 150 110
126 152 113
120 145 105
113 139 121
94 123 136
78 110 142
60 95 148
61 96 150
61 96 149
62 98 161
62 97 153
61 96 147
60 96 150
61 97 150
60 96 151
59 95 157
61 96 153
61 97 160
61 97 156
61 96 151
62 98 159
61 97 162
62 98 169
61 97 159
62 98 160
61 97 163
62 98 165
60 96 161
61 97 154
61 98 159
61 97 162
61 97 157
62 98 162
61 97 165
62 98 167
60 96 157
61 98 165
62 99 172
61 97 160
61 98 162
61 98 169
61 97 161
63 99 169
61 98 162
61 97 164
61 98 168
61 98 163
61 98 165
62 98 169
62 98 170
61 97 165
62 98 167
61 98 170
61 98 166
62 98 166
62 98 167
62 98 165
62 98 164
62 98 166
62 99 167
61 98 168
62 98 170
62 98 168
62 98 168
62 98 164
60 97 160
62 99 166
61 98 164
61 98 168
61 97 164
62 99 166
62 98 168
62 98 167
62 98 167
62 98 166
62 98 171
62 98 166
62 98 169
62 98 163
61 98 162
63 99 168
62 98 168
62 98 160
62 98 166
62 98 164
63 99 169
62 99 169
62 98 165
62 98 166
62 98 165
62 98 168
62 98 165
62 98 163
62 99 171
61 98 164
61 97 158
61 97 158
62 98 160
62 98 160
62 98 165
61 97 159
62 98 168
62 98 165
62 99 166
61 97 159
62 98 166
62 98 164
63 99 170
62 98 166
61 97 165
62 98 166
63 99 167
63 99 166
61 98 162
62 98 159
62 98 167
62 99 169
62 98 158
61 97 158
62 98 160
61 97 157
63 99 170
63 99 164
62 98 166
61 97 162
62 98 163
61 97 159
62 98 164
62 99 164
61 97 152
62 99 166
61 97 162
63 99 166
61 97 158
61 97 157
63 99 166
62 98 166
63 99 169
62 98 159
62 98 164
61 98 161
62 98 157
62 98 163
61 97 156
62 98 159
62 98 163
62 98 160
62 98 160
62 99 165
61 98 160
61 97 156
62 98 158
62 98 160
62 98 158
61 97 160
62 98 161
62 98 162
61 97 153
61 97 160
62 98 159
61 96 150
61 97 155
62 98 159
62 97 156
62 97 153
62 97 156
62 97 161
61 97 150
61 97 152
61 96 147
60 95 146
61 96 150
61 96 152
61 97 155
60 95 149
60 95 148
60 94 143
62 97 148
60 95 144
60 94 141
60 94 140
60 94 139
59 92 142
86 90 71
87 86 0
101 98 11
105 101 8
104 100 8
103 100 0
102 99 6
101 99 12
92 89 12
93 90 0
97 95 12
101 98 0
95 94 8
101 99 20
91 91 11
99 98 18
98 97 9
102 100 11
102 102 12
100 100 14
107 106 10
110 108 14
113 111 11
118 115 8
108 106 8
111 109 11
116 114 11
119 118 11
129 126 8
123 120 0
119 118 0
125 123 0
131 129 0
127 125 0
139 136 0
131 128 0
132 130 0
134 132 0
136 133 0
136 133 0
139 136 0
139 136 0
135 132 0
133 131 0
145 141 0
143 140 0
146 143 0
140 138 0
137 135 0
148 146 0
143 140 0
143 140 0
144 141 0
148 145 0
145 141 0
144 141 0
141 139 0
147 144 0
151 146 0
145 141 0
147 143 0
146 142 0
147 144 0
144 140 0
147 144 0
150 146 0
147 144 0
152 148 0
150 147 0
148 144 0
148 145 0
147 143 0
143 139 0
149 145 0
148 145 0
148 145 0
150 147 0
150 146 0
144 140 0
152 148 0
149 144 0
147 144 0
151 145 0
151 147 0
151 146 0
150 145 0
150 144 0
151 147 0
150 145 0
150 146 0
149 144 0
149 143 0
147 143 0
148 143 0
144 140 0
148 145 0
144 139 0
146 140 0
138 133 0
148 142 0
138 133 0
137 132 0
136 131 0
137 132 0
132 126 0
122 117 0
126 122 0
130 126 0
145 151 0
166 180 0
170 187 0
167 180 0
167 185 0
166 182 0
165 180 0
169 184 0
165 181 0
166 181 0
169 187 0
168 187 0
170 189 0
170 186 0
167 181 0
170 186 0
168 185 0
166 183 0
172 191 0
167 184 0
170 190 0
170 188 0
167 185 0
170 187 0
169 188 0
170 190 0
169 188 0
168 186 0
170 193 0
172 195 0
171 195 0
173 196 72
185 205 114
191 210 151
189 208 142
188 208 140
181 201 105
187 208 130
183 205 117
184 205 125
181 203 108
182 204 117
185 206 122
185 207 122
182 204 108
181 203 102
180 202 95
179 201 88
182 204 105
184 206 125
182 204 114
184 205 117
178 201 80
178 201 88
179 201 88
178 201 72
180 202 95
178 201 84
176 200 72
177 200 76
177 201 76
179 201 72
177 200 80
181 203 99
178 200 72
179 201 92
182 204 99
179 201 80
180 202 88
177 200 80
178 200 67
177 201 80
181 203 95
178 201 92
178 201 84
179 201 84
178 201 80
176 199 88
183 205 108
177 200 76
180 202 88
179 202 84
182 204 105
181 203 88
182 204 102
181 203 99
177 200 72
177 199 72
178 200 95
175 199 76
182 203 105
183 204 99
183 204 117
181 203 105
177 200 80
182 204 105
183 205 114
183 204 108
185 205 125
182 203 102
183 204 120
183 204 128
184 205 117
189 209 144
180 201 108
183 203 117
185 204 135
175 197 84
161 185 51
133 158 107
138 162 99
141 166 99
135 159 90
116 142 117
115 141 121
105 132 139
74 107 141
63 98 153
61 96 150
61 97 156
60 96 149
61 97 154
61 97 157
60 96 153
61 96 149
61 97 154
61 97 153
62 97 156
61 97 156
61 98 162
61 97 158
62 98 164
61 97 158
61 97 157
61 97 159
62 98 161
61 97 167
61 97 163
61 97 163
61 97 164
62 98 167
61 97 159
61 97 164
61 97 167
61 98 163
62 98 160
62 98 168
61 97 160
62 98 166
61 97 158
61 97 159
61 98 169
61 98 164
61 97 162
62 98 161
62 98 164
61 98 165
61 98 169
61 97 157
62 98 166
61 97 158
61 98 163
62 99 170
61 98 166
61 97 157
62 99 168
62 98 169
62 98 166
62 98 167
61 98 164
62 99 171
62 98 168
61 97 162
61 98 164
63 99 167
61 97 164
62 99 166
62 98 167
61 97 164
62 98 166
62 98 165
61 97 164
62 98 165
62 98 168
62 98 162
62 99 172
62 98 166
62 99 165
62 98 166
61 97 157
62 98 167
62 99 173
62 99 172
62 98 167
63 99 169
62 99 171
62 98 166
62 98 162
61 98 169
61 97 161
62 99 168
61 98 164
62 99 166
62 98 165
62 98 165
61 97 161
61 97 158
62 98 161
61 97 158
62 98 169
62 98 162
62 99 167
62 98 171
61 98 163
63 99 171
61 97 158
62 98 162
62 98 167
62 98 162
62 98 164
61 97 165
62 98 164
63 99 170
61 97 159
62 98 163
62 98 161
62 98 162
62 98 164
62 98 164
62 98 164
62 98 162
62 98 161
62 98 165
62 98 166
63 98 161
63 99 162
61 98 158
63 99 164
62 98 163
62 98 161
62 98 165
63 98 163
61 97 156
62 99 163
62 98 162
62 98 160
62 98 161
63 99 164
62 98 158
62 98 155
62 97 157
62 99 163
62 98 165
61 96 157
61 97 160
61 97 151
62 98 157
62 97 156
62 98 158
62 98 160
62 98 159
62 98 156
62 97 155
61 97 156
61 96 149
61 96 150
62 97 154
62 98 161
62 98 157
61 96 150
61 97 157
61 97 155
62 98 159
61 97 155
61 97 158
61 97 154
61 97 154
62 97 153
62 97 151
61 96 145
61 96 154
61 96 151
61 96 146
60 95 142
61 96 154
62 96 153
59 93 132
61 94 145
60 94 145
60 93 141
59 92 137
59 91 128
86 89 71
95 92 8
103 99 5
92 87 0
103 97 3
100 97 3
95 92 11
99 96 8
93 91 12
100 96 8
97 94 8
89 89 8
94 94 11
96 95 11
116 112 0
104 102 8
106 104 16
100 98 11
110 108 8
99 98 8
112 109 12
108 107 11
118 114 8
117 114 8
117 115 8
118 117 8
122 120 11
117 115 11
126 123 8
127 123 0
121 120 0
128 124 0
125 123 0
125 122 0
125 122 0
133 130 0
131 128 0
127 124 0
137 132 0
136 132 0
134 132 0
132 128 0
138 136 0
133 130 0
134 132 0
137 134 0
138 135 0
144 140 0
139 136 0
138 136 0
138 135 0
142 138 0
141 136 0
139 135 0
141 138 0
144 140 0
146 141 0
145 141 0
144 140 0
148 143 0
146 142 0
146 143 0
140 138 0
143 141 0
147 145 0
145 141 0
142 140 0
144 139 0
146 143 0
149 145 0
146 142 0
151 147 0
149 145 0
148 145 0
146 142 0
148 145 0
148 145 0
150 146 0
151 148 0
149 145 0
146 142 0
153 148 0
148 143 0
149 145 0
148 144 0
151 146 0
149 143 0
148 142 0
150 144 0
153 147 0
149 145 0
146 141 0
148 143 0
146 140 0
143 138 0
142 137 0
145 141 0
143 138 0
135 130 0
139 133 0
139 133 0
133 128 0
125 119 0
124 120 0
120 114 0
132 126 0
118 113 0
141 145 0
166 181 0
163 177 0
166 181 0
166 180 0
168 187 0
166 181 0
169 187 0
170 187 0
170 186 0
164 178 0
167 181 0
166 185 0
170 187 0
169 188 0
167 181 0
169 187 0
167 184 0
168 185 0
170 188 0
167 185 0
168 189 0
167 185 0
168 186 0
170 188 0
168 185 0
169 190 0
172 192 0
170 191 0
172 195 51
179 200 95
191 209 149
190 209 142
186 206 128
186 207 130
183 205 105
182 204 117
184 206 117
179 202 102
181 204 117
185 206 122
185 206 120
181 202 88
181 203 99
182 203 105
179 201 95
179 201 88
181 204 102
181 203 92
182 203 105
178 201 80
179 202 92
181 203 99
179 202 88
179 201 84
177 201 80
179 202 84
180 203 99
178 201 84
179 202 76
183 205 120
188 208 130
195 215 167
193 212 153
193 213 155
198 217 175
199 216 181
203 221 193
203 221 193
198 216 171
198 216 179
204 221 196
202 220 191
203 220 193
202 220 184
202 219 184
197 215 175
194 213 159
188 209 140
184 205 114
178 201 84
179 201 80
179 202 84
180 203 95
176 199 62
179 201 88
178 201 76
178 201 80
178 201 72
180 203 92
178 201 88
179 201 95
178 201 80
181 204 102
178 201 76
182 204 99
185 207 133
181 203 102
179 201 99
183 204 111
177 200 84
178 201 102
183 204 122
184 204 130
180 201 95
178 199 102
185 205 133
182 203 111
179 200 108
180 200 120
162 184 102
149 173 72
127 152 113
130 155 100
135 159 92
131 156 105
123 148 114
120 146 117
103 130 135
84 114 135
67 101 151
61 96 149
61 97 158
61 97 155
61 97 155
60 96 152
62 98 161
62 98 161
61 97 160
62 98 156
61 97 158
60 96 154
61 97 158
61 97 155
61 97 160
61 96 152
62 98 159
60 96 158
62 98 168
60 96 157
61 97 161
61 97 157
62 98 164
61 97 160
61 97 158
62 98 167
61 97 168
62 98 166
60 96 162
60 96 156
61 97 159
62 98 169
62 98 162
63 100 170
61 97 169
61 97 163
61 97 161
62 98 161
61 97 159
61 97 166
61 97 164
61 97 162
61 98 159
62 98 165
62 98 167
62 98 170
61 97 167
61 97 163
60 96 160
62 98 169
62 98 164
61 98 162
61 98 167
62 99 165
62 99 170
62 98 170
61 98 172
62 98 168
62 99 165
62 99 167
62 98 168
62 98 168
62 98 163
61 97 160
62 98 169
61 98 163
61 97 162
62 98 163
60 97 160
62 98 164
62 98 164
62 98 164
61 97 163
62 98 161
61 98 162
63 99 169
60 96 155
62 98 162
62 98 165
62 98 166
62 98 168
61 98 165
62 98 166
61 97 159
62 98 161
62 98 162
62 98 163
62 98 165
62 98 166
61 97 164
62 98 164
62 98 162
62 98 168
62 98 161
61 98 163
62 98 163
62 98 160
63 99 172
62 98 157
61 98 161
62 98 164
61 98 161
62 98 167
63 99 164
62 98 161
62 98 160
62 98 164
62 98 161
62 98 168
62 98 158
62 98 161
63 99 167
63 99 169
62 98 165
61 97 162
62 98 162
62 98 163
62 99 169
61 97 159
62 98 161
62 98 162
62 98 163
62 98 163
63 99 165
62 99 167
62 98 166
61 97 154
62 98 162
62 98 162
62 98 164
61 97 158
62 99 166
62 98 156
62 98 161
61 97 155
62 98 158
62 98 160
63 99 165
62 98 159
62 97 155
62 98 164
61 97 158
62 98 159
62 98 158
61 97 158
61 97 161
62 98 164
61 96 150
61 96 155
61 96 149
62 97 152
61 96 152
61 97 151
62 98 159
62 98 160
62 98 158
61 97 156
62 98 156
61 96 158
61 96 150
62 97 154
61 96 138
59 93 140
61 96 147
62 96 153
61 95 142
61 96 148
60 94 146
60 94 136
59 93 139
60 93 139
60 94 141
58 91 122
88 93 66
97 95 0
105 101 0
101 96 0
98 94 0
97 94 0
95 93 8
92 89 0
99 95 8
97 93 0
103 100 0
106 102 8
104 100 8
107 104 14
101 98 8
109 106 11
92 90 3
104 102 14
110 107 11
110 107 0
116 113 8
99 96 8
115 113 8
111 109 0
118 114 8
109 108 8
108 106 0
131 127 0
123 119 0
124 121 0
120 118 0
126 122 0
121 117 0
135 132 0
129 128 0
132 128 0
132 128 0
130 128 0
131 127 0
134 131 0
135 133 0
135 129 0
139 136 0
131 128 0
132 129 0
131 128 0
135 132 0
141 137 0
138 136 0
136 133 0
142 139 0
142 138 0
144 140 0
142 138 0
137 133 0
141 138 0
141 139 0
148 145 0
147 143 0
147 143 0
147 143 0
145 141 0
147 143 0
143 140 0
145 142 0
146 142 0
145 140 0
146 142 0
146 140 0
148 145 0
146 142 0
142 139 0
147 142 0
144 140 0
145 140 0
148 144 0
146 143 0
149 144 0
153 149 0
149 143 0
147 142 0
145 141 0
152 147 0
149 145 0
144 141 0
146 141 0
148 142 0
151 145 0
145 141 0
147 142 0
148 143 0
148 142 0
144 137 0
146 141 0
142 137 0
142 137 0
145 139 0
138 132 0
143 140 0
139 132 0
131 126 0
138 133 0
130 125 0
122 116 0
130 123 0
111 105 0
143 149 0
165 179 0
166 181 0
165 180 0
167 183 0
165 177 0
167 184 0
165 180 0
166 181 0
167 183 0
168 184 0
169 187 0
168 184 0
170 188 0
168 184 0
169 185 0
165 182 0
168 187 0
168 186 0
168 182 0
170 187 0
170 189 0
168 186 0
167 186 0
168 187 0
172 190 0
168 187 0
170 189 0
169 187 0
169 189 0
188 207 137
185 205 130
185 205 135
186 207 135
183 204 120
183 204 125
176 199 80
188 208 135
182 204 114
183 205 114
182 204 105
181 202 111
181 203 92
176 199 72
179 202 80
183 205 111
183 205 114
179 202 105
180 202 88
180 202 88
183 204 105
182 204 111
180 203 88
179 202 92
180 202 95
191 211 149
198 217 179
206 223 203
209 225 211
218 233 242
217 232 240
221 235 252
222 236 253
223 236 254
221 234 245
223 236 253
223 236 253
222 236 254
222 236 250
220 234 252
220 234 249
222 236 253
221 235 253
220 234 249
220 234 253
221 235 252
223 236 253
222 235 250
221 235 250
221 235 250
220 234 246
222 235 250
221 235 249
216 231 234
206 222 203
202 220 189
194 213 163
193 213 153
183 205 111
180 202 76
177 200 84
177 200 62
179 202 72
179 202 88
180 203 95
179 202 95
181 203 95
181 203 99
176 199 84
178 200 80
173 196 62
181 203 105
179 201 95
179 201 111
178 200 92
176 198 80
182 202 108
175 197 108
147 169 145
127 149 173
132 153 178
117 139 173
120 143 168
82 112 139
97 126 145
96 125 134
113 140 122
122 148 120
131 156 113
131 155 97
123 148 115
116 142 118
94 122 137
65 100 154
60 96 150
60 96 146
62 98 161
61 97 149
62 99 169
60 96 153
62 98 161
61 96 155
61 96 163
61 96 156
62 98 160
60 95 155
60 96 158
60 97 161
61 97 157
61 96 159
61 97 158
61 97 161
60 96 157
61 97 159
62 98 167
60 96 158
60 96 155
61 97 167
61 97 160
62 98 169
61 97 162
61 97 162
61 97 159
61 97 162
60 96 162
60 96 160
62 98 165
61 97 167
61 97 164
61 97 164
61 97 167
61 98 167
61 97 161
62 98 165
62 98 167
61 97 163
62 98 172
61 97 166
62 98 166
60 96 157
61 98 162
63 99 166
61 97 164
62 99 167
60 97 164
62 98 168
62 98 167
62 99 169
62 98 165
62 99 167
61 97 165
62 98 168
62 99 167
61 97 162
62 98 162
62 98 168
62 98 168
61 98 163
61 98 168
62 99 168
62 98 170
61 97 156
61 97 164
62 98 167
61 97 159
61 97 163
63 99 169
62 99 170
61 98 166
61 97 157
62 98 166
61 97 161
62 98 167
62 98 165
62 98 165
61 98 164
62 99 166
61 98 161
61 98 165
61 97 160
62 98 165
62 98 162
62 98 166
61 97 161
62 98 166
62 99 169
63 99 163
62 99 168
61 97 157
62 98 161
62 98 163
61 97 159
62 98 167
62 98 162
62 98 167
61 97 159
61 97 160
61 98 164
62 99 167
61 97 160
61 97 156
62 98 163
62 98 164
62 99 169
60 97 155
61 97 159
62 97 155
62 99 166
62 98 159
62 99 165
62 97 160
61 97 156
62 98 162
61 97 159
62 98 157
62 98 163
62 98 164
62 98 159
62 98 163
62 98 163
62 98 161
62 98 161
62 98 158
62 98 159
61 97 154
63 99 163
63 99 166
62 97 153
63 98 159
62 98 166
62 98 161
62 98 161
62 98 155
61 97 158
61 97 157
61 97 158
62 98 159
62 97 158
60 95 152
62 97 159
62 97 157
62 98 164
62 97 156
62 97 158
61 97 155
61 96 148
62 97 152
61 96 151
61 96 148
61 96 150
62 97 155
62 98 160
61 96 151
61 96 141
61 96 146
61 96 151
60 95 149
60 94 134
60 95 142
59 92 131
60 95 137
59 91 130
59 92 136
58 91 125
106 107 34
99 94 0
101 96 0
96 91 0
97 92 0
103 97 0
101 97 0
97 93 0
90 88 0
100 95 0
104 99 0
106 102 0
97 93 0
102 97 0
104 100 8
110 105 0
112 108 8
114 110 8
98 96 11
102 98 8
108 104 11
112 107 0
106 104 8
108 105 0
116 114 0
122 119 8
115 113 0
116 114 0
119 116 0
119 116 0
125 122 0
122 120 0
126 122 0
131 127 0
131 129 0
122 120 0
130 127 0
127 125 0
137 134 0
131 128 0
137 134 0
128 126 0
134 129 0
134 130 0
132 131 0
138 135 0
136 133 0
140 137 0
138 136 0
134 133 0
139 135 0
139 135 0
141 137 0
140 136 0
141 138 0
141 137 0
140 137 0
143 138 0
146 142 0
141 138 0
145 140 0
146 142 0
145 142 0
146 141 0
144 140 0
144 139 0
144 141 0
145 138 0
145 142 0
145 140 0
150 145 0
149 144 0
148 144 0
149 144 0
152 147 0
149 146 0
149 145 0
146 142 0
145 139 0
149 145 0
149 147 0
147 142 0
148 142 0
148 143 0
150 145 0
144 139 0
147 140 0
145 139 0
148 143 0
146 141 0
146 140 0
144 140 0
147 141 0
139 132 0
143 138 0
146 139 0
135 130 0
135 131 0
137 130 0
133 128 0
134 128 0
134 128 0
125 119 0
131 126 0
119 114 0
142 147 0
164 177 0
170 185 0
165 182 0
165 178 0
169 185 0
166 181 0
166 182 0
163 180 0
162 176 0
167 184 0
166 182 0
169 185 0
170 187 0
163 179 0
162 179 0
168 185 0
170 186 0
169 185 0
165 180 0
168 184 0
169 188 0
167 185 0
167 183 0
170 187 0
170 187 0
166 186 0
168 187 0
170 189 0
171 189 0
171 189 0
183 203 120
184 204 128
178 200 102
185 206 130
181 203 99
180 202 99
179 201 92
179 200 92
182 204 114
180 202 102
179 202 84
181 203 102
181 202 102
178 200 95
176 199 76
178 201 76
180 202 102
181 204 108
179 202 102
181 203 92
191 211 151
202 219 191
210 226 215
215 229 228
221 235 248
221 235 249
221 235 249
222 236 255
219 234 249
222 236 253
219 233 248
222 236 254
221 235 253
219 234 248
220 234 250
221 235 253
219 234 249
218 233 248
220 235 253
219 234 252
220 235 252
218 233 245
218 233 248
219 234 249
221 235 253
220 234 250
219 234 249
221 235 250
218 232 245
221 235 252
220 234 249
220 234 249
220 235 252
220 234 248
221 235 250
222 236 254
219 233 244
222 236 252
221 235 248
218 232 237
213 229 224
206 223 201
189 210 142
181 203 95
179 201 88
180 202 76
176 200 84
179 201 80
175 198 67
180 203 95
177 200 88
177 199 76
178 200 76
183 204 105
180 201 95
179 201 102
178 200 111
121 144 171
110 134 170
82 112 168
107 132 172
102 128 164
117 140 178
98 124 169
72 105 158
66 101 160
68 102 149
63 99 155
69 101 140
95 124 135
113 139 128
130 155 100
118 143 113
116 143 126
92 120 134
66 100 153
61 97 154
60 96 156
60 96 153
61 97 153
61 97 153
60 96 152
61 96 157
61 97 159
60 96 155
61 97 159
61 97 162
60 96 152
62 98 163
61 96 151
61 97 159
62 98 163
61 97 157
59 95 159
61 97 159
61 97 159
61 97 163
60 97 162
62 98 161
60 97 159
60 96 159
60 97 163
61 97 158
62 99 171
60 96 160
61 97 163
62 98 165
61 97 161
61 97 161
62 98 165
62 98 167
61 98 165
61 98 165
62 98 165
60 96 154
62 98 168
61 97 163
61 97 163
62 98 166
61 98 166
62 98 167
62 99 170
62 98 169
61 98 166
62 98 159
62 99 167
62 98 166
62 98 166
61 98 160
60 95 159
61 98 162
62 98 166
62 99 167
62 99 170
62 99 170
62 99 169
61 97 162
62 99 169
61 98 169
62 98 166
61 97 160
62 98 165
62 98 166
61 98 168
62 98 157
62 99 167
62 98 167
62 98 166
62 98 165
62 98 167
62 97 158
62 98 163
62 98 164
62 98 166
62 98 164
62 98 162
61 98 161
62 98 160
62 98 166
61 97 157
62 98 161
62 98 162
62 98 163
62 98 167
61 97 157
62 98 163
62 99 170
62 99 170
63 99 170
61 97 156
62 98 162
62 98 161
62 98 164
62 98 167
61 98 162
63 99 169
62 98 165
63 99 164
62 98 160
61 97 159
62 98 162
62 98 164
62 98 167
62 99 168
62 98 161
63 99 169
62 98 164
62 98 162
62 98 157
63 99 167
62 98 161
61 97 153
63 99 166
62 98 160
62 98 164
61 97 162
62 98 161
62 98 161
63 99 163
62 98 161
61 97 154
61 97 155
62 98 156
61 97 161
61 97 150
61 97 161
62 97 143
62 98 159
62 98 162
62 98 160
62 98 157
62 98 159
61 97 149
63 99 169
61 97 157
61 97 153
62 97 152
62 98 160
62 98 161
61 96 148
61 97 157
63 99 163
61 96 150
62 97 155
60 95 148
61 97 152
61 96 151
61 97 154
60 95 142
61 96 147
61 96 146
61 96 152
61 95 155
61 96 141
59 93 136
60 94 141
61 96 150
60 95 145
59 93 135
61 95 143
60 95 139
60 94 139
59 92 129
59 91 133
89 86 28
99 97 0
97 93 0
93 89 0
104 100 0
105 101 0
100 96 0
109 104 0
109 103 0
101 96 0
110 106 0
101 97 0
112 108 11
97 94 0
106 103 11
108 105 8
108 105 0
112 108 0
102 99 0
105 101 8
112 108 8
114 112 0
110 108 0
115 111 0
113 110 0
115 111 0
119 116 0
120 116 0
116 113 0
111 109 0
125 121 0
120 118 0
132 129 0
126 123 0
130 126 0
131 128 0
130 128 0
137 133 0
136 131 0
135 132 0
137 133 0
134 131 0
134 131 0
134 131 0
141 136 0
135 132 0
135 133 0
136 132 0
137 133 0
134 131 0
146 141 0
142 138 0
140 136 0
142 137 0
142 138 0
138 135 0
143 138 0
138 134 0
145 142 0
135 132 0
148 145 0
147 142 0
144 139 0
140 138 0
144 139 0
141 138 0
143 139 0
146 141 0
149 144 0
145 140 0
145 140 0
145 141 0
146 141 0
149 145 0
147 142 0
151 146 0
143 139 0
147 142 0
147 142 0
147 143 0
150 144 0
149 145 0
149 143 0
146 141 0
147 141 0
146 139 0
148 142 0
147 141 0
148 143 0
142 135 0
144 139 0
144 139 0
143 136 0
143 138 0
138 133 0
139 134 0
136 130 0
130 125 0
134 128 0
135 126 0
135 128 0
121 116 0
120 115 0
109 102 0
143 152 0
164 177 0
165 179 0
164 179 0
166 179 0
170 185 0
164 180 0
168 183 0
166 181 0
169 183 0
165 180 0
166 181 0
166 181 0
165 184 0
165 179 0
167 181 0
166 183 0
168 186 0
170 189 0
170 189 0
167 184 0
168 186 0
169 185 0
170 189 0
168 185 0
168 186 0
168 186 0
169 188 0
167 186 0
168 184 0
169 187 0
166 186 0
180 201 102
182 203 111
181 203 88
183 204 111
180 202 108
179 201 84
179 201 88
181 203 95
179 202 95
180 202 92
178 201 80
180 202 92
179 202 92
179 202 92
176 199 62
181 203 99
194 213 157
202 219 188
214 229 226
222 235 248
221 235 250
220 234 246
222 236 255
220 234 246
220 234 252
219 234 250
220 234 250
219 234 250
219 234 252
220 234 253
220 235 253
219 234 252
218 233 248
217 232 246
219 234 252
218 233 249
218 233 250
217 233 248
218 233 250
218 233 249
218 233 250
218 233 250
217 233 248
219 234 252
219 234 250
219 234 253
218 234 250
218 233 249
219 234 253
217 233 249
219 234 250
219 234 249
219 233 252
218 233 245
220 235 254
219 234 249
221 235 253
220 234 252
221 235 253
221 235 252
219 233 245
219 234 248
221 235 250
222 236 252
213 228 223
201 219 184
192 211 142
181 203 99
181 203 95
180 203 95
177 200 72
181 203 88
179 202 80
179 201 84
177 199 67
177 199 67
156 178 124
104 130 177
94 122 171
96 123 173
110 135 174
112 136 181
109 134 182
112 135 173
111 134 170
67 101 151
70 103 156
65 100 150
68 102 151
66 100 149
60 96 149
70 103 152
80 110 139
102 130 139
109 137 129
102 129 134
81 112 147
60 95 154
61 97 157
62 98 158
62 98 158
62 98 162
61 97 155
61 97 158
60 96 154
60 95 155
61 97 160
61 97 158
60 96 154
60 96 159
61 97 163
61 97 163
61 97 162
59 95 147
60 96 157
60 97 162
60 96 153
62 98 163
62 97 163
62 97 162
61 97 165
61 97 161
60 96 160
61 97 157
60 97 161
62 97 164
62 98 169
61 97 161
61 96 159
62 98 166
61 97 160
62 98 169
61 98 167
62 99 169
61 97 165
62 98 164
62 98 170
61 98 170
61 97 162
62 98 163
61 98 162
61 98 165
62 98 168
61 98 164
62 98 163
61 98 165
61 97 163
61 97 161
61 98 165
61 98 163
61 97 162
61 98 166
61 98 165
62 98 165
62 99 169
62 98 158
61 97 164
62 99 167
62 98 168
62 98 163
62 98 158
62 99 167
63 99 164
62 98 163
62 98 163
61 98 162
62 98 163
62 98 161
61 98 164
62 98 164
62 97 158
62 98 167
62 98 165
62 98 164
62 98 168
61 97 160
62 98 164
62 98 161
62 98 161
61 98 160
62 98 159
61 97 154
62 98 162
62 98 162
62 98 160
61 97 157
62 98 165
62 98 164
62 98 162
62 98 160
61 97 155
61 96 154
63 99 167
62 98 164
63 99 164
61 97 158
62 99 166
61 97 158
62 98 163
62 98 162
61 97 159
62 98 164
62 98 160
62 98 160
62 98 165
63 99 162
61 96 150
61 98 159
62 98 160
61 97 159
62 98 159
61 98 159
62 99 163
62 98 162
61 97 157
61 97 158
62 98 159
62 97 159
62 99 167
62 98 158
61 97 157
63 99 164
62 98 159
61 97 150
62 98 163
61 97 148
62 98 160
62 97 159
63 99 164
62 98 158
63 99 161
62 98 161
61 97 154
62 98 158
61 97 145
62 98 157
62 98 154
60 96 152
61 97 153
62 98 157
60 95 143
61 97 155
61 97 154
61 96 153
62 97 152
62 97 159
62 98 154
60 94 142
62 97 154
60 95 137
61 96 146
60 95 148
61 96 151
61 96 148
61 96 149
60 95 148
61 95 146
61 96 148
61 95 144
61 95 149
60 94 139
61 95 139
58 92 134
59 92 137
92 88 25
94 88 0
99 95 0
104 97 0
94 90 0
98 91 0
107 103 0
109 103 0
102 97 0
101 98 0
96 91 0
107 100 0
116 112 0
112 107 0
99 95 0
109 105 0
112 106 0
105 101 0
113 111 0
113 107 0
107 104 0
114 109 0
117 113 0
113 110 0
108 107 0
116 112 0
112 107 0
117 114 0
120 118 0
126 122 0
123 119 0
119 116 0
127 124 0
125 123 0
128 123 0
132 128 0
125 122 0
129 126 0
133 129 0
138 134 0
135 132 0
133 130 0
133 128 0
133 130 0
138 134 0
136 133 0
135 132 0
139 135 0
136 131 0
139 135 0
143 139 0
142 138 0
143 138 0
137 133 0
139 135 0
140 137 0
140 136 0
145 141 0
149 146 0
136 131 0
141 137 0
143 138 0
140 135 0
140 137 0
138 133 0
143 139 0
144 140 0
140 137 0
144 141 0
145 140 0
147 143 0
145 141 0
144 141 0
141 137 0
144 139 0
147 142 0
147 142 0
143 137 0
144 139 0
152 147 0
150 145 0
147 141 0
144 139 0
151 144 0
146 140 0
144 138 0
147 140 0
144 139 0
145 139 0
142 137 0
142 136 0
139 133 0
144 140 0
144 138 0
141 136 0
138 133 0
144 138 0
136 129 0
132 124 0
127 121 0
123 117 0
133 124 0
114 109 0
141 146 0
165 179 0
163 173 0
165 181 0
167 181 0
163 175 0
163 178 0
169 183 0
168 181 0
164 180 0
163 178 0
166 183 0
167 182 0
166 181 0
165 180 0
168 186 0
164 180 0
165 180 0
170 187 0
169 186 0
169 187 0
166 182 0
167 183 0
171 188 0
169 186 0
170 189 0
169 189 0
169 185 0
166 183 0
168 185 0
165 182 0
166 183 0
167 183 0
183 204 120
183 204 111
176 199 80
180 203 95
182 205 111
181 203 92
177 200 95
182 204 111
177 200 76
179 202 84
181 203 95
179 202 92
186 207 122
202 219 184
216 230 230
220 234 242
221 235 250
220 234 246
221 235 250
220 234 249
219 234 248
220 235 253
220 234 249
219 234 252
220 234 252
218 233 249
219 234 253
217 233 248
218 233 252
218 233 253
218 234 253
217 233 252
218 233 249
217 233 252
217 233 250
216 232 248
218 234 254
216 232 249
217 233 250
216 232 246
216 232 249
216 233 252
217 233 253
215 231 248
216 232 250
216 232 249
218 234 254
217 233 250
217 232 249
215 231 245
218 234 253
219 234 253
216 232 245
215 231 245
217 232 249
219 234 253
218 233 250
219 234 250
219 234 249
218 233 246
220 234 252
219 233 249
219 234 246
221 235 252
217 232 246
219 233 248
222 236 252
222 235 252
212 228 221
193 212 157
183 205 108
178 200 67
179 202 84
176 199 51
177 200 80
179 201 88
150 173 117
109 134 180
98 126 169
94 121 173
115 140 191
102 128 179
104 129 176
105 130 173
116 139 175
109 133 178
66 100 152
66 100 157
63 98 153
71 104 154
68 102 156
64 99 153
62 97 158
68 101 149
71 104 150
92 121 136
107 133 141
108 135 124
82 113 143
60 96 157
60 96 158
62 98 159
60 96 155
61 97 158
60 95 153
61 96 156
61 97 159
61 97 159
61 97 160
61 97 155
61 96 160
61 97 160
60 96 159
61 97 155
62 98 169
62 98 163
61 96 159
61 97 155
62 98 166
62 98 165
62 98 165
62 98 168
60 96 160
61 98 166
61 97 158
61 97 164
61 97 162
61 97 160
61 97 169
61 97 164
61 97 163
62 98 167
62 98 164
61 97 157
62 98 164
60 96 160
61 97 156
62 99 171
61 98 163
62 99 168
61 97 162
61 97 167
61 97 163
62 98 160
61 97 155
61 97 160
62 99 173
61 98 167
61 98 166
60 96 156
61 97 161
62 98 162
62 98 163
62 98 170
62 99 169
62 98 163
62 98 164
61 97 156
62 98 164
62 98 165
61 97 163
63 99 168
62 98 164
62 97 159
62 99 167
62 98 164
62 98 161
63 99 173
61 96 154
62 98 160
61 98 160
61 98 164
63 99 166
62 98 158
61 98 161
63 100 175
63 99 164
61 97 159
61 97 161
61 98 167
62 98 164
62 98 159
62 98 163
61 97 160
61 97 160
61 97 157
62 99 170
62 98 164
62 98 164
62 98 163
62 98 163
62 98 161
62 98 163
63 99 166
62 98 164
62 98 164
62 99 165
62 98 165
61 97 167
61 98 162
63 99 165
62 98 163
62 98 161
62 98 164
61 97 165
62 98 159
62 98 158
62 97 152
63 99 163
62 98 158
63 99 169
63 99 169
62 98 156
62 98 160
62 97 159
62 97 156
62 98 161
62 98 161
62 98 165
63 99 166
61 97 159
62 97 156
62 97 155
61 97 157
62 98 164
62 98 156
62 98 161
61 97 150
62 98 161
62 97 157
62 98 158
61 98 162
61 97 154
62 97 160
62 98 160
61 96 153
62 98 163
62 98 154
62 98 158
60 96 152
62 98 160
63 99 160
62 98 159
60 95 140
61 97 153
62 98 153
61 97 154
61 97 155
62 98 157
61 96 149
60 95 144
61 96 150
62 97 146
60 95 147
61 96 153
61 96 144
61 95 140
61 96 140
60 95 147
60 95 141
60 94 144
60 93 141
58 90 124
65 90 118
98 94 0
99 95 0
101 96 0
102 96 0
90 84 0
98 95 0
94 89 0
105 97 0
94 90 0
104 97 0
105 101 0
100 94 0
109 104 0
96 92 0
106 101 0
105 100 0
105 98 0
99 96 0
108 105 0
99 97 0
107 101 0
116 110 0
116 111 0
114 110 0
109 104 0
120 116 0
113 109 0
128 123 0
122 119 0
113 109 0
123 120 0
121 117 0
122 118 0
127 123 0
128 123 0
136 131 0
129 125 0
123 119 0
130 128 0
133 130 0
132 128 0
137 132 0
129 126 0
136 133 0
134 130 0
131 126 0
139 133 0
134 129 0
141 135 0
135 131 0
147 142 0
136 131 0
138 134 0
141 137 0
140 137 0
139 136 0
139 135 0
137 133 0
141 137 0
141 137 0
145 140 0
143 138 0
137 133 0
146 140 0
141 136 0
146 140 0
142 137 0
146 140 0
142 138 0
146 140 0
144 137 0
145 141 0
143 140 0
145 140 0
145 140 0
147 142 0
145 139 0
142 134 0
148 143 0
144 139 0
149 145 0
145 140 0
144 139 0
143 137 0
146 142 0
149 145 0
145 140 0
142 136 0
143 136 0
143 136 0
144 138 0
136 131 0
145 139 0
138 132 0
145 141 0
132 124 0
127 121 0
127 120 0
126 119 0
122 116 0
114 108 0
117 113 0
145 154 0
167 180 0
162 171 0
171 186 0
162 174 0
168 181 0
166 180 0
166 179 0
163 178 0
170 186 0
164 178 0
164 177 0
164 178 0
167 182 0
166 182 0
166 181 0
169 186 0
169 185 0
166 183 0
167 181 0
168 182 0
170 188 0
170 187 0
170 187 0
169 186 0
166 181 0
168 185 0
168 187 0
171 190 0
169 188 0
170 188 0
170 187 0
168 185 0
169 187 0
180 203 108
180 202 95
181 203 102
179 201 92
181 203 102
177 201 80
182 204 102
179 201 84
179 202 84
186 207 128
204 221 194
215 230 234
223 236 253
223 236 253
220 234 250
222 236 253
221 235 252
219 233 249
217 232 248
219 234 250
218 233 249
218 233 249
220 235 254
217 233 249
218 234 254
218 233 252
217 233 250
217 233 252
217 233 253
216 232 249
216 233 253
217 233 254
216 232 250
215 231 248
215 231 250
217 233 253
215 231 248
216 232 253
216 233 254
214 230 246
215 231 248
216 232 250
214 231 249
216 232 254
215 232 250
216 232 253
216 232 252
217 233 253
215 232 250
217 233 254
217 233 250
216 232 249
215 231 248
217 233 253
215 231 248
217 233 252
218 233 252
214 230 241
217 233 252
216 231 245
218 233 248
219 234 253
219 234 252
221 235 253
221 235 254
222 236 254
221 235 253
222 236 254
221 235 250
221 235 252
222 235 249
212 228 223
199 217 173
180 202 88
175 199 67
179 201 80
158 180 114
104 131 186
97 125 175
108 133 181
105 131 178
108 133 179
102 129 178
99 126 167
95 122 165
100 126 169
103 128 182
67 102 163
67 102 155
63 98 153
63 99 158
64 99 161
71 104 151
61 97 156
69 103 155
68 102 156
67 101 150
92 120 133
99 125 113
104 131 125
77 109 148
60 95 156
61 97 162
61 97 156
60 96 149
62 98 161
62 98 165
63 99 169
62 98 167
60 96 155
61 97 158
61 97 157
60 95 151
61 97 160
61 97 160
61 96 157
62 98 166
62 97 160
61 97 161
61 98 161
60 96 161
61 97 162
61 97 158
61 97 160
61 97 157
61 97 156
62 98 160
61 97 161
60 96 157
61 97 159
61 97 161
62 98 160
62 98 164
61 98 163
62 98 166
62 98 166
60 97 163
61 98 165
61 98 162
62 98 162
61 97 166
61 97 163
62 99 170
61 97 161
61 97 163
61 98 161
61 98 164
62 98 164
62 98 165
61 97 160
62 98 163
61 97 161
61 97 161
62 98 164
63 99 166
62 98 164
62 98 168
61 97 161
62 98 167
62 98 165
61 97 160
61 96 160
61 98 159
61 98 161
62 98 169
62 98 163
62 99 169
62 98 167
62 99 170
61 97 156
61 97 161
62 98 162
63 99 164
62 98 165
62 98 163
62 99 170
61 97 162
62 98 164
61 98 162
62 98 164
62 98 164
61 98 162
62 98 164
62 98 164
61 97 161
62 98 165
62 99 170
62 99 168
62 98 156
62 98 166
63 99 161
62 98 159
62 99 168
62 98 160
62 98 162
62 98 158
62 98 158
60 96 155
62 99 165
62 98 159
61 97 162
61 97 156
63 99 164
62 98 160
62 98 159
62 98 161
61 98 159
61 98 158
62 98 161
61 97 155
61 97 160
62 98 168
62 98 164
62 98 159
61 97 158
62 98 165
62 98 163
62 98 156
63 99 167
62 99 167
61 97 150
62 97 154
61 97 152
61 98 159
61 97 152
62 98 156
61 96 149
61 97 160
62 98 156
62 98 158
62 98 161
62 98 164
60 96 152
62 97 155
63 98 156
61 97 152
61 96 152
61 96 153
62 97 153
61 97 150
62 98 159
62 97 149
61 96 149
61 96 152
61 96 148
61 97 146
63 99 163
62 97 149
62 97 155
61 95 145
60 96 143
61 97 155
62 96 155
60 95 135
60 95 139
60 95 139
61 95 143
60 94 144
61 96 147
60 94 141
59 94 136
59 92 136
58 91 129
66 92 121
116 109 0
109 104 0
102 97 0
103 98 0
94 89 0
100 96 0
107 98 0
95 90 0
103 99 0
106 101 0
100 95 0
114 108 0
105 100 0
104 99 0
108 104 0
103 96 0
108 103 0
101 95 0
107 103 0
114 108 0
113 109 0
120 117 0
103 99 0
107 104 0
112 108 0
120 115 0
127 122 0
120 116 0
127 122 0
117 113 0
117 113 0
119 113 0
121 118 0
126 122 0
124 121 0
131 127 0
127 122 0
130 127 0
125 121 0
130 126 0
122 119 0
127 123 0
133 128 0
128 123 0
133 128 0
138 135 0
139 136 0
134 130 0
141 136 0
133 128 0
137 133 0
143 139 0
139 135 0
140 135 0
141 135 0
141 138 0
134 129 0
139 134 0
141 136 0
139 134 0
140 135 0
144 139 0
141 134 0
145 141 0
142 138 0
143 139 0
144 140 0
144 138 0
145 141 0
144 138 0
145 139 0
142 138 0
146 141 0
143 139 0
143 137 0
143 138 0
145 140 0
147 143 0
146 138 0
147 141 0
146 140 0
149 142 0
146 141 0
145 140 0
144 138 0
147 139 0
142 136 0
143 137 0
143 138 0
141 133 0
134 127 0
140 133 0
136 130 0
133 124 0
138 133 0
139 131 0
132 125 0
133 126 0
117 112 0
121 115 0
123 120 0
154 163 0
165 178 0
161 173 0
159 169 0
164 174 0
164 175 0
166 181 0
168 181 0
162 174 0
166 179 0
166 182 0
168 183 0
166 180 0
167 184 0
167 180 0
168 181 0
166 183 0
165 181 0
165 181 0
169 187 0
165 181 0
170 187 0
169 188 0
170 187 0
169 185 0
165 181 0
171 188 0
165 181 0
169 188 0
171 190 0
171 190 0
171 192 0
171 191 0
171 191 0
167 186 0
182 204 99
178 201 92
177 200 76
180 202 92
179 202 84
176 200 80
185 206 120
200 218 181
217 231 236
222 235 250
222 236 252
222 236 254
221 235 250
222 235 253
219 234 250
220 234 252
218 233 249
219 234 254
217 233 249
218 234 252
217 232 248
217 233 250
217 232 250
216 232 250
215 232 249
217 233 252
215 231 249
215 231 248
216 232 250
215 232 250
215 232 252
216 232 254
215 231 252
215 232 250
215 232 253
214 231 250
214 232 253
214 231 249
213 230 248
212 230 248
214 231 250
214 231 249
213 231 249
213 230 248
214 231 248
215 232 254
214 231 249
214 231 253
214 231 252
215 232 254
215 231 249
215 232 252
216 233 254
214 231 248
217 233 253
215 231 248
214 231 250
217 233 254
217 233 252
218 233 253
217 233 252
218 234 253
218 233 252
218 233 252
219 234 252
219 233 249
218 234 250
220 234 252
218 233 248
221 235 253
219 233 246
221 235 253
223 236 254
222 236 252
206 223 203
193 212 149
177 200 86
107 133 163
91 120 171
87 117 167
93 121 178
98 125 175
95 123 175
91 119 176
101 127 177
115 139 184
106 131 169
102 128 174
77 109 171
72 106 162
61 96 156
63 98 157
69 103 156
63 98 156
68 102 155
78 110 161
65 99 153
67 101 149
66 101 157
85 115 141
98 126 136
90 119 136
68 102 157
60 96 150
61 97 161
62 98 164
61 97 161
60 96 158
61 96 158
60 96 155
60 95 151
62 97 158
61 97 161
61 97 160
61 97 155
60 96 154
62 98 166
62 98 158
62 98 162
61 97 157
61 97 166
61 97 163
61 97 159
61 97 166
60 96 160
62 98 166
62 98 166
61 97 159
63 99 169
62 98 167
62 98 164
61 97 156
62 98 165
61 98 163
61 97 159
62 98 164
62 99 166
61 97 165
62 98 164
61 97 159
61 97 159
61 97 162
61 98 163
62 98 164
62 98 165
61 97 156
62 98 165
62 98 158
61 97 159
61 97 166
60 95 154
62 98 162
60 96 153
62 98 165
62 98 168
61 98 161
63 99 166
62 98 160
63 99 167
61 97 159
63 99 168
60 96 160
62 98 162
62 98 163
62 98 165
62 98 160
62 98 161
62 98 164
62 98 160
62 98 164
62 98 163
62 98 162
62 98 165
61 96 154
62 98 166
61 97 160
61 97 158
62 98 160
61 97 159
61 98 165
62 98 165
63 99 165
62 98 164
62 98 158
62 98 165
62 98 162
61 97 159
61 97 152
63 99 162
61 98 164
61 97 155
62 98 157
62 98 159
61 97 158
63 99 160
62 98 161
61 97 156
62 98 162
61 97 154
62 98 164
62 99 165
61 97 155
62 99 167
61 97 155
62 98 158
62 98 163
62 98 161
62 98 162
61 97 153
61 97 157
62 98 159
62 98 165
61 97 158
62 98 156
62 98 161
62 98 157
62 98 159
62 98 161
62 98 167
62 98 161
61 97 154
60 96 153
61 97 151
63 99 164
62 98 160
61 97 151
61 96 148
61 97 153
62 97 153
62 98 164
62 97 154
62 98 155
62 97 156
61 97 154
62 97 152
61 97 154
62 97 156
63 99 160
61 97 156
62 97 154
62 97 152
62 98 156
62 98 158
62 98 150
62 97 152
62 97 154
62 97 153
61 97 152
61 97 154
61 96 147
62 97 154
62 97 152
60 95 141
61 96 151
60 94 136
61 96 147
61 95 147
61 96 148
60 94 134
60 94 141
59 92 133
59 92 137
59 92 130
65 86 94
95 91 0
101 93 0
93 88 0
95 90 0
104 98 0
95 90 0
102 95 0
111 103 0
111 102 0
100 95 0
104 100 0
106 100 0
110 105 0
103 98 0
99 93 0
113 108 0
117 111 0
119 113 0
111 108 0
119 114 0
102 99 0
117 111 0
119 112 0
119 114 0
113 111 0
112 108 0
113 109 0
119 116 0
125 119 0
113 108 0
119 115 0
123 119 0
120 116 0
130 126 0
120 115 0
128 124 0
126 123 0
135 130 0
130 126 0
130 124 0
130 128 0
131 126 0
133 126 0
129 126 0
128 123 0
137 132 0
131 128 0
132 127 0
135 128 0
135 131 0
140 134 0
133 130 0
134 130 0
137 132 0
136 130 0
140 136 0
140 135 0
135 130 0
139 134 0
142 138 0
140 136 0
142 136 0
142 139 0
138 134 0
142 137 0
142 136 0
144 139 0
143 139 0
144 139 0
147 139 0
145 139 0
148 142 0
147 143 0
147 142 0
148 142 0
145 139 0
142 137 0
149 143 0
146 140 0
143 139 0
148 142 0
148 142 0
146 140 0
145 139 0
146 139 0
143 136 0
149 143 0
145 139 0
139 133 0
131 124 0
139 132 0
141 134 0
139 132 0
128 121 0
130 125 0
132 126 0
120 114 0
124 117 0
119 113 0
132 129 0
155 166 0
159 170 0
165 177 0
164 175 0
160 171 0
160 172 0
167 181 0
162 173 0
165 179 0
162 174 0
163 175 0
163 178 0
166 180 0
167 181 0
168 183 0
166 180 0
166 181 0
166 181 0
164 177 0
167 182 0
168 185 0
168 185 0
168 183 0
164 178 0
170 186 0
166 182 0
168 185 0
164 181 0
167 186 0
167 186 0
171 188 0
169 185 0
169 189 0
167 184 0
166 183 0
170 190 0
179 201 80
177 200 84
181 203 95
179 201 72
194 213 159
208 224 207
219 234 245
221 235 249
221 235 253
221 235 253
220 235 250
220 234 250
220 235 253
219 234 250
218 233 250
217 232 248
217 232 250
217 232 249
217 232 249
217 233 252
216 232 253
215 232 249
215 231 249
216 232 252
214 231 250
214 231 248
214 231 250
215 231 250
214 231 249
213 231 250
215 232 254
214 231 252
213 230 249
213 231 250
212 230 249
212 230 249
212 230 249
212 230 249
212 230 248
213 230 252
214 231 254
213 231 252
211 229 248
214 231 254
211 229 245
212 230 249
212 230 248
213 231 253
212 229 245
214 231 253
215 232 255
212 230 249
214 231 252
215 232 255
215 232 254
215 231 252
215 231 250
214 231 250
216 232 252
215 231 249
216 232 252
217 233 253
217 232 250
218 233 253
217 232 248
217 232 246
218 234 252
219 234 254
219 234 252
219 234 250
219 234 252
219 234 250
220 235 253
221 235 250
222 236 253
222 236 250
216 231 236
186 203 218
90 119 176
96 125 178
90 119 175
107 133 181
95 123 170
96 124 175
94 122 170
89 118 169
97 125 173
105 130 176
96 122 167
78 109 164
66 101 163
62 98 164
69 103 158
65 100 154
62 98 161
66 102 165
63 99 160
71 104 155
62 97 149
62 97 155
71 104 155
72 103 143
92 121 142
87 117 148
63 99 163
60 95 154
61 97 159
60 96 154
62 98 165
60 96 153
61 97 160
60 96 149
60 96 159
61 97 161
60 96 157
60 96 159
61 98 158
61 97 162
61 97 163
61 97 165
61 97 164
61 97 159
61 97 157
62 98 167
60 96 151
63 99 171
61 97 160
61 97 161
61 97 162
61 97 160
60 96 156
61 97 166
61 97 161
62 99 167
62 98 167
60 97 158
60 96 160
61 98 163
61 97 160
61 96 157
61 98 167
62 98 167
62 98 166
61 97 159
62 98 167
62 98 167
62 98 170
63 99 166
62 98 167
60 96 153
62 98 161
62 98 164
61 97 162
61 98 162
61 97 162
61 97 155
62 98 168
62 98 164
62 98 166
61 97 160
61 97 159
62 98 165
62 98 164
61 97 156
61 97 164
62 98 163
61 97 161
61 97 160
62 98 159
61 96 156
61 97 161
61 98 164
62 98 159
62 98 168
61 98 164
62 98 162
62 98 165
60 96 154
62 98 159
62 98 161
62 99 168
62 99 164
62 98 161
62 98 163
63 99 169
62 98 161
62 99 166
63 99 171
61 97 160
61 97 161
61 97 158
63 98 159
62 98 161
62 98 163
62 98 158
62 98 163
61 97 160
62 98 161
61 96 152
63 99 160
63 99 169
62 98 160
62 98 162
62 99 170
62 98 167
61 98 162
63 99 169
63 99 164
62 98 156
61 96 153
62 98 161
61 98 163
62 98 156
62 98 158
62 98 159
63 98 156
61 97 161
62 97 157
62 98 161
62 97 155
62 97 155
62 98 158
62 97 156
61 96 149
63 98 160
62 97 156
62 98 158
62 98 158
62 98 157
62 97 152
62 98 158
61 97 153
62 98 163
62 98 158
61 97 157
60 94 143
62 98 164
61 96 151
62 97 154
62 97 155
61 97 152
61 96 155
62 97 153
62 98 154
62 97 149
61 97 150
62 98 157
61 97 152
61 96 148
60 95 139
61 96 143
60 96 145
61 97 150
62 97 154
61 95 141
61 96 141
61 97 154
60 95 139
60 94 137
60 94 142
60 94 138
60 95 144
59 92 136
67 86 104
95 87 0
95 89 0
104 98 0
99 92 0
102 96 0
101 94 0
102 96 0
92 86 0
102 98 0
104 97 0
97 93 0
107 100 0
106 101 0
106 101 0
108 102 0
114 109 0
113 108 0
106 102 0
108 104 0
110 104 0
112 106 0
106 101 0
123 117 0
113 109 0
109 105 0
122 116 0
120 113 0
125 119 0
123 118 0
118 112 0
128 123 0
122 117 0
126 120 0
118 113 0
125 121 0
127 123 0
134 130 0
126 122 0
130 125 0
130 127 0
125 121 0
128 124 0
126 121 0
130 126 0
135 130 0
131 125 0
131 128 0
129 125 0
137 133 0
135 129 0
138 133 0
130 127 0
135 130 0
136 129 0
138 134 0
140 136 0
141 136 0
139 135 0
142 138 0
141 133 0
143 137 0
142 136 0
142 136 0
139 132 0
139 132 0
143 138 0
144 139 0
143 137 0
144 137 0
145 140 0
146 140 0
142 137 0
145 139 0
145 139 0
150 143 0
147 142 0
146 139 0
143 136 0
145 139 0
144 139 0
143 136 0
141 135 0
136 132 0
147 141 0
133 127 0
142 135 0
135 129 0
135 128 0
134 129 0
132 125 0
131 125 0
130 124 0
135 129 0
122 116 0
124 118 0
122 117 0
128 122 0
114 108 0
137 139 0
162 172 0
156 165 0
162 174 0
167 181 0
166 177 0
166 180 0
165 179 0
163 176 0
165 179 0
163 177 0
166 179 0
166 180 0
167 180 0
165 180 0
169 183 0
166 181 0
168 185 0
166 182 0
164 179 0
162 175 0
168 185 0
168 184 0
167 182 0
163 180 0
165 182 0
168 186 0
166 184 0
170 186 0
168 184 0
170 187 0
166 184 0
167 184 0
167 185 0
166 183 0
167 184 0
168 187 0
169 187 0
183 205 117
184 206 125
204 221 193
219 233 241
222 235 249
222 236 253
219 233 245
220 234 252
220 235 253
218 233 246
219 234 250
218 233 249
218 234 252
217 233 252
216 232 249
215 231 248
216 232 249
216 232 252
217 233 254
215 232 252
215 232 252
214 231 249
214 231 249
214 231 252
211 229 246
213 230 248
213 231 252
213 230 250
214 231 252
213 231 253
210 228 244
212 231 254
212 230 250
213 231 254
212 230 252
211 229 249
212 230 254
212 230 252
211 229 249
211 230 252
212 230 252
209 228 244
212 230 254
210 229 250
212 230 253
212 230 253
211 229 248
212 230 252
212 230 250
212 230 253
212 230 252
213 231 252
212 230 250
213 230 252
213 231 252
212 230 248
214 232 254
213 231 249
213 231 249
213 230 248
214 231 249
215 232 252
214 231 248
217 233 255
215 232 252
215 231 248
217 233 252
217 233 253
218 234 254
217 233 250
217 233 249
219 234 250
218 233 249
221 235 252
219 234 249
221 235 253
221 235 249
217 231 249
121 144 192
91 120 177
88 117 175
86 116 174
93 122 177
94 122 174
89 118 174
80 111 174
105 131 187
97 124 172
105 131 180
102 128 172
81 112 162
66 101 165
69 103 166
66 101 161
67 101 151
67 101 151
65 99 155
70 104 162
65 100 165
67 102 161
64 99 159
70 103 149
68 102 150
86 115 136
91 120 140
71 104 154
60 95 148
60 96 161
61 96 159
59 94 144
60 96 154
62 98 161
62 98 162
61 97 161
60 96 155
61 97 162
61 97 160
61 97 168
61 97 161
61 97 166
61 97 159
61 97 161
61 97 163
61 97 163
61 97 162
61 97 166
61 97 160
60 97 165
61 97 157
60 96 161
62 99 167
61 98 163
60 95 156
61 97 164
62 98 160
61 97 157
61 97 159
62 98 163
61 98 160
62 98 166
62 98 165
61 97 162
61 97 157
61 97 164
61 98 162
62 98 165
61 97 159
62 98 170
61 98 160
61 97 155
61 98 166
62 98 166
61 97 156
62 98 161
61 98 164
61 97 156
62 98 160
62 99 170
61 97 161
62 98 165
61 98 162
61 97 160
61 97 158
60 96 154
61 97 158
62 98 164
61 97 163
61 97 156
61 97 156
61 98 164
61 97 158
61 97 161
61 97 162
62 97 152
61 97 157
61 97 159
61 97 158
62 98 163
61 98 160
60 95 147
62 98 161
62 98 162
62 98 167
61 96 151
63 99 166
62 98 161
61 97 158
61 97 156
62 98 160
62 98 160
61 97 160
61 97 162
62 98 161
61 97 163
61 97 155
61 97 155
62 98 157
62 98 156
61 97 158
62 98 155
61 97 158
61 97 149
62 98 161
62 98 160
62 98 158
62 98 161
61 97 155
62 98 159
62 98 163
61 97 155
62 98 157
62 97 161
62 98 159
62 98 163
61 97 158
61 98 161
61 97 157
62 98 165
61 97 156
62 97 158
62 98 160
61 97 155
63 99 161
61 97 155
62 98 159
63 99 158
61 97 155
62 97 155
62 98 162
61 97 156
62 98 161
61 97 154
62 98 159
60 95 148
62 97 155
61 97 154
61 97 154
62 98 158
60 94 137
63 98 160
60 96 149
62 97 152
63 98 157
61 96 144
62 98 153
62 97 152
62 97 151
62 97 151
62 98 158
61 96 153
62 97 151
60 95 147
61 96 147
61 97 151
58 93 133
61 96 146
60 95 143
59 92 131
60 94 138
59 93 135
60 94 142
59 93 131
58 90 129
68 80 88
86 79 0
96 89 0
92 83 0
90 84 0
93 87 0
99 91 0
92 86 0
99 92 0
106 101 0
107 102 0
110 103 0
104 99 0
110 102 0
102 97 0
106 102 0
111 105 0
111 103 0
111 106 0
114 110 0
108 104 0
114 110 0
112 104 0
112 108 0
127 121 0
119 114 0
116 111 0
115 110 0
117 112 0
122 117 0
117 113 0
129 123 0
125 121 0
129 124 0
127 122 0
119 115 0
124 121 0
138 133 0
127 121 0
128 122 0
130 124 0
132 127 0
128 122 0
130 126 0
132 127 0
132 129 0
136 132 0
134 128 0
139 135 0
135 131 0
139 133 0
134 130 0
137 132 0
126 123 0
134 129 0
139 134 0
139 134 0
141 137 0
140 136 0
138 132 0
142 134 0
135 128 0
146 140 0
143 136 0
136 130 0
140 134 0
142 138 0
143 136 0
144 139 0
142 137 0
140 136 0
144 138 0
147 140 0
143 137 0
142 136 0
145 139 0
144 137 0
147 141 0
147 139 0
144 136 0
140 134 0
142 136 0
139 132 0
136 128 0
138 130 0
141 134 0
145 138 0
133 126 0
129 123 0
138 130 0
133 126 0
135 127 0
125 119 0
128 121 0
122 115 0
117 112 0
122 114 0
112 106 0
142 146 0
164 172 0
161 172 0
160 171 0
163 176 0
163 174 0
162 174 0
163 175 0
162 175 0
165 179 0
165 176 0
166 180 0
161 171 0
164 178 0
168 185 0
168 182 0
168 182 0
165 180 0
167 183 0
164 176 0
168 185 0
167 182 0
166 181 0
168 183 0
167 184 0
164 180 0
165 178 0
169 186 0
165 180 0
172 188 0
170 188 0
167 184 0
169 186 0
170 188 0
169 187 0
171 188 0
168 186 0
168 186 0
170 187 0
206 223 199
220 234 242
222 235 250
221 235 250
219 233 245
220 234 249
218 233 248
218 233 248
219 234 253
218 233 252
218 233 252
217 233 253
215 232 248
217 233 254
215 232 252
215 232 253
214 231 250
215 232 253
214 231 250
213 230 246
213 231 252
214 232 255
213 231 254
213 230 250
212 230 250
212 230 252
212 230 250
211 229 248
211 230 252
211 229 250
213 231 254
212 231 255
213 231 255
212 230 254
211 230 255
211 230 254
212 231 255
212 230 255
212 230 255
211 230 254
212 231 255
212 230 255
212 231 255
212 230 255
212 230 254
212 230 255
212 230 255
212 231 255
211 230 253
211 230 254
211 230 252
212 230 254
212 230 253
213 231 254
211 229 248
212 230 250
213 231 253
210 228 244
213 231 253
213 230 250
213 231 250
213 231 250
213 230 248
215 232 254
214 231 250
215 232 253
215 231 249
216 232 252
215 232 252
214 230 242
217 232 249
217 233 249
219 234 252
218 233 249
220 235 253
220 234 254
218 232 252
219 233 254
199 215 242
91 120 181
79 111 175
98 125 181
79 111 180
82 113 176
86 116 177
90 118 176
85 115 178
97 124 181
82 113 172
93 121 173
107 132 173
67 101 166
65 101 163
64 99 159
66 100 163
70 104 160
67 102 165
64 100 166
67 101 157
67 101 161
63 99 155
66 100 153
64 98 151
63 98 148
63 98 159
86 116 145
85 114 139
66 100 140
61 96 154
61 97 162
60 96 156
61 96 150
59 95 148
62 98 166
61 97 156
60 96 153
61 96 157
61 97 159
62 97 160
60 96 164
60 96 151
61 97 160
60 96 161
60 96 164
62 98 166
62 97 166
61 97 167
61 97 161
60 96 157
62 98 162
61 97 159
62 97 156
62 98 161
60 96 163
61 96 154
61 97 157
61 98 163
60 96 160
61 97 165
62 99 168
61 97 158
61 97 161
62 98 163
62 97 157
61 98 165
61 97 163
62 99 165
63 99 165
61 97 162
61 98 160
61 96 153
62 98 165
61 98 159
62 97 156
61 98 163
62 98 159
62 99 165
62 98 159
61 97 157
61 98 162
61 97 158
62 98 164
61 97 150
61 97 160
62 98 165
62 98 162
62 99 168
61 97 161
62 97 159
62 98 161
61 97 160
62 98 166
61 97 156
62 98 166
62 98 162
62 98 164
61 98 163
61 97 158
61 97 157
62 98 164
61 97 156
61 97 152
62 98 163
62 98 162
62 98 160
62 98 155
62 98 160
61 97 161
62 98 163
62 97 156
61 98 161
61 97 159
62 98 158
62 98 160
62 98 156
62 99 165
62 98 160
62 98 155
62 98 163
62 98 157
61 97 154
60 95 150
61 97 151
62 97 155
62 98 159
62 97 158
62 98 160
62 98 162
61 97 155
61 97 158
61 97 158
61 97 158
62 97 156
62 98 160
61 97 151
62 98 162
62 98 162
61 97 155
62 98 159
61 97 153
61 97 154
61 96 153
61 98 159
62 97 156
61 97 151
62 98 156
62 97 150
62 98 158
63 98 157
61 97 156
61 97 153
62 97 154
61 96 153
61 97 150
62 97 155
62 98 158
63 99 163
62 98 156
62 98 154
61 97 148
62 97 152
60 96 144
62 98 159
62 97 152
61 97 148
62 98 154
61 96 145
61 96 148
61 96 152
60 95 142
61 97 154
61 95 145
61 96 150
60 95 140
62 97 148
59 93 140
60 95 141
61 96 154
59 93 134
60 94 136
59 92 136
60 94 131
58 90 125
114 118 51
100 101 0
87 80 0
97 90 0
95 87 0
90 83 0
102 94 0
91 83 0
89 84 0
99 92 0
110 102 0
100 95 0
102 95 0
115 108 0
99 93 0
103 97 0
110 103 0
112 105 0
109 103 0
112 106 0
109 102 0
118 113 0
109 105 0
123 115 0
111 105 0
113 106 0
124 118 0
126 118 0
120 114 0
123 118 0
121 117 0
113 109 0
117 112 0
119 117 0
124 119 0
126 120 0
127 122 0
129 125 0
128 122 0
132 127 0
128 122 0
131 126 0
134 129 0
136 130 0
128 122 0
141 134 0
139 134 0
139 132 0
135 129 0
133 127 0
135 129 0
135 129 0
136 130 0
141 135 0
135 129 0
136 130 0
138 131 0
136 131 0
129 124 0
135 129 0
140 135 0
142 134 0
145 140 0
140 134 0
140 134 0
142 136 0
143 137 0
143 136 0
143 136 0
144 138 0
143 138 0
145 138 0
143 137 0
142 135 0
140 133 0
148 142 0
139 133 0
143 135 0
144 138 0
137 131 0
137 132 0
140 132 0
132 125 0
134 128 0
144 137 0
138 132 0
136 130 0
131 123 0
133 126 0
135 128 0
135 126 0
134 126 0
120 114 0
124 117 0
117 110 0
121 114 0
126 125 0
149 159 0
159 171 0
161 170 0
164 175 0
163 175 0
164 172 0
164 175 0
164 174 0
163 174 0
168 180 0
168 184 0
163 176 0
162 175 0
164 176 0
166 182 0
163 175 0
163 175 0
165 177 0
163 176 0
163 175 0
162 177 0
166 180 0
165 180 0
165 177 0
169 183 0
168 185 0
167 183 0
165 179 0
167 183 0
168 185 0
168 185 0
167 183 0
168 186 0
170 188 0
170 186 0
168 184 0
170 188 0
167 187 0
171 190 0
168 185 0
223 236 254
220 234 249
220 235 252
219 234 250
218 233 248
220 235 255
219 234 254
218 234 254
217 233 252
215 232 249
215 232 249
216 233 253
216 233 254
213 229 242
213 230 246
213 230 246
214 231 249
214 231 252
212 230 248
213 231 253
211 229 248
212 230 250
212 230 252
212 230 253
212 231 255
212 230 253
212 230 254
212 230 255
211 230 255
211 230 255
211 230 254
210 229 255
210 229 255
211 230 255
210 230 255
211 230 255
211 229 254
211 230 255
210 230 255
210 229 255
211 230 255
211 230 255
211 230 255
211 230 255
211 230 255
212 230 255
210 229 255
211 229 254
211 230 255
211 230 255
211 230 255
212 231 255
212 230 254
212 230 255
212 230 254
212 230 255
212 230 254
212 230 254
212 230 252
212 230 253
210 229 245
212 230 253
211 229 248
213 230 250
213 230 250
215 232 254
214 231 252
214 231 249
215 232 252
215 231 249
216 232 252
215 231 248
217 233 253
218 234 253
218 233 252
216 232 254
215 230 249
214 229 252
217 232 252
167 185 221
86 116 178
79 111 179
94 122 186
82 113 175
91 120 177
89 118 174
82 113 173
73 106 171
90 119 179
97 124 178
90 119 181
100 127 184
80 111 165
64 99 164
65 100 165
63 99 163
64 99 157
63 98 153
63 98 155
66 100 161
69 103 159
63 98 159
67 101 158
61 96 153
64 99 157
60 96 147
65 100 157
80 111 151
69 103 155
60 95 154
61 97 162
60 95 157
60 96 155
60 96 157
61 97 159
60 95 148
61 97 161
61 97 164
61 97 158
61 98 160
61 96 159
61 96 156
60 96 159
62 98 164
60 95 153
61 96 161
60 96 157
62 98 164
61 97 164
62 98 165
60 96 154
62 98 166
62 98 161
62 97 161
60 96 155
62 98 159
62 97 157
61 97 160
61 97 158
62 98 162
61 97 164
60 96 158
62 98 164
61 97 164
62 98 161
61 98 164
62 98 164
61 97 161
62 98 165
62 98 163
61 98 164
60 96 152
61 97 159
61 97 162
63 99 170
62 98 161
62 98 161
61 97 152
63 99 165
61 97 157
61 97 161
61 97 156
60 95 156
62 98 165
62 98 160
62 99 169
62 98 163
61 97 159
62 98 157
62 98 163
61 97 160
62 98 162
62 99 167
62 98 161
62 98 159
62 98 160
62 98 163
62 98 159
61 97 157
61 97 154
61 97 157
62 98 162
61 97 158
61 97 163
62 97 159
62 97 160
62 98 158
62 98 162
63 99 165
62 98 157
63 99 170
61 97 161
61 97 158
61 97 158
61 98 162
62 98 161
62 98 160
61 97 159
62 98 165
61 97 151
62 98 157
62 98 160
61 97 156
62 98 160
62 99 165
62 98 159
62 97 156
62 98 161
62 98 159
62 98 158
62 98 155
62 98 156
61 97 149
62 98 157
62 98 159
62 98 158
61 97 159
61 97 160
62 97 154
62 97 159
62 98 158
63 98 157
63 99 159
62 98 155
61 97 148
63 99 167
62 97 153
61 97 154
61 96 147
61 97 151
61 97 157
61 97 151
62 98 158
61 97 155
62 97 152
61 97 153
61 96 153
62 98 160
61 97 154
61 96 148
61 97 152
62 97 154
62 97 154
61 96 151
60 95 143
60 95 141
63 98 160
61 96 141
60 95 137
61 96 144
62 98 154
61 95 145
61 96 145
60 94 138
60 95 138
60 95 143
62 97 154
60 94 139
61 95 141
61 95 142
59 93 138
59 93 136
59 92 134
119 126 18
122 123 0
118 121 0
90 86 0
91 84 0
87 79 0
96 90 0
97 90 0
110 102 0
100 93 0
98 92 0
103 98 0
99 93 0
106 99 0
102 93 0
104 97 0
109 101 0
113 105 0
104 98 0
110 105 0
109 102 0
114 107 0
120 113 0
123 116 0
117 110 0
110 106 0
120 112 0
109 105 0
119 114 0
125 118 0
126 119 0
123 117 0
124 118 0
123 119 0
121 117 0
122 116 0
125 119 0
127 122 0
132 126 0
131 126 0
124 119 0
130 124 0
124 118 0
127 121 0
132 127 0
131 127 0
132 128 0
137 132 0
132 127 0
137 129 0
137 131 0
136 131 0
135 128 0
133 129 0
131 126 0
145 138 0
136 130 0
142 135 0
136 130 0
142 137 0
139 132 0
139 133 0
136 129 0
141 134 0
141 136 0
144 135 0
141 131 0
142 135 0
144 137 0
137 131 0
144 136 0
139 131 0
138 130 0
142 135 0
140 134 0
143 138 0
139 132 0
137 128 0
144 138 0
135 128 0
140 133 0
136 130 0
135 127 0
131 124 0
139 130 0
135 128 0
132 125 0
132 126 0
128 119 0
131 124 0
124 117 0
124 117 0
122 114 0
118 110 0
115 109 0
137 142 0
159 167 0
161 169 0
160 169 0
160 172 0
159 171 0
163 174 0
162 174 0
164 176 0
163 177 0
159 170 0
164 177 0
167 181 0
161 172 0
165 181 0
162 174 0
167 180 0
166 184 0
169 182 0
160 173 0
161 176 0
163 175 0
167 185 0
165 179 0
169 184 0
169 184 0
165 182 0
166 181 0
163 181 0
168 185 0
166 181 0
170 188 0
164 183 0
167 184 0
166 181 0
167 185 0
166 182 0
169 185 0
165 182 0
164 180 0
170 189 0
169 188 0
219 234 249
217 232 246
219 234 252
218 234 253
219 234 254
219 234 254
219 234 255
217 233 252
215 232 249
216 232 253
212 229 244
214 231 250
213 230 248
212 230 248
211 229 245
212 230 252
213 231 254
212 230 253
211 230 252
212 230 253
211 230 253
212 230 255
212 230 255
212 230 255
211 230 255
211 230 255
211 230 255
211 230 255
210 229 255
210 229 255
210 229 255
210 229 255
210 229 255
209 229 255
209 229 255
210 229 255
210 229 255
209 229 254
209 229 255
210 229 255
209 229 255
210 229 255
210 229 255
209 228 253
208 228 253
210 229 255
208 228 254
210 229 255
209 229 254
210 229 255
209 229 255
210 229 255
210 229 255
210 229 255
210 230 255
211 230 255
211 230 255
211 230 255
212 230 255
212 230 255
213 231 255
212 230 254
213 231 255
212 230 252
211 229 249
213 231 252
213 231 252
213 230 249
214 231 252
212 230 245
215 232 253
214 231 246
214 230 246
214 231 250
214 230 252
215 231 253
214 230 252
216 231 252
214 229 251
219 233 254
114 138 193
78 110 173
83 114 178
91 120 180
88 117 175
87 117 178
90 119 177
71 104 166
94 122 181
87 117 174
79 110 174
98 125 180
107 132 183
76 107 164
61 97 163
61 98 163
62 98 170
64 100 169
64 99 157
67 101 158
69 103 157
66 100 160
64 99 157
72 106 162
63 98 159
64 99 160
63 98 155
60 96 151
83 114 153
77 108 137
62 97 153
61 97 159
61 97 160
61 97 158
61 98 160
61 97 161
60 96 159
60 96 161
60 96 156
61 97 160
61 97 156
61 96 154
61 97 160
62 98 165
60 96 154
61 97 158
61 97 157
60 96 156
61 97 161
60 96 155
62 98 169
61 98 166
60 96 153
60 96 161
61 97 158
60 96 157
60 96 158
61 96 156
60 96 155
61 97 162
61 97 155
61 96 159
61 97 157
61 97 154
61 97 160
61 97 162
62 98 162
62 98 167
62 98 166
61 97 154
61 97 157
61 97 162
61 97 163
61 97 161
61 97 154
61 98 165
61 97 161
61 97 156
62 98 160
61 97 154
62 97 156
62 98 165
62 98 161
61 96 151
61 98 159
62 98 163
62 98 160
62 98 167
62 97 158
61 97 159
62 98 159
62 98 162
62 97 155
62 99 166
61 97 156
62 98 162
61 98 166
63 99 166
62 97 155
61 97 158
61 97 156
62 98 163
62 98 161
60 96 154
62 98 160
62 98 163
61 97 159
62 98 160
61 97 159
62 98 164
61 97 156
62 98 160
62 98 153
62 98 164
62 98 159
61 97 156
63 99 164
60 96 148
61 97 156
61 98 158
61 97 155
62 98 157
62 97 154
62 98 158
62 98 160
61 97 156
61 97 160
63 99 166
62 97 150
62 98 161
61 97 160
62 98 156
61 97 155
63 98 160
62 98 161
61 97 152
62 98 158
61 97 153
62 98 158
62 98 153
62 98 155
61 97 154
61 97 151
62 98 165
62 98 160
62 98 153
62 98 157
62 97 150
61 97 159
62 98 161
62 97 153
62 97 152
62 98 156
63 98 160
62 98 157
61 97 149
61 96 150
61 97 145
61 97 149
62 98 155
62 97 154
61 96 151
62 97 149
61 97 149
61 96 152
61 97 151
61 96 145
62 97 149
61 96 154
60 96 144
61 96 150
61 96 145
61 96 141
62 97 149
61 96 150
61 96 146
59 93 140
59 92 130
60 94 136
59 93 135
60 94 135
59 91 125
65 94 128
119 121 18
127 130 0
119 122 0
121 125 0
93 90 0
86 80 0
89 83 0
82 76 0
99 91 0
91 86 0
89 84 0
102 94 0
98 92 0
102 95 0
104 95 0
101 94 0
107 101 0
98 93 0
112 106 0
110 105 0
107 101 0
111 105 0
114 108 0
117 110 0
108 103 0
98 94 0
123 115 0
122 115 0
118 111 0
118 112 0
124 119 0
118 112 0
115 110 0
123 116 0
127 121 0
127 122 0
128 119 0
120 114 0
122 116 0
124 118 0
134 128 0
129 123 0
130 123 0
135 128 0
123 118 0
131 125 0
133 129 0
132 126 0
130 124 0
128 122 0
135 129 0
135 131 0
133 127 0
137 130 0
140 134 0
138 131 0
140 134 0
136 129 0
128 122 0
142 134 0
141 133 0
136 130 0
138 132 0
143 136 0
141 135 0
141 133 0
137 129 0
145 138 0
144 136 0
141 135 0
143 136 0
141 134 0
140 134 0
137 128 0
133 126 0
135 128 0
143 136 0
136 127 0
135 128 0
137 129 0
139 132 0
140 133 0
135 129 0
133 127 0
132 127 0
128 121 0
127 120 0
126 119 0
127 121 0
121 115 0
127 120 0
119 113 0
121 115 0
119 116 0
146 150 0
156 166 0
165 177 0
162 170 0
160 170 0
164 175 0
163 173 0
164 176 0
159 169 0
161 171 0
165 179 0
160 169 0
161 172 0
165 177 0
160 172 0
160 172 0
166 180 0
162 173 0
169 182 0
161 176 0
164 180 0
167 184 0
163 179 0
161 173 0
167 185 0
163 176 0
168 185 0
168 182 0
165 182 0
164 181 0
168 185 0
168 186 0
165 181 0
162 178 0
167 184 0
171 188 0
165 183 0
169 188 0
171 190 0
168 187 0
169 186 0
165 179 0
166 184 0
219 234 252
218 234 250
218 233 252
217 233 250
218 233 254
217 233 252
215 232 253
215 232 252
214 231 253
214 231 250
214 231 249
213 230 249
213 231 252
213 231 253
212 230 250
210 228 248
211 230 253
212 230 254
211 230 255
211 230 254
211 230 255
211 230 255
211 230 255
210 229 253
209 229 254
210 229 255
209 228 254
210 229 255
209 229 255
209 229 255
208 228 255
209 228 254
209 228 253
208 228 250
205 225 244
207 227 245
207 226 246
207 226 238
204 223 230
203 221 220
205 224 228
203 222 218
204 222 217
204 223 234
206 224 230
198 217 214
199 219 214
203 222 220
204 223 233
202 222 231
207 225 234
206 226 242
205 225 242
209 228 250
209 229 253
210 229 255
210 229 255
210 230 255
210 230 255
211 230 255
211 230 255
211 230 254
211 230 254
212 230 255
213 231 255
212 230 252
211 230 250
212 230 250
211 229 246
212 230 252
214 231 252
213 231 250
214 231 249
215 231 254
211 228 252
212 228 252
215 231 253
214 229 252
215 231 253
218 233 254
205 221 245
103 130 192
84 115 178
84 115 180
73 107 178
78 110 175
77 109 176
91 120 179
76 108 175
82 113 177
82 113 177
84 114 179
90 119 179
74 107 169
80 111 175
61 97 164
61 98 163
61 98 165
63 98 156
65 100 161
75 107 148
71 104 152
63 98 159
65 99 159
68 102 153
65 99 153
66 100 153
64 98 153
70 104 153
65 99 157
85 114 133
62 97 155
60 96 154
61 97 157
60 96 153
61 97 156
61 97 158
61 97 160
60 96 151
59 95 145
61 98 166
61 97 163
62 97 160
61 98 166
61 97 161
61 97 160
62 98 159
60 96 156
61 97 159
60 96 156
62 98 165
62 98 160
60 96 154
61 97 164
61 98 164
60 96 156
61 96 160
61 98 158
60 96 156
63 99 169
61 98 164
61 97 153
61 97 159
61 97 159
62 98 164
62 99 168
62 98 164
62 98 162
62 98 161
61 97 157
61 97 156
62 99 164
62 99 167
63 98 162
61 96 153
61 98 167
62 98 159
62 99 168
61 96 159
63 99 165
61 97 159
61 96 151
61 98 159
62 98 159
61 97 151
62 98 163
62 97 160
61 97 158
61 97 158
62 98 160
61 97 158
61 97 163
60 96 152
62 98 163
61 98 159
61 97 159
61 97 155
62 98 162
61 97 157
62 97 161
61 97 161
61 97 159
61 97 158
62 99 168
62 98 161
61 97 158
62 99 169
62 98 161
61 97 156
62 98 157
62 97 160
62 98 155
61 97 154
61 97 158
61 97 159
63 99 169
62 97 155
63 99 166
61 97 155
61 97 153
61 98 162
62 97 153
62 98 157
61 97 159
61 97 149
62 98 161
62 98 155
61 97 158
62 98 162
63 99 160
62 98 159
61 97 153
62 98 159
62 98 155
62 98 160
61 96 150
62 98 158
61 97 158
60 96 141
61 97 150
62 97 158
61 97 152
62 98 154
62 99 164
61 96 143
62 98 156
62 98 156
61 97 153
61 97 159
61 96 144
62 98 154
62 98 153
61 96 150
61 97 149
62 97 153
62 97 155
62 97 156
62 97 156
62 98 153
61 97 155
62 97 160
62 97 153
60 95 142
61 97 158
60 95 144
60 95 140
61 96 158
62 97 151
61 97 148
61 95 146
60 94 139
61 96 148
61 96 150
61 97 152
61 95 139
60 95 142
60 94 137
59 93 134
60 94 137
59 93 128
59 93 132
58 91 125
75 97 117
129 131 0
118 124 0
119 125 0
121 120 0
119 119 0
109 108 0
101 92 0
88 82 0
99 90 0
90 81 0
94 87 0
101 91 0
105 97 0
89 83 0
92 86 0
97 90 0
100 95 0
100 94 0
101 95 0
103 98 0
104 97 0
107 101 0
102 98 0
115 109 0
108 102 0
106 100 0
117 110 0
118 111 0
123 115 0
119 113 0
129 123 0
122 115 0
128 120 0
112 106 0
126 118 0
119 113 0
124 117 0
118 112 0
123 117 0
131 125 0
134 126 0
129 124 0
125 119 0
135 129 0
135 128 0
130 124 0
134 127 0
130 124 0
134 128 0
134 127 0
132 124 0
130 123 0
129 124 0
133 126 0
135 129 0
130 122 0
142 133 0
140 133 0
137 130 0
138 131 0
138 133 0
135 128 0
136 128 0
139 132 0
133 127 0
140 133 0
137 128 0
137 131 0
137 129 0
140 132 0
133 127 0
138 131 0
140 132 0
136 128 0
135 129 0
136 127 0
140 133 0
135 127 0
134 127 0
135 129 0
136 129 0
133 125 0
135 128 0
128 120 0
136 129 0
124 116 0
126 118 0
129 120 0
123 115 0
127 119 0
111 105 0
121 114 0
135 136 0
154 161 0
163 170 0
160 170 0
160 170 0
158 167 0
163 175 0
158 165 0
162 172 0
164 175 0
164 175 0
165 179 0
163 173 0
165 175 0
160 173 0
165 178 0
162 174 0
166 181 0
164 179 0
164 176 0
169 183 0
168 183 0
163 177 0
169 184 0
166 180 0
162 176 0
164 179 0
166 181 0
168 184 0
166 179 0
169 186 0
165 181 0
167 182 0
168 183 0
167 183 0
170 186 0
166 186 0
166 182 0
166 183 0
166 184 0
169 186 0
169 189 0
166 183 0
168 186 0
170 189 0
215 231 246
216 232 249
216 232 250
216 232 252
215 232 252
214 231 252
215 232 252
213 230 249
214 231 253
213 230 249
213 231 253
211 230 250
212 230 252
212 230 253
212 230 255
212 230 254
211 230 255
212 230 255
211 230 255
211 230 255
210 229 255
210 229 255
209 229 255
209 229 255
209 229 255
208 228 255
208 228 252
205 225 238
204 224 233
203 222 224
201 219 218
202 221 215
198 216 203
199 218 193
196 216 181
199 218 198
200 218 196
202 220 201
200 219 199
199 218 201
196 215 189
203 221 211
199 218 199
200 219 201
199 218 198
202 220 204
203 221 206
201 219 201
201 219 198
202 220 207
197 216 189
196 215 186
194 213 189
198 217 193
199 218 196
199 217 206
198 217 212
205 224 227
201 220 223
208 227 246
209 228 249
211 230 255
211 230 255
211 230 254
211 230 255
212 230 254
212 230 255
213 231 255
213 231 255
213 231 255
213 231 254
213 230 252
214 231 253
213 231 252
214 230 254
213 230 253
216 233 255
215 231 254
217 233 255
214 230 253
216 231 253
193 210 238
91 120 186
91 120 186
67 102 175
79 111 176
89 118 186
89 118 183
71 105 176
82 113 181
79 111 172
85 115 180
87 117 175
101 127 181
83 113 174
77 109 168
65 100 166
61 97 158
64 99 164
62 98 165
66 101 160
64 100 163
65 100 160
67 101 158
69 102 157
70 104 153
69 103 164
61 97 158
64 99 151
68 102 155
65 98 154
80 110 148
67 102 162
59 94 147
61 97 159
60 96 157
60 96 147
60 96 156
60 96 143
60 96 156
61 97 156
61 97 159
61 97 157
61 97 157
59 94 155
60 95 149
60 95 153
61 96 156
61 96 153
61 97 159
61 97 159
61 97 157
61 97 158
61 97 165
61 97 160
61 97 160
61 96 158
61 97 157
61 97 163
61 97 157
61 97 161
61 97 160
62 98 165
61 97 160
61 97 160
61 97 161
61 97 160
63 99 169
61 97 159
61 97 150
61 97 159
61 97 159
61 97 166
62 98 163
61 97 157
62 98 164
62 98 166
61 97 156
61 97 154
62 98 158
62 99 171
62 98 165
61 96 154
62 98 160
62 98 163
61 97 159
62 99 169
62 98 159
62 98 158
61 97 153
62 97 158
61 97 161
62 99 166
62 98 157
61 97 157
61 98 160
62 98 161
61 97 152
61 97 153
62 98 163
62 98 157
62 97 156
62 98 162
62 98 158
62 98 160
62 98 156
63 98 161
61 97 155
62 98 158
62 98 160
61 96 154
61 97 158
60 96 153
62 97 157
62 98 158
62 98 158
61 97 154
62 98 158
62 98 164
61 97 155
63 99 169
63 98 159
61 96 149
61 97 160
62 98 162
61 97 156
61 97 158
61 97 161
62 98 156
61 97 155
61 97 154
61 97 151
62 98 159
61 97 155
61 96 157
62 98 162
60 95 139
61 97 151
63 99 163
61 97 152
61 97 150
61 97 150
61 97 150
61 97 154
62 97 153
62 98 154
62 97 154
61 97 152
61 96 151
61 97 153
61 96 149
62 97 152
61 96 148
62 98 159
61 96 149
62 98 158
61 96 144
60 95 139
62 98 154
61 96 149
61 97 154
62 98 158
61 96 147
61 96 147
59 94 136
60 95 142
61 97 148
59 94 136
60 95 134
61 96 145
61 96 152
61 96 143
59 93 137
59 94 133
61 96 148
61 97 151
61 95 146
61 95 141
60 94 136
60 94 136
59 93 133
57 89 119
86 103 90
128 133 0
121 123 0
118 116 0
119 119 0
124 124 0
117 119 0
117 121 0
95 93 0
90 83 0
90 83 0
92 84 0
94 87 0
98 88 0
96 89 0
99 92 0
98 90 0
90 84 0
108 101 0
104 97 0
107 100 0
111 103 0
99 93 0
105 99 0
110 103 0
113 107 0
107 101 0
106 99 0
117 110 0
127 121 0
117 110 0
118 109 0
109 103 0
113 107 0
125 117 0
126 119 0
122 115 0
124 117 0
122 117 0
120 114 0
126 118 0
127 120 0
130 122 0
127 121 0
126 120 0
129 123 0
132 125 0
132 124 0
129 122 0
134 126 0
131 127 0
135 126 0
135 128 0
135 127 0
134 128 0
133 127 0
132 124 0
137 129 0
131 122 0
139 131 0
135 127 0
145 138 0
145 136 0
139 130 0
137 127 0
136 130 0
139 130 0
137 129 0
136 129 0
141 132 0
132 126 0
144 135 0
141 135 0
137 130 0
134 126 0
135 128 0
133 125 0
129 119 0
139 131 0
137 131 0
132 125 0
124 115 0
127 119 0
125 118 0
131 122 0
120 113 0
125 116 0
116 110 0
124 116 0
118 110 0
108 99 0
123 123 0
159 168 0
157 166 0
157 162 0
160 169 0
160 170 0
161 169 0
161 171 0
153 157 0
162 171 0
162 172 0
165 178 0
166 178 0
162 172 0
157 168 0
168 180 0
162 175 0
157 166 0
164 176 0
163 176 0
162 175 0
167 179 0
161 173 0
165 180 0
165 179 0
165 179 0
165 180 0
166 179 0
169 184 0
165 178 0
167 183 0
168 183 0
168 186 0
169 187 0
165 179 0
168 185 0
165 178 0
164 180 0
166 181 0
164 179 0
166 185 0
166 183 0
167 183 0
167 186 0
167 185 0
165 182 0
167 185 0
215 231 246
216 233 253
214 231 248
215 232 253
215 232 253
213 230 249
214 232 254
214 231 254
213 231 254
210 229 246
212 230 252
212 230 254
212 230 255
211 230 255
210 229 255
210 229 255
210 229 254
210 229 254
210 229 255
210 229 255
208 228 254
207 228 254
204 223 234
205 225 233
206 225 231
199 218 207
198 217 188
200 219 207
199 218 204
195 215 189
194 213 184
195 214 188
200 218 199
202 219 204
204 222 206
204 221 206
200 218 209
208 225 224
206 223 226
212 229 234
202 219 212
203 220 211
204 221 209
201 219 207
202 220 212
202 220 207
204 221 209
209 225 218
205 222 217
205 222 209
202 219 207
198 217 196
204 222 209
199 216 196
197 215 188
204 222 207
200 218 198
200 219 198
196 215 191
203 221 211
197 217 189
199 218 196
201 220 214
203 221 226
210 229 249
211 230 254
211 230 255
211 230 255
212 230 255
212 231 255
213 231 255
213 231 255
212 230 250
211 229 252
212 229 253
213 230 254
212 229 254
210 227 251
213 230 252
213 229 252
213 229 252
214 230 252
170 188 226
83 114 182
75 108 179
71 105 178
90 120 183
89 119 181
79 110 179
75 108 178
85 115 172
87 117 178
92 121 181
92 120 176
77 109 175
90 119 174
78 110 174
61 98 166
61 98 167
63 99 164
62 98 167
61 98 166
64 99 159
66 101 158
66 100 158
66 100 160
62 97 154
67 101 158
65 99 155
68 101 147
73 105 152
62 97 149
67 101 147
68 101 142
61 97 158
60 95 154
61 97 157
60 95 156
61 97 158
59 94 148
60 95 156
60 96 160
60 95 151
61 97 160
61 97 157
62 98 159
59 95 150
60 96 159
61 97 159
61 97 163
61 97 161
62 97 163
60 96 154
62 98 162
61 97 159
61 98 162
60 96 156
60 96 152
61 97 153
61 97 159
61 97 160
60 96 159
61 97 159
62 98 163
61 97 152
61 96 154
62 98 163
61 96 151
62 98 163
61 97 158
61 97 158
62 98 160
60 97 155
61 97 157
61 98 165
61 97 160
61 97 158
61 97 158
60 96 158
62 98 164
62 98 159
62 97 158
62 98 165
60 96 153
61 97 162
61 97 157
62 98 162
62 98 161
62 98 157
61 97 156
61 98 163
63 99 165
61 97 156
61 97 155
61 97 155
61 97 154
62 98 165
61 97 159
61 97 159
61 97 157
62 98 161
61 97 155
62 98 157
61 97 155
62 98 157
61 96 149
62 98 157
61 97 156
62 98 158
61 97 153
62 98 160
61 97 158
63 98 164
62 98 160
60 95 141
61 97 154
62 98 163
62 97 158
61 97 158
61 97 159
62 98 159
61 97 158
62 98 164
61 97 155
61 97 160
63 99 162
62 97 152
62 98 160
62 98 158
62 97 149
62 98 156
61 97 151
62 98 155
63 99 160
62 97 151
62 98 160
61 96 148
62 98 155
62 98 152
62 98 154
61 96 143
62 97 143
62 98 157
62 98 155
63 99 163
61 97 154
61 97 154
62 98 156
62 97 154
62 98 154
62 97 157
61 97 149
59 94 145
62 98 156
61 97 150
61 97 153
61 97 149
61 96 151
60 96 147
61 97 154
61 96 147
61 96 147
61 97 149
61 96 150
61 96 149
60 95 147
60 95 141
62 97 152
61 96 145
58 92 131
62 97 148
59 94 135
60 95 148
60 95 140
59 94 138
60 94 140
60 94 144
60 94 135
59 92 129
60 93 134
59 92 133
59 92 131
112 123 85
123 126 0
121 125 0
120 128 0
117 120 0
115 117 0
121 126 0
117 120 0
112 109 0
108 108 0
95 90 0
85 77 0
86 77 0
88 81 0
89 83 0
99 91 0
96 88 0
96 89 0
101 94 0
104 96 0
103 95 0
99 90 0
113 105 0
104 96 0
109 105 0
109 102 0
112 105 0
112 104 0
107 100 0
110 105 0
116 107 0
120 113 0
116 110 0
117 109 0
113 107 0
120 110 0
117 111 0
123 117 0
118 109 0
130 123 0
126 120 0
123 113 0
131 124 0
122 117 0
124 117 0
129 121 0
134 125 0
128 121 0
125 118 0
132 122 0
133 125 0
134 125 0
137 130 0
140 133 0
139 131 0
130 122 0
132 123 0
128 120 0
132 124 0
132 124 0
133 126 0
139 133 0
136 128 0
129 121 0
138 130 0
135 128 0
129 122 0
134 127 0
133 124 0
127 119 0
133 125 0
143 137 0
129 122 0
137 127 0
130 123 0
136 128 0
128 120 0
131 122 0
131 123 0
128 119 0
130 121 0
135 126 0
132 123 0
124 113 0
124 114 0
115 107 0
116 107 0
110 101 0
120 111 0
115 109 0
147 150 0
153 158 0
150 155 0
154 161 0
157 165 0
161 169 0
160 170 0
158 165 0
161 171 0
159 169 0
159 171 0
162 169 0
158 167 0
164 176 0
159 172 0
160 174 0
164 175 0
163 175 0
164 179 0
166 180 0
162 173 0
166 180 0
157 169 0
167 180 0
166 181 0
164 178 0
161 174 0
164 178 0
165 179 0
170 184 0
164 178 0
166 182 0
166 181 0
168 184 0
164 180 0
163 179 0
165 181 0
165 180 0
166 181 0
168 183 0
168 185 0
166 183 0
168 184 0
168 184 0
166 183 0
170 189 0
167 185 0
168 186 0
216 233 254
216 232 253
216 232 255
214 231 254
211 229 245
213 230 253
211 229 248
212 230 252
212 230 254
212 230 254
212 230 255
211 230 255
211 230 255
210 229 255
210 229 255
210 229 255
209 229 255
208 228 253
206 227 248
204 223 231
206 225 230
202 221 209
193 213 184
201 220 207
199 218 196
200 218 196
200 219 199
202 220 203
207 224 217
201 218 211
205 223 214
202 219 206
205 222 218
204 221 206
206 222 214
206 223 218
209 225 220
208 225 226
209 225 223
209 225 221
207 224 217
208 224 223
206 223 207
211 227 231
208 224 218
207 223 223
209 226 220
208 224 215
211 227 226
203 220 204
206 222 209
206 223 217
211 227 230
209 225 220
207 223 209
204 220 214
206 223 214
206 222 218
206 222 220
208 225 217
201 219 207
204 222 209
195 213 181
200 218 194
197 215 196
199 218 199
198 216 206
207 225 234
208 227 241
210 229 254
211 230 255
211 230 253
213 231 255
213 231 255
210 228 252
213 230 255
210 228 253
211 228 253
213 230 254
214 231 254
215 232 253
216 232 255
215 231 254
147 167 212
86 117 186
86 117 184
81 113 181
93 121 181
89 118 181
94 123 188
91 120 184
82 113 180
75 108 181
74 106 170
80 111 176
87 117 177
93 121 177
77 108 169
62 98 170
63 99 161
61 98 164
61 97 166
60 96 159
61 97 157
62 99 165
67 100 160
73 105 153
67 102 164
64 98 159
63 98 152
65 99 157
65 99 145
63 98 153
65 99 141
78 109 140
61 97 155
60 96 156
59 95 154
61 97 164
61 97 161
61 96 159
61 97 163
60 96 162
61 98 167
60 96 153
60 96 155
60 96 154
61 96 151
61 96 155
61 97 157
61 97 157
61 97 159
60 96 158
61 97 161
62 98 161
61 97 157
60 95 150
61 97 157
60 96 164
62 98 160
62 98 167
61 97 157
61 96 157
60 96 153
60 96 153
61 97 157
60 96 157
62 98 158
61 97 160
61 97 153
61 97 158
61 97 160
62 98 159
60 96 156
61 97 157
62 98 162
62 98 162
61 97 160
62 98 163
62 98 163
62 98 160
61 97 161
62 98 157
61 97 158
61 97 154
61 96 153
61 96 155
60 96 158
62 98 161
61 97 158
61 97 152
61 97 152
62 98 164
61 96 155
62 98 158
61 97 159
62 98 161
62 97 156
61 97 155
62 98 161
61 97 157
61 96 149
62 98 160
61 96 158
61 97 152
62 98 164
61 97 155
61 97 156
61 96 148
61 96 145
62 98 162
62 98 159
62 98 158
61 97 159
62 98 159
62 98 163
62 98 157
63 99 163
61 97 153
61 97 157
62 97 154
61 97 151
61 97 151
61 97 149
61 97 157
62 98 161
62 99 167
60 96 142
61 97 157
62 98 159
62 98 153
61 96 154
62 98 160
61 96 149
62 98 161
61 97 159
62 97 154
61 97 151
63 98 158
62 97 154
62 97 156
61 96 150
62 97 151
63 98 159
62 98 160
61 97 152
62 97 154
62 98 157
62 98 157
62 97 153
62 97 150
62 98 160
61 97 154
61 96 149
61 96 150
62 98 157
62 97 148
61 96 149
63 98 157
61 97 152
61 96 143
61 96 144
62 97 150
62 97 150
61 97 157
61 96 148
60 95 141
60 95 146
61 96 147
59 93 132
60 94 137
61 96 142
60 95 147
60 95 135
60 94 138
60 94 135
59 92 124
60 95 146
60 94 134
60 94 138
60 94 138
59 92 129
113 120 41
125 130 0
125 129 0
120 123 0
129 131 0
117 116 0
117 118 0
122 124 0
115 115 0
112 113 0
109 110 0
106 104 0
93 88 0
82 74 0
91 83 0
86 79 0
92 80 0
106 97 0
104 96 0
90 84 0
99 88 0
102 95 0
102 94 0
102 93 0
103 94 0
108 99 0
108 101 0
108 100 0
116 106 0
110 103 0
113 104 0
111 103 0
123 114 0
118 110 0
112 105 0
122 112 0
121 112 0
122 115 0
117 112 0
115 108 0
124 118 0
131 126 0
117 107 0
128 120 0
137 128 0
124 116 0
129 119 0
125 116 0
135 128 0
121 113 0
141 134 0
130 124 0
130 123 0
130 121 0
128 122 0
129 121 0
136 129 0
130 122 0
133 124 0
136 130 0
133 124 0
133 126 0
130 123 0
135 127 0
125 117 0
131 125 0
138 128 0
137 127 0
131 121 0
134 126 0
129 120 0
130 123 0
126 119 0
126 118 0
130 122 0
135 125 0
129 121 0
122 114 0
126 117 0
132 122 0
129 121 0
128 119 0
130 121 0
119 113 0
125 117 0
112 104 0
117 110 0
110 103 0
145 148 0
149 155 0
149 153 0
153 156 0
157 164 0
156 160 0
153 158 0
156 164 0
159 166 0
162 173 0
158 167 0
159 168 0
168 181 0
161 171 0
166 177 0
164 178 0
162 173 0
165 174 0
161 173 0
167 179 0
163 175 0
158 169 0
163 175 0
164 175 0
168 184 0
163 176 0
167 182 0
167 181 0
166 182 0
165 179 0
165 178 0
165 181 0
168 186 0
169 183 0
166 180 0
167 184 0
170 188 0
167 185 0
163 179 0
162 177 0
168 186 0
166 183 0
170 187 0
165 181 0
168 186 0
166 183 0
167 186 0
167 185 0
167 185 0
168 185 0
213 230 249
214 231 253
213 231 252
212 230 250
211 229 249
212 230 252
211 230 254
213 231 255
212 230 255
211 230 255
211 230 255
210 229 255
209 229 255
208 228 255
208 228 253
206 225 237
200 220 215
202 221 207
201 219 207
201 219 204
195 214 186
201 219 203
202 220 214
201 220 206
200 218 199
202 219 206
202 219 209
207 224 215
207 223 209
208 225 220
207 224 215
205 221 220
212 227 228
208 224 217
209 225 228
211 227 221
208 224 215
202 219 199
198 215 199
198 216 186
202 220 196
198 216 179
198 216 186
186 206 149
192 211 175
193 212 161
190 210 155
190 211 153
189 210 149
193 212 167
189 208 155
193 211 171
202 219 196
195 213 184
197 215 189
205 222 212
210 225 220
213 227 234
213 228 226
207 222 218
205 221 220
207 223 215
208 225 221
205 222 211
199 216 193
200 218 209
203 221 207
196 215 182
194 213 177
198 217 201
202 221 214
208 226 234
207 225 246
212 230 255
210 228 254
211 230 255
209 227 253
208 226 251
213 231 255
210 227 252
208 226 250
211 227 251
215 231 254
211 227 252
112 137 195
85 116 184
68 104 181
81 113 181
86 116 180
85 116 180
91 120 181
74 107 176
77 109 176
89 118 180
88 117 182
82 112 173
82 113 175
90 119 175
95 122 182
62 98 167
61 97 162
61 97 158
61 98 163
61 98 168
61 98 169
62 98 159
65 100 153
66 101 165
67 100 155
66 101 160
66 100 153
63 98 155
67 101 153
61 96 148
67 101 160
68 101 144
70 103 157
61 97 158
59 94 151
61 96 158
61 97 161
59 94 148
60 95 157
61 98 164
60 96 157
61 97 164
61 97 158
60 96 152
59 94 149
61 96 158
61 97 159
61 97 152
61 96 157
60 96 157
60 96 156
61 98 162
61 97 156
59 94 149
60 96 156
60 96 156
62 99 170
61 97 154
61 97 160
62 97 155
60 96 155
61 97 163
61 97 159
61 97 154
61 97 155
60 96 151
61 97 160
61 97 154
60 96 156
60 96 155
61 97 158
62 97 159
61 97 156
62 98 163
62 98 164
62 97 157
61 97 154
61 97 160
62 97 161
62 97 154
63 99 161
62 98 160
61 97 153
61 97 155
62 98 159
61 96 161
62 97 153
62 98 159
62 98 160
61 97 154
61 97 154
61 97 155
61 97 152
61 97 155
61 97 155
61 97 154
62 99 164
62 97 153
62 98 164
61 98 159
62 98 161
62 98 158
62 98 158
62 98 159
62 98 166
62 98 158
61 97 157
62 98 156
62 98 160
61 97 155
61 97 153
62 97 158
62 98 156
60 96 149
62 98 155
61 97 156
61 97 153
61 97 155
61 97 154
62 97 149
62 98 160
62 98 158
61 97 150
62 98 164
62 98 159
61 97 157
61 97 153
61 96 152
62 98 151
62 98 159
61 96 150
61 97 159
61 96 149
62 98 164
60 96 142
61 96 152
61 97 156
62 97 155
61 97 153
61 97 151
60 96 151
62 97 149
62 97 157
62 98 160
62 97 157
61 96 147
61 97 152
62 97 150
61 96 152
62 97 150
61 96 148
62 97 154
61 97 147
62 98 156
62 97 154
61 97 148
60 95 141
61 96 145
59 94 141
61 96 147
61 96 144
60 95 142
63 98 157
61 96 145
60 95 142
61 96 149
61 96 144
60 94 140
60 95 140
60 94 141
59 93 135
61 96 146
60 94 135
59 93 135
60 94 135
60 94 135
60 93 135
64 94 128
124 124 8
121 126 0
123 126 0
112 117 0
106 107 0
114 114 0
114 115 0
122 124 0
104 103 0
110 112 0
117 117 0
106 104 0
102 99 0
93 90 0
78 70 0
91 81 0
89 80 0
97 88 0
90 82 0
87 82 0
88 81 0
109 102 0
98 92 0
106 98 0
99 93 0
104 96 0
99 91 0
107 100 0
111 101 0
107 99 0
103 97 0
116 107 0
120 110 0
111 104 0
123 113 0
119 111 0
129 121 0
115 105 0
121 113 0
120 110 0
120 112 0
122 115 0
124 114 0
115 107 0
124 117 0
122 113 0
129 122 0
117 111 0
119 112 0
127 119 0
126 117 0
123 114 0
119 113 0
129 122 0
133 125 0
121 112 0
126 119 0
130 122 0
128 120 0
135 127 0
131 122 0
129 120 0
125 115 0
130 121 0
133 123 0
129 121 0
124 116 0
130 123 0
132 122 0
129 120 0
134 125 0
127 118 0
132 123 0
129 120 0
124 115 0
122 113 0
127 118 0
123 113 0
127 117 0
122 113 0
116 107 0
122 115 0
116 108 0
112 103 0
111 102 0
119 112 0
137 139 0
155 161 0
158 165 0
158 167 0
152 157 0
159 167 0
156 162 0
160 167 0
158 164 0
159 167 0
159 167 0
166 177 0
164 175 0
162 174 0
163 175 0
160 171 0
163 174 0
162 171 0
161 172 0
162 175 0
163 173 0
164 177 0
159 170 0
162 175 0
162 176 0
163 178 0
162 174 0
166 179 0
158 168 0
166 179 0
164 178 0
165 180 0
167 177 0
163 179 0
165 180 0
160 173 0
166 180 0
169 186 0
166 184 0
166 183 0
166 181 0
169 187 0
168 185 0
168 183 0
165 182 0
164 182 0
167 184 0
165 181 0
167 185 0
167 185 0
172 190 0
169 188 0
214 231 254
212 230 249
212 230 250
212 230 253
213 231 255
212 231 255
211 230 255
211 230 254
209 229 254
210 229 255
210 229 255
208 228 255
201 221 227
201 221 220
198 217 204
195 215 179
200 219 201
195 214 184
204 222 211
201 220 204
205 222 207
207 224 221
206 223 214
211 227 228
214 229 236
207 224 220
208 224 218
211 226 227
206 222 211
202 220 203
195 214 177
192 211 159
185 206 140
184 205 128
178 200 111
174 197 76
176 199 67
176 199 80
173 196 72
173 198 84
175 198 57
175 199 88
176 199 76
173 196 72
175 198 84
172 196 67
176 199 76
175 198 67
175 198 76
175 199 80
176 199 80
171 194 51
173 197 67
174 198 80
173 197 72
174 197 80
174 197 62
176 199 88
176 199 95
189 210 149
193 212 163
193 212 165
201 218 193
207 223 215
205 221 215
210 226 220
204 222 209
207 224 209
201 219 199
205 222 207
201 219 201
193 211 182
181 199 200
190 209 222
195 214 233
206 224 247
206 225 250
208 226 252
212 229 254
212 230 254
206 224 250
211 228 253
212 229 253
213 230 254
203 220 247
105 131 191
90 120 189
71 106 179
82 113 184
82 113 181
82 113 183
87 117 181
95 123 186
82 114 184
84 114 181
80 111 177
96 124 186
87 116 178
90 118 177
95 123 181
62 98 168
61 97 161
62 99 169
62 97 164
61 98 162
61 97 164
60 96 159
64 99 159
63 98 159
66 100 154
68 102 155
63 99 155
61 96 156
62 97 160
63 98 158
62 96 153
64 98 148
59 94 153
59 94 150
60 95 152
60 96 153
59 95 153
60 95 156
60 96 154
60 96 154
61 96 154
61 97 162
60 96 158
61 97 161
61 97 156
60 96 159
60 96 156
61 97 159
61 97 157
61 98 164
61 97 159
61 96 156
61 96 152
60 95 150
61 96 156
61 97 163
61 97 156
61 97 156
61 96 155
59 95 147
60 96 155
60 96 155
62 98 159
61 97 154
62 98 161
61 97 160
62 97 157
61 97 159
61 97 160
60 96 157
61 96 154
62 98 158
62 98 155
61 97 160
61 97 161
61 97 154
61 96 159
61 98 166
62 98 159
62 97 162
61 98 162
62 98 160
62 98 160
61 97 158
61 97 158
61 97 156
61 97 158
61 97 161
62 98 159
61 96 159
62 98 163
60 96 144
61 97 153
62 98 156
62 98 160
62 98 165
61 97 156
62 98 161
62 98 157
63 99 161
62 99 167
62 98 162
62 97 157
62 98 160
62 98 160
62 98 161
62 98 157
62 97 155
61 97 159
62 98 161
62 98 161
62 98 158
61 97 156
62 98 157
61 96 152
62 98 162
62 97 147
62 97 155
61 96 155
62 97 155
62 98 160
62 97 158
61 97 150
61 97 153
60 96 151
62 98 152
62 98 159
61 97 158
63 98 161
60 96 142
61 97 150
62 97 154
62 98 162
61 97 151
60 96 145
60 96 149
62 97 155
61 97 152
61 97 150
61 97 157
62 97 154
62 98 154
61 96 145
61 96 147
61 97 148
61 96 151
61 97 148
61 96 148
60 95 141
59 94 137
61 97 151
60 96 144
61 96 140
62 97 149
60 96 142
62 97 150
61 96 148
61 96 147
61 96 144
62 97 149
60 95 145
61 96 146
61 96 145
59 94 136
61 96 148
59 94 132
60 95 136
60 95 142
60 94 138
60 93 136
58 92 128
59 93 134
60 94 129
59 93 136
60 94 135
58 91 121
82 100 113
134 141 0
120 123 0
117 120 0
120 122 0
117 120 0
117 116 0
119 121 0
122 128 0
111 111 0
109 109 0
106 107 0
119 119 0
118 117 0
114 114 0
103 103 0
98 95 0
84 76 0
79 72 0
75 66 0
87 79 0
99 91 0
88 76 0
97 88 0
102 92 0
93 85 0
98 90 0
94 85 0
95 87 0
114 104 0
110 102 0
97 89 0
104 98 0
108 100 0
114 105 0
115 107 0
115 107 0
115 106 0
115 107 0
122 111 0
118 111 0
121 112 0
123 114 0
120 111 0
124 117 0
118 110 0
123 114 0
132 123 0
113 105 0
119 110 0
122 114 0
127 120 0
111 104 0
128 121 0
116 107 0
129 119 0
122 114 0
132 122 0
121 112 0
129 120 0
127 120 0
130 125 0
128 119 0
127 120 0
127 118 0
132 126 0
130 122 0
122 115 0
119 112 0
131 122 0
125 116 0
124 115 0
128 118 0
126 117 0
122 114 0
125 114 0
123 115 0
121 110 0
123 115 0
114 106 0
119 108 0
112 106 0
107 97 0
117 107 0
115 110 0
139 141 0
144 145 0
152 156 0
154 160 0
149 154 0
151 157 0
154 160 0
158 165 0
155 161 0
155 160 0
156 163 0
159 167 0
152 158 0
157 165 0
161 169 0
155 165 0
156 166 0
158 168 0
164 176 0
161 169 0
162 176 0
161 174 0
161 175 0
169 181 0
159 170 0
167 181 0
164 176 0
164 178 0
165 177 0
165 180 0
162 175 0
164 175 0
166 181 0
166 181 0
164 178 0
165 181 0
167 181 0
165 183 0
168 184 0
169 186 0
166 182 0
166 180 0
165 181 0
167 183 0
167 184 0
168 185 0
171 190 0
167 182 0
165 182 0
164 182 0
165 181 0
163 180 0
165 183 0
167 184 0
211 230 252
213 231 255
212 230 254
212 230 255
211 230 254
210 229 255
210 229 255
210 229 255
209 229 254
209 228 249
206 225 237
200 219 206
198 217 191
198 217 194
198 217 196
200 218 206
202 220 206
202 218 209
205 222 211
208 224 217
206 222 215
212 227 228
209 224 220
211 226 228
204 221 207
196 215 179
191 211 151
174 197 108
174 197 76
172 195 72
177 200 80
172 196 72
173 196 51
171 195 51
174 198 44
173 197 51
175 198 84
173 197 57
173 196 57
175 198 72
173 197 62
172 196 76
175 198 72
174 198 57
174 197 67
173 196 57
175 199 84
171 195 51
177 200 72
176 200 80
173 196 67
175 198 76
173 197 92
171 195 62
176 199 67
176 199 62
173 196 76
174 197 67
174 197 88
176 199 67
177 200 95
171 194 67
170 194 51
177 200 76
177 199 102
183 205 135
195 214 167
192 210 171
205 221 209
207 223 218
206 222 206
203 219 206
201 218 207
189 206 206
177 196 203
168 187 199
178 197 224
190 209 233
211 229 254
207 225 252
207 225 250
209 227 252
212 229 254
208 225 251
211 228 251
197 215 244
80 112 185
83 114 186
73 107 179
71 105 177
71 105 177
82 113 181
87 117 183
88 118 181
82 113 179
91 120 185
98 126 185
85 115 181
94 122 181
78 110 173
85 115 179
63 99 169
63 98 159
61 98 167
61 97 165
61 98 163
61 98 166
62 98 164
61 97 159
67 101 153
61 97 163
60 96 155
68 102 157
65 101 164
65 99 148
70 103 145
62 97 156
66 100 156
69 102 149
60 96 155
60 95 151
61 96 155
60 96 152
59 94 144
61 97 159
61 97 151
60 95 152
60 95 152
60 95 154
61 97 160
62 98 160
61 97 161
61 97 162
61 97 163
61 96 153
62 98 162
62 98 164
61 97 156
61 97 163
61 97 164
60 96 145
61 97 156
60 96 157
61 97 159
61 97 161
60 96 148
62 98 162
61 97 158
61 97 150
61 96 148
61 96 148
61 96 156
61 96 147
62 98 159
61 97 156
62 98 165
61 97 158
62 98 157
61 97 156
62 98 164
62 98 154
61 96 155
61 97 159
61 97 157
62 97 159
61 98 164
61 97 159
61 97 157
61 96 150
60 96 151
60 96 150
61 97 159
62 98 159
62 98 161
62 98 163
61 96 150
62 98 159
62 98 161
61 97 157
61 97 161
62 97 156
61 97 156
61 97 150
61 97 151
61 97 157
61 97 154
62 98 157
63 99 165
62 98 159
63 98 165
62 98 156
61 97 155
62 98 159
62 98 159
61 97 151
61 97 154
62 98 157
61 97 156
62 98 156
60 95 147
62 98 162
62 98 160
62 98 157
61 96 148
62 97 154
62 98 158
61 97 162
61 97 151
61 97 152
61 97 151
62 98 160
61 96 150
62 98 157
61 97 149
61 96 152
61 97 152
62 97 155
62 97 152
62 97 154
61 97 153
61 96 151
61 96 152
61 97 155
62 97 147
62 97 152
61 97 151
61 97 153
62 97 153
62 97 151
61 97 151
61 97 151
62 98 155
62 97 151
63 98 157
61 96 139
62 97 151
61 97 147
61 96 144
62 97 148
61 96 143
60 95 136
60 95 143
60 95 139
61 96 142
61 97 151
61 96 152
59 94 135
61 96 142
61 95 146
61 96 150
61 96 145
60 95 139
60 95 139
60 94 137
59 94 138
61 94 140
61 96 143
60 94 139
59 93 131
59 93 130
58 90 125
101 118 95
124 131 0
117 120 0
116 119 0
122 127 0
117 122 0
111 114 0
121 123 0
114 115 0
120 122 0
113 114 0
118 117 0
106 104 0
111 115 0
108 106 0
116 115 0
106 105 0
109 107 0
104 99 0
96 90 0
76 68 0
81 74 0
94 85 0
85 77 0
90 84 0
81 75 0
110 99 0
104 94 0
101 92 0
98 91 0
104 94 0
100 94 0
104 95 0
100 90 0
105 95 0
110 102 0
113 106 0
115 106 0
109 100 0
108 99 0
118 109 0
125 116 0
118 110 0
106 98 0
113 105 0
124 117 0
114 106 0
119 111 0
123 113 0
126 117 0
112 106 0
129 122 0
123 115 0
123 114 0
120 110 0
120 112 0
114 107 0
126 117 0
122 113 0
125 117 0
117 109 0
120 110 0
135 126 0
115 107 0
127 120 0
127 117 0
132 121 0
122 112 0
131 122 0
119 111 0
128 118 0
118 110 0
124 114 0
114 105 0
119 111 0
115 106 0
116 107 0
121 111 0
119 111 0
121 110 0
117 105 0
113 102 0
123 114 0
134 135 0
144 149 0
148 151 0
150 157 0
150 154 0
149 152 0
149 153 0
156 165 0
154 160 0
154 163 0
157 163 0
157 168 0
158 165 0
160 169 0
158 166 0
161 172 0
162 173 0
161 171 0
165 177 0
162 174 0
160 169 0
158 167 0
164 176 0
164 176 0
165 179 0
162 173 0
158 167 0
161 171 0
160 173 0
165 176 0
165 178 0
165 179 0
164 178 0
166 180 0
158 171 0
171 183 0
161 175 0
171 187 0
166 181 0
162 176 0
165 181 0
164 178 0
164 181 0
166 182 0
167 185 0
165 181 0
165 181 0
162 176 0
168 186 0
167 184 0
171 188 0
166 182 0
167 186 0
168 183 0
168 186 0
167 184 0
212 230 254
212 230 255
212 231 255
211 230 255
210 230 255
209 229 255
208 228 254
206 225 238
204 223 217
199 218 196
201 220 206
202 220 203
203 220 209
208 225 224
202 219 198
208 224 223
205 221 217
212 227 221
210 225 226
209 225 227
202 220 193
199 216 181
186 206 130
176 199 72
176 200 88
177 200 76
175 199 72
174 197 76
173 197 72
174 198 57
174 197 76
173 197 62
176 200 76
175 199 88
174 198 72
173 196 57
177 200 76
176 199 80
173 196 72
175 198 57
174 197 44
173 196 84
175 198 67
173 195 51
176 199 80
175 198 62
177 200 80
174 198 72
173 197 80
173 196 72
174 198 72
174 197 51
173 196 51
174 198 84
173 196 76
176 199 84
176 199 72
176 200 95
173 196 62
175 199 88
170 193 80
174 197 88
173 197 92
172 196 51
175 199 95
169 194 57
171 195 92
174 197 67
176 199 72
183 205 130
190 209 155
201 217 204
165 185 184
142 165 166
127 151 169
127 151 173
126 150 160
139 160 184
154 175 194
179 198 225
205 223 250
210 228 254
211 229 254
210 228 252
212 228 252
215 232 254
183 201 234
81 113 185
80 112 181
76 109 181
77 110 182
79 111 181
71 105 175
87 117 184
84 115 181
79 111 180
81 113 181
86 116 180
87 117 181
73 106 170
85 115 174
79 109 168
61 97 162
61 98 169
62 98 173
61 97 163
61 96 159
62 98 165
61 97 160
61 97 162
61 97 160
70 104 163
61 96 150
67 101 158
68 102 161
65 98 148
68 103 161
70 104 155
66 100 154
67 100 146
61 97 154
60 96 145
58 93 144
60 96 153
61 96 156
60 96 157
60 96 150
61 97 162
61 97 155
60 96 154
61 97 159
60 95 149
59 95 149
60 96 152
60 96 153
60 96 153
62 98 161
61 96 153
60 96 154
60 96 160
61 96 152
60 95 140
60 96 156
59 94 144
61 97 160
61 96 160
61 97 158
62 97 161
62 98 163
61 97 156
61 97 153
62 97 153
60 96 152
61 97 157
62 98 159
61 97 155
61 96 152
61 97 155
62 98 157
61 97 163
61 97 153
61 97 160
60 96 147
61 98 159
61 97 156
61 97 160
62 98 163
62 97 162
61 96 151
60 96 159
62 98 159
62 98 158
62 98 160
62 98 162
62 97 154
62 98 163
62 98 159
62 98 159
61 97 156
62 98 159
62 97 158
60 96 151
61 97 159
62 97 159
62 98 159
61 97 157
61 97 155
61 96 147
61 97 156
60 96 148
61 97 158
60 96 144
61 96 151
60 95 144
61 97 156
61 96 154
62 98 156
62 98 163
61 97 152
61 96 151
61 97 151
61 96 150
61 97 150
62 97 153
61 97 151
62 98 158
61 96 145
61 97 150
60 96 153
61 97 152
62 97 150
62 97 157
60 95 147
62 98 158
61 96 150
61 96 147
61 96 147
61 97 150
62 97 151
61 97 150
62 97 150
61 97 147
62 98 156
61 97 152
61 97 148
61 97 152
62 98 154
60 96 143
61 97 149
62 98 153
60 95 143
60 96 143
62 97 155
61 97 151
62 98 154
61 96 147
61 96 143
60 96 137
61 97 149
60 96 147
62 98 155
61 96 150
60 95 139
61 96 149
62 97 149
61 96 140
61 96 141
61 96 145
60 95 143
61 97 149
61 97 154
60 95 139
59 93 137
60 95 139
59 94 133
61 95 141
59 94 129
59 92 131
60 94 142
59 92 123
58 92 132
115 120 41
121 126 0
117 124 0
106 110 0
116 122 0
113 117 0
124 131 0
114 118 0
128 132 0
120 124 0
115 115 0
113 112 0
109 110 0
119 120 0
107 104 0
107 107 0
109 109 0
111 112 0
111 108 0
101 98 0
102 99 0
94 88 0
89 81 0
83 73 0
90 80 0
86 76 0
93 85 0
94 83 0
94 84 0
81 72 0
102 92 0
101 94 0
103 93 0
102 94 0
104 95 0
105 95 0
100 93 0
110 103 0
112 103 0
107 98 0
107 99 0
113 104 0
107 97 0
120 111 0
117 108 0
119 109 0
115 107 0
113 106 0
119 111 0
117 108 0
112 104 0
119 110 0
118 110 0
114 106 0
114 108 0
114 105 0
125 117 0
123 115 0
115 106 0
127 119 0
117 108 0
121 112 0
119 111 0
118 107 0
115 105 0
124 112 0
121 111 0
117 109 0
116 107 0
121 113 0
119 109 0
113 105 0
123 115 0
112 104 0
122 111 0
117 107 0
115 105 0
109 97 0
108 98 0
119 111 0
125 120 0
137 141 0
148 151 0
152 154 0
153 157 0
151 154 0
154 161 0
151 157 0
147 151 0
156 159 0
153 159 0
154 159 0
156 162 0
153 160 0
154 162 0
155 163 0
159 169 0
159 164 0
164 175 0
161 170 0
160 166 0
160 168 0
159 170 0
160 171 0
154 163 0
157 168 0
164 174 0
156 168 0
159 169 0
163 176 0
162 176 0
160 172 0
165 177 0
164 177 0
166 179 0
163 177 0
165 180 0
160 172 0
169 187 0
164 179 0
164 177 0
165 180 0
166 182 0
168 184 0
168 183 0
167 183 0
164 178 0
166 184 0
169 185 0
169 186 0
168 187 0
168 183 0
166 184 0
170 189 0
166 183 0
171 189 0
169 187 0
169 187 0
171 188 0
210 229 254
210 229 254
210 229 254
210 229 255
208 228 249
204 224 228
202 220 209
197 215 201
196 215 182
198 216 198
202 220 204
210 226 221
207 223 211
207 224 217
209 225 223
207 222 211
205 221 206
196 214 169
188 208 128
175 197 62
177 200 80
172 196 51
170 193 51
173 196 51
175 198 80
174 198 57
175 199 72
172 195 84
174 198 57
175 199 67
175 198 57
172 196 76
175 198 76
175 198 76
176 199 76
174 198 84
174 198 88
173 196 76
173 196 62
171 195 62
175 198 76
173 197 72
171 195 76
173 198 99
174 198 51
175 199 76
172 195 67
173 196 62
174 199 84
176 199 76
174 198 67
175 198 84
170 194 36
173 197 67
175 198 44
173 197 76
174 197 80
172 196 44
171 194 67
173 196 67
171 195 57
172 196 67
174 198 67
175 198 80
176 199 80
175 199 72
171 194 62
175 199 67
176 199 84
176 199 88
171 195 95
125 151 149
104 132 152
107 134 147
117 143 137
122 147 154
118 144 158
98 126 156
115 141 161
105 133 168
128 152 184
163 184 203
196 215 240
214 231 255
211 228 253
212 230 254
213 230 254
175 194 230
73 107 181
90 120 187
71 105 179
73 107 180
76 109 181
81 112 181
82 113 181
84 115 180
79 111 176
98 126 188
79 110 177
77 109 174
99 126 185
85 115 172
68 102 169
62 99 170
64 99 164
61 97 160
61 98 169
62 98 166
62 98 165
61 97 163
62 98 164
61 97 158
64 98 157
64 99 161
63 98 150
64 99 150
64 99 159
59 94 142
62 97 156
64 98 153
67 100 152
59 94 151
61 97 155
61 96 155
60 96 156
60 95 154
60 96 159
60 95 149
60 95 150
60 95 150
60 95 151
60 95 157
60 95 149
61 96 153
61 96 147
60 96 156
60 96 156
59 94 147
61 96 149
62 98 161
61 96 156
61 97 157
62 98 165
59 95 148
61 97 159
60 95 150
60 96 150
61 96 153
61 97 152
60 96 150
61 97 154
61 97 158
61 96 150
61 97 155
62 98 155
62 98 162
61 98 162
61 97 156
62 99 164
62 98 160
61 97 155
61 97 157
61 97 156
62 98 164
62 98 158
62 98 155
61 97 156
62 98 159
61 96 151
61 97 156
61 97 157
62 98 161
60 95 143
62 98 161
62 98 164
61 97 154
61 96 147
61 97 157
62 97 155
62 98 160
61 97 154
62 98 156
61 96 147
61 96 147
62 97 159
61 97 152
61 97 156
62 98 159
61 96 155
61 97 153
60 95 145
61 97 156
62 98 157
62 98 162
61 97 161
61 98 161
61 96 148
61 97 150
62 98 160
62 97 153
61 97 155
62 98 161
62 97 153
62 98 158
62 97 158
63 98 161
61 97 153
61 97 153
61 96 144
60 96 151
61 96 151
61 97 149
60 96 150
62 98 158
61 97 149
61 96 150
61 96 145
61 96 148
62 97 155
61 97 150
61 96 147
61 96 145
61 97 152
61 97 147
62 97 154
60 96 149
60 96 148
61 95 145
61 97 152
60 95 144
61 96 150
61 96 144
59 94 133
61 97 154
61 96 148
61 96 147
62 97 149
61 97 157
59 94 136
62 97 153
63 98 156
59 94 143
61 95 142
62 98 153
60 95 143
61 95 138
60 94 134
61 96 145
62 97 146
60 95 143
61 96 149
60 95 143
61 95 148
59 93 134
59 93 134
59 93 125
59 93 135
58 91 130
59 93 127
58 90 125
65 96 124
116 121 0
114 119 0
121 125 0
113 117 0
116 119 0
121 126 0
121 123 0
111 109 0
117 121 0
116 115 0
111 114 0
116 119 0
112 112 0
114 116 0
108 111 0
108 107 0
114 115 0
109 108 0
100 98 0
112 111 0
98 97 0
112 110 0
115 112 0
104 101 0
86 78 0
100 92 0
84 75 0
87 75 0
90 83 0
94 84 0
101 93 0
98 91 0
108 96 0
99 90 0
93 84 0
102 93 0
98 90 0
107 98 0
105 95 0
116 105 0
106 98 0
108 98 0
111 102 0
114 104 0
115 109 0
112 104 0
119 108 0
109 100 0
114 103 0
114 106 0
122 113 0
119 111 0
113 106 0
123 114 0
122 112 0
118 110 0
113 105 0
119 108 0
117 110 0
115 108 0
116 106 0
106 98 0
118 108 0
119 110 0
118 109 0
117 107 0
119 110 0
116 105 0
118 108 0
116 103 0
118 108 0
114 105 0
105 94 0
115 107 0
108 98 0
113 103 0
105 97 0
117 112 0
140 139 0
141 141 0
147 150 0
143 145 0
148 151 0
143 141 0
146 148 0
155 162 0
154 160 0
153 159 0
155 161 0
161 165 0
159 165 0
150 154 0
147 150 0
158 164 0
162 173 0
153 159 0
158 169 0
158 167 0
159 168 0
164 176 0
160 170 0
159 167 0
159 169 0
163 173 0
159 169 0
158 168 0
162 175 0
163 173 0
160 173 0
161 175 0
161 173 0
164 177 0
165 178 0
167 182 0
168 184 0
167 182 0
166 180 0
168 181 0
165 183 0
162 174 0
163 176 0
164 179 0
167 183 0
166 181 0
168 185 0
161 174 0
166 181 0
167 183 0
166 183 0
164 181 0
167 182 0
165 181 0
167 182 0
171 190 0
165 182 0
167 183 0
169 188 0
171 188 0
171 190 0
211 230 255
209 229 254
207 226 244
200 220 215
198 217 194
197 216 194
202 220 199
203 221 212
204 221 211
204 221 206
212 228 228
208 223 212
208 224 217
206 222 204
193 212 169
185 207 130
175 198 76
174 197 51
176 199 67
177 200 92
173 196 80
176 199 67
173 197 72
174 198 80
174 197 80
172 196 76
175 199 80
176 200 88
174 198 80
176 200 76
174 197 80
173 197 57
172 195 44
176 199 92
177 200 80
173 196 80
175 199 72
173 196 67
175 199 62
175 198 84
172 195 44
174 198 57
174 198 57
175 198 72
176 200 95
177 200 88
174 198 76
172 196 67
173 196 67
177 201 84
175 198 76
170 194 67
176 199 80
175 198 76
174 198 67
173 196 72
176 199 88
172 196 95
174 197 62
176 199 76
175 198 62
172 196 62
173 197 72
172 196 25
174 197 72
171 194 62
171 194 62
174 198 76
169 193 62
173 196 57
148 172 120
96 124 129
89 119 160
100 128 154
111 138 154
110 137 149
112 138 149
103 130 147
117 143 160
101 129 153
107 134 163
99 127 167
101 127 162
151 173 201
189 208 235
206 224 250
211 229 254
208 226 251
159 179 222
81 113 187
68 103 181
81 113 184
91 120 186
69 104 181
82 114 186
79 111 179
76 108 178
89 119 186
87 116 177
82 113 179
75 107 177
83 113 180
82 112 170
80 111 171
61 97 164
62 98 162
62 99 171
64 99 158
61 97 163
61 98 168
63 99 162
62 98 161
61 97 159
63 98 157
66 100 153
65 100 158
67 101 158
67 100 151
64 98 141
68 102 159
63 98 148
64 97 144
60 96 158
61 96 150
60 95 144
61 96 157
59 95 155
61 96 151
60 95 153
60 96 156
60 96 152
61 96 158
60 96 147
61 96 148
61 96 161
60 96 155
61 97 154
60 95 154
59 94 149
62 98 162
62 98 157
60 96 159
61 97 156
61 97 157
61 97 156
60 96 154
61 96 151
60 96 152
60 96 156
61 96 160
62 98 161
60 96 150
61 97 157
61 97 157
61 97 158
61 97 155
62 98 155
60 96 149
60 96 149
60 97 159
61 97 155
60 95 148
61 97 157
61 97 153
61 97 155
60 96 153
60 96 148
61 97 157
62 98 155
62 97 150
62 98 163
61 97 155
61 97 157
61 97 150
61 97 152
61 97 153
62 98 162
62 97 152
60 95 144
61 97 151
61 97 159
62 98 162
61 97 157
62 98 156
62 97 154
61 97 153
62 98 161
62 97 155
61 96 154
61 96 152
61 96 148
61 96 148
61 97 151
61 97 151
61 97 151
61 96 153
62 98 155
61 97 154
61 97 148
61 97 153
61 97 155
61 96 147
62 98 158
63 98 159
61 96 149
62 97 152
62 97 153
62 97 154
61 97 152
61 96 150
61 96 150
61 97 152
62 97 153
63 98 158
62 98 161
61 96 141
61 96 145
62 97 150
60 95 140
61 97 157
62 98 156
61 97 150
60 96 144
63 98 154
62 98 157
62 97 145
61 97 153
62 98 157
62 98 152
62 98 156
61 96 149
61 96 149
60 95 137
62 97 151
60 95 140
61 96 148
60 95 137
61 97 141
60 95 140
61 96 147
60 95 142
61 96 144
61 96 144
60 95 139
61 96 142
59 94 135
61 95 141
62 97 155
59 94 133
61 96 142
58 93 131
61 95 137
60 95 139
59 93 129
60 94 134
59 93 129
60 94 132
60 94 141
59 93 128
58 91 124
90 107 84
126 130 0
119 122 0
126 131 0
124 132 0
121 127 0
119 123 0
128 134 0
116 119 0
124 128 0
117 118 0
108 113 0
112 114 0
114 115 0
107 110 0
116 120 0
113 115 0
120 119 0
112 108 0
100 100 0
118 118 0
102 99 0
96 94 0
105 104 0
105 100 0
108 108 0
108 103 0
101 95 0
83 78 0
92 85 0
82 74 0
86 77 0
84 73 0
97 89 0
89 82 0
86 75 0
89 77 0
108 99 0
88 79 0
99 87 0
105 94 0
98 91 0
107 97 0
111 101 0
110 101 0
107 99 0
102 92 0
112 104 0
112 102 0
107 99 0
104 95 0
107 96 0
111 101 0
114 102 0
121 112 0
120 110 0
120 110 0
118 109 0
122 111 0
107 97 0
112 102 0
117 107 0
119 109 0
114 103 0
111 101 0
108 96 0
109 100 0
120 110 0
99 89 0
104 94 0
111 101 0
99 89 0
107 97 0
99 87 0
113 102 0
120 114 0
132 127 0
141 143 0
146 148 0
145 144 0
148 152 0
148 151 0
148 151 0
152 155 0
149 151 0
153 158 0
148 151 0
150 154 0
150 153 0
156 162 0
144 146 0
146 150 0
157 162 0
158 167 0
155 163 0
155 162 0
159 167 0
153 159 0
157 163 0
160 167 0
161 172 0
162 172 0
159 168 0
160 170 0
158 168 0
159 168 0
164 175 0
161 172 0
156 166 0
164 175 0
157 168 0
159 169 0
163 177 0
167 180 0
165 177 0
160 172 0
163 175 0
158 170 0
166 182 0
163 179 0
158 172 0
162 176 0
161 176 0
163 179 0
162 178 0
166 183 0
166 185 0
169 188 0
161 175 0
167 183 0
169 183 0
167 183 0
166 183 0
168 185 0
166 182 0
166 183 0
170 188 0
167 185 0
166 183 0
168 186 0
208 227 246
201 220 212
204 223 214
193 213 177
198 217 194
200 218 203
202 219 207
206 223 215
209 225 221
213 228 221
201 218 204
191 210 161
182 203 108
173 197 67
176 199 76
176 199 62
176 199 76
176 199 72
172 196 72
177 201 88
172 195 44
171 195 44
174 198 76
175 199 80
176 199 62
172 197 80
173 197 44
171 193 51
174 198 88
173 197 80
173 197 67
175 198 80
175 199 84
173 197 57
172 196 36
172 195 57
175 199 99
174 197 57
173 197 57
170 193 51
172 196 72
172 196 67
172 196 57
173 196 84
173 197 76
173 197 72
175 197 57
175 199 92
175 198 72
173 197 57
176 200 88
172 196 76
174 198 62
171 195 62
173 197 62
174 197 44
175 197 62
175 199 67
174 198 84
172 195 57
175 198 72
175 199 88
175 198 67
175 199 95
177 200 72
173 196 67
174 197 76
173 196 72
174 197 62
176 199 62
130 155 134
107 134 149
110 137 153
100 128 151
103 130 158
108 135 167
105 133 163
108 134 156
124 149 162
109 135 150
114 140 159
107 134 160
107 134 162
105 132 164
102 129 159
148 171 199
200 218 245
211 229 253
212 229 254
149 171 216
70 105 181
77 109 182
81 113 185
76 109 180
79 111 181
81 112 176
79 111 179
74 107 175
86 116 180
74 107 175
81 112 171
77 109 175
85 114 173
85 114 175
88 117 177
61 97 164
61 97 166
61 97 163
61 97 160
60 96 161
61 97 167
60 96 157
60 95 155
62 98 162
61 96 163
61 97 160
60 96 167
62 97 150
65 98 144
68 102 145
59 94 149
59 94 152
69 102 156
61 96 148
59 95 148
59 94 146
59 94 145
60 95 152
61 97 150
62 98 165
60 96 153
60 95 158
61 97 157
60 96 145
61 97 158
60 96 154
60 96 155
60 96 155
62 98 156
60 96 157
59 94 149
61 96 155
61 96 155
62 97 160
61 97 160
61 97 162
61 97 159
60 96 159
61 97 159
60 95 140
61 96 157
61 97 154
62 98 163
61 96 154
62 98 162
60 96 154
61 97 152
61 97 159
61 97 149
60 96 155
61 97 154
61 97 159
61 97 160
61 97 158
60 96 155
60 95 149
62 98 161
61 97 154
61 97 153
62 97 153
62 98 161
61 97 153
61 96 155
62 98 157
60 96 158
62 98 158
61 97 153
61 97 151
59 95 153
61 96 151
61 97 158
61 97 151
62 98 162
61 97 147
61 97 155
62 97 161
61 97 153
61 97 158
62 98 159
62 97 151
63 98 161
61 97 155
62 97 152
61 97 148
61 96 143
62 97 151
63 99 157
62 98 157
61 97 151
62 97 154
62 96 145
62 97 160
62 99 163
61 97 152
62 97 152
60 96 141
61 96 148
63 99 160
62 97 151
61 97 148
61 97 154
62 97 152
62 98 158
61 97 149
60 96 147
61 96 157
62 97 155
62 98 161
62 97 150
61 96 139
61 97 151
61 97 150
61 96 144
62 97 150
61 96 145
60 96 151
61 97 152
61 97 151
61 96 145
61 96 144
61 95 142
62 97 150
63 98 155
61 96 149
60 95 135
62 97 151
62 96 148
61 96 145
61 96 147
61 96 145
59 93 129
61 96 146
60 94 137
61 96 149
60 95 139
61 95 140
59 94 131
61 96 144
60 95 144
60 94 142
61 96 138
61 97 151
60 94 139
60 94 136
60 94 132
59 92 134
59 93 139
59 92 127
58 90 120
60 94 129
110 121 65
128 133 0
117 122 0
120 128 0
133 138 0
114 118 0
104 108 0
118 123 0
128 132 0
112 115 0
114 115 0
118 120 0
113 114 0
108 111 0
114 116 0
107 107 0
117 119 0
111 113 0
109 108 0
99 97 0
105 103 0
120 122 0
103 102 0
113 112 0
109 105 0
111 109 0
107 105 0
103 99 0
111 106 0
118 117 0
109 104 0
92 86 0
84 78 0
75 69 0
76 67 0
89 77 0
94 83 0
87 80 0
98 89 0
94 86 0
99 91 0
101 91 0
91 82 0
95 87 0
89 79 0
108 98 0
103 93 0
112 100 0
106 94 0
100 90 0
106 95 0
107 97 0
110 99 0
106 96 0
116 110 0
108 99 0
114 104 0
109 100 0
116 102 0
110 100 0
109 98 0
119 109 0
106 96 0
105 96 0
107 96 0
117 107 0
105 93 0
103 94 0
104 94 0
95 84 0
101 93 0
118 112 0
136 133 0
126 124 0
140 143 0
140 139 0
142 140 0
142 143 0
141 142 0
149 151 0
149 151 0
149 151 0
149 153 0
150 153 0
158 164 0
148 151 0
152 158 0
153 162 0
161 167 0
158 164 0
154 162 0
153 158 0
155 161 0
155 161 0
155 162 0
158 164 0
161 165 0
154 161 0
163 171 0
158 168 0
158 167 0
157 164 0
160 171 0
164 177 0
158 167 0
162 175 0
161 169 0
160 169 0
158 170 0
166 179 0
162 173 0
158 170 0
162 177 0
162 172 0
164 176 0
162 174 0
164 179 0
162 176 0
164 180 0
168 180 0
167 183 0
166 180 0
161 175 0
164 179 0
166 181 0
168 184 0
166 181 0
166 182 0
169 185 0
168 183 0
165 182 0
165 182 0
165 180 0
168 186 0
167 184 0
163 179 0
165 180 0
167 185 0
168 184 0
167 184 0
201 219 206
198 217 196
198 217 194
200 218 199
208 224 212
211 226 224
207 224 215
212 227 227
202 219 194
182 204 108
176 199 84
176 199 84
172 197 67
174 199 76
173 196 67
174 198 88
173 195 44
175 198 44
177 200 76
173 197 76
175 198 57
173 197 51
174 197 62
174 198 84
175 198 57
171 195 80
173 197 67
175 199 84
174 198 92
174 198 76
177 200 72
170 195 67
174 197 57
173 196 76
173 197 51
172 196 76
175 199 72
171 194 84
171 195 80
175 199 88
173 197 88
173 197 67
176 199 80
172 196 62
175 198 76
172 196 67
175 198 76
176 199 62
174 198 76
173 197 76
174 197 67
174 197 62
175 199 76
174 196 76
172 196 62
174 198 72
172 195 76
173 198 67
174 197 80
173 196 67
176 199 76
174 198 80
173 197 80
176 199 72
174 198 84
175 199 84
175 198 62
174 197 72
175 199 92
175 197 76
121 147 115
104 132 165
105 132 148
98 127 164
87 117 159
92 121 153
118 145 161
103 131 152
109 136 159
117 143 143
112 138 155
105 132 156
101 129 158
98 126 157
106 133 162
107 134 171
104 131 153
138 160 199
196 214 242
211 229 254
134 157 208
81 113 187
70 105 181
76 109 181
76 109 182
84 115 184
79 111 182
89 118 184
89 119 181
84 115 180
82 113 181
77 110 181
94 122 184
81 111 169
92 120 181
77 108 170
62 98 164
62 99 173
61 98 166
62 99 170
61 97 163
61 97 161
63 98 159
60 96 152
59 95 150
60 96 153
59 95 156
67 100 144
72 105 157
60 96 155
65 98 147
62 97 150
67 100 147
62 97 151
60 96 157
60 95 155
59 94 145
61 97 158
59 94 148
60 95 146
61 97 153
61 97 160
61 96 154
61 96 160
61 96 149
60 96 159
60 95 151
61 97 162
62 98 161
59 95 148
58 93 145
61 96 153
60 95 154
60 96 155
62 98 162
60 96 158
61 97 160
61 96 154
61 97 160
61 96 153
61 97 157
60 96 158
62 97 155
60 96 149
61 97 151
61 96 156
62 98 159
61 97 150
60 96 150
63 98 158
60 96 155
61 97 150
61 96 154
61 96 154
61 97 154
61 97 151
60 96 151
61 97 157
61 97 159
61 97 154
61 96 153
61 97 157
63 99 164
61 97 154
62 98 156
61 97 151
60 96 144
61 97 158
61 96 151
61 97 155
62 97 155
62 98 155
61 97 154
62 98 159
62 98 153
61 96 149
61 96 150
60 96 140
61 97 149
62 98 158
62 98 153
62 97 152
62 98 155
61 97 154
61 97 155
61 97 148
61 97 150
61 96 153
61 97 152
61 97 154
62 98 152
60 96 145
62 97 158
62 98 156
60 95 152
61 96 149
61 97 149
61 97 158
61 96 144
61 97 150
61 96 149
60 96 149
61 97 152
61 97 150
62 97 153
62 97 153
61 96 149
62 97 153
61 96 148
61 96 148
60 95 141
62 98 153
60 95 140
60 95 145
61 96 152
60 95 135
61 96 150
61 96 147
61 96 147
61 97 149
61 96 142
61 96 145
60 95 139
61 96 142
60 95 139
61 96 142
60 95 139
61 96 150
60 95 140
60 95 147
60 95 147
61 96 147
61 96 140
60 96 144
61 96 144
62 98 155
61 96 139
61 96 151
59 94 134
60 94 134
60 94 136
59 94 126
61 96 141
59 92 129
58 92 127
59 94 128
58 91 119
58 92 130
59 92 129
62 92 112
117 125 18
133 140 0
128 137 0
117 124 0
114 120 0
123 129 0
114 116 0
127 133 0
116 120 0
114 116 0
113 112 0
117 120 0
125 130 0
110 111 0
115 115 0
104 104 0
117 118 0
106 108 0
117 119 0
124 127 0
113 115 0
111 110 0
110 107 0
114 114 0
101 101 0
108 105 0
118 117 0
116 115 0
103 99 0
106 103 0
115 115 0
105 106 0
95 91 0
109 104 0
106 101 0
91 87 0
95 87 0
88 80 0
87 76 0
79 70 0
87 78 0
91 80 0
100 90 0
95 84 0
91 79 0
95 86 0
101 91 0
94 84 0
94 86 0
105 94 0
105 95 0
99 89 0
97 87 0
106 95 0
107 95 0
103 93 0
98 87 0
104 94 0
108 95 0
98 86 0
104 91 0
99 88 0
91 80 0
97 85 0
108 95 0
97 87 0
115 110 0
114 110 0
116 110 0
137 137 0
137 136 0
138 137 0
137 135 0
136 134 0
145 147 0
144 146 0
138 138 0
145 144 0
145 147 0
146 148 0
140 139 0
147 151 0
143 144 0
147 150 0
143 145 0
149 150 0
148 155 0
155 161 0
153 159 0
150 157 0
152 158 0
151 157 0
163 170 0
154 161 0
158 166 0
155 162 0
159 166 0
160 168 0
157 166 0
160 169 0
159 168 0
157 166 0
164 175 0
162 173 0
160 169 0
164 175 0
166 177 0
158 167 0
162 174 0
164 177 0
166 178 0
161 175 0
165 177 0
163 177 0
165 178 0
165 179 0
163 177 0
162 177 0
163 177 0
163 178 0
164 179 0
164 177 0
167 182 0
165 179 0
166 182 0
166 181 0
168 184 0
168 185 0
164 179 0
163 179 0
168 185 0
169 187 0
168 185 0
169 183 0
171 187 0
167 185 0
170 187 0
170 189 0
171 188 0
169 188 0
201 219 198
201 219 204
206 223 211
203 220 198
210 226 215
205 223 206
187 206 147
179 202 92
178 201 88
174 198 76
177 201 88
176 199 67
174 197 76
176 200 102
173 197 57
175 199 62
177 200 80
173 197 67
175 199 57
169 192 72
175 199 76
174 198 84
176 199 76
174 197 76
175 200 92
174 198 62
173 196 57
175 198 57
173 196 67
176 200 80
173 197 95
176 199 84
174 197 51
171 194 44
176 200 88
173 197 67
174 196 76
175 199 84
171 194 57
172 196 67
175 199 80
171 195 88
170 194 76
173 197 67
176 199 62
175 198 80
175 199 88
174 198 76
171 195 72
173 197 84
175 198 76
174 197 76
174 198 84
173 197 72
177 201 84
174 197 51
172 195 72
175 198 84
173 196 72
176 200 80
171 196 62
172 195 57
176 198 72
175 199 76
175 198 84
174 198 62
172 195 67
173 197 62
174 198 67
169 193 84
137 162 139
99 127 153
98 126 155
98 126 162
102 129 154
101 130 164
102 129 153
105 133 147
108 134 146
96 125 156
104 131 158
116 143 152
114 140 150
100 128 144
94 122 165
109 136 178
95 123 161
99 126 160
118 143 184
168 187 220
203 221 247
104 131 194
71 105 182
69 104 181
83 115 186
74 107 181
76 108 179
68 103 178
81 113 181
79 111 181
74 107 178
82 113 178
85 115 180
82 113 176
80 111 173
94 122 181
77 108 170
62 98 163
62 99 168
63 99 161
61 97 162
61 97 160
60 97 160
64 99 161
61 97 161
61 97 154
61 97 164
60 96 154
65 100 158
67 100 145
62 98 159
64 98 146
60 96 154
63 98 159
68 102 143
59 93 134
58 94 144
61 96 155
61 97 157
59 95 149
60 95 153
59 94 147
60 96 152
61 96 151
60 95 153
60 96 148
59 95 149
58 93 148
60 95 145
61 97 154
60 96 151
62 98 158
60 95 145
61 96 151
61 97 153
60 96 148
60 96 153
59 94 144
61 97 157
61 97 155
61 96 147
61 97 159
59 95 151
61 97 152
61 97 156
62 97 159
62 98 157
61 96 152
60 96 155
61 97 159
60 96 151
61 97 150
60 96 148
60 95 147
61 96 157
60 96 149
62 98 162
62 98 155
62 98 159
61 96 154
60 96 148
60 96 154
61 97 154
61 97 152
61 97 155
61 97 153
61 97 155
61 97 153
62 97 153
62 98 161
61 97 156
61 97 151
62 97 153
61 97 154
61 97 150
62 97 157
61 97 153
61 96 152
62 97 155
61 97 149
61 97 148
61 96 148
62 97 151
61 97 155
62 98 156
62 98 157
61 97 155
61 97 151
61 97 150
62 97 154
61 97 155
61 97 153
61 97 150
61 96 142
61 97 157
62 98 152
61 96 148
61 96 151
61 95 140
61 97 144
61 96 148
61 95 142
61 96 148
62 97 154
61 96 144
61 97 150
61 96 145
61 96 148
60 95 141
60 95 150
61 96 150
62 97 152
59 94 137
61 96 145
62 97 149
60 95 135
62 97 157
61 96 150
60 94 143
61 96 150
60 95 140
61 97 147
62 97 153
61 97 153
61 96 144
60 96 141
60 95 147
60 95 136
62 97 152
61 96 144
60 95 142
62 97 153
60 95 136
61 96 140
61 95 142
59 94 139
60 96 140
61 95 139
59 93 126
61 95 141
61 96 145
59 93 126
59 94 139
60 94 131
60 94 142
60 94 140
60 93 129
58 91 127
58 92 133
86 105 101
114 123 0
129 137 0
116 124 0
127 135 0
109 114 0
112 114 0
135 140 0
112 118 0
114 121 0
117 122 0
123 126 0
115 120 0
127 130 0
122 127 0
108 110 0
121 123 0
106 102 0
105 108 0
108 107 0
122 125 0
121 123 0
113 113 0
110 110 0
107 105 0
119 117 0
112 112 0
113 114 0
118 118 0
95 89 0
108 105 0
108 107 0
100 95 0
112 111 0
108 105 0
102 99 0
109 109 0
107 99 0
112 109 0
108 102 0
97 88 0
114 109 0
107 100 0
95 90 0
97 89 0
89 80 0
99 90 0
88 80 0
98 87 0
90 79 0
90 81 0
89 78 0
94 82 0
90 80 0
98 89 0
91 81 0
98 87 0
103 94 0
102 92 0
105 96 0
110 101 0
105 97 0
116 112 0
109 100 0
124 120 0
141 140 0
132 128 0
138 137 0
136 135 0
138 138 0
138 137 0
140 138 0
132 129 0
133 133 0
139 139 0
146 147 0
139 138 0
141 142 0
135 133 0
147 149 0
145 146 0
151 155 0
148 152 0
148 151 0
149 152 0
145 147 0
149 153 0
154 159 0
151 155 0
157 163 0
154 160 0
155 161 0
154 160 0
154 162 0
160 168 0
157 166 0
155 164 0
153 159 0
161 168 0
160 165 0
156 164 0
157 167 0
160 168 0
162 172 0
157 167 0
158 168 0
163 178 0
160 170 0
166 177 0
163 175 0
160 172 0
164 176 0
165 179 0
164 179 0
164 177 0
159 171 0
163 176 0
163 177 0
166 181 0
169 184 0
163 177 0
165 180 0
165 181 0
165 180 0
168 185 0
167 184 0
163 179 0
165 183 0
170 187 0
163 179 0
165 182 0
164 178 0
167 182 0
168 184 0
163 178 0
164 179 0
169 188 0
168 187 0
167 185 0
167 182 0
167 183 0
207 224 212
210 226 221
210 225 217
202 219 199
187 207 140
173 196 51
175 199 72
170 193 76
174 198 62
174 197 51
174 197 67
175 198 62
175 199 62
175 198 62
174 198 80
175 199 76
176 199 62
174 198 76
173 196 62
173 196 62
174 197 80
175 199 88
174 197 80
171 195 44
174 196 57
171 195 67
175 198 62
174 198 88
172 196 80
176 199 80
174 197 51
175 198 76
173 198 92
173 196 67
177 201 105
173 197 72
175 199 80
173 196 57
172 197 76
176 200 80
172 195 57
171 195 72
175 198 72
173 196 76
174 197 57
175 198 76
172 196 88
175 199 88
169 193 80
170 194 76
174 198 84
172 196 62
174 198 72
175 198 76
173 196 76
171 195 72
171 193 51
171 194 57
175 199 72
174 198 80
173 196 72
172 195 72
173 197 67
168 191 36
172 196 76
173 196 76
175 199 72
175 198 76
174 198 99
171 194 72
143 167 107
107 134 153
97 126 152
93 121 147
103 131 155
104 131 150
91 120 154
88 118 149
102 131 166
102 129 149
102 129 158
102 130 161
108 134 148
108 135 161
111 138 159
101 129 155
105 133 165
108 134 161
104 131 166
111 137 158
113 138 178
177 197 223
103 131 195
71 105 182
70 105 178
74 107 181
82 113 184
76 109 179
74 107 180
65 100 168
77 109 179
85 115 181
90 119 181
82 114 182
77 108 172
95 123 187
94 122 182
73 106 172
64 100 171
61 97 165
64 99 163
60 96 162
61 97 162
61 97 157
61 96 154
60 96 161
60 95 155
60 96 151
61 96 158
67 101 156
67 101 159
64 98 150
65 99 143
65 99 153
59 94 147
62 97 156
60 95 145
60 95 155
60 96 156
60 96 150
60 95 150
60 96 149
59 94 151
60 96 155
61 96 151
61 96 149
61 96 157
59 95 149
61 96 152
62 97 159
60 96 154
59 94 145
59 94 149
60 96 157
61 97 159
60 96 156
62 98 164
61 97 157
61 97 158
61 97 158
61 97 152
61 97 163
60 96 157
61 97 160
62 98 157
60 96 151
60 95 147
60 95 145
61 97 155
62 97 156
61 96 153
61 96 151
61 96 144
60 96 149
62 98 154
61 96 152
61 97 150
61 97 153
61 96 150
61 96 151
62 98 158
60 96 147
61 97 152
62 97 154
63 99 166
61 97 152
61 97 149
62 98 155
62 98 158
61 97 153
61 97 153
61 97 156
62 98 155
61 96 144
62 97 156
61 97 155
62 97 150
60 96 144
62 97 155
62 98 163
62 97 153
62 98 156
61 97 149
60 95 147
61 96 147
61 96 149
61 97 157
61 97 154
61 96 145
62 97 152
63 98 160
61 96 150
61 97 150
62 98 157
62 97 149
62 98 156
60 96 151
61 97 148
61 96 154
61 96 147
62 97 147
62 98 156
62 97 151
61 97 152
61 97 145
61 97 152
61 97 149
61 97 154
62 98 152
62 97 154
61 96 140
61 97 152
61 96 153
61 97 150
60 96 145
62 97 149
61 96 153
62 97 154
60 96 143
59 94 137
60 96 145
61 97 150
60 95 140
61 96 143
61 96 145
60 94 133
61 96 147
60 95 136
60 95 136
60 95 142
61 97 145
62 97 154
61 96 145
61 95 139
60 95 139
62 97 151
60 95 139
60 95 144
60 94 143
58 91 123
60 94 129
61 96 138
59 92 134
60 94 132
61 95 134
59 92 128
58 92 124
59 93 132
58 90 125
98 111 69
117 121 0
126 131 0
127 133 0
122 128 0
110 113 0
115 121 0
125 131 0
115 118 0
110 116 0
124 127 0
119 124 0
106 113 0
116 121 0
117 120 0
105 108 0
118 118 0
118 118 0
100 101 0
112 111 0
112 114 0
114 114 0
117 118 0
108 109 0
115 113 0
101 100 0
114 114 0
108 108 0
116 115 0
110 106 0
113 112 0
106 103 0
105 103 0
101 100 0
118 116 0
122 122 0
120 119 0
110 106 0
110 106 0
102 95 0
107 103 0
106 102 0
100 97 0
116 113 0
106 100 0
107 100 0
108 100 0
118 115 0
118 110 0
115 109 0
122 118 0
126 124 0
112 107 0
113 106 0
118 113 0
116 111 0
127 124 0
119 113 0
120 113 0
129 129 0
128 126 0
129 125 0
120 114 0
130 125 0
132 127 0
128 125 0
126 121 0
126 119 0
145 145 0
137 134 0
135 135 0
134 130 0
139 139 0
139 139 0
139 138 0
146 147 0
138 136 0
149 153 0
140 145 0
144 144 0
144 143 0
147 150 0
155 160 0
147 149 0
155 161 0
150 154 0
147 150 0
152 156 0
152 156 0
151 155 0
149 154 0
151 157 0
156 165 0
154 158 0
149 153 0
153 160 0
153 161 0
158 166 0
154 160 0
159 168 0
156 167 0
161 173 0
160 171 0
157 167 0
161 172 0
160 172 0
157 169 0
164 177 0
160 171 0
162 171 0
161 172 0
165 179 0
162 174 0
163 176 0
165 179 0
165 180 0
166 178 0
160 173 0
165 179 0
166 179 0
164 179 0
163 180 0
169 186 0
165 179 0
163 178 0
165 181 0
165 182 0
165 179 0
166 182 0
164 179 0
164 179 0
166 182 0
169 185 0
167 184 0
163 179 0
166 182 0
167 185 0
167 187 0
165 182 0
167 184 0
165 184 0
208 224 214
198 216 193
180 202 117
175 199 76
177 200 88
174 198 84
173 197 84
172 195 76
174 197 51
174 197 57
173 196 72
174 198 62
176 199 76
172 196 44
174 197 62
171 194 44
177 200 72
175 198 36
174 198 76
174 197 80
173 197 84
175 198 62
173 197 76
173 197 84
174 198 57
172 195 57
174 197 72
173 197 62
175 199 99
172 196 72
175 199 80
176 200 84
173 197 80
175 198 76
172 196 80
174 197 67
173 196 62
173 197 84
173 197 76
174 197 62
173 197 62
171 195 72
174 198 92
168 191 67
171 195 57
173 196 57
173 197 67
174 198 62
174 198 72
174 197 72
173 196 67
169 193 67
174 198 84
171 195 67
173 197 57
170 194 67
172 196 67
174 197 57
173 197 72
173 196 44
173 197 67
175 198 67
166 190 51
173 195 57
173 196 51
174 197 80
172 196 67
172 196 72
172 196 76
171 195 67
155 179 70
95 123 152
94 123 162
96 125 151
92 121 142
96 125 149
93 122 152
89 119 147
96 124 156
105 132 154
95 123 155
103 130 160
100 128 158
110 136 159
100 128 149
115 142 159
105 132 157
96 124 166
101 129 162
110 137 159
97 124 165
110 136 172
120 144 181
83 114 187
71 105 182
76 109 182
78 111 181
65 101 178
77 110 183
78 110 179
82 113 181
79 110 175
71 104 166
96 124 183
92 121 182
82 113 179
82 113 176
94 122 180
61 98 166
62 98 165
61 97 164
61 97 159
61 97 167
64 100 161
61 97 159
61 97 156
61 97 157
61 96 158
61 97 155
59 95 153
71 103 144
67 101 147
71 104 147
66 101 151
64 98 153
64 97 145
59 94 144
60 96 153
59 94 144
60 95 148
59 93 148
59 94 149
60 95 152
60 95 153
60 95 150
60 95 151
60 95 148
61 96 156
60 96 151
60 96 150
61 97 159
60 96 156
61 97 159
61 97 159
60 95 150
61 97 158
61 97 158
60 96 154
59 94 139
60 96 151
60 96 149
60 96 157
61 96 153
60 96 152
61 97 154
61 96 154
60 96 153
60 96 153
60 96 152
61 97 156
62 98 161
61 96 154
62 97 156
62 98 158
61 97 154
61 97 155
61 96 150
60 95 140
61 97 157
61 96 152
61 97 161
61 97 159
61 97 156
60 96 148
62 97 152
61 97 151
61 96 147
61 97 153
60 95 143
62 98 155
61 97 154
61 96 145
61 97 158
61 97 155
61 96 149
61 97 152
61 97 152
62 97 151
61 96 154
62 97 156
60 95 144
62 97 153
61 97 152
61 97 149
61 97 148
61 97 157
61 97 153
61 96 148
61 96 153
61 97 154
62 97 148
61 97 153
62 99 164
62 97 154
61 97 151
60 95 144
61 97 151
61 96 149
61 96 147
63 98 158
60 96 147
61 97 155
62 98 157
62 97 142
62 97 155
61 96 144
61 97 147
62 97 149
61 96 149
60 95 144
62 98 159
61 96 142
62 97 150
61 96 144
61 96 152
62 98 149
61 96 145
62 97 150
60 95 143
61 96 144
61 96 147
61 97 155
61 96 145
60 94 139
60 95 142
60 96 144
60 95 136
61 96 150
60 95 148
62 97 147
60 95 137
61 96 143
61 95 141
60 95 134
60 95 137
61 96 140
61 96 142
60 95 139
60 95 137
60 94 135
59 93 135
60 94 137
60 93 133
59 94 130
60 95 139
59 93 116
58 91 132
58 91 124
65 95 112
122 130 18
125 131 0
117 124 0
121 130 0
118 125 0
111 114 0
127 134 0
101 108 0
112 118 0
128 134 0
122 129 0
120 124 0
113 117 0
117 119 0
114 115 0
123 127 0
116 121 0
121 124 0
104 109 0
111 114 0
108 108 0
103 105 0
109 110 0
109 112 0
124 126 0
114 113 0
124 124 0
119 120 0
111 109 0
112 112 0
110 110 0
115 115 0
107 104 0
111 109 0
113 110 0
121 121 0
118 116 0
106 104 0
110 111 0
112 107 0
107 104 0
110 104 0
112 111 0
108 109 0
104 96 0
115 111 0
114 112 0
118 110 0
114 110 0
122 117 0
117 113 0
123 121 0
115 111 0
116 112 0
116 110 0
120 117 0
130 128 0
120 118 0
125 119 0
130 130 0
123 120 0
129 127 0
127 126 0
132 130 0
129 125 0
133 130 0
127 129 0
133 132 0
137 135 0
140 140 0
138 136 0
144 145 0
145 146 0
139 137 0
136 132 0
148 151 0
146 147 0
139 139 0
150 153 0
154 159 0
145 146 0
151 155 0
150 155 0
149 152 0
149 151 0
149 154 0
150 154 0
154 160 0
151 159 0
153 161 0
151 159 0
157 166 0
159 166 0
153 161 0
155 163 0
157 164 0
159 168 0
157 167 0
162 174 0
153 162 0
156 166 0
155 160 0
158 168 0
159 167 0
160 168 0
160 170 0
161 173 0
155 165 0
163 177 0
158 170 0
163 174 0
163 173 0
165 176 0
168 181 0
161 172 0
161 175 0
161 175 0
165 182 0
165 179 0
166 178 0
165 180 0
162 175 0
162 174 0
164 180 0
163 175 0
165 179 0
167 183 0
162 177 0
167 185 0
164 179 0
166 182 0
167 183 0
167 185 0
166 181 0
168 183 0
164 182 0
168 186 0
164 183 0
168 186 0
165 182 0
166 184 0
181 203 108
175 199 62
174 197 84
176 200 72
173 197 62
176 200 67
175 198 76
173 197 76
174 198 92
174 197 57
173 197 72
176 199 67
175 198 80
176 199 67
175 198 88
175 199 62
176 200 80
169 193 80
174 198 80
174 197 62
177 200 80
173 197 67
173 197 62
174 198 80
173 197 67
172 195 57
168 192 67
175 199 72
174 198 76
173 197 80
171 195 76
173 197 57
172 196 67
176 198 72
176 199 76
174 198 84
171 194 51
171 195 88
171 195 72
172 197 62
172 196 72
172 194 72
174 199 95
173 197 67
171 194 72
172 196 72
173 197 88
171 195 84
174 197 76
171 193 51
170 194 72
171 195 72
173 196 72
171 194 72
174 198 80
173 197 72
172 196 57
174 196 80
170 194 72
176 198 72
168 192 36
170 193 72
174 198 72
173 196 76
172 197 84
175 199 80
176 200 92
172 196 88
175 198 76
174 197 57
172 195 65
89 118 147
95 124 149
85 115 161
96 124 145
88 118 156
98 126 155
103 131 159
101 128 148
96 124 150
98 126 154
93 121 157
101 129 155
103 131 156
107 134 152
103 130 153
101 128 154
106 132 148
95 123 150
94 122 155
99 126 155
92 120 159
88 117 161
98 126 172
84 115 174
76 109 180
79 111 181
76 109 183
84 115 187
65 101 172
82 113 180
83 115 184
79 111 176
77 108 172
71 105 177
91 120 180
90 119 180
80 111 176
86 115 178
75 108 175
61 98 166
62 98 167
62 98 165
62 98 160
61 97 161
60 96 157
60 96 165
61 98 164
59 94 154
61 96 154
59 95 154
63 98 161
70 103 151
66 100 153
67 100 145
62 96 154
65 98 133
60 95 147
58 94 141
60 96 149
60 96 148
60 95 153
61 96 153
62 97 156
60 96 153
60 95 156
61 96 156
60 96 152
60 96 148
61 97 155
60 96 151
61 96 153
61 96 153
60 95 143
60 96 151
60 96 154
60 95 144
61 97 155
61 96 151
60 95 149
61 97 157
61 96 150
60 95 150
61 97 153
61 96 151
61 97 154
62 97 157
60 96 154
61 96 156
61 96 153
61 96 150
62 97 151
61 97 157
61 97 154
61 97 153
60 96 149
62 98 155
62 97 153
61 96 152
61 96 150
61 97 158
62 97 153
62 98 163
62 97 154
62 98 162
61 96 149
60 95 147
61 97 154
61 97 153
61 97 150
61 97 153
61 97 154
61 96 148
62 98 153
61 97 155
61 96 151
61 97 152
61 97 150
61 97 150
60 96 151
62 98 159
62 97 152
61 97 151
61 96 153
61 96 140
62 97 153
60 95 149
61 97 151
61 97 153
61 97 152
60 95 145
62 97 157
61 97 150
60 96 143
62 97 150
60 95 140
61 96 149
61 96 141
62 97 157
62 97 150
63 98 155
61 96 144
61 97 149
61 97 155
62 98 157
61 96 144
60 96 143
61 96 147
60 95 140
62 97 143
62 98 157
61 97 148
61 96 145
62 97 148
61 95 145
62 98 154
60 95 142
60 95 144
61 96 144
61 97 154
60 95 141
60 95 147
62 98 153
58 93 142
60 95 131
61 96 148
62 98 153
60 96 137
60 95 140
60 95 142
61 95 143
61 96 137
59 94 135
62 97 148
60 95 141
59 94 137
60 95 140
59 94 124
61 95 138
59 93 128
59 93 130
60 94 131
59 93 135
59 92 128
58 91 122
59 92 124
59 92 126
58 91 120
95 114 92
118 122 0
115 122 0
115 123 0
112 118 0
119 123 0
115 121 0
106 113 0
115 122 0
125 130 0
118 124 0
119 123 0
110 114 0
124 129 0
120 122 0
115 118 0
110 116 0
117 120 0
128 132 0
119 120 0
126 130 0
118 117 0
125 130 0
114 116 0
115 115 0
116 118 0
122 125 0
111 112 0
111 111 0
121 123 0
114 113 0
111 112 0
121 119 0
119 118 0
124 124 0
118 116 0
112 109 0
114 113 0
108 107 0
108 110 0
114 112 0
115 112 0
121 122 0
105 103 0
116 113 0
118 116 0
128 124 0
122 115 0
118 117 0
117 112 0
122 119 0
113 111 0
111 106 0
108 103 0
122 118 0
125 120 0
124 118 0
127 126 0
129 123 0
130 125 0
133 133 0
134 129 0
124 120 0
126 124 0
135 134 0
129 124 0
136 134 0
136 136 0
141 137 0
137 136 0
143 143 0
135 135 0
141 143 0
148 150 0
136 139 0
147 148 0
139 140 0
141 142 0
141 140 0
142 145 0
146 148 0
147 152 0
143 146 0
156 163 0
160 166 0
144 147 0
147 152 0
154 159 0
152 157 0
151 156 0
156 163 0
154 157 0
153 159 0
155 165 0
156 164 0
153 158 0
160 170 0
161 171 0
155 165 0
156 163 0
159 169 0
158 168 0
155 166 0
163 176 0
164 177 0
154 164 0
155 163 0
158 168 0
162 173 0
158 166 0
161 173 0
163 175 0
160 171 0
163 175 0
162 175 0
157 166 0
167 181 0
162 175 0
160 175 0
162 175 0
162 175 0
163 179 0
164 178 0
161 174 0
165 181 0
169 186 0
163 177 0
165 180 0
165 181 0
166 182 0
165 180 0
162 174 0
167 183 0
165 182 0
166 181 0
165 182 0
162 176 0
166 181 0
169 187 0
166 182 0
166 182 0
163 177 0
173 196 62
172 196 76
173 197 36
176 199 57
173 196 62
174 197 67
173 197 88
172 196 88
176 199 76
172 195 72
176 200 76
174 197 62
177 200 76
173 197 62
172 196 80
173 197 67
175 198 80
175 200 76
172 196 80
173 197 76
172 197 88
175 198 76
174 197 57
174 198 80
174 199 95
175 198 76
175 199 84
174 197 67
173 195 51
171 195 62
171 194 36
173 197 62
175 199 62
171 195 76
175 199 72
174 198 84
173 197 67
174 198 72
173 196 76
172 195 76
175 198 84
171 194 88
174 198 80
173 196 51
173 196 62
173 197 80
172 196 72
173 197 84
174 198 88
174 198 95
172 196 72
170 195 57
172 196 67
173 196 62
173 197 44
172 196 76
172 195 72
175 199 84
169 193 80
170 195 80
172 196 76
172 197 67
172 196 72
171 194 62
171 195 76
170 194 92
175 199 92
173 196 92
172 195 72
175 197 62
174 197 72
130 155 115
101 128 153
103 131 156
97 125 145
85 115 160
102 130 155
99 127 157
103 131 152
96 124 153
105 132 160
90 119 150
96 124 152
97 124 148
109 135 155
93 122 162
104 131 164
95 124 157
104 131 154
115 141 152
97 125 158
94 122 163
101 128 166
103 130 159
96 124 163
91 120 176
76 109 182
73 107 181
65 101 175
71 105 178
78 110 174
76 109 178
79 111 176
79 111 178
84 114 176
79 110 171
85 115 180
83 113 177
88 117 183
80 111 172
72 106 175
62 98 166
61 98 165
61 97 164
61 97 159
60 95 156
61 97 163
61 97 156
61 96 151
61 96 157
61 96 152
61 96 155
60 95 149
60 95 148
64 98 141
64 98 148
59 93 141
67 100 144
61 96 152
59 93 142
60 95 157
61 97 145
60 96 152
61 96 154
61 96 157
60 96 148
59 93 151
60 96 154
58 93 139
60 95 148
61 96 153
60 95 150
62 97 155
60 95 147
60 95 152
61 97 156
60 96 148
60 96 153
59 94 146
60 96 149
61 96 149
61 97 153
61 96 150
61 97 154
60 95 143
60 95 148
61 97 145
61 97 150
61 97 151
61 97 151
60 95 144
62 98 159
60 95 144
60 96 144
59 95 140
61 97 156
61 96 149
60 95 146
61 97 158
61 96 150
61 97 153
61 97 150
62 98 156
62 98 157
61 97 156
61 97 156
61 96 147
62 98 157
61 97 150
61 97 149
60 95 148
61 96 150
61 97 157
61 96 154
60 95 145
62 97 153
60 96 145
61 97 148
61 97 156
62 97 158
61 97 151
60 95 139
61 97 150
62 98 160
61 97 147
61 97 152
61 97 150
61 97 149
61 97 144
62 98 156
60 96 151
61 96 149
62 98 158
60 96 145
62 98 157
61 97 152
62 98 151
59 94 143
61 96 137
61 96 145
62 97 148
61 96 148
61 96 141
60 96 143
61 96 143
61 96 144
62 97 152
61 97 155
61 96 149
61 96 145
61 96 148
61 96 141
62 97 151
61 97 150
60 95 139
61 96 149
61 96 149
61 96 147
60 95 131
61 96 143
62 98 156
61 95 143
60 95 140
61 96 139
59 94 136
61 96 142
61 95 141
59 94 133
61 96 142
60 95 139
61 96 147
60 95 144
61 96 143
61 96 149
60 95 142
61 95 141
60 95 140
60 94 140
59 93 128
59 93 132
58 92 128
60 94 132
59 93 128
58 91 117
59 93 136
60 93 126
56 88 107
58 92 118
119 132 47
123 134 0
115 121 0
107 112 0
118 126 0
121 128 0
120 125 0
109 115 0
129 136 0
123 130 0
111 116 0
123 130 0
127 131 0
113 120 0
116 119 0
110 112 0
106 110 0
131 135 0
124 125 0
116 121 0
123 126 0
114 118 0
110 113 0
111 113 0
118 122 0
118 118 0
115 119 0
115 117 0
110 110 0
120 121 0
120 122 0
117 118 0
109 107 0
122 123 0
122 124 0
124 122 0
114 112 0
124 125 0
120 118 0
112 112 0
118 119 0
115 115 0
121 119 0
121 119 0
109 104 0
123 121 0
109 105 0
123 122 0
127 127 0
128 124 0
123 120 0
122 119 0
122 120 0
130 128 0
135 131 0
125 122 0
129 128 0
128 125 0
133 134 0
132 130 0
132 128 0
127 125 0
139 141 0
131 131 0
132 130 0
135 135 0
143 143 0
141 141 0
141 141 0
135 132 0
140 142 0
139 139 0
139 138 0
144 145 0
139 139 0
146 148 0
153 158 0
148 150 0
149 154 0
146 147 0
150 154 0
152 155 0
143 142 0
146 150 0
147 152 0
155 162 0
147 152 0
158 162 0
149 156 0
161 169 0
151 158 0
158 164 0
154 163 0
154 162 0
153 161 0
155 163 0
161 169 0
160 170 0
155 162 0
164 173 0
156 166 0
157 167 0
159 169 0
158 168 0
158 168 0
158 167 0
161 172 0
157 168 0
157 168 0
162 173 0
164 177 0
161 173 0
162 174 0
160 171 0
163 175 0
168 182 0
160 172 0
167 183 0
166 179 0
161 177 0
164 177 0
158 172 0
167 181 0
166 180 0
167 183 0
163 176 0
164 179 0
166 182 0
167 184 0
165 181 0
167 185 0
167 183 0
169 186 0
169 187 0
165 182 0
167 185 0
166 182 0
167 186 0
165 183 0
170 188 0
169 186 0
162 179 0
172 196 44
175 199 84
176 200 92
175 198 67
170 194 76
174 197 62
175 198 57
173 197 72
173 197 76
175 198 67
176 200 76
174 197 57
174 199 80
174 198 67
173 197 76
171 194 67
172 196 51
173 196 80
172 196 57
172 195 57
173 196 67
174 198 67
173 197 62
172 195 62
173 196 72
173 197 67
172 196 57
173 197 72
174 198 72
172 195 62
176 200 80
173 197 80
172 195 80
174 198 80
173 198 80
172 196 76
173 197 67
172 196 62
171 195 80
172 196 76
169 193 51
170 193 88
172 195 88
170 193 44
169 192 36
170 194 72
173 196 76
171 195 44
168 192 57
171 194 44
171 195 92
174 198 84
173 197 80
172 196 80
172 196 92
171 195 51
171 194 76
174 198 92
170 194 72
169 192 57
167 190 67
175 199 67
171 193 67
171 194 51
173 197 92
171 195 67
167 190 36
171 195 72
173 196 72
172 196 57
170 193 76
146 170 120
108 136 155
91 120 155
87 116 137
95 123 156
95 124 161
87 116 145
89 118 150
91 119 153
102 129 150
95 123 154
102 130 150
84 114 164
89 118 147
105 131 150
104 130 161
104 131 154
103 131 149
106 132 163
110 136 161
111 136 159
101 127 155
93 122 147
95 123 161
88 117 153
90 119 168
80 112 178
78 111 181
76 109 181
79 111 179
79 110 177
73 106 174
68 102 171
62 99 172
77 109 179
77 109 173
86 116 177
84 114 172
82 112 170
85 115 174
74 106 171
62 98 162
61 98 165
61 98 162
62 98 168
61 97 163
64 99 169
60 96 158
63 98 151
61 96 152
60 96 156
63 98 151
63 98 155
61 96 157
67 101 148
70 102 139
64 97 139
66 100 147
60 94 141
60 95 148
61 97 153
58 93 145
60 95 149
60 95 155
61 97 155
58 93 142
62 98 156
61 96 150
60 95 145
60 95 154
59 94 146
60 95 140
61 97 159
60 96 154
61 96 150
59 95 144
60 96 156
61 96 153
60 96 155
61 96 153
60 96 151
61 96 150
61 96 140
60 96 154
62 98 163
61 96 148
62 97 159
61 96 149
61 97 158
62 98 158
61 96 154
62 97 148
60 96 147
61 96 144
61 96 154
62 98 156
61 97 154
61 97 157
61 97 150
61 96 150
61 97 154
63 99 163
62 97 155
62 98 159
61 96 150
61 97 156
61 97 155
61 96 149
60 96 152
60 96 141
61 97 148
61 97 154
60 96 151
62 98 160
62 98 157
62 97 154
62 97 151
61 97 149
62 97 152
61 96 144
60 96 147
62 97 152
61 96 141
61 96 151
62 97 156
61 96 151
61 96 147
61 96 155
61 97 151
62 98 153
61 97 153
61 96 143
61 97 150
61 96 150
61 96 147
61 95 142
61 97 150
60 95 144
61 97 151
62 97 149
61 97 155
60 95 142
60 96 145
60 96 145
60 95 140
62 98 155
62 97 152
61 97 149
62 97 145
61 97 149
61 95 140
61 96 142
60 95 140
61 96 148
61 96 142
60 95 139
61 96 148
60 95 141
61 96 143
62 97 148
60 96 139
60 95 142
61 96 139
61 96 145
60 95 139
60 95 137
61 96 137
60 94 140
60 95 136
59 94 131
60 95 131
59 93 121
60 95 133
59 93 133
58 92 130
60 95 130
60 94 136
60 95 133
60 95 138
59 93 126
59 93 139
60 95 141
59 93 133
58 91 122
58 91 125
58 91 124
69 95 108
118 126 0
107 116 0
126 132 0
115 123 0
118 124 0
103 109 0
121 129 0
104 109 0
117 122 0
110 116 0
117 124 0
121 127 0
119 125 0
110 114 0
108 112 0
123 129 0
118 124 0
118 123 0
116 121 0
108 113 0
109 110 0
116 117 0
112 114 0
121 123 0
113 117 0
112 114 0
115 115 0
106 105 0
120 124 0
107 106 0
118 117 0
115 119 0
122 124 0
124 125 0
119 117 0
130 129 0
109 108 0
113 115 0
118 117 0
114 116 0
121 121 0
117 115 0
114 113 0
110 112 0
117 116 0
119 116 0
123 122 0
130 130 0
119 116 0
127 125 0
129 127 0
126 124 0
122 120 0
130 128 0
127 126 0
124 124 0
131 131 0
127 125 0
133 132 0
139 140 0
134 135 0
135 132 0
138 135 0
135 135 0
137 136 0
142 145 0
132 132 0
132 132 0
140 142 0
140 139 0
138 139 0
142 144 0
138 139 0
138 140 0
139 141 0
137 139 0
149 150 0
142 143 0
154 159 0
147 150 0
152 156 0
135 137 0
146 150 0
152 157 0
149 151 0
150 152 0
151 157 0
148 152 0
150 154 0
153 161 0
151 156 0
149 154 0
160 169 0
156 163 0
160 168 0
155 164 0
152 160 0
158 164 0
157 167 0
152 160 0
154 162 0
155 164 0
157 166 0
160 169 0
160 169 0
158 166 0
164 175 0
157 168 0
159 169 0
162 174 0
161 172 0
162 174 0
164 175 0
165 178 0
164 175 0
163 176 0
158 171 0
163 175 0
164 177 0
163 179 0
163 177 0
168 184 0
162 176 0
164 179 0
165 180 0
162 178 0
166 183 0
167 184 0
165 185 0
166 182 0
168 185 0
164 180 0
166 180 0
164 179 0
165 182 0
160 176 0
167 182 0
165 179 0
166 184 0
167 187 0
167 186 0
166 185 0
175 198 67
176 200 108
172 196 57
175 199 67
175 198 57
176 199 95
170 194 67
172 195 62
173 196 62
176 199 88
176 199 76
173 198 80
174 197 67
176 200 88
173 197 92
173 197 76
172 196 80
172 196 57
174 197 72
175 198 51
173 197 80
174 198 72
173 197 51
174 198 51
174 198 92
173 197 72
175 199 80
174 198 67
173 197 62
174 197 57
171 194 76
172 197 76
170 193 44
173 197 76
171 194 72
172 195 67
173 197 72
176 199 88
173 196 67
174 197 62
170 194 57
175 198 0
171 195 67
171 195 72
172 196 84
169 192 57
173 197 72
173 197 72
174 198 72
173 197 76
169 192 57
169 192 57
172 195 72
170 193 51
170 194 76
171 194 88
172 195 62
168 191 44
170 194 67
172 196 84
172 196 67
172 195 88
168 192 62
174 198 84
168 191 57
173 197 76
169 192 80
173 197 80
170 194 62
173 197 92
171 196 92
168 192 74
104 131 144
98 126 152
103 131 155
88 117 149
98 126 147
89 118 140
86 116 149
93 122 149
104 131 154
93 121 162
91 121 163
106 134 157
98 126 147
99 126 158
108 134 151
104 131 161
103 129 147
103 130 154
96 125 161
108 134 152
111 137 156
93 122 155
100 127 160
107 133 163
88 119 157
88 117 142
80 112 169
74 107 178
68 103 177
89 119 185
82 113 181
68 102 171
82 113 180
84 114 175
74 107 174
79 110 174
84 114 174
87 116 177
79 110 166
82 113 173
61 97 165
62 98 164
62 98 166
61 97 162
63 99 162
61 97 164
61 97 157
60 96 154
62 98 168
60 96 158
60 95 155
61 96 159
62 96 143
66 100 151
62 96 144
60 95 142
64 98 147
59 94 147
62 97 147
61 96 149
59 95 149
60 96 151
61 96 153
60 95 149
60 96 145
61 96 153
62 97 157
60 96 149
61 96 150
61 96 157
60 95 143
59 94 144
61 96 149
62 97 158
60 95 146
61 97 150
61 96 148
59 93 140
61 97 153
60 96 141
60 96 151
59 94 147
61 97 152
60 96 145
61 97 152
61 96 151
61 96 149
61 97 151
61 97 152
61 97 156
61 96 148
61 96 154
61 97 151
61 96 153
61 97 153
60 96 151
60 96 155
61 97 152
61 96 153
61 96 148
61 97 154
61 96 156
61 97 154
61 97 148
62 98 157
61 97 155
60 96 142
62 97 153
61 96 147
61 97 153
61 97 150
62 98 160
61 96 149
61 97 149
61 97 151
61 96 152
62 98 160
61 97 152
61 97 149
59 94 135
62 98 162
60 96 150
60 95 139
62 97 148
61 97 150
62 98 158
60 96 145
60 96 145
60 95 149
61 97 154
60 96 143
61 96 147
61 96 153
61 97 152
61 96 143
61 97 154
62 97 155
62 97 150
60 96 148
61 96 143
61 96 144
61 96 145
61 96 150
62 97 151
60 95 145
60 96 139
61 96 145
60 94 134
61 97 149
61 96 151
61 97 149
60 96 144
61 96 142
61 96 144
60 96 137
61 96 147
60 95 143
60 96 142
61 96 147
61 96 145
61 95 144
61 96 145
60 94 139
61 96 144
60 95 139
60 95 135
59 93 128
61 95 144
61 96 141
61 96 137
60 95 131
61 96 142
60 94 142
60 94 130
59 94 133
60 95 133
60 94 133
58 92 120
59 93 133
60 95 139
60 94 138
58 93 124
57 90 133
58 91 120
59 92 119
101 115 72
126 135 0
123 128 0
130 139 0
122 131 0
120 130 0
116 125 0
118 126 0
120 127 0
113 120 0
115 122 0
117 122 0
112 118 0
132 138 0
127 134 0
120 128 0
117 123 0
120 126 0
117 125 0
121 129 0
120 123 0
129 136 0
116 120 0
119 120 0
118 122 0
120 126 0
114 117 0
119 123 0
120 121 0
116 115 0
130 131 0
131 133 0
119 120 0
122 122 0
121 122 0
115 115 0
122 123 0
119 120 0
113 115 0
125 125 0
121 119 0
126 128 0
124 127 0
115 116 0
117 115 0
122 123 0
117 117 0
121 120 0
127 125 0
124 124 0
122 121 0
131 129 0
124 123 0
129 131 0
126 125 0
134 133 0
135 136 0
135 135 0
135 136 0
139 138 0
128 128 0
136 139 0
132 131 0
138 141 0
133 134 0
136 137 0
132 132 0
137 138 0
135 134 0
133 133 0
143 146 0
149 152 0
143 147 0
134 133 0
136 136 0
142 146 0
142 142 0
144 144 0
145 147 0
143 146 0
146 148 0
147 154 0
150 152 0
148 153 0
150 157 0
152 156 0
156 163 0
144 148 0
149 151 0
154 160 0
154 161 0
161 170 0
148 155 0
149 156 0
158 167 0
152 161 0
155 162 0
156 164 0
162 175 0
159 170 0
157 166 0
156 166 0
160 171 0
161 174 0
163 175 0
159 170 0
158 170 0
165 178 0
163 174 0
159 171 0
163 176 0
163 177 0
162 175 0
162 173 0
160 173 0
163 177 0
165 178 0
166 180 0
166 179 0
164 178 0
163 178 0
165 180 0
165 179 0
167 184 0
166 178 0
160 175 0
166 182 0
164 179 0
163 179 0
165 182 0
168 185 0
170 187 0
164 181 0
168 187 0
167 184 0
165 181 0
166 183 0
169 188 0
165 181 0
168 186 0
165 181 0
166 184 0
168 184 0
176 200 84
172 196 57
173 197 84
175 199 88
174 197 62
173 196 51
172 197 84
173 197 80
174 197 72
174 198 67
175 198 80
173 197 62
174 198 67
173 197 76
172 196 51
176 199 67
173 197 67
175 198 76
169 193 57
173 197 76
176 199 80
173 196 62
172 196 72
174 198 67
170 194 62
173 196 67
173 196 72
171 195 62
174 199 88
175 198 67
175 199 80
172 195 57
172 196 62
173 197 76
173 197 84
168 193 76
167 191 80
169 192 80
174 198 88
174 197 62
168 191 44
174 197 80
172 195 57
171 194 72
174 196 67
171 196 62
168 192 67
170 193 67
171 194 72
171 195 80
172 195 51
170 195 84
170 194 72
174 198 67
167 191 72
172 196 84
171 195 72
172 197 72
172 196 62
170 194 67
175 198 72
172 196 57
175 198 88
172 196 72
173 197 76
171 194 76
172 197 88
166 189 80
169 193 76
170 193 76
172 195 72
165 189 67
129 154 114
97 125 148
89 119 151
87 116 143
94 123 157
93 121 159
103 131 163
105 133 155
97 125 151
106 133 156
79 110 145
99 127 154
107 133 151
90 120 156
96 124 154
107 134 160
89 118 152
105 132 165
111 137 159
107 133 152
109 136 147
102 129 157
97 125 155
111 137 155
99 127 158
100 127 152
81 112 162
90 120 173
76 109 181
73 107 177
84 115 184
84 115 181
80 111 181
71 105 173
79 111 179
77 109 174
77 109 175
85 115 175
73 106 165
79 110 170
80 111 171
61 98 167
61 97 158
62 98 164
60 96 160
61 97 159
62 98 169
61 97 157
63 98 156
60 95 152
61 97 156
62 97 149
61 96 155
67 101 145
62 96 154
60 95 149
63 97 149
59 94 148
61 95 137
60 95 142
61 96 144
60 95 143
61 96 151
59 94 146
60 96 154
59 94 136
61 97 152
61 96 142
59 94 151
59 94 149
60 95 150
60 96 142
60 95 147
62 98 156
60 95 150
60 95 143
61 97 152
60 95 147
60 95 151
60 96 147
60 96 153
61 97 157
61 96 152
62 98 159
60 95 149
61 96 142
61 96 154
62 98 164
60 96 150
61 96 152
60 95 148
60 96 148
61 96 148
61 97 152
61 97 159
60 95 150
61 97 155
60 95 139
62 98 156
61 97 152
61 96 153
60 95 137
61 96 152
60 96 151
60 95 145
61 97 150
60 95 145
61 97 155
62 97 152
62 98 157
60 95 145
60 95 147
62 97 156
61 96 148
61 96 150
61 96 137
61 96 152
62 98 153
61 97 153
62 98 153
60 96 144
62 97 149
61 97 149
59 94 135
62 97 149
62 98 156
61 96 156
61 96 145
62 97 150
61 97 147
61 96 142
62 98 152
62 97 153
61 97 148
61 96 147
61 96 150
60 95 144
61 96 150
61 96 151
62 98 153
62 98 156
61 96 144
61 97 147
62 98 149
61 97 154
62 97 150
61 96 147
61 97 151
61 96 148
62 97 153
61 96 144
60 95 140
61 96 142
61 95 140
62 97 150
60 95 137
61 96 150
60 95 131
60 95 142
61 96 143
61 96 141
60 96 141
60 96 139
60 95 134
60 94 137
60 94 134
62 97 147
60 95 142
61 96 143
59 94 130
60 94 128
60 95 137
60 94 143
61 96 144
60 94 137
61 96 143
59 93 125
59 94 128
60 95 128
59 93 125
59 93 125
59 92 125
58 90 123
60 94 136
68 95 112
122 133 0
120 128 0
130 141 0
118 125 0
119 128 0
120 128 0
125 133 0
124 131 0
117 123 0
116 124 0
114 123 0
117 123 0
116 120 0
129 138 0
122 131 0
132 138 0
121 127 0
120 125 0
113 118 0
118 121 0
121 124 0
128 132 0
130 134 0
130 133 0
124 127 0
115 119 0
120 126 0
118 124 0
122 122 0
108 109 0
118 120 0
115 114 0
114 116 0
119 118 0
124 128 0
117 119 0
115 119 0
123 123 0
125 126 0
122 124 0
121 122 0
113 111 0
136 142 0
123 121 0
123 126 0
130 130 0
127 129 0
129 125 0
136 136 0
124 122 0
123 121 0
123 125 0
129 129 0
131 134 0
136 136 0
131 133 0
127 127 0
130 129 0
138 143 0
140 142 0
124 121 0
138 139 0
142 146 0
129 128 0
143 146 0
142 142 0
146 149 0
137 138 0
135 135 0
140 139 0
142 143 0
138 141 0
137 140 0
144 149 0
138 139 0
144 148 0
147 152 0
146 152 0
147 152 0
149 154 0
140 142 0
148 152 0
150 157 0
151 157 0
157 164 0
151 159 0
155 160 0
150 155 0
158 166 0
147 152 0
150 156 0
157 164 0
154 161 0
153 160 0
153 160 0
153 160 0
154 163 0
159 168 0
159 167 0
160 171 0
163 173 0
154 162 0
157 169 0
161 173 0
159 169 0
164 177 0
159 171 0
158 172 0
161 174 0
161 171 0
161 174 0
164 175 0
166 180 0
163 176 0
162 172 0
161 172 0
164 178 0
159 169 0
166 180 0
160 171 0
162 177 0
161 175 0
170 185 0
161 175 0
165 182 0
165 180 0
165 181 0
167 181 0
162 175 0
165 181 0
164 180 0
168 187 0
166 183 0
161 177 0
169 188 0
164 178 0
165 182 0
165 182 0
164 180 0
169 186 0
163 181 0
162 177 0
165 182 0
176 199 51
174 198 67
173 197 51
175 197 44
172 196 67
173 197 67
171 195 72
174 198 80
175 199 72
172 195 67
176 199 88
173 197 80
171 195 67
171 195 62
171 195 72
173 197 62
170 193 80
172 195 57
171 196 84
173 197 72
172 196 72
173 196 76
173 195 72
169 193 62
173 197 80
177 200 67
170 194 76
173 197 62
173 197 84
173 197 80
174 198 72
173 197 62
170 194 57
169 194 76
172 195 51
173 197 102
173 198 84
170 195 80
174 197 62
173 197 72
170 194 57
174 198 51
174 197 76
174 198 84
172 197 76
168 192 62
172 196 44
170 194 72
172 195 57
169 192 76
170 193 67
171 195 72
169 192 67
172 195 67
172 196 84
172 196 84
170 193 72
171 195 84
171 195 62
168 192 76
165 189 80
170 194 99
166 189 76
173 197 88
170 193 67
168 191 62
168 192 76
169 191 76
171 195 67
176 199 84
169 193 72
174 197 72
170 194 86
106 133 148
95 124 144
88 117 144
103 131 157
88 116 143
93 121 149
85 115 139
92 121 150
97 125 156
89 119 154
95 122 148
95 123 149
89 117 144
98 126 150
94 122 152
87 116 147
104 131 161
105 132 158
100 128 153
96 125 158
92 121 158
109 136 155
98 126 151
112 137 166
108 134 151
88 118 159
79 111 162
85 114 161
80 111 172
86 117 185
76 109 181
65 101 173
81 112 174
68 102 169
83 113 177
85 115 181
74 107 175
77 108 172
88 117 181
85 115 172
80 111 168
62 98 168
62 98 160
60 96 163
61 97 158
61 97 158
60 96 161
61 97 159
60 95 154
61 97 153
61 97 158
61 96 154
63 98 155
67 102 153
61 96 148
71 104 147
64 98 139
67 101 144
58 93 147
59 93 143
59 94 143
60 95 147
59 94 141
61 97 151
60 95 141
60 95 154
59 94 151
59 94 141
59 94 141
60 95 137
61 97 157
60 95 145
59 94 153
60 96 150
61 97 156
62 97 153
60 95 144
60 95 149
60 95 145
61 97 158
59 94 151
60 96 151
61 97 148
60 96 149
60 95 148
60 96 145
60 95 144
60 94 139
61 97 157
60 96 144
61 96 147
61 97 151
60 95 146
61 96 154
61 96 150
60 95 144
61 97 157
60 96 145
61 97 155
61 96 142
62 97 150
62 97 156
61 97 156
60 96 144
62 97 153
61 97 148
61 97 147
61 97 152
61 96 147
61 97 152
60 96 141
62 97 151
62 98 159
60 96 148
61 97 156
61 97 150
61 97 150
60 96 147
61 97 149
61 96 144
60 96 145
61 96 145
61 96 152
61 96 142
61 96 147
62 97 156
60 95 145
61 97 153
61 96 151
62 97 156
62 97 150
61 96 143
61 96 144
61 97 150
62 97 154
61 97 152
62 97 151
62 98 156
61 97 152
62 98 158
61 96 144
61 96 147
60 96 135
61 97 149
62 98 154
61 96 147
60 95 143
61 97 149
61 96 141
60 95 145
61 96 149
61 96 143
61 96 147
61 96 145
60 95 140
61 96 149
61 96 145
61 96 141
61 96 135
60 95 133
59 94 136
60 94 136
60 94 133
60 94 134
60 95 139
60 94 142
60 94 140
60 94 130
60 94 136
60 94 129
58 92 128
60 95 131
60 94 131
60 95 141
59 92 125
59 92 128
59 92 129
60 94 130
58 92 119
59 92 126
57 90 118
58 91 128
58 91 126
98 116 81
125 134 0
118 128 0
121 129 0
117 127 0
123 133 0
120 129 0
124 133 0
123 132 0
124 135 0
115 121 0
122 132 0
127 133 0
126 133 0
120 125 0
124 131 0
116 124 0
123 130 0
112 118 0
119 125 0
124 132 0
114 120 0
111 115 0
128 135 0
113 116 0
121 124 0
116 119 0
120 128 0
117 123 0
124 129 0
123 127 0
118 119 0
117 119 0
127 131 0
121 124 0
121 123 0
124 126 0
120 124 0
120 121 0
124 125 0
122 123 0
123 124 0
126 129 0
126 129 0
124 121 0
116 117 0
132 131 0
134 138 0
126 127 0
127 128 0
136 137 0
133 132 0
135 138 0
130 130 0
125 125 0
124 123 0
142 146 0
128 128 0
138 141 0
132 134 0
135 136 0
132 131 0
139 141 0
132 135 0
132 133 0
140 144 0
141 143 0
134 136 0
133 133 0
140 143 0
151 156 0
152 156 0
150 150 0
147 153 0
139 140 0
148 153 0
141 144 0
142 145 0
147 152 0
148 152 0
147 152 0
150 154 0
152 159 0
152 158 0
152 157 0
147 152 0
151 158 0
155 162 0
153 159 0
152 158 0
155 164 0
154 161 0
154 160 0
153 162 0
155 163 0
156 165 0
153 162 0
152 160 0
156 163 0
156 163 0
156 167 0
158 169 0
154 164 0
160 171 0
159 171 0
165 177 0
160 171 0
160 170 0
158 172 0
162 175 0
158 167 0
161 172 0
164 178 0
161 173 0
162 174 0
158 169 0
163 179 0
159 172 0
164 178 0
165 181 0
163 176 0
162 177 0
164 178 0
158 173 0
163 179 0
167 185 0
165 178 0
164 178 0
165 179 0
166 180 0
167 183 0
163 177 0
161 177 0
169 187 0
170 188 0
167 185 0
165 181 0
170 187 0
167 185 0
167 183 0
165 181 0
165 181 0
168 184 0
167 184 0
171 195 67
173 197 62
176 199 88
172 195 51
172 196 57
173 197 62
175 197 51
174 197 62
176 200 88
175 198 72
170 193 44
170 194 51
171 195 67
174 197 67
174 198 84
172 195 67
174 199 76
173 197 67
173 196 72
171 195 51
171 194 76
176 200 92
171 195 67
170 194 76
172 196 57
171 195 72
173 196 67
172 196 72
170 195 92
176 199 88
174 197 76
171 195 72
168 191 76
174 198 88
173 196 88
170 194 80
172 197 67
173 197 44
172 195 72
169 193 80
171 196 62
173 198 80
167 190 44
170 193 80
173 196 80
172 196 72
171 194 76
170 193 92
175 199 84
173 197 84
173 197 84
169 193 76
171 195 92
169 192 57
170 194 57
172 195 51
169 193 72
171 194 72
170 193 84
165 189 57
170 193 62
168 191 72
171 194 80
170 194 67
172 195 57
171 194 76
172 196 102
171 194 51
172 195 67
172 195 62
170 193 102
167 191 62
172 195 80
125 150 128
93 121 151
85 115 151
89 118 142
107 134 153
92 120 136
93 121 149
98 126 150
95 123 156
96 124 143
88 117 137
97 125 159
97 125 156
92 121 154
104 130 157
102 129 139
92 122 162
90 119 153
99 125 149
83 113 155
101 128 147
99 127 161
103 130 153
94 122 148
109 135 154
97 125 155
89 118 147
88 116 148
86 116 165
74 107 174
71 105 176
67 102 173
79 111 179
77 109 179
80 111 179
82 113 176
70 104 169
80 111 173
80 111 179
79 109 165
74 106 164
68 102 168
61 98 164
62 98 165
62 98 164
63 99 162
61 97 163
62 97 156
61 96 157
62 98 159
62 98 157
60 96 158
61 96 150
62 97 155
62 97 154
66 100 139
66 99 137
66 99 144
65 99 146
59 94 148
60 95 144
59 94 146
60 95 145
60 96 149
60 95 151
59 94 151
60 95 140
61 97 151
61 96 147
60 95 144
59 94 133
61 96 149
60 95 147
60 95 145
60 96 149
60 95 144
60 96 148
61 97 156
59 95 141
60 96 144
61 96 143
59 94 144
60 96 148
59 94 139
61 97 151
61 96 150
58 92 131
62 98 158
61 96 144
61 97 156
61 96 149
61 96 149
61 96 152
61 97 152
62 97 158
61 96 149
60 95 143
59 94 136
61 96 149
61 96 153
61 97 151
61 96 151
61 97 155
60 96 143
61 96 145
61 97 153
61 96 149
62 97 152
61 96 148
61 97 152
62 98 155
59 94 143
62 97 151
61 96 152
61 97 149
60 95 151
61 97 154
61 96 143
60 95 144
62 98 151
61 96 142
61 97 154
60 95 142
61 96 144
61 96 153
61 97 150
62 97 150
61 97 151
61 97 148
61 97 150
62 98 159
62 97 145
62 98 153
61 96 144
62 97 149
61 97 152
61 96 150
59 94 140
61 97 148
61 96 143
61 96 149
61 96 144
61 96 144
62 97 155
61 97 152
60 95 133
60 95 133
60 95 140
61 96 143
61 96 139
60 95 142
60 95 142
60 95 143
61 97 149
61 96 149
62 98 151
61 96 141
60 95 136
60 95 144
61 96 151
61 96 147
60 95 140
61 96 142
61 96 143
60 94 134
60 95 141
62 97 145
61 96 140
59 95 141
60 94 141
59 94 129
61 95 140
59 93 124
58 92 129
61 95 141
60 94 127
58 92 122
58 92 122
57 90 121
59 93 121
58 92 119
58 91 123
59 92 126
114 124 37
123 133 0
124 133 0
124 133 0
126 135 0
120 129 0
110 117 0
121 129 0
120 130 0
114 119 0
125 134 0
114 121 0
111 120 0
119 127 0
121 126 0
119 126 0
125 131 0
124 129 0
110 116 0
124 129 0
130 134 0
125 131 0
127 131 0
124 129 0
127 133 0
119 126 0
131 136 0
114 116 0
129 137 0
118 121 0
123 129 0
129 135 0
121 124 0
128 129 0
114 116 0
123 127 0
122 126 0
123 128 0
127 131 0
126 130 0
132 135 0
124 128 0
129 134 0
132 133 0
118 115 0
124 127 0
129 129 0
134 138 0
118 117 0
127 128 0
136 139 0
134 134 0
119 122 0
133 133 0
131 135 0
124 127 0
131 134 0
136 139 0
129 129 0
137 139 0
134 138 0
137 138 0
141 142 0
130 131 0
142 142 0
135 136 0
145 148 0
134 135 0
139 140 0
144 148 0
141 146 0
144 149 0
140 138 0
144 145 0
149 152 0
147 152 0
147 152 0
140 143 0
152 158 0
144 147 0
147 152 0
150 157 0
146 153 0
147 156 0
150 155 0
145 149 0
148 153 0
149 153 0
151 158 0
151 157 0
158 169 0
156 165 0
154 162 0
159 165 0
152 160 0
161 171 0
157 166 0
159 170 0
162 174 0
157 166 0
157 169 0
160 169 0
159 171 0
160 173 0
158 170 0
160 172 0
166 179 0
158 167 0
161 172 0
157 167 0
157 165 0
162 173 0
160 173 0
163 180 0
162 177 0
156 169 0
166 179 0
161 175 0
159 170 0
166 180 0
162 176 0
163 177 0
165 181 0
168 184 0
164 177 0
163 180 0
168 184 0
165 182 0
166 182 0
161 176 0
162 178 0
162 176 0
163 178 0
167 185 0
166 184 0
166 182 0
165 183 0
169 186 0
164 181 0
166 185 0
168 186 0
166 185 0
167 186 0
168 185 0
177 200 80
177 200 88
172 195 51
176 200 80
176 198 76
173 197 57
173 197 80
172 195 76
174 198 57
173 197 57
173 197 62
172 196 67
175 199 76
172 197 88
171 194 44
174 199 108
170 193 72
171 195 72
170 194 67
173 196 72
174 197 57
172 196 67
174 197 57
171 194 84
171 195 51
171 196 80
169 194 80
171 193 51
169 192 57
170 194 67
170 194 67
173 196 67
171 195 84
172 197 67
172 195 51
174 198 88
172 195 84
171 195 57
171 194 62
170 193 67
172 196 62
170 193 84
171 195 80
170 194 62
168 193 51
173 197 80
169 193 76
169 192 57
169 193 76
173 197 67
172 195 62
172 197 88
172 194 72
170 194 67
171 195 72
173 196 62
172 195 67
168 192 76
172 196 80
171 194 76
168 191 62
167 191 84
170 194 76
172 196 88
171 194 72
171 195 76
166 189 51
169 192 51
172 196 57
170 193 67
168 191 84
169 192 62
171 195 84
161 184 92
84 114 145
99 126 142
92 120 148
93 122 156
87 117 147
94 123 149
91 121 154
89 118 155
88 118 150
91 120 151
104 132 158
91 119 149
95 123 148
88 117 155
108 134 152
93 121 161
102 130 147
90 118 142
101 129 155
101 128 148
96 124 152
101 128 156
105 131 159
114 140 168
100 128 165
102 129 170
93 121 158
93 121 155
88 117 159
83 113 167
86 117 185
82 113 179
71 105 175
69 103 173
71 104 167
74 106 172
80 111 175
74 107 171
75 107 173
80 111 171
90 118 170
77 109 166
61 97 163
62 98 165
61 97 164
61 97 161
61 97 159
60 96 150
64 100 169
61 96 155
60 95 144
61 96 149
61 96 156
59 93 148
63 98 154
61 96 149
65 99 144
60 95 155
64 96 131
64 98 154
59 94 146
61 97 163
60 96 148
60 96 148
60 96 150
60 96 151
59 94 147
60 95 137
60 95 144
60 95 145
60 96 151
61 96 151
59 94 148
60 96 154
60 95 143
60 96 153
60 95 150
60 95 143
61 97 150
62 97 152
60 96 153
61 96 151
62 97 157
61 97 151
60 96 145
60 95 148
61 96 147
60 96 148
60 95 142
61 96 144
61 96 145
61 96 143
61 97 150
60 95 139
61 97 150
61 96 150
62 97 153
61 97 154
61 97 154
60 96 147
62 97 149
60 95 148
62 98 152
60 96 143
61 96 152
62 98 156
61 96 145
60 96 147
62 97 153
61 96 153
61 96 150
61 96 142
61 96 149
61 96 149
60 96 140
61 96 140
61 97 153
62 97 152
61 96 148
61 96 149
62 97 151
61 96 149
62 97 149
60 94 138
61 97 149
61 96 141
61 96 140
62 97 154
61 97 154
61 97 153
61 97 148
61 96 144
61 96 145
61 97 150
62 97 155
60 95 143
62 97 149
62 97 151
62 97 150
60 95 143
63 98 153
61 96 145
59 94 131
61 96 141
62 97 151
61 96 145
61 96 147
60 96 148
60 96 144
60 96 139
60 96 144
60 95 143
60 96 142
61 95 139
60 95 140
60 95 135
61 96 141
60 95 137
61 96 143
59 94 137
60 94 133
59 93 135
62 97 148
60 94 129
60 94 129
60 95 137
59 93 129
60 94 135
60 95 139
59 94 134
60 95 135
60 94 128
58 93 125
60 94 128
60 94 131
60 95 137
59 93 125
59 93 123
58 92 116
58 90 115
58 91 120
89 105 76
118 131 0
118 127 0
121 130 0
120 132 0
128 139 0
129 137 0
129 137 0
125 133 0
134 145 0
111 118 0
121 129 0
117 123 0
123 133 0
117 124 0
118 126 0
122 131 0
124 129 0
129 141 0
115 121 0
113 121 0
109 116 0
122 129 0
127 131 0
130 137 0
115 116 0
125 132 0
119 123 0
126 131 0
128 130 0
124 129 0
127 131 0
116 119 0
120 122 0
112 112 0
126 130 0
127 131 0
131 134 0
124 126 0
120 121 0
130 134 0
124 127 0
131 135 0
127 131 0
130 131 0
131 135 0
135 138 0
130 133 0
131 132 0
133 135 0
131 133 0
130 135 0
131 133 0
136 138 0
126 129 0
127 129 0
137 136 0
133 135 0
132 134 0
133 133 0
130 130 0
139 141 0
136 136 0
138 142 0
142 144 0
135 134 0
141 145 0
140 142 0
145 147 0
138 138 0
141 141 0
144 149 0
149 155 0
146 152 0
145 148 0
140 144 0
143 149 0
144 149 0
145 148 0
148 153 0
151 156 0
148 152 0
145 150 0
148 155 0
145 152 0
157 161 0
149 156 0
153 163 0
153 158 0
148 155 0
152 157 0
153 160 0
155 162 0
150 156 0
157 166 0
156 167 0
158 164 0
156 165 0
151 160 0
154 163 0
159 170 0
156 165 0
159 171 0
159 170 0
160 171 0
153 165 0
162 176 0
155 164 0
161 173 0
160 170 0
163 177 0
162 174 0
162 175 0
157 167 0
161 173 0
158 170 0
164 176 0
162 174 0
163 177 0
168 182 0
166 182 0
162 179 0
162 176 0
165 177 0
162 174 0
165 179 0
164 180 0
167 181 0
168 185 0
166 183 0
164 181 0
165 180 0
166 180 0
163 180 0
167 183 0
169 188 0
165 181 0
164 181 0
163 180 0
163 179 0
171 188 0
164 180 0
170 187 0
167 182 0
166 184 0
175 199 84
173 197 80
174 199 80
173 197 67
175 198 67
174 198 84
175 198 51
172 196 67
173 197 51
170 194 57
174 197 72
173 198 95
176 200 95
174 197 95
173 197 88
174 198 51
172 196 76
170 193 67
174 198 92
172 197 67
168 192 44
170 194 67
174 198 67
171 195 67
175 199 84
175 199 88
170 194 67
171 196 80
173 196 67
171 194 62
172 195 84
172 196 76
170 192 51
173 196 76
168 192 62
168 191 67
173 197 62
169 193 76
171 195 51
172 196 44
169 194 84
169 193 72
173 197 84
170 193 57
171 195 80
169 193 92
171 196 76
171 194 76
173 197 95
172 196 80
169 193 92
171 194 57
169 193 67
167 190 84
170 195 92
167 191 80
170 193 67
170 194 76
169 193 62
169 193 62
167 191 62
171 195 76
173 196 95
167 190 57
168 191 62
168 191 62
172 196 88
166 188 57
168 190 76
174 198 84
169 192 88
168 192 76
167 190 57
168 192 80
116 142 128
92 120 137
91 120 149
101 129 156
95 123 142
83 113 148
84 114 156
104 132 145
95 123 139
91 120 153
87 117 157
100 128 158
84 114 142
97 125 157
97 125 158
112 138 162
90 119 153
97 125 155
103 130 140
105 131 160
103 130 163
103 130 162
93 121 151
108 135 151
105 132 157
102 128 152
94 122 156
92 121 154
85 115 161
99 127 164
81 112 169
74 107 176
79 111 178
81 112 174
77 109 176
74 107 172
77 109 171
85 116 181
77 109 172
80 111 174
79 109 165
71 104 167
65 100 163
61 97 167
61 97 158
60 96 151
62 97 161
62 97 148
61 97 151
60 95 155
59 94 149
60 95 144
63 98 157
62 96 148
63 97 146
66 99 149
64 98 148
67 100 147
66 100 147
63 97 139
59 93 141
60 95 143
60 95 145
61 97 156
61 96 152
60 94 150
60 95 152
60 96 149
60 95 150
59 94 142
60 95 149
59 95 145
59 93 139
60 96 146
60 96 145
61 96 144
61 97 157
61 96 148
61 96 147
61 96 150
60 95 144
61 96 155
62 98 156
61 96 149
60 95 140
61 97 153
60 95 151
61 97 157
61 97 158
60 95 145
61 96 148
60 94 142
61 96 150
61 96 142
60 95 137
61 96 147
61 96 147
62 97 149
61 97 152
61 97 148
61 96 145
61 96 141
62 98 156
61 97 152
61 96 136
61 96 149
61 96 139
62 98 156
60 95 147
61 96 144
61 97 149
59 94 143
60 95 139
61 96 144
60 96 144
62 98 158
61 97 151
62 97 153
61 97 148
62 97 141
61 96 149
61 96 142
61 96 144
61 96 147
61 97 150
62 97 152
60 95 139
61 96 143
61 96 140
60 95 139
61 97 143
62 96 139
60 95 143
61 97 145
61 97 149
60 95 139
61 96 148
61 96 147
61 96 141
59 94 134
60 95 143
60 95 140
61 96 147
61 96 139
60 95 135
60 96 147
61 96 143
61 96 145
60 94 141
61 96 139
61 97 152
60 95 135
60 95 136
61 96 149
61 97 150
60 95 136
61 96 140
61 96 148
62 96 144
59 93 124
60 94 133
59 93 130
60 95 144
60 95 137
60 94 132
60 94 133
61 96 134
60 95 139
59 93 123
60 95 135
59 93 134
59 93 131
59 93 133
59 93 128
57 91 124
59 93 133
59 93 125
59 93 125
59 93 125
58 90 116
57 89 118
105 115 31
118 126 0
116 125 0
124 134 0
124 132 0
122 128 0
117 128 0
113 121 0
121 130 0
113 122 0
110 119 0
126 135 0
121 130 0
110 118 0
129 136 0
115 123 0
124 132 0
114 123 0
115 121 0
120 126 0
129 134 0
112 117 0
124 128 0
109 112 0
122 126 0
129 136 0
118 126 0
118 121 0
119 124 0
119 124 0
130 135 0
128 133 0
115 122 0
121 122 0
123 130 0
127 131 0
129 132 0
118 123 0
130 135 0
125 131 0
124 125 0
128 131 0
131 136 0
133 140 0
125 127 0
128 128 0
123 127 0
133 133 0
135 137 0
122 125 0
129 131 0
132 133 0
132 134 0
136 137 0
138 140 0
138 145 0
135 138 0
135 137 0
138 141 0
132 135 0
126 127 0
130 135 0
147 152 0
141 144 0
140 142 0
130 135 0
141 147 0
142 145 0
147 150 0
138 142 0
140 144 0
141 148 0
146 151 0
141 144 0
144 150 0
154 161 0
146 149 0
149 151 0
146 153 0
144 147 0
153 160 0
147 153 0
154 162 0
151 158 0
148 155 0
155 163 0
155 165 0
155 164 0
152 160 0
153 163 0
155 164 0
156 164 0
150 157 0
154 163 0
156 167 0
157 167 0
153 162 0
159 170 0
155 164 0
155 167 0
159 167 0
159 170 0
159 170 0
161 175 0
156 167 0
162 174 0
158 168 0
163 176 0
162 174 0
162 173 0
160 170 0
159 173 0
159 171 0
162 178 0
161 175 0
163 178 0
161 175 0
162 175 0
161 171 0
162 175 0
165 179 0
165 180 0
161 173 0
160 174 0
162 176 0
166 180 0
166 179 0
163 179 0
163 179 0
162 176 0
163 180 0
168 183 0
165 180 0
167 186 0
164 181 0
165 180 0
170 187 0
169 186 0
162 179 0
167 184 0
167 184 0
164 180 0
168 185 0
165 181 0
161 177 0
170 194 44
173 197 72
175 199 88
173 197 51
177 200 95
175 197 84
175 198 51
176 199 57
174 198 62
173 195 67
174 199 105
170 193 51
171 196 80
177 200 84
175 198 67
168 192 57
176 200 95
173 197 62
173 196 51
172 197 95
175 198 95
171 195 62
172 195 67
174 198 72
168 192 72
170 195 80
169 193 51
171 195 72
170 194 84
172 196 92
171 195 67
172 195 76
170 195 88
171 194 80
170 194 88
172 195 57
172 197 95
172 196 76
172 195 67
174 197 84
174 197 84
172 197 62
172 196 51
169 193 67
170 193 72
166 190 76
173 196 67
167 191 62
174 197 57
170 194 88
170 194 62
168 191 72
167 190 72
169 194 76
166 189 62
170 193 72
170 194 80
169 192 76
168 191 84
169 192 44
169 193 76
165 189 67
173 196 76
172 195 51
171 194 62
164 188 80
167 190 67
166 189 72
170 193 84
171 195 84
166 189 44
171 196 92
163 186 51
171 193 76
147 170 102
99 126 142
86 115 141
94 122 152
93 121 145
83 113 143
100 128 149
82 112 149
90 119 153
89 117 141
91 120 152
93 121 147
88 117 148
92 120 149
95 123 154
91 119 149
85 113 147
86 115 152
101 128 156
106 133 147
98 126 156
103 130 154
108 134 155
94 123 151
96 124 155
118 143 149
90 119 142
99 126 148
83 112 153
90 119 156
97 125 151
92 121 164
79 111 176
65 100 167
84 114 177
79 111 177
82 113 179
87 116 174
80 110 168
92 120 176
85 115 174
82 112 168
73 105 165
61 97 153
61 97 155
61 97 161
61 97 158
61 96 160
60 95 152
60 95 148
61 97 158
61 96 157
61 96 151
61 96 158
61 97 154
65 99 153
63 98 151
59 94 148
63 97 137
61 96 143
62 97 149
59 94 145
59 93 137
59 93 136
60 95 144
60 95 153
58 93 148
61 97 151
61 96 149
60 95 146
60 94 142
60 95 140
61 96 149
60 95 145
60 95 139
59 95 146
61 96 147
61 96 150
60 95 148
61 96 154
60 95 141
60 95 150
59 94 141
61 96 149
60 95 147
61 96 145
59 94 144
60 95 144
61 96 155
61 96 145
62 98 155
62 97 155
61 97 150
59 94 138
60 95 141
61 96 149
61 97 151
61 97 155
61 96 141
61 96 144
61 96 141
60 95 141
60 95 147
60 96 143
60 95 142
61 96 145
61 97 151
62 97 153
61 97 147
60 96 147
60 95 144
61 96 150
60 96 143
62 97 143
61 97 151
60 95 137
61 96 148
62 97 150
59 94 128
61 96 145
61 96 141
59 94 143
61 96 150
60 96 148
61 96 147
61 96 142
60 95 140
61 96 143
61 97 148
61 96 143
60 96 140
61 97 150
61 96 147
60 95 131
61 95 142
60 95 139
61 96 145
60 95 144
62 97 152
62 97 152
62 98 153
60 95 142
61 96 143
61 97 147
62 97 149
60 94 139
61 96 141
60 95 137
60 95 136
61 95 139
59 93 126
61 95 149
61 95 141
60 95 141
60 95 133
60 95 135
61 96 148
60 94 135
60 95 144
61 96 143
61 96 143
60 94 126
61 96 141
60 95 137
60 94 131
61 96 141
60 95 139
60 94 139
60 94 137
60 95 136
60 94 131
58 92 124
60 95 130
59 92 122
59 93 125
58 92 117
58 91 121
57 90 120
58 92 113
57 89 120
82 103 76
110 117 0
119 131 0
124 136 0
125 135 0
113 122 0
137 148 0
130 143 0
124 133 0
123 132 0
116 122 0
118 127 0
121 126 0
129 137 0
123 131 0
131 141 0
125 134 0
116 124 0
123 129 0
123 129 0
128 135 0
132 138 0
130 139 0
113 120 0
125 134 0
127 135 0
126 134 0
129 138 0
118 122 0
130 135 0
125 130 0
114 117 0
116 119 0
124 128 0
122 128 0
124 131 0
126 129 0
123 129 0
132 138 0
125 128 0
128 132 0
139 144 0
136 140 0
120 123 0
142 145 0
131 136 0
127 131 0
124 125 0
124 125 0
130 134 0
130 132 0
118 120 0
140 145 0
133 137 0
137 140 0
144 150 0
129 133 0
135 137 0
135 135 0
138 141 0
139 144 0
141 145 0
138 141 0
129 134 0
146 147 0
134 133 0
133 136 0
141 144 0
143 148 0
148 157 0
146 149 0
142 146 0
140 144 0
145 150 0
145 149 0
146 152 0
146 149 0
149 155 0
150 158 0
148 156 0
146 152 0
144 148 0
152 159 0
146 151 0
148 157 0
151 160 0
155 163 0
154 162 0
150 158 0
156 165 0
158 166 0
151 163 0
156 167 0
158 169 0
157 166 0
155 162 0
155 164 0
156 166 0
154 163 0
155 167 0
159 170 0
155 162 0
154 163 0
158 167 0
159 168 0
161 173 0
158 165 0
159 169 0
166 180 0
162 175 0
157 170 0
159 170 0
162 175 0
163 175 0
162 176 0
160 171 0
160 174 0
164 179 0
166 181 0
159 170 0
163 179 0
166 181 0
165 180 0
164 178 0
164 179 0
169 186 0
167 182 0
166 182 0
165 181 0
161 179 0
160 175 0
162 178 0
167 181 0
165 181 0
165 181 0
164 182 0
166 184 0
164 181 0
164 181 0
168 187 0
162 177 0
167 185 0
169 188 0
167 184 0
166 184 0
168 186 0
173 197 57
175 197 57
173 197 57
174 198 102
173 197 76
172 196 92
174 198 72
173 197 67
172 196 62
172 196 72
173 197 62
166 189 62
172 197 76
173 197 57
170 194 72
173 197 88
175 199 80
172 196 72
171 195 80
171 194 67
171 194 76
172 195 72
171 195 72
171 196 84
173 197 67
172 196 67
171 194 62
169 193 72
174 197 62
173 196 72
171 194 62
170 193 36
173 197 80
170 194 84
171 195 76
166 190 67
171 195 88
171 196 72
171 195 67
169 192 92
172 196 76
171 195 67
168 192 88
173 198 111
170 194 80
170 193 62
169 193 57
167 191 62
167 192 76
169 193 72
169 193 84
170 194 72
169 192 72
172 194 51
174 198 84
171 194 67
167 192 57
168 193 76
172 195 67
170 193 44
167 192 76
167 191 72
166 190 80
169 193 72
171 195 88
171 194 88
168 192 84
167 191 72
165 188 84
164 187 51
171 194 67
171 194 62
162 185 62
172 195 80
167 191 76
107 133 128
91 119 147
85 113 136
88 116 126
88 117 138
86 115 144
96 124 141
85 114 143
86 115 150
91 120 154
101 129 158
95 122 144
95 123 147
98 126 159
91 120 153
96 123 155
95 122 141
91 119 155
96 123 144
95 122 141
98 125 140
100 127 159
100 127 163
91 119 148
120 145 165
92 121 155
108 134 150
102 129 158
78 110 150
82 113 158
89 118 163
78 109 165
82 113 178
69 103 176
74 107 178
74 107 177
82 113 173
92 120 176
87 117 175
83 113 176
83 113 177
77 108 162
78 107 162
65 99 157
61 97 158
60 96 153
63 99 162
60 95 146
64 98 153
61 96 152
60 96 153
60 96 145
60 96 154
59 95 148
60 96 152
62 97 145
60 95 150
60 96 156
66 99 153
62 97 144
60 94 139
58 93 134
60 95 148
61 96 145
60 96 145
60 96 145
60 95 148
58 93 137
60 95 150
61 96 140
59 94 135
61 97 145
60 95 137
60 95 145
61 96 146
60 95 144
61 96 147
61 97 144
60 96 150
60 95 146
59 94 138
61 96 149
61 96 148
60 95 140
60 95 147
60 95 140
61 96 149
61 97 152
61 96 143
60 95 148
61 96 143
59 94 136
61 96 151
59 93 135
61 97 149
61 97 154
61 97 153
59 94 141
60 96 143
62 97 154
60 96 147
60 95 144
61 96 149
60 96 142
61 96 147
62 98 158
60 96 145
61 96 143
60 95 145
62 97 151
61 97 149
60 95 143
62 97 142
60 95 150
61 97 150
61 96 143
60 95 143
61 96 152
61 96 147
62 97 152
62 97 153
61 96 145
60 95 139
61 96 142
60 96 141
61 97 150
62 97 151
60 95 139
60 95 140
62 97 152
62 97 148
61 96 148
61 96 143
61 96 142
61 96 145
60 95 137
61 95 139
61 96 141
60 94 140
60 95 143
61 96 142
60 95 144
60 95 137
60 94 133
59 94 131
60 95 137
60 95 141
60 94 139
60 95 137
60 95 139
61 95 141
60 95 140
61 95 136
61 95 145
62 97 147
62 96 140
59 93 140
60 94 134
58 92 129
60 94 136
60 95 134
59 94 130
61 96 141
61 96 145
61 96 148
61 95 145
60 94 136
59 93 125
59 93 129
61 95 137
58 92 114
58 91 120
59 92 122
59 92 124
58 91 121
59 94 131
56 89 111
56 88 114
63 93 110
108 119 47
130 140 0
124 135 0
115 124 0
124 134 0
121 132 0
121 130 0
128 138 0
125 136 0
118 128 0
118 128 0
118 127 0
118 126 0
120 129 0
110 120 0
124 132 0
107 118 0
119 128 0
115 125 0
127 135 0
132 139 0
132 139 0
116 123 0
125 134 0
145 155 0
136 143 0
117 124 0
112 119 0
121 128 0
120 126 0
118 123 0
128 130 0
124 130 0
126 133 0
122 128 0
131 139 0
129 137 0
118 124 0
126 128 0
127 131 0
128 137 0
127 133 0
132 136 0
129 134 0
135 142 0
131 135 0
132 138 0
133 137 0
128 131 0
136 141 0
140 146 0
137 143 0
134 140 0
123 124 0
135 142 0
133 137 0
130 137 0
133 138 0
136 141 0
133 138 0
137 143 0
142 144 0
138 144 0
140 145 0
144 153 0
135 138 0
138 142 0
138 140 0
147 152 0
151 156 0
141 146 0
140 146 0
142 147 0
142 146 0
141 148 0
142 149 0
150 156 0
139 143 0
143 150 0
149 156 0
141 150 0
149 157 0
149 155 0
149 156 0
155 163 0
149 155 0
146 154 0
152 160 0
151 159 0
151 159 0
154 162 0
155 165 0
150 155 0
155 163 0
157 166 0
160 171 0
154 165 0
156 167 0
153 163 0
156 167 0
155 165 0
161 173 0
157 167 0
153 164 0
156 166 0
161 173 0
162 174 0
164 176 0
162 175 0
159 172 0
164 176 0
159 173 0
165 180 0
159 173 0
163 177 0
159 170 0
160 173 0
159 171 0
162 180 0
166 182 0
164 179 0
163 177 0
166 183 0
165 180 0
165 182 0
161 178 0
163 178 0
166 181 0
165 180 0
167 183 0
165 181 0
163 179 0
167 183 0
164 180 0
165 182 0
168 185 0
165 182 0
165 183 0
166 185 0
167 183 0
166 181 0
162 181 0
166 181 0
162 180 0
168 185 0
170 189 0
174 198 76
172 195 88
174 197 76
170 193 51
174 199 80
171 195 72
171 195 62
172 195 67
172 196 88
172 196 44
170 193 51
174 198 80
171 194 57
173 197 76
173 197 76
170 194 76
172 196 88
171 195 44
172 195 57
172 196 67
174 198 95
169 193 76
169 192 44
175 198 80
171 195 57
171 194 84
172 196 62
171 195 44
174 197 72
170 195 80
171 196 88
170 195 76
169 193 67
168 191 44
168 192 57
169 193 67
172 195 76
169 194 80
169 193 62
171 194 67
169 192 76
170 194 67
174 197 76
172 197 92
168 192 72
169 193 72
168 192 67
169 192 72
166 189 57
169 193 67
168 191 51
169 193 57
170 193 67
169 193 72
171 195 95
166 190 67
170 193 51
167 190 88
167 192 84
167 191 72
169 193 72
170 193 76
173 196 76
163 186 62
166 189 76
165 189 84
165 189 80
166 190 88
172 195 67
165 188 95
170 194 72
167 190 84
166 190 51
165 189 76
172 195 108
147 171 108
92 121 141
94 122 144
96 124 150
87 116 142
91 119 141
94 122 149
81 111 139
94 122 145
88 116 147
79 109 147
84 113 140
100 127 143
93 121 145
99 126 152
92 121 158
90 118 146
94 121 158
101 128 155
96 124 150
88 116 158
97 124 136
104 130 165
105 131 155
106 132 142
113 138 143
111 135 142
108 134 161
78 108 144
92 121 157
82 112 147
89 118 153
72 106 171
70 104 174
74 107 177
68 103 171
85 115 179
89 118 176
75 107 170
90 118 174
69 103 165
83 113 171
71 102 158
68 101 164
66 100 160
61 97 157
62 98 162
60 96 150
62 98 151
64 99 159
59 95 151
60 95 141
59 94 141
60 96 157
63 97 149
64 98 143
62 96 140
67 101 153
59 94 136
59 94 141
64 97 137
61 96 135
60 95 145
60 95 145
59 93 141
59 94 143
61 96 149
60 95 145
60 95 145
60 95 142
60 96 155
59 93 140
59 94 141
60 95 145
59 94 144
59 94 143
60 95 145
61 97 153
58 93 135
60 95 143
61 96 148
60 95 140
61 96 137
60 95 146
61 96 154
61 96 150
60 95 142
60 96 141
61 96 147
59 94 136
59 93 133
59 94 143
61 97 151
61 97 151
61 96 143
62 97 152
60 96 142
61 96 149
60 95 141
61 96 144
61 96 145
61 97 144
60 95 145
61 96 146
61 96 150
60 95 142
61 95 139
60 95 131
62 97 150
60 95 136
61 96 147
60 95 142
62 97 152
61 97 147
61 96 144
60 95 141
61 96 142
60 95 134
60 95 136
60 95 136
61 97 152
62 97 147
60 96 144
61 96 144
61 96 141
60 96 143
61 96 154
61 96 143
60 95 134
62 97 148
59 94 143
60 95 137
60 95 133
61 96 142
61 96 148
59 94 137
60 95 133
61 97 142
60 96 141
62 97 152
61 96 143
62 98 153
62 97 147
61 96 142
60 95 131
59 94 136
59 94 136
62 97 143
62 97 145
62 97 139
59 94 134
59 94 128
62 96 142
60 95 137
60 94 134
60 94 131
58 93 128
59 94 126
60 95 141
61 95 134
60 94 137
60 94 130
60 94 129
59 93 130
60 94 133
60 95 139
61 95 141
58 92 121
61 96 141
58 93 114
59 93 124
58 91 121
59 93 131
59 93 121
59 93 124
57 90 128
57 91 117
58 91 113
95 113 68
127 141 0
118 130 0
119 130 0
120 130 0
124 132 0
113 125 0
128 138 0
123 132 0
128 139 0
122 131 0
127 137 0
120 131 0
129 136 0
128 139 0
120 129 0
123 134 0
122 130 0
124 133 0
130 138 0
122 127 0
115 124 0
115 125 0
125 132 0
125 134 0
122 128 0
133 141 0
115 120 0
129 137 0
126 134 0
122 127 0
135 142 0
131 138 0
124 132 0
122 129 0
131 141 0
128 135 0
129 137 0
129 138 0
130 134 0
131 135 0
132 137 0
134 142 0
133 136 0
131 136 0
134 138 0
136 145 0
136 144 0
137 139 0
140 145 0
131 135 0
136 140 0
144 150 0
136 143 0
135 141 0
141 148 0
128 133 0
136 140 0
141 145 0
138 144 0
143 148 0
144 150 0
139 146 0
142 147 0
135 140 0
143 149 0
144 153 0
141 145 0
140 148 0
147 155 0
140 143 0
151 159 0
147 155 0
146 151 0
143 150 0
145 151 0
143 149 0
146 150 0
147 153 0
149 156 0
151 158 0
151 157 0
153 160 0
151 157 0
155 163 0
152 160 0
152 162 0
157 166 0
152 161 0
156 164 0
152 162 0
155 162 0
155 165 0
155 162 0
150 158 0
156 166 0
151 160 0
157 169 0
163 172 0
155 168 0
157 169 0
161 171 0
156 165 0
159 169 0
158 170 0
156 165 0
157 168 0
161 175 0
160 174 0
164 178 0
165 180 0
160 169 0
163 176 0
157 169 0
161 172 0
163 176 0
165 179 0
166 183 0
162 177 0
155 165 0
163 179 0
164 180 0
162 175 0
161 175 0
166 181 0
167 183 0
167 182 0
160 174 0
163 176 0
165 183 0
165 181 0
167 182 0
167 183 0
166 181 0
167 183 0
163 177 0
166 183 0
165 182 0
168 185 0
162 178 0
168 185 0
166 183 0
165 181 0
167 187 0
166 182 0
168 186 0
163 181 0
174 197 72
173 197 84
171 194 44
176 199 92
172 195 67
175 197 36
171 196 76
174 198 76
170 194 51
175 198 62
167 192 36
173 196 67
172 196 88
174 198 88
173 196 67
172 195 88
174 198 76
172 196 84
170 195 62
174 198 88
173 196 62
171 196 67
169 193 84
169 194 84
170 194 84
173 197 84
169 193 84
174 198 84
170 194 88
169 193 80
168 192 76
173 197 67
169 194 80
169 193 72
166 190 84
169 193 62
173 197 80
168 192 72
169 193 88
167 191 67
170 194 84
169 193 80
170 193 62
170 194 76
169 193 80
170 194 57
169 194 76
167 190 62
162 187 84
168 192 72
171 195 92
168 191 44
168 192 62
166 190 67
168 191 76
169 191 36
170 193 84
171 195 84
171 194 67
170 193 62
167 190 62
169 192 67
170 193 80
168 192 76
167 190 62
167 190 72
166 189 44
168 192 80
170 193 80
169 192 62
167 191 62
168 190 72
164 187 72
167 191 62
170 193 84
172 195 88
112 137 118
86 115 141
93 121 139
80 110 127
89 118 144
100 127 152
101 129 151
78 108 143
91 119 147
105 132 157
98 127 155
97 124 146
94 121 140
87 116 151
91 118 144
91 120 145
96 123 149
84 113 151
88 117 153
103 130 152
94 122 139
103 130 149
104 130 151
101 128 158
107 133 156
104 131 147
108 134 162
101 128 151
82 112 153
94 123 162
85 115 156
92 121 155
91 119 176
77 110 180
62 98 169
79 111 175
72 106 175
85 115 173
82 112 172
86 115 173
92 120 178
75 107 172
69 101 163
69 101 158
59 95 145
60 95 151
62 98 165
63 99 161
61 97 151
61 97 158
65 100 155
62 97 155
60 95 151
60 96 151
62 96 139
66 100 150
59 95 145
62 97 146
61 97 151
62 97 145
60 95 144
61 96 145
60 96 146
59 94 140
60 95 141
59 94 145
59 94 137
59 94 139
61 97 152
59 94 148
59 94 137
58 92 134
59 94 139
59 95 141
60 96 147
61 97 157
60 95 149
61 97 154
60 96 143
60 94 143
61 96 148
61 96 144
61 96 151
61 96 148
60 95 142
60 96 140
58 93 135
61 96 151
59 94 136
61 96 149
60 96 141
61 97 151
60 95 142
61 96 149
60 96 148
62 97 150
62 97 150
60 95 136
59 94 136
59 94 143
61 96 150
61 96 144
59 95 145
60 95 143
60 95 140
59 94 130
62 97 150
62 97 149
60 95 145
61 96 147
60 95 146
61 96 148
61 96 149
61 96 143
62 97 155
60 95 147
61 97 154
60 95 137
60 96 147
61 96 139
61 97 151
61 96 145
60 95 140
61 96 143
62 97 144
61 96 141
62 97 143
60 95 130
60 95 142
61 96 145
62 97 147
61 96 147
60 95 147
62 97 148
60 95 139
60 95 139
60 95 139
59 94 141
60 95 141
60 94 133
60 95 136
62 98 154
59 94 141
61 96 139
61 96 140
60 95 141
60 94 134
59 94 139
61 96 140
60 95 137
59 94 135
61 96 140
60 95 133
60 95 137
61 96 148
59 93 126
60 94 141
60 95 139
60 94 130
61 96 145
58 92 120
58 92 121
61 96 140
59 93 134
60 95 142
59 93 134
60 94 130
58 92 123
60 94 129
59 92 129
60 94 135
59 92 121
60 94 132
59 93 124
57 90 116
58 91 125
69 98 111
110 119 18
126 137 0
117 128 0
122 131 0
121 131 0
120 132 0
127 138 0
125 136 0
117 124 0
127 137 0
121 130 0
131 142 0
119 129 0
120 129 0
122 133 0
122 129 0
131 143 0
129 138 0
133 142 0
128 137 0
127 137 0
129 137 0
118 127 0
125 134 0
130 137 0
126 135 0
125 136 0
117 125 0
132 140 0
119 126 0
121 124 0
127 138 0
129 137 0
131 138 0
127 133 0
122 129 0
117 122 0
133 141 0
121 126 0
135 141 0
126 134 0
135 142 0
140 147 0
139 144 0
133 138 0
132 139 0
136 145 0
127 134 0
130 136 0
129 137 0
134 143 0
139 144 0
143 149 0
136 144 0
126 132 0
135 139 0
142 149 0
138 143 0
135 140 0
137 141 0
139 143 0
141 148 0
149 156 0
142 149 0
143 150 0
146 152 0
141 147 0
148 149 0
144 151 0
145 152 0
146 150 0
148 152 0
150 157 0
151 160 0
142 149 0
151 160 0
150 157 0
149 155 0
143 147 0
147 156 0
149 160 0
156 166 0
150 156 0
150 156 0
153 162 0
156 166 0
153 159 0
153 160 0
151 157 0
150 159 0
148 157 0
157 167 0
158 167 0
156 165 0
153 161 0
155 164 0
154 163 0
151 163 0
158 169 0
155 166 0
154 163 0
155 166 0
159 171 0
157 169 0
162 176 0
159 171 0
156 167 0
157 170 0
159 171 0
160 174 0
161 171 0
161 173 0
163 175 0
160 175 0
161 174 0
163 178 0
162 176 0
163 176 0
161 173 0
161 174 0
162 176 0
162 176 0
163 177 0
165 181 0
164 179 0
166 183 0
164 180 0
167 183 0
166 180 0
166 180 0
162 176 0
162 177 0
167 184 0
162 177 0
164 183 0
165 183 0
172 190 0
168 184 0
163 180 0
166 184 0
164 181 0
165 182 0
164 182 0
171 189 0
168 186 0
163 182 0
165 182 0
171 195 62
172 195 57
174 197 67
171 194 51
171 194 62
173 196 57
171 195 76
172 195 67
171 195 80
169 193 62
172 195 51
174 198 80
171 195 72
169 193 88
170 194 92
172 196 72
172 197 76
172 197 92
175 199 76
174 198 88
173 197 76
172 196 67
171 195 67
167 191 57
171 195 99
171 195 44
171 195 72
170 193 84
172 196 76
171 195 76
167 190 67
173 197 67
170 194 44
171 195 67
169 193 84
171 195 51
168 192 51
171 195 51
167 191 72
168 192 62
168 193 76
167 191 62
172 195 67
172 196 84
172 195 92
165 188 62
166 190 62
163 187 67
169 193 67
167 191 62
167 191 62
168 191 67
167 191 67
170 194 76
168 192 51
170 193 92
165 189 62
165 188 62
168 191 62
167 190 72
167 191 80
168 191 51
172 195 57
171 195 88
166 190 57
167 190 62
169 193 62
164 187 72
164 188 72
164 188 62
164 187 72
162 185 67
166 191 67
170 193 88
162 185 62
170 192 57
149 172 78
87 115 126
86 115 143
84 113 140
82 111 140
92 120 137
92 120 152
94 121 144
99 125 144
103 130 163
98 125 161
88 117 141
91 120 159
90 118 147
78 109 150
86 116 145
98 126 156
86 115 149
95 124 159
110 135 158
98 125 154
101 129 160
91 119 144
89 117 158
100 127 139
100 128 158
110 135 149
89 117 144
96 124 155
86 115 160
85 115 149
88 117 152
77 108 156
91 120 169
77 109 171
82 112 175
68 103 169
90 119 181
95 123 181
80 111 173
82 112 173
78 109 171
67 100 162
74 104 157
65 100 159
61 97 156
61 97 158
63 98 152
60 96 155
60 95 143
62 97 153
60 96 157
60 96 150
59 94 141
61 95 146
62 97 145
65 99 144
65 98 140
61 95 148
62 96 149
62 95 136
61 94 131
59 94 142
59 93 137
59 93 130
59 94 143
58 92 139
59 94 133
59 93 140
60 94 139
60 95 140
59 94 137
60 95 139
59 94 142
60 95 143
60 94 144
60 95 142
60 94 141
60 95 136
60 95 143
60 94 142
59 93 139
60 95 144
59 94 146
61 96 142
62 97 153
61 96 147
60 95 148
61 96 147
61 97 150
60 95 148
61 96 142
60 95 141
61 97 151
60 95 142
60 95 141
59 94 139
61 97 148
61 96 143
60 95 145
60 95 142
61 96 140
61 96 144
60 95 139
60 96 140
61 96 142
60 95 143
61 96 151
61 96 147
61 96 141
61 96 149
61 96 145
59 94 134
59 94 130
61 97 152
61 96 147
60 95 149
61 96 148
61 97 145
61 96 150
61 97 150
60 95 135
60 95 139
60 95 135
60 95 140
61 97 145
60 95 142
61 97 148
60 95 144
61 97 149
59 93 129
61 96 141
60 95 141
61 96 143
61 96 143
60 95 137
60 95 142
60 95 140
60 94 142
61 95 142
60 95 134
60 95 130
59 94 135
61 96 147
59 94 125
61 96 147
61 96 141
61 96 143
60 95 139
60 95 137
60 95 133
61 95 140
59 94 141
60 95 139
60 95 134
59 93 130
59 94 136
60 95 129
59 94 130
60 94 131
58 93 122
58 92 117
59 93 125
60 94 128
59 93 130
58 92 107
58 92 110
58 92 121
59 93 126
58 92 121
58 91 115
59 93 122
59 92 135
59 92 126
58 90 113
57 89 114
101 118 80
127 142 0
117 129 0
130 144 0
118 129 0
127 138 0
118 126 0
129 139 0
131 143 0
118 128 0
138 149 0
118 128 0
119 129 0
127 136 0
128 140 0
119 128 0
125 136 0
129 140 0
124 134 0
120 129 0
123 135 0
124 134 0
133 142 0
125 133 0
129 136 0
125 134 0
127 137 0
129 141 0
131 139 0
135 142 0
127 137 0
122 129 0
131 142 0
126 135 0
120 128 0
137 145 0
136 144 0
135 143 0
128 137 0
122 130 0
132 140 0
130 137 0
131 139 0
133 141 0
121 128 0
135 141 0
130 136 0
130 137 0
136 141 0
138 145 0
139 146 0
146 152 0
135 139 0
137 146 0
129 133 0
147 156 0
143 148 0
137 144 0
140 147 0
148 156 0
140 145 0
140 147 0
144 152 0
134 139 0
145 151 0
148 157 0
145 152 0
140 145 0
149 157 0
141 146 0
147 157 0
143 150 0
138 145 0
143 149 0
142 149 0
142 146 0
147 155 0
145 150 0
150 158 0
152 162 0
154 161 0
148 156 0
154 159 0
154 162 0
150 158 0
153 162 0
153 160 0
151 161 0
154 163 0
155 166 0
145 154 0
157 166 0
154 164 0
155 167 0
157 168 0
154 164 0
155 165 0
156 166 0
156 166 0
160 173 0
154 168 0
162 172 0
164 179 0
160 169 0
160 173 0
153 166 0
160 173 0
165 176 0
161 174 0
161 176 0
159 171 0
164 177 0
155 163 0
161 174 0
164 175 0
159 172 0
163 175 0
164 178 0
159 174 0
162 174 0
162 176 0
162 176 0
166 183 0
166 182 0
164 179 0
160 174 0
162 176 0
164 180 0
164 178 0
163 177 0
163 181 0
159 174 0
166 182 0
164 182 0
164 181 0
164 180 0
165 180 0
166 183 0
166 182 0
167 184 0
166 181 0
166 184 0
164 183 0
168 186 0
168 187 0
166 185 0
169 187 0
164 183 0
175 199 62
172 195 62
173 197 80
173 197 80
171 195 62
171 194 76
172 196 88
174 198 76
170 194 80
174 198 84
174 198 72
168 192 67
171 194 67
170 194 72
170 194 67
170 194 62
169 193 57
171 195 95
172 196 67
171 194 67
171 195 62
169 192 80
171 195 76
167 191 92
168 192 67
170 194 92
172 197 84
165 188 51
171 196 76
168 192 25
174 197 76
169 194 92
168 193 88
172 196 67
174 197 67
169 193 57
169 193 67
169 193 67
172 196 62
174 197 80
170 193 62
169 193 72
168 192 62
170 193 62
169 193 76
173 196 84
163 186 72
169 193 67
169 192 80
164 187 57
167 190 57
166 190 72
166 190 67
170 193 80
169 192 57
170 194 76
172 196 72
164 187 57
168 191 72
168 192 67
173 194 57
166 189 62
168 191 62
168 191 72
168 192 80
164 187 80
164 188 80
170 193 72
167 190 57
168 190 62
168 192 76
170 194 80
168 191 72
166 189 51
169 193 88
167 190 84
161 185 62
121 145 115
90 118 129
87 116 141
93 121 147
100 128 144
93 121 152
86 115 147
102 129 161
87 115 129
83 114 144
92 119 145
95 123 150
95 123 150
84 113 139
102 129 160
103 130 145
101 128 153
91 119 153
103 129 162
103 130 153
93 122 156
101 128 150
108 135 144
101 128 156
98 125 143
110 136 151
104 131 144
99 126 147
90 117 136
87 116 150
97 124 148
84 113 144
84 114 150
80 112 169
71 104 168
71 105 173
88 118 184
82 113 175
74 106 165
79 109 166
83 113 173
73 105 165
69 100 149
80 107 157
64 98 158
61 97 162
61 98 158
62 98 161
60 95 151
60 95 145
61 97 151
61 96 154
60 96 145
60 96 148
60 95 139
62 97 143
64 98 148
63 96 135
63 96 127
63 96 137
63 97 144
60 94 149
58 93 139
60 95 142
59 94 133
59 94 138
60 95 142
59 94 135
60 95 143
59 94 141
60 95 145
59 94 143
60 95 139
60 95 148
60 95 133
60 95 145
60 95 145
60 96 146
59 93 139
60 95 143
59 94 140
60 96 146
61 96 148
60 95 140
60 95 144
62 97 150
60 96 143
60 95 139
60 96 143
61 96 150
61 96 148
60 95 134
61 96 149
61 96 139
61 97 147
61 96 148
59 94 140
60 95 135
60 95 135
61 95 148
60 95 140
61 96 140
59 94 131
60 96 144
61 97 152
60 96 140
59 93 131
59 94 137
61 96 140
60 95 133
61 96 143
59 94 144
61 96 141
59 94 138
61 96 143
62 97 148
60 95 137
61 96 139
60 95 136
60 95 140
60 95 139
60 95 133
59 94 131
62 97 147
62 97 149
60 95 136
61 96 149
61 96 142
61 95 140
59 94 133
62 97 142
59 94 135
60 95 136
61 96 137
61 96 136
61 96 144
59 94 131
61 96 140
61 96 141
62 97 148
60 95 136
60 95 138
61 96 139
61 96 139
60 94 130
61 96 140
62 97 145
60 95 142
60 95 140
59 93 130
61 96 147
60 94 140
60 95 136
59 93 129
58 92 131
59 93 128
59 92 118
60 94 134
60 94 137
59 94 130
58 91 124
60 94 134
59 92 129
58 92 120
57 90 115
61 95 135
60 94 133
58 91 117
59 93 128
58 92 125
57 90 121
58 91 123
58 92 115
57 89 108
68 92 92
122 135 0
126 139 0
124 135 0
109 118 0
123 134 0
129 141 0
116 128 0
127 139 0
117 127 0
116 127 0
116 128 0
116 126 0
117 127 0
122 135 0
109 118 0
127 137 0
129 139 0
124 135 0
130 140 0
126 135 0
122 135 0
135 148 0
134 142 0
141 152 0
136 144 0
126 134 0
119 129 0
123 132 0
129 138 0
121 131 0
127 136 0
127 136 0
126 133 0
123 130 0
124 132 0
126 136 0
134 142 0
140 149 0
133 140 0
130 136 0
141 152 0
126 133 0
132 141 0
133 141 0
132 137 0
125 134 0
140 148 0
130 134 0
127 134 0
138 145 0
133 140 0
135 141 0
146 149 0
136 143 0
136 141 0
146 154 0
136 140 0
139 146 0
144 152 0
143 150 0
139 146 0
140 150 0
139 146 0
141 149 0
144 155 0
140 142 0
139 146 0
136 140 0
147 154 0
141 145 0
147 153 0
140 148 0
138 144 0
148 153 0
147 155 0
149 159 0
143 149 0
149 158 0
148 154 0
155 165 0
153 163 0
149 157 0
148 157 0
148 156 0
151 157 0
151 158 0
152 163 0
158 168 0
154 165 0
150 157 0
150 161 0
156 166 0
150 160 0
155 166 0
159 171 0
152 162 0
163 176 0
158 170 0
157 168 0
152 163 0
153 164 0
156 169 0
158 168 0
153 166 0
156 168 0
159 168 0
152 165 0
156 167 0
163 174 0
162 174 0
157 168 0
156 165 0
163 175 0
156 168 0
158 171 0
156 170 0
165 179 0
161 175 0
162 174 0
162 178 0
162 179 0
163 177 0
160 173 0
162 177 0
167 186 0
167 184 0
164 180 0
165 182 0
160 174 0
164 178 0
166 184 0
158 173 0
162 176 0
164 180 0
169 185 0
167 182 0
164 182 0
161 178 0
164 182 0
163 181 0
167 183 0
166 184 0
167 183 0
167 185 0
168 186 0
170 187 0
167 185 0
168 186 0
173 198 67
171 195 80
172 195 57
171 195 67
173 196 72
171 195 36
174 197 67
175 197 57
173 197 67
173 197 84
173 197 95
171 195 80
170 194 51
174 199 84
168 192 62
173 197 92
167 192 67
173 196 51
166 190 80
174 198 92
169 194 72
174 197 62
171 195 72
171 195 72
173 197 99
170 194 92
172 196 62
174 197 80
171 195 62
168 193 67
166 189 67
169 193 62
171 195 62
169 193 72
170 195 76
171 195 76
169 193 57
170 194 72
168 192 62
170 194 80
168 192 62
166 188 25
169 193 99
171 195 72
169 193 76
163 186 36
166 189 62
167 192 95
165 189 80
169 193 88
165 190 76
166 190 62
168 192 76
169 192 51
168 191 62
168 192 57
168 192 76
166 190 92
169 193 67
166 190 72
166 190 67
167 190 67
165 189 72
161 184 62
163 186 67
164 188 62
166 190 76
164 187 88
158 182 57
165 189 88
166 190 62
164 187 57
166 189 80
167 190 92
167 190 67
168 192 72
159 183 80
155 178 84
99 126 141
88 116 136
107 133 143
98 125 144
96 123 150
91 119 150
94 121 139
100 127 143
86 115 150
93 121 137
88 117 147
97 125 149
86 114 140
92 121 145
90 117 151
83 111 141
103 130 156
86 113 133
94 121 140
92 119 149
93 120 145
104 130 153
100 128 163
86 114 140
97 124 151
98 126 136
101 126 157
112 137 153
89 117 145
82 111 147
90 118 143
94 122 150
90 118 156
90 119 172
77 109 170
69 103 170
65 101 173
85 114 172
79 109 164
82 113 174
92 120 175
77 105 158
68 101 160
70 101 158
61 97 159
61 97 160
61 97 157
61 96 155
60 96 150
61 97 153
60 95 151
61 97 152
61 96 153
63 98 150
59 93 131
59 94 140
68 102 145
61 96 145
59 94 139
59 93 138
63 97 139
57 91 134
58 92 133
61 97 150
62 97 147
61 95 143
61 96 140
58 92 134
59 94 143
57 91 131
60 95 139
61 96 150
58 93 140
59 94 135
61 96 147
61 96 145
60 95 146
60 95 144
59 93 136
60 95 139
59 93 137
60 95 143
61 95 143
61 96 141
61 95 141
60 95 141
61 96 143
60 95 140
61 96 148
60 96 150
61 96 142
59 94 137
60 95 141
59 94 136
59 94 137
61 95 143
60 96 150
59 93 133
60 95 143
60 95 147
60 96 144
59 94 139
61 97 150
62 97 150
61 96 141
61 97 143
60 96 140
61 96 143
61 96 143
61 96 141
61 96 148
61 97 150
60 95 141
61 96 136
61 96 144
61 96 145
60 95 143
59 94 140
60 95 141
60 95 140
60 95 137
60 96 143
60 95 137
60 96 148
60 96 139
60 95 141
60 95 140
60 95 129
61 96 143
60 95 137
59 94 128
61 96 135
61 97 147
62 97 143
59 94 135
60 95 139
61 96 143
60 94 135
61 96 139
60 95 141
59 93 129
61 96 141
60 96 136
60 94 139
60 95 137
61 96 139
59 94 131
61 96 141
60 94 129
59 94 130
61 95 136
61 96 140
59 94 131
59 93 129
60 95 141
60 95 137
59 94 131
60 93 129
60 94 131
58 93 128
58 92 121
60 93 129
60 94 128
58 93 125
60 94 134
60 95 133
58 91 120
60 94 128
58 91 114
57 90 114
57 90 126
58 90 117
57 90 109
108 123 47
126 140 0
121 134 0
121 133 0
126 136 0
126 135 0
124 136 0
121 131 0
124 134 0
117 125 0
119 128 0
125 134 0
120 131 0
126 138 0
122 132 0
128 137 0
126 138 0
126 137 0
131 143 0
123 134 0
125 137 0
128 141 0
128 139 0
122 135 0
122 131 0
112 123 0
123 131 0
136 146 0
129 140 0
137 149 0
128 138 0
136 147 0
117 126 0
124 135 0
125 136 0
127 136 0
122 128 0
124 129 0
137 147 0
138 149 0
127 135 0
130 136 0
131 139 0
137 144 0
128 134 0
132 142 0
145 154 0
136 143 0
133 142 0
132 137 0
140 149 0
139 148 0
144 154 0
133 139 0
139 148 0
145 153 0
131 139 0
145 153 0
132 137 0
143 150 0
146 154 0
144 153 0
137 144 0
136 141 0
141 146 0
142 148 0
143 152 0
144 150 0
139 144 0
146 153 0
147 158 0
137 143 0
146 154 0
144 151 0
145 149 0
151 163 0
150 160 0
149 156 0
150 157 0
153 164 0
149 157 0
150 157 0
151 159 0
151 162 0
144 152 0
162 174 0
148 157 0
154 164 0
153 164 0
154 161 0
148 156 0
147 156 0
149 158 0
157 167 0
152 161 0
155 166 0
150 160 0
160 171 0
157 167 0
156 168 0
157 168 0
157 170 0
157 168 0
155 167 0
156 169 0
159 172 0
156 165 0
158 169 0
161 174 0
157 171 0
157 170 0
162 175 0
160 174 0
160 171 0
157 171 0
163 176 0
162 176 0
156 171 0
164 180 0
167 183 0
162 179 0
161 172 0
160 174 0
167 183 0
163 179 0
163 176 0
161 177 0
165 178 0
163 179 0
168 185 0
162 179 0
162 176 0
163 179 0
165 182 0
163 181 0
166 184 0
165 181 0
166 181 0
167 186 0
159 176 0
166 181 0
166 182 0
164 183 0
166 182 0
167 184 0
166 184 0
169 187 0
168 183 0
168 185 0
174 198 72
174 197 80
175 199 84
173 197 108
171 194 51
174 198 80
172 196 57
174 198 84
176 199 84
173 197 76
170 193 62
172 196 44
175 199 76
173 197 76
169 194 51
170 193 62
172 196 76
174 197 57
172 196 80
173 198 84
171 195 72
169 193 72
170 193 84
168 192 62
167 192 72
169 193 57
171 195 67
169 193 51
171 195 72
167 191 80
169 194 99
168 193 92
169 193 72
169 193 76
170 194 62
169 193 67
172 196 84
170 194 67
170 194 62
166 190 67
167 191 72
170 194 88
169 194 80
173 196 67
172 196 84
167 190 51
173 197 67
166 191 72
171 194 67
170 195 76
166 191 76
166 190 76
167 191 88
170 193 57
166 190 57
169 193 84
164 188 80
170 194 88
168 191 72
168 192 72
170 193 44
166 191 76
168 191 62
168 192 92
167 190 57
166 190 80
164 188 76
170 193 76
166 189 84
162 185 67
161 185 72
168 192 84
167 191 80
169 193 84
167 191 76
165 188 84
163 185 57
171 195 95
123 149 115
77 107 115
89 116 127
87 116 143
88 116 136
101 128 148
84 113 139
83 111 127
87 115 134
78 108 140
93 120 139
87 115 132
95 122 137
90 117 143
94 122 151
89 117 147
101 128 153
95 123 161
93 121 155
96 123 149
91 120 150
110 135 151
105 130 135
97 124 150
102 127 142
107 134 145
93 121 153
100 127 149
115 140 140
94 120 147
77 108 144
85 115 151
90 119 151
82 112 145
86 115 175
79 111 176
87 117 180
82 113 175
77 109 166
71 104 163
85 114 165
84 112 165
72 103 156
74 104 155
70 102 159
62 98 163
61 97 154
60 95 140
60 96 149
61 97 153
62 96 149
60 95 143
60 95 143
63 97 139
60 95 149
59 93 134
62 97 143
61 95 137
63 96 125
63 98 139
58 92 128
59 94 136
60 95 150
59 94 139
60 95 140
60 96 144
60 96 149
58 92 129
58 93 134
59 95 144
59 94 143
60 95 140
60 95 139
60 95 140
59 94 137
61 96 148
59 95 143
61 97 150
58 93 131
61 96 144
60 95 143
60 95 143
61 96 142
58 93 137
61 96 145
61 96 150
60 95 147
61 96 145
59 94 140
60 95 140
60 95 143
59 93 130
59 94 139
62 97 148
59 94 126
61 96 143
59 93 134
59 94 136
60 95 141
60 95 142
60 95 139
61 96 140
60 95 136
61 96 150
62 98 153
62 97 145
60 95 135
60 96 144
61 96 145
61 95 143
60 95 139
61 96 143
61 96 145
61 96 148
61 96 144
61 96 139
59 94 133
61 96 147
61 96 145
61 96 142
59 94 135
60 95 136
60 94 133
61 96 147
60 95 145
61 96 145
61 97 150
60 95 140
59 94 139
60 95 141
61 96 144
61 95 141
61 95 135
61 95 135
61 96 147
59 94 131
59 94 134
60 95 137
61 96 145
59 94 128
59 93 134
61 96 144
59 93 129
61 95 135
61 96 137
61 96 140
60 94 134
62 96 140
59 94 140
60 94 136
59 93 126
61 96 137
58 92 117
60 95 126
61 95 140
58 92 120
61 96 134
60 95 137
59 93 133
59 93 133
59 93 130
56 89 111
59 92 124
58 92 115
58 92 131
57 90 108
59 92 127
59 93 124
57 91 115
57 90 121
56 89 104
56 89 113
79 104 100
118 130 0
121 134 0
129 138 0
122 136 0
125 137 0
125 136 0
117 126 0
120 132 0
126 136 0
126 138 0
121 133 0
127 137 0
136 145 0
126 140 0
119 131 0
132 142 0
122 132 0
125 135 0
132 143 0
138 152 0
132 142 0
118 129 0
134 144 0
134 144 0
127 137 0
131 142 0
128 137 0
128 134 0
128 139 0
122 131 0
128 137 0
134 142 0
130 139 0
132 141 0
129 141 0
131 140 0
128 134 0
125 132 0
125 132 0
135 143 0
138 144 0
131 138 0
132 144 0
134 139 0
131 139 0
134 143 0
133 141 0
133 141 0
129 135 0
131 139 0
131 139 0
131 138 0
138 150 0
144 152 0
138 144 0
134 141 0
140 150 0
136 143 0
145 152 0
138 143 0
140 149 0
142 148 0
147 158 0
148 156 0
142 149 0
144 155 0
149 158 0
146 154 0
147 157 0
148 155 0
146 156 0
146 153 0
150 160 0
153 162 0
145 153 0
150 159 0
138 145 0
153 160 0
142 149 0
149 157 0
149 160 0
148 159 0
152 162 0
150 157 0
147 156 0
149 159 0
147 157 0
153 164 0
153 162 0
150 160 0
155 165 0
154 166 0
156 166 0
154 164 0
153 164 0
148 159 0
156 164 0
157 170 0
156 167 0
154 165 0
164 177 0
154 166 0
161 175 0
160 172 0
154 167 0
156 164 0
161 173 0
160 175 0
162 174 0
162 175 0
159 171 0
158 170 0
163 176 0
156 169 0
159 172 0
158 171 0
159 172 0
157 170 0
165 178 0
163 178 0
162 174 0
162 179 0
160 176 0
165 180 0
160 175 0
166 180 0
163 179 0
167 181 0
162 180 0
165 183 0
163 178 0
166 180 0
169 187 0
163 179 0
161 175 0
158 172 0
164 181 0
163 181 0
167 185 0
169 187 0
165 182 0
167 185 0
163 180 0
165 183 0
169 187 0
167 184 0
170 186 0
168 183 0
167 185 0
172 196 51
173 197 62
173 197 99
176 199 88
170 194 67
173 197 72
171 196 57
171 195 72
170 195 88
174 197 57
169 194 76
170 194 80
171 194 72
168 192 44
172 196 76
170 194 57
173 196 88
173 197 95
173 197 67
173 197 88
170 194 80
167 191 51
168 191 57
171 195 76
170 194 84
170 195 76
166 191 72
168 192 72
173 197 80
171 195 80
167 191 80
172 196 92
173 197 76
168 192 72
170 193 92
169 193 80
166 189 36
168 192 80
170 194 99
168 192 72
167 191 84
172 196 76
166 190 88
168 192 67
169 193 62
165 190 76
168 193 80
167 190 62
169 192 76
169 193 62
166 190 76
166 190 76
166 189 51
166 190 67
163 187 67
168 192 80
164 187 76
166 189 67
164 188 72
165 189 76
166 189 57
167 190 57
161 185 76
166 190 72
165 188 84
167 191 72
162 186 67
160 183 67
164 188 44
162 185 72
164 188 72
171 194 62
165 189 76
166 187 62
169 192 76
165 189 57
163 186 62
164 188 76
152 175 80
84 112 120
89 117 126
80 109 126
91 120 145
90 118 143
96 123 128
93 121 141
85 114 140
95 123 149
86 115 144
93 121 143
93 121 148
99 124 137
91 118 133
96 122 142
92 120 141
91 119 134
102 127 139
89 117 157
93 120 148
91 119 156
93 121 142
99 125 153
90 118 145
97 124 149
100 127 159
104 129 128
113 138 161
110 135 147
95 123 150
86 115 150
92 121 151
83 112 134
83 113 152
84 113 166
74 107 164
77 109 170
77 109 166
75 107 172
72 105 171
78 109 169
80 109 167
77 105 156
71 101 148
67 100 160
61 96 152
61 97 155
61 96 151
60 96 142
61 97 157
62 97 151
60 95 143
60 96 154
60 95 154
59 95 143
61 96 141
65 98 135
64 97 144
65 98 133
62 95 132
60 95 140
60 95 143
60 95 141
59 94 135
59 94 133
58 93 137
58 93 133
59 94 141
59 94 141
60 95 142
58 93 131
59 94 143
59 93 136
60 95 136
60 94 139
59 94 136
60 95 141
58 93 128
59 94 130
60 96 143
60 94 143
60 95 140
59 94 133
60 94 139
60 94 136
59 94 142
61 95 135
61 96 148
60 95 140
62 97 149
61 96 140
60 95 139
61 96 142
61 96 149
60 96 148
60 94 139
60 96 141
60 95 143
59 95 139
60 95 139
62 97 153
61 95 145
61 97 157
60 95 140
61 96 145
59 94 135
61 96 148
59 94 126
60 96 140
61 96 137
61 97 142
60 95 134
60 94 135
61 96 152
60 95 141
60 94 130
60 95 134
60 95 140
62 97 153
60 95 143
61 96 140
62 97 150
60 95 135
61 95 141
60 94 129
60 95 136
59 94 124
60 95 139
60 95 141
61 96 134
60 94 131
61 96 137
60 94 128
61 96 141
60 94 134
60 95 129
59 94 129
60 95 136
60 95 137
60 95 136
60 94 125
61 96 141
61 96 143
60 94 134
60 95 144
60 95 133
60 95 140
60 95 135
61 96 135
60 94 134
59 93 131
58 92 125
60 94 125
59 94 135
60 94 137
61 95 142
60 94 133
59 93 128
59 94 129
58 91 122
59 94 124
58 92 121
57 90 105
59 93 124
59 93 121
57 91 120
57 91 116
58 91 120
61 95 129
56 89 110
62 90 80
113 126 36
117 130 0
120 133 0
123 136 0
120 134 0
122 136 0
122 134 0
117 132 0
129 139 0
126 137 0
128 143 0
124 136 0
128 139 0
117 129 0
128 142 0
130 142 0
129 141 0
121 130 0
128 139 0
132 144 0
131 141 0
117 124 0
123 135 0
125 135 0
127 136 0
127 138 0
131 143 0
128 136 0
134 141 0
130 142 0
132 140 0
131 142 0
127 137 0
130 141 0
135 147 0
135 145 0
135 146 0
127 135 0
126 134 0
133 144 0
133 142 0
136 143 0
135 146 0
146 157 0
127 136 0
131 137 0
131 139 0
137 148 0
136 147 0
140 150 0
142 151 0
142 152 0
140 149 0
139 147 0
138 145 0
134 144 0
137 145 0
146 153 0
142 150 0
140 148 0
148 157 0
146 156 0
147 154 0
138 146 0
148 157 0
135 143 0
141 153 0
148 158 0
141 147 0
143 152 0
146 155 0
144 148 0
143 151 0
139 147 0
152 162 0
145 153 0
148 155 0
147 157 0
145 155 0
149 159 0
146 155 0
152 165 0
159 170 0
154 165 0
146 156 0
151 163 0
156 166 0
153 165 0
154 167 0
155 163 0
159 170 0
150 160 0
155 166 0
156 166 0
151 161 0
157 169 0
151 162 0
156 166 0
155 166 0
155 165 0
156 169 0
155 166 0
158 171 0
161 176 0
156 168 0
158 170 0
155 167 0
156 168 0
160 174 0
156 167 0
160 172 0
158 171 0
161 176 0
161 174 0
160 175 0
157 172 0
157 171 0
160 175 0
160 173 0
163 179 0
163 178 0
164 180 0
161 174 0
162 177 0
165 179 0
163 177 0
166 181 0
163 176 0
164 180 0
164 178 0
164 180 0
165 181 0
163 179 0
164 181 0
161 177 0
165 183 0
166 183 0
163 180 0
165 182 0
165 181 0
166 184 0
165 184 0
166 184 0
166 184 0
165 181 0
166 184 0
163 180 0
167 184 0
168 187 0
165 185 0
173 198 84
170 195 51
173 197 72
173 196 62
173 197 76
169 194 67
172 196 76
175 198 80
174 198 84
172 196 76
174 199 95
168 192 57
170 195 72
173 197 84
175 199 72
171 194 67
174 198 72
171 194 57
173 196 36
172 196 84
172 196 72
173 197 62
167 192 57
169 193 72
167 191 51
166 191 92
171 196 88
169 193 76
167 191 72
171 194 57
171 195 80
168 193 67
170 193 57
170 194 80
172 194 72
168 192 57
169 194 84
171 194 67
167 191 62
167 192 88
171 195 84
168 191 76
171 194 57
167 191 67
166 190 72
171 195 57
166 190 51
168 192 67
163 187 25
166 190 95
161 185 88
164 188 57
169 193 84
168 192 92
168 190 62
168 191 67
163 187 80
165 190 95
164 188 84
166 189 57
168 192 84
167 190 84
167 191 72
165 189 80
164 187 76
161 184 72
166 191 67
161 185 72
167 191 80
163 186 62
163 187 76
164 186 67
165 187 72
165 188 57
170 194 92
155 178 57
165 189 76
166 188 80
165 187 51
129 154 115
91 119 133
92 119 135
102 128 136
101 128 145
97 124 140
87 115 131
86 115 141
93 120 141
93 121 145
79 108 125
86 115 143
95 122 153
86 115 148
93 121 138
90 119 151
96 124 145
94 122 147
88 117 151
100 126 141
93 120 136
85 114 141
100 126 144
101 128 151
93 120 153
97 123 153
101 127 150
101 128 139
118 142 152
111 136 151
99 126 147
85 114 139
84 113 139
80 110 140
72 105 156
74 106 166
74 107 173
72 105 170
77 109 170
90 118 171
72 105 171
76 107 163
77 106 159
78 106 155
70 101 151
64 99 164
60 96 153
60 95 147
60 96 148
60 95 152
60 96 155
60 94 145
61 95 139
60 95 143
60 95 140
61 96 139
70 102 133
62 97 144
62 95 129
61 95 141
62 96 137
60 94 127
59 94 134
60 94 136
57 92 121
60 95 147
60 95 143
60 95 147
60 96 143
58 93 134
59 94 134
61 96 144
60 95 140
57 91 131
58 93 131
60 95 144
59 94 134
59 94 136
60 95 144
59 94 131
59 94 129
60 96 147
61 96 148
60 95 140
60 95 131
61 96 149
59 94 140
60 95 143
60 95 143
60 95 134
60 95 140
60 95 141
59 94 135
59 94 133
60 95 140
60 96 142
60 95 134
60 95 136
59 94 140
61 96 143
61 96 150
61 95 144
60 96 140
61 96 142
61 96 145
60 95 135
59 94 134
60 94 136
61 97 151
62 97 140
62 97 144
61 95 141
60 95 139
60 94 141
60 96 139
59 94 140
60 95 128
60 95 137
61 96 139
61 96 140
60 95 140
61 96 144
59 94 133
60 95 139
60 94 134
60 95 135
59 94 130
61 96 136
61 96 144
58 92 129
60 95 136
59 93 131
59 94 131
60 94 134
60 95 139
60 94 142
60 95 131
60 94 130
60 95 137
59 94 137
60 94 136
59 94 131
60 95 137
60 95 141
59 94 128
60 95 136
60 94 129
59 94 126
59 93 129
58 91 118
58 92 126
59 93 129
61 96 137
58 92 121
60 94 136
60 94 140
58 92 118
59 93 129
59 93 121
60 95 135
57 90 115
58 91 113
60 94 126
60 94 124
59 92 124
59 92 122
59 93 126
57 89 108
56 89 104
57 90 105
107 122 67
122 134 0
122 133 0
139 152 0
122 135 0
127 137 0
126 139 0
129 141 0
128 140 0
123 135 0
131 143 0
120 133 0
121 130 0
131 143 0
133 142 0
133 145 0
123 135 0
121 134 0
118 130 0
134 146 0
137 150 0
139 152 0
123 135 0
124 133 0
134 144 0
124 136 0
137 148 0
132 144 0
130 143 0
125 136 0
126 138 0
131 142 0
128 139 0
135 147 0
132 142 0
123 134 0
143 156 0
131 143 0
135 144 0
132 143 0
135 146 0
137 145 0
127 138 0
135 147 0
126 135 0
134 144 0
135 145 0
126 138 0
143 154 0
139 147 0
139 147 0
144 153 0
147 152 0
135 144 0
142 151 0
143 153 0
143 152 0
138 146 0
139 148 0
149 159 0
139 147 0
136 144 0
139 151 0
142 149 0
149 156 0
140 149 0
152 164 0
148 157 0
144 156 0
145 154 0
147 158 0
146 156 0
139 147 0
142 152 0
144 150 0
145 156 0
150 161 0
154 165 0
152 163 0
153 163 0
149 157 0
153 162 0
152 162 0
158 169 0
153 164 0
151 161 0
157 170 0
150 162 0
152 162 0
148 158 0
161 174 0
154 164 0
152 162 0
160 174 0
157 169 0
158 167 0
154 164 0
162 172 0
157 169 0
159 170 0
159 173 0
152 165 0
154 165 0
157 171 0
156 167 0
157 168 0
159 172 0
158 171 0
156 168 0
158 174 0
159 170 0
156 168 0
164 178 0
157 171 0
165 178 0
160 176 0
163 178 0
164 179 0
162 177 0
160 176 0
165 180 0
166 182 0
160 177 0
162 175 0
160 177 0
166 180 0
164 181 0
166 182 0
160 175 0
158 173 0
165 182 0
169 183 0
167 183 0
168 187 0
163 179 0
163 180 0
162 178 0
164 182 0
164 178 0
168 185 0
164 181 0
167 184 0
162 180 0
166 183 0
160 178 0
164 180 0
168 186 0
166 186 0
162 179 0
164 183 0
169 188 0
172 196 76
169 193 72
172 195 72
170 194 44
173 197 88
173 197 57
170 193 62
175 198 76
172 196 67
172 196 57
172 197 108
170 194 95
172 195 67
174 198 95
170 195 92
168 192 62
172 197 76
170 194 88
174 198 84
172 197 80
171 195 95
170 194 57
170 194 88
171 194 57
172 196 80
171 196 76
172 196 67
171 194 76
169 194 84
170 194 72
168 191 25
171 195 76
170 195 72
172 196 84
171 196 80
169 193 67
169 193 92
168 193 76
170 194 62
169 193 72
166 190 80
171 195 80
162 186 76
170 195 76
171 196 88
168 193 80
167 192 76
165 188 67
170 193 80
169 193 67
165 188 57
167 192 108
161 184 57
169 194 80
170 193 62
165 190 76
170 193 62
166 190 72
164 187 57
167 190 72
162 186 72
169 193 76
169 193 76
164 188 67
161 185 67
166 189 76
167 190 76
161 183 72
160 183 57
165 188 72
164 187 44
162 186 72
164 188 84
160 182 72
165 188 80
159 180 62
162 186 80
166 189 72
167 190 102
161 184 44
99 126 117
88 116 124
87 116 144
91 120 136
81 110 135
97 124 138
90 119 139
89 117 137
89 116 128
97 124 146
94 121 140
83 113 142
104 130 160
100 127 153
85 112 139
89 118 155
88 115 144
102 129 149
93 119 145
104 130 154
89 116 149
78 109 142
88 117 142
102 128 160
105 131 157
101 127 148
97 124 145
105 131 143
111 137 151
96 123 136
85 114 139
85 114 147
76 107 151
99 126 153
87 116 167
71 105 169
77 108 170
76 108 160
87 117 175
77 108 161
80 111 163
77 107 165
73 103 156
79 107 160
75 105 153
61 97 154
61 96 145
63 98 152
61 97 154
61 96 147
60 96 151
61 96 152
59 94 134
63 97 145
60 96 143
63 97 140
65 98 145
66 98 137
63 96 126
58 92 131
59 94 136
59 94 146
60 95 146
59 94 141
61 96 149
59 94 138
60 95 143
61 96 141
59 94 138
60 95 145
61 95 145
59 94 141
60 95 139
59 93 128
61 96 142
60 95 138
60 95 140
60 95 146
60 94 141
60 95 142
60 95 141
59 94 131
58 92 124
60 95 136
60 95 133
58 93 126
60 95 137
61 96 143
60 95 145
59 93 131
60 95 136
62 97 153
60 95 140
60 95 139
59 94 135
61 96 142
59 93 134
61 96 140
60 95 136
59 94 133
60 95 142
59 93 133
60 95 136
61 96 145
59 94 131
60 94 137
60 95 142
60 95 131
59 94 137
60 95 136
61 95 135
59 94 128
60 94 133
61 96 136
60 96 137
60 95 141
60 95 135
60 94 126
61 96 148
62 97 144
61 96 149
60 95 149
60 95 136
61 96 140
60 94 136
59 94 129
60 95 142
60 95 130
59 93 128
60 94 131
61 96 137
61 96 142
61 95 134
60 95 139
60 95 129
60 94 131
61 96 142
62 97 144
59 94 126
60 95 141
60 94 134
60 94 130
58 92 130
60 95 134
62 97 143
59 93 131
60 94 125
59 92 131
60 94 125
60 94 135
60 95 136
60 94 130
60 95 136
58 92 118
58 92 129
59 93 124
57 91 123
60 94 135
59 94 130
58 91 115
59 93 125
60 94 134
58 92 121
58 92 125
57 90 111
56 89 113
58 91 124
56 89 108
78 102 86
113 125 0
118 130 0
110 121 0
127 143 0
127 142 0
122 132 0
123 135 0
119 130 0
131 144 0
123 137 0
134 144 0
133 145 0
124 136 0
118 131 0
115 124 0
125 137 0
124 136 0
123 134 0
126 138 0
124 134 0
135 147 0
127 138 0
120 131 0
130 141 0
138 151 0
129 138 0
124 133 0
124 133 0
136 148 0
130 141 0
124 134 0
129 139 0
125 138 0
137 150 0
132 142 0
135 147 0
123 136 0
130 142 0
140 149 0
126 137 0
141 152 0
142 153 0
140 148 0
135 143 0
139 149 0
140 152 0
134 143 0
129 137 0
138 145 0
135 141 0
139 150 0
143 154 0
140 154 0
128 137 0
129 136 0
132 142 0
139 148 0
138 149 0
133 142 0
143 154 0
146 154 0
140 148 0
146 156 0
142 151 0
141 149 0
147 157 0
144 152 0
147 155 0
141 149 0
146 158 0
148 157 0
141 151 0
151 165 0
146 153 0
153 164 0
148 159 0
149 159 0
149 158 0
145 151 0
151 161 0
151 161 0
149 161 0
148 158 0
155 166 0
155 165 0
156 164 0
146 158 0
157 167 0
156 167 0
152 162 0
151 161 0
150 162 0
157 169 0
159 169 0
153 162 0
157 170 0
155 167 0
151 164 0
161 173 0
152 164 0
155 166 0
162 175 0
159 173 0
155 166 0
157 170 0
159 173 0
162 177 0
156 169 0
157 171 0
160 173 0
163 178 0
160 170 0
159 175 0
157 169 0
162 177 0
165 180 0
159 172 0
163 178 0
158 173 0
162 177 0
165 182 0
161 175 0
165 181 0
163 180 0
160 174 0
161 176 0
161 175 0
166 181 0
164 180 0
163 178 0
164 180 0
161 177 0
166 183 0
166 182 0
160 176 0
163 181 0
170 187 0
166 184 0
163 181 0
166 184 0
164 181 0
165 185 0
164 182 0
165 184 0
166 183 0
172 191 0
167 185 0
167 186 0
168 187 0
165 182 0
166 184 0
175 199 84
172 195 57
173 197 84
173 196 62
173 198 72
174 198 72
174 198 84
174 198 84
171 195 67
169 192 72
172 196 76
169 194 72
175 197 57
169 193 67
173 196 76
172 197 67
170 193 76
170 194 57
172 195 67
170 195 72
169 193 57
170 195 72
171 194 67
173 197 80
170 194 80
169 193 62
169 192 62
169 194 88
169 192 62
173 197 51
166 190 62
170 194 80
171 196 102
168 194 92
170 194 76
171 196 72
165 189 57
170 193 62
167 191 76
167 192 67
169 193 80
171 195 95
173 197 76
168 192 72
172 196 84
168 191 57
168 192 51
172 197 102
168 192 76
165 190 57
165 190 80
161 185 76
166 190 72
164 188 72
169 194 99
168 192 95
170 194 62
170 193 44
167 191 84
166 190 84
165 188 67
164 186 44
165 190 84
166 191 80
160 182 72
158 182 72
167 190 62
164 187 76
159 182 76
166 189 84
169 193 67
164 188 72
164 187 62
162 185 51
162 184 62
167 189 88
158 180 44
160 182 80
160 183 62
165 188 76
147 171 72
99 126 143
84 114 128
93 121 141
96 123 141
85 114 146
91 118 136
86 116 145
88 115 132
86 114 134
93 121 154
87 115 140
93 120 144
89 117 156
96 123 134
96 123 150
97 124 133
94 121 154
85 114 152
92 119 147
93 121 149
95 123 153
93 120 137
93 120 140
107 132 150
97 124 147
99 126 144
98 125 152
105 130 141
98 125 145
105 130 135
97 125 155
86 115 149
87 115 152
82 112 156
83 113 168
82 113 174
74 106 169
80 111 166
88 117 174
71 104 159
71 103 162
69 100 151
81 107 150
63 98 156
67 99 153
61 97 152
63 99 161
61 96 147
61 96 153
64 99 159
59 94 144
60 94 143
60 95 147
59 94 140
59 93 132
67 101 155
65 98 129
65 98 137
65 98 133
63 96 133
66 99 134
58 91 127
58 92 134
59 93 136
60 95 143
60 95 136
59 93 139
57 92 127
60 95 133
61 95 140
60 94 139
60 95 135
60 95 146
59 94 139
60 95 134
60 95 141
59 94 138
58 93 139
59 94 133
60 94 129
59 94 131
59 94 143
61 96 150
60 95 142
59 94 133
61 97 154
60 95 141
61 96 143
59 93 131
60 95 140
60 94 139
59 94 130
61 96 150
60 95 139
60 95 139
60 94 134
61 95 141
61 97 149
60 95 142
60 95 140
60 95 145
61 97 149
59 93 131
60 95 140
60 95 139
60 95 136
60 95 139
61 95 134
59 94 134
61 96 142
61 96 143
60 95 140
60 95 134
59 93 127
61 96 141
60 95 137
61 96 136
59 93 128
61 96 140
60 95 140
60 95 142
60 95 142
61 95 136
60 94 135
60 95 134
59 94 133
60 95 133
59 94 137
60 96 139
59 93 133
60 94 137
61 96 140
61 96 143
58 92 128
60 94 131
59 93 120
60 95 133
61 96 144
59 94 126
60 95 136
61 96 139
60 95 131
61 96 131
59 94 135
59 93 131
60 94 126
60 94 130
59 93 128
59 93 129
60 94 137
59 93 120
59 93 121
60 95 137
60 94 133
58 92 121
59 93 122
58 92 125
59 93 124
60 94 133
58 91 117
58 91 120
58 92 120
59 92 126
55 87 114
59 92 120
55 87 108
60 89 104
114 126 11
127 136 0
133 147 0
118 133 0
131 143 0
129 141 0
120 134 0
127 139 0
115 127 0
119 128 0
125 139 0
127 138 0
121 131 0
116 128 0
117 129 0
121 134 0
122 134 0
121 133 0
122 132 0
125 136 0
126 138 0
125 135 0
133 142 0
139 150 0
119 130 0
128 139 0
134 145 0
126 138 0
137 148 0
137 149 0
126 136 0
135 146 0
133 146 0
117 129 0
138 150 0
134 144 0
130 142 0
131 141 0
138 148 0
126 137 0
130 141 0
128 140 0
129 140 0
134 144 0
133 142 0
137 148 0
146 155 0
133 142 0
131 142 0
140 149 0
140 152 0
144 154 0
141 153 0
139 151 0
152 163 0
138 148 0
135 144 0
134 142 0
144 154 0
136 147 0
140 148 0
144 157 0
145 154 0
139 149 0
147 158 0
142 150 0
145 156 0
148 159 0
143 153 0
153 165 0
153 165 0
147 157 0
150 161 0
141 151 0
147 157 0
145 152 0
147 159 0
150 163 0
153 167 0
148 156 0
157 170 0
155 168 0
154 165 0
152 163 0
145 156 0
155 165 0
154 166 0
156 167 0
148 156 0
157 169 0
154 164 0
156 168 0
154 166 0
151 160 0
149 160 0
158 172 0
150 161 0
153 166 0
158 171 0
157 168 0
161 173 0
158 172 0
153 165 0
160 175 0
160 174 0
156 172 0
158 170 0
159 173 0
161 176 0
159 174 0
160 174 0
159 171 0
158 172 0
156 169 0
159 170 0
157 169 0
156 170 0
160 172 0
164 180 0
161 174 0
160 173 0
163 180 0
158 173 0
166 180 0
165 181 0
163 180 0
165 183 0
166 183 0
162 178 0
161 176 0
166 183 0
163 178 0
166 183 0
163 177 0
164 182 0
163 180 0
159 177 0
166 183 0
168 184 0
162 177 0
166 183 0
166 183 0
163 178 0
163 182 0
166 183 0
165 182 0
162 179 0
167 183 0
166 184 0
169 184 0
166 185 0
166 182 0
169 192 72
176 199 92
171 195 72
174 197 67
174 198 92
171 195 67
172 195 76
167 191 62
172 196 51
171 195 51
170 193 80
173 197 72
170 194 88
170 194 62
169 192 62
171 195 57
169 193 95
170 194 67
172 196 80
174 198 62
169 193 72
167 191 51
172 196 80
172 197 67
171 196 88
169 193 92
167 191 67
166 190 67
171 196 92
171 195 80
172 195 62
170 194 76
169 193 62
166 191 67
169 193 57
168 193 67
167 190 80
166 190 72
166 189 67
166 190 80
169 194 84
171 195 72
164 188 62
165 189 57
169 192 76
168 192 67
163 188 51
166 191 95
163 188 76
169 193 84
167 191 76
163 187 80
165 190 76
163 187 72
167 190 57
166 190 72
165 188 84
170 195 76
167 191 92
168 192 67
163 187 84
168 191 72
165 189 72
166 190 72
165 189 80
161 184 57
162 185 72
163 187 88
165 189 76
159 181 62
167 191 80
162 185 99
162 186 92
159 182 72
158 181 57
161 184 72
160 183 76
161 185 67
156 179 62
162 185 76
164 187 84
113 137 100
77 106 130
91 118 140
86 114 137
91 119 141
91 118 129
94 122 151
87 115 125
93 120 131
86 114 126
101 127 127
86 115 148
88 116 144
79 108 131
93 120 141
87 115 144
90 117 143
104 131 158
92 120 147
91 118 148
95 122 150
95 122 144
100 126 154
95 121 129
93 120 140
89 117 135
97 125 151
101 126 147
107 132 141
93 119 146
82 111 132
86 115 154
98 125 138
94 121 148
94 122 159
79 111 174
90 119 175
68 102 158
85 114 174
85 114 166
95 122 174
71 103 158
66 99 157
75 105 158
74 103 144
63 96 149
61 97 154
60 96 150
60 95 141
59 95 149
60 96 151
61 96 153
60 96 151
59 94 137
59 93 145
64 96 135
60 95 137
62 96 142
61 96 143
68 99 125
66 98 128
61 96 141
58 93 134
58 93 137
57 90 131
57 91 125
60 95 145
60 95 141
58 93 130
60 95 139
60 94 144
59 94 137
59 94 140
59 93 133
60 95 133
58 93 135
60 95 143
60 95 137
60 94 136
60 95 141
59 94 126
60 95 140
60 95 140
62 97 150
60 95 143
60 95 148
61 96 143
60 94 141
59 94 130
60 95 136
60 95 139
59 93 136
60 94 131
59 94 126
59 93 120
61 95 139
59 94 140
59 94 124
61 96 147
60 95 141
60 95 135
59 94 134
60 94 136
58 92 133
61 96 142
60 96 142
59 94 128
59 93 136
61 96 140
59 94 133
61 96 142
60 94 137
59 94 131
61 96 147
61 97 150
60 95 135
61 96 145
61 96 148
60 95 133
59 93 129
59 94 136
60 94 134
60 95 138
60 94 133
60 95 134
60 95 136
60 95 136
59 93 126
59 94 129
60 95 128
60 95 137
60 95 129
60 94 126
61 96 143
60 95 134
58 92 124
60 95 130
60 95 134
60 94 139
60 94 133
60 95 129
60 95 137
60 94 140
59 94 126
59 92 122
59 93 131
60 94 134
58 92 118
59 93 131
60 95 134
60 95 126
59 93 122
59 93 134
60 94 133
59 93 120
59 93 124
59 92 124
57 91 115
59 93 124
59 92 125
58 91 117
58 92 121
57 89 110
58 91 123
56 88 102
58 91 117
106 121 51
122 137 0
119 130 0
125 137 0
111 123 0
132 142 0
119 131 0
119 130 0
130 142 0
112 125 0
124 138 0
119 129 0
124 137 0
129 142 0
131 142 0
133 145 0
128 141 0
135 146 0
141 155 0
121 134 0
133 145 0
134 146 0
129 144 0
125 137 0
123 133 0
123 134 0
129 142 0
128 141 0
127 142 0
131 147 0
123 133 0
124 136 0
124 136 0
129 140 0
138 149 0
131 141 0
139 150 0
137 149 0
132 146 0
139 151 0
134 144 0
138 152 0
122 133 0
133 144 0
135 146 0
132 142 0
127 137 0
133 144 0
139 149 0
130 143 0
140 151 0
142 151 0
136 145 0
128 136 0
133 141 0
140 153 0
141 150 0
144 156 0
134 145 0
146 157 0
135 144 0
141 152 0
139 150 0
144 155 0
140 147 0
146 156 0
142 150 0
149 161 0
152 162 0
138 151 0
148 155 0
148 159 0
141 153 0
146 155 0
153 164 0
142 149 0
145 156 0
145 156 0
153 167 0
144 151 0
150 159 0
149 160 0
154 166 0
146 156 0
149 161 0
147 158 0
156 167 0
150 162 0
155 165 0
153 164 0
154 165 0
152 165 0
152 163 0
150 161 0
154 167 0
157 170 0
153 164 0
153 161 0
152 164 0
156 170 0
150 163 0
152 163 0
156 169 0
153 166 0
162 175 0
155 167 0
158 169 0
159 173 0
153 166 0
161 176 0
158 171 0
161 177 0
156 170 0
159 173 0
156 171 0
162 175 0
160 173 0
163 178 0
161 174 0
162 179 0
162 178 0
162 177 0
162 179 0
164 181 0
162 178 0
159 172 0
165 182 0
163 180 0
163 178 0
160 177 0
165 184 0
166 184 0
161 178 0
167 185 0
167 184 0
162 179 0
165 180 0
165 182 0
162 180 0
164 184 0
164 181 0
164 182 0
167 185 0
165 183 0
166 184 0
160 180 0
168 186 0
166 186 0
168 186 0
163 182 0
167 186 0
164 180 0
163 180 0
170 194 57
174 198 72
173 196 76
170 194 88
172 196 92
172 196 84
171 195 92
170 194 67
176 199 76
170 193 84
170 194 80
174 198 76
171 195 51
170 194 88
172 197 88
168 192 44
169 194 72
173 196 44
173 197 80
168 192 72
170 194 72
173 197 76
169 193 80
167 192 76
171 195 67
167 191 44
169 193 72
170 195 76
170 193 44
169 194 84
169 193 76
173 197 76
171 195 80
171 194 80
168 192 92
170 194 67
173 198 92
171 195 88
170 193 57
167 191 84
172 196 76
167 191 44
171 194 72
164 188 76
165 190 67
163 188 92
166 189 44
166 191 72
165 190 95
164 189 88
170 194 80
164 188 88
166 190 67
167 191 67
162 186 88
168 192 76
169 193 84
165 188 62
167 192 84
172 196 95
166 190 62
161 184 57
162 186 76
163 188 76
171 195 76
162 186 92
164 188 67
160 184 84
168 192 84
162 186 80
165 189 67
159 183 67
162 186 44
164 188 88
159 181 76
159 181 62
161 185 80
157 180 51
164 187 84
168 192 88
158 180 76
158 182 97
93 120 130
79 109 133
84 113 142
80 109 129
87 115 118
103 130 153
80 109 125
91 119 140
85 113 133
86 115 148
90 117 134
90 117 130
103 129 149
105 129 137
91 119 149
83 111 139
97 124 153
103 129 156
101 126 141
82 111 142
87 115 141
99 125 140
97 124 133
98 124 151
97 125 145
99 125 148
100 127 154
104 130 162
104 129 146
93 119 125
93 121 159
88 116 151
96 123 144
80 110 155
81 111 160
77 109 169
74 107 162
74 106 162
79 110 158
80 111 168
86 115 172
88 112 153
70 101 154
70 101 149
82 108 155
65 98 153
61 96 151
62 97 155
59 94 144
60 95 148
62 97 148
59 95 151
60 95 143
58 93 136
60 95 138
66 98 128
66 99 136
66 98 136
68 101 137
68 100 138
62 96 128
58 93 138
60 94 134
59 94 135
59 93 126
59 93 136
59 94 140
60 94 134
60 94 140
57 91 122
57 91 124
59 93 133
58 93 128
59 94 140
58 92 124
59 93 135
59 94 139
60 95 141
59 94 129
59 93 130
60 95 139
59 93 130
61 96 137
58 92 130
60 95 131
60 95 139
60 94 135
59 94 135
60 95 140
60 95 143
60 95 139
59 93 129
60 94 135
60 95 137
61 96 145
59 93 135
61 96 134
60 94 136
60 95 133
61 96 150
59 93 129
62 97 148
60 95 141
60 95 139
60 95 136
59 94 134
60 95 136
60 95 139
59 93 137
60 95 129
60 95 137
60 95 135
60 95 136
61 95 140
59 94 129
60 95 135
62 97 151
59 93 128
59 94 129
61 95 136
60 94 130
59 93 131
59 93 130
60 95 135
59 94 125
62 97 141
60 95 136
60 94 136
59 94 125
60 94 133
61 96 139
58 92 125
58 93 125
60 95 133
61 96 136
60 95 134
59 93 128
59 94 135
60 94 126
59 93 118
58 92 121
59 93 131
58 92 126
59 93 125
58 91 115
59 93 126
58 93 115
60 94 129
60 94 134
59 93 128
59 93 122
61 95 130
57 91 126
59 93 124
59 92 114
58 92 117
58 92 120
59 92 130
58 91 121
58 91 116
58 91 124
57 90 111
57 90 111
58 92 122
91 107 68
116 130 0
119 131 0
131 145 0
124 138 0
128 141 0
119 132 0
124 138 0
128 140 0
130 144 0
122 136 0
118 129 0
113 124 0
120 133 0
120 135 0
122 138 0
126 139 0
114 124 0
125 137 0
126 139 0
124 138 0
129 142 0
134 147 0
125 137 0
128 141 0
131 145 0
136 147 0
118 127 0
133 143 0
127 138 0
123 134 0
128 139 0
132 144 0
132 143 0
136 147 0
127 140 0
123 135 0
130 141 0
128 139 0
139 150 0
131 145 0
131 142 0
138 149 0
126 134 0
137 147 0
131 142 0
135 148 0
137 148 0
144 158 0
142 150 0
133 144 0
139 149 0
142 150 0
139 151 0
144 156 0
137 148 0
142 154 0
142 154 0
144 157 0
139 147 0
149 159 0
148 160 0
133 142 0
139 148 0
144 157 0
140 149 0
147 158 0
141 149 0
140 149 0
144 155 0
142 151 0
143 154 0
145 157 0
147 158 0
151 162 0
149 158 0
146 159 0
148 158 0
143 155 0
153 163 0
152 164 0
145 156 0
152 165 0
156 169 0
144 153 0
149 161 0
152 163 0
149 160 0
149 161 0
152 163 0
154 167 0
153 164 0
163 176 0
152 168 0
152 164 0
152 163 0
153 166 0
160 172 0
156 168 0
158 171 0
151 161 0
159 173 0
160 174 0
159 175 0
156 168 0
153 165 0
157 169 0
157 172 0
158 170 0
156 172 0
163 178 0
159 172 0
162 177 0
165 181 0
162 178 0
162 178 0
159 174 0
163 179 0
159 175 0
159 172 0
159 176 0
158 171 0
162 177 0
164 179 0
163 178 0
163 178 0
159 175 0
162 178 0
164 182 0
166 183 0
162 179 0
163 179 0
166 182 0
161 178 0
166 184 0
163 180 0
166 182 0
165 183 0
163 179 0
165 183 0
161 177 0
167 185 0
165 184 0
163 180 0
165 182 0
164 184 0
166 185 0
165 182 0
163 180 0
165 180 0
169 189 0
165 184 0
167 187 0
171 191 0
170 193 36
173 196 62
171 195 76
173 197 80
171 195 88
170 195 95
174 198 67
170 194 88
172 196 80
173 196 67
170 195 84
172 196 95
173 196 57
170 194 76
173 197 88
173 196 72
169 193 44
171 195 62
171 195 72
173 197 84
168 192 72
170 195 88
170 192 51
169 193 44
166 191 72
172 196 76
169 193 88
170 193 62
171 195 88
169 193 88
168 191 57
170 194 72
170 194 57
167 191 95
166 189 67
168 192 57
166 190 62
172 195 76
168 192 80
167 192 92
166 190 80
162 186 76
170 194 76
169 193 51
171 195 84
167 191 80
164 188 76
166 190 84
164 187 76
169 193 95
168 193 76
167 191 80
168 192 62
168 191 76
164 189 72
168 191 57
165 189 95
165 189 76
164 188 84
167 192 80
164 188 72
169 192 67
155 179 80
167 190 72
162 186 44
167 190 72
162 185 67
164 188 84
164 186 51
162 185 57
162 186 76
159 182 67
157 180 51
156 180 62
161 185 95
157 181 76
158 182 72
160 182 67
164 187 92
152 175 72
163 186 84
158 181 80
142 166 102
88 117 130
92 119 133
92 119 133
85 113 129
94 122 137
87 115 132
88 116 143
95 122 129
86 114 140
95 122 149
104 130 153
99 126 154
91 117 139
97 124 143
91 118 141
94 121 157
95 122 148
81 109 143
86 114 148
105 130 151
91 119 150
112 137 141
96 124 140
94 121 148
86 114 150
97 124 146
97 124 144
107 133 148
106 131 146
100 125 132
89 117 154
90 117 144
86 115 153
88 116 144
83 113 162
68 102 166
91 120 181
72 105 166
90 118 170
73 105 160
81 111 167
72 103 159
68 100 149
67 98 142
70 102 155
61 94 127
62 97 156
60 95 147
59 94 140
60 95 149
61 96 148
59 94 152
60 95 145
58 93 127
61 96 139
66 98 124
63 96 137
63 96 134
61 94 129
72 102 122
62 96 133
59 93 131
59 93 126
58 92 131
58 92 122
59 94 136
60 95 141
59 93 138
60 94 142
60 95 141
59 94 139
59 94 131
60 95 142
60 94 139
60 94 134
62 97 145
58 92 128
61 96 142
59 93 139
59 93 134
60 94 125
60 95 144
59 93 131
60 95 130
59 93 122
59 94 136
60 95 139
59 93 124
59 94 133
60 95 139
61 96 140
60 95 141
60 94 134
60 94 129
59 93 131
61 96 140
59 93 129
59 94 136
59 94 135
59 93 133
60 94 133
60 95 134
60 95 133
59 94 134
59 94 135
61 96 147
59 93 129
60 95 137
60 94 141
61 96 145
59 93 134
60 94 133
60 95 142
61 96 144
59 94 137
59 94 128
60 94 134
60 94 129
60 94 130
61 96 147
60 95 141
59 93 124
59 92 125
60 95 140
60 94 130
60 95 133
60 95 140
59 94 124
60 95 133
58 91 121
59 94 124
59 93 129
59 93 129
59 93 125
57 91 115
59 94 130
60 94 128
58 92 118
59 93 131
60 94 131
59 94 126
59 93 139
59 94 130
59 94 128
59 93 120
60 95 128
58 93 124
59 94 126
59 93 137
58 92 118
60 94 128
59 93 128
61 96 142
59 93 128
58 91 121
57 91 122
57 90 107
58 91 121
59 92 122
57 90 117
58 91 120
58 92 121
72 96 89
112 126 18
131 144 0
114 128 0
115 129 0
112 125 0
127 140 0
130 145 0
122 135 0
124 139 0
130 144 0
120 133 0
124 137 0
121 134 0
124 137 0
122 135 0
124 138 0
138 151 0
124 137 0
130 143 0
125 136 0
122 135 0
132 146 0
132 146 0
129 142 0
120 130 0
131 144 0
137 149 0
138 153 0
126 138 0
132 144 0
143 157 0
136 149 0
134 146 0
123 134 0
134 148 0
133 145 0
132 144 0
130 143 0
135 147 0
130 141 0
132 145 0
142 152 0
132 145 0
144 156 0
141 151 0
138 151 0
126 139 0
131 143 0
135 147 0
145 157 0
142 151 0
137 151 0
141 153 0
138 148 0
141 154 0
145 153 0
143 154 0
151 163 0
151 164 0
134 144 0
146 159 0
141 151 0
148 160 0
147 156 0
144 157 0
144 155 0
145 155 0
144 156 0
150 163 0
145 156 0
131 143 0
153 167 0
153 164 0
146 158 0
151 160 0
150 161 0
152 165 0
146 156 0
149 160 0
144 154 0
151 163 0
149 160 0
148 156 0
140 150 0
148 162 0
150 159 0
153 165 0
144 154 0
154 167 0
151 162 0
148 158 0
151 162 0
156 169 0
151 161 0
148 161 0
150 163 0
157 173 0
154 166 0
159 171 0
158 171 0
152 165 0
158 173 0
159 172 0
159 172 0
155 170 0
157 171 0
160 174 0
159 172 0
160 176 0
157 174 0
156 171 0
157 171 0
159 173 0
160 174 0
164 176 0
160 177 0
161 175 0
163 181 0
159 174 0
160 176 0
163 178 0
162 179 0
159 176 0
162 178 0
164 177 0
162 179 0
159 174 0
162 178 0
167 185 0
162 177 0
158 175 0
162 176 0
163 179 0
162 178 0
158 172 0
163 181 0
163 179 0
164 180 0
163 181 0
167 184 0
168 184 0
164 181 0
166 182 0
164 182 0
167 184 0
161 178 0
165 185 0
164 181 0
165 185 0
169 189 0
169 187 0
166 186 0
169 187 0
168 186 0
173 197 88
170 194 80
171 194 95
173 196 84
167 190 57
173 196 76
173 197 84
171 196 88
172 196 67
171 196 92
171 196 84
170 194 76
166 191 72
172 195 84
171 195 67
171 195 72
170 193 44
174 199 95
170 195 92
170 193 57
167 190 67
169 192 62
168 193 72
168 192 62
171 194 44
169 194 80
169 193 67
166 190 84
167 190 62
169 194 62
168 192 62
165 188 51
169 193 92
165 190 62
169 194 80
165 190 80
173 197 95
171 195 57
168 192 92
165 189 80
161 185 44
165 190 95
168 193 95
169 193 67
166 190 72
169 193 72
165 189 51
165 188 76
169 192 57
165 189 57
167 191 72
164 188 80
165 189 67
166 189 57
164 189 84
163 186 84
166 190 72
166 190 80
162 185 57
168 192 80
161 184 57
159 183 80
161 185 76
165 188 80
164 188 84
164 186 88
157 181 57
165 189 67
152 175 57
163 187 62
158 181 62
162 187 80
159 182 72
159 182 67
160 183 44
165 188 72
165 188 74
158 181 62
155 178 80
161 184 88
153 175 57
161 183 95
154 177 72
121 146 108
93 120 133
89 118 139
86 114 124
93 119 135
88 116 122
90 117 128
73 103 124
87 116 147
85 112 127
99 125 133
85 113 133
91 118 148
100 125 145
91 118 140
102 127 144
94 121 144
82 111 136
93 119 135
88 116 137
82 111 153
94 121 141
95 122 143
91 118 136
89 117 147
94 121 147
98 125 142
107 133 144
96 123 138
94 120 127
103 129 140
87 115 148
81 111 141
90 119 142
80 110 136
88 116 167
85 115 175
72 105 166
80 110 162
77 109 163
75 106 159
74 102 154
73 102 144
81 107 158
66 99 150
82 108 157
60 96 150
60 95 144
60 95 151
62 98 154
62 98 153
60 96 142
63 97 139
58 92 131
62 96 139
66 99 138
69 102 138
69 101 131
63 96 136
68 100 126
71 102 134
60 94 137
58 92 133
58 92 120
59 93 139
61 96 144
59 94 133
60 94 137
59 93 128
60 95 139
59 94 136
60 95 130
58 93 131
60 95 143
59 94 145
59 94 131
59 94 137
59 94 133
60 95 137
60 94 135
59 93 134
59 94 141
58 92 128
59 93 133
59 94 130
59 93 128
58 93 134
59 94 134
60 95 136
61 96 144
60 94 129
59 94 136
60 95 133
59 93 130
59 94 131
59 94 139
60 94 136
59 93 128
60 95 137
60 94 126
60 94 132
60 95 139
60 95 141
60 94 129
60 94 137
59 93 124
60 95 142
60 95 137
60 95 129
59 93 130
59 94 131
59 94 131
61 96 141
59 94 136
59 93 128
60 95 137
60 95 128
58 93 129
60 94 124
61 96 140
60 95 134
61 96 139
58 91 121
61 95 129
58 92 126
59 94 133
59 94 129
60 94 125
61 96 139
60 95 139
60 94 131
60 95 128
60 94 130
58 91 120
60 94 133
58 91 121
59 93 125
59 93 124
60 94 131
60 95 131
59 93 121
60 94 130
60 94 125
58 92 120
60 95 135
59 94 120
60 94 130
58 92 114
56 89 114
56 89 111
59 93 129
58 91 116
59 93 128
56 89 111
59 92 129
58 91 118
57 91 114
56 88 104
57 90 110
55 86 97
57 89 114
67 95 95
122 138 31
109 124 0
116 130 0
123 136 0
114 128 0
119 128 0
123 136 0
120 133 0
121 133 0
123 135 0
123 136 0
126 140 0
130 144 0
116 130 0
126 139 0
138 154 0
131 145 0
132 145 0
141 153 0
130 143 0
122 136 0
125 136 0
131 142 0
130 142 0
132 146 0
125 136 0
117 129 0
138 151 0
137 151 0
129 143 0
129 142 0
119 132 0
130 141 0
147 162 0
128 139 0
136 147 0
143 156 0
130 140 0
125 138 0
142 155 0
138 151 0
141 153 0
136 146 0
131 142 0
135 149 0
133 145 0
138 148 0
139 151 0
135 145 0
144 157 0
137 151 0
129 139 0
135 148 0
140 152 0
142 155 0
142 154 0
139 150 0
140 151 0
140 149 0
141 152 0
132 143 0
149 161 0
149 159 0
145 158 0
143 155 0
144 157 0
148 160 0
148 162 0
149 162 0
147 159 0
144 154 0
143 155 0
148 161 0
147 161 0
139 147 0
154 165 0
145 157 0
149 160 0
143 154 0
151 160 0
148 158 0
152 162 0
157 165 0
151 163 0
148 159 0
148 159 0
154 166 0
153 169 0
150 161 0
155 169 0
153 164 0
153 165 0
153 163 0
152 166 0
153 166 0
152 163 0
151 164 0
152 165 0
155 169 0
161 176 0
156 168 0
159 172 0
151 162 0
159 173 0
156 168 0
157 171 0
160 174 0
161 176 0
157 170 0
159 174 0
160 176 0
159 174 0
156 171 0
156 170 0
154 170 0
164 182 0
160 175 0
163 178 0
158 172 0
164 181 0
158 173 0
162 177 0
166 187 0
164 181 0
162 178 0
164 181 0
162 178 0
167 184 0
164 182 0
159 175 0
165 182 0
164 182 0
160 178 0
162 180 0
163 179 0
163 181 0
159 172 0
163 181 0
166 183 0
161 177 0
163 180 0
164 179 0
162 180 0
166 185 0
162 179 0
167 185 0
162 180 0
168 188 0
168 185 0
162 180 0
160 178 0
168 186 0
168 185 0
166 186 0
167 184 0
172 197 92
173 197 62
169 192 67
173 196 57
174 198 67
170 195 88
171 195 76
169 193 62
170 195 62
167 191 51
170 194 72
168 192 62
171 195 62
167 192 76
167 191 62
172 195 67
169 194 80
169 193 67
172 196 76
165 189 76
172 196 88
170 194 80
174 198 67
171 196 76
170 194 76
171 194 51
173 197 76
169 194 72
165 190 76
171 195 84
164 188 36
169 192 44
170 194 72
168 192 51
167 190 62
169 193 51
169 193 62
163 187 62
167 191 36
165 189 57
168 192 99
168 192 95
167 190 57
169 195 84
164 187 57
171 194 84
165 189 80
163 187 67
167 192 80
163 187 84
169 194 92
159 182 72
162 187 62
163 187 80
160 184 67
166 191 88
164 188 80
171 195 84
161 185 88
164 188 92
162 184 76
164 188 62
168 192 80
163 186 62
163 187 76
162 185 76
160 183 84
161 184 76
159 182 72
159 183 67
155 178 51
166 190 78
161 183 76
156 177 80
153 175 70
157 181 92
158 181 72
162 187 88
158 180 62
159 181 80
152 175 72
158 181 67
154 177 80
158 181 84
80 109 111
95 121 113
86 114 126
102 128 137
95 122 135
93 121 141
96 122 136
92 120 141
95 122 136
88 116 138
103 129 151
96 122 137
88 115 136
90 118 137
75 104 136
97 124 150
84 112 137
102 127 157
90 116 126
91 118 136
93 120 154
104 130 150
93 120 150
91 120 148
102 128 157
101 127 148
100 125 136
97 123 146
108 133 154
105 129 140
97 120 129
89 117 149
79 108 128
84 114 151
86 115 162
82 112 165
74 106 161
76 107 158
83 113 171
77 108 170
70 102 150
77 104 151
74 104 150
64 97 146
73 102 156
66 99 150
60 95 141
58 93 139
61 97 151
61 96 147
60 95 148
60 95 146
59 93 140
59 94 141
64 98 135
66 99 139
71 103 134
57 91 126
66 98 122
89 116 110
58 92 122
59 93 132
57 90 129
59 93 141
59 93 129
60 95 137
57 92 120
59 94 137
57 91 120
58 93 129
59 94 127
60 95 141
59 94 130
60 94 130
59 93 141
60 94 136
59 94 129
60 95 133
58 93 128
58 93 131
60 96 143
60 94 134
60 94 133
60 95 134
60 94 131
60 95 140
60 95 135
60 94 141
60 95 143
58 92 129
59 93 133
59 94 125
61 96 143
59 94 129
61 96 137
60 95 131
61 96 140
58 92 126
59 93 129
60 94 131
59 93 134
60 95 133
60 95 130
59 93 126
61 96 135
61 96 141
59 93 130
60 95 140
61 96 142
60 95 139
59 94 134
60 95 139
60 95 135
59 93 131
59 93 118
60 95 136
60 95 144
60 95 139
60 95 131
60 94 124
60 95 126
60 94 134
60 94 131
59 94 136
60 96 136
59 94 124
61 96 141
60 94 125
58 92 128
60 94 131
59 93 131
60 95 140
59 93 130
59 94 125
60 94 125
60 94 124
58 92 126
59 93 117
59 93 122
59 92 121
59 93 128
58 92 125
57 90 115
58 91 124
58 92 122
61 95 137
58 91 122
57 91 110
58 91 120
59 93 124
58 92 133
58 91 116
58 92 126
58 91 105
57 91 113
58 92 126
59 92 113
57 90 120
57 90 121
61 90 107
113 127 54
115 128 0
119 131 0
118 133 0
123 139 0
115 127 0
121 136 0
133 146 0
123 139 0
127 140 0
125 138 0
113 123 0
120 134 0
121 134 0
135 151 0
126 141 0
109 121 0
118 131 0
120 132 0
114 129 0
131 145 0
135 150 0
123 136 0
125 139 0
127 141 0
135 148 0
132 143 0
132 146 0
135 147 0
137 151 0
133 145 0
138 150 0
135 148 0
135 148 0
128 139 0
128 138 0
137 149 0
120 130 0
136 149 0
142 156 0
127 141 0
140 155 0
148 160 0
137 149 0
139 151 0
137 150 0
146 160 0
139 151 0
141 154 0
142 153 0
144 154 0
135 144 0
140 153 0
137 146 0
138 151 0
145 157 0
143 156 0
147 159 0
142 154 0
143 155 0
144 153 0
142 153 0
148 161 0
151 162 0
130 140 0
148 160 0
147 159 0
145 157 0
144 155 0
152 165 0
150 162 0
149 162 0
146 157 0
148 160 0
147 159 0
153 166 0
151 164 0
145 156 0
150 159 0
146 160 0
151 164 0
149 161 0
149 161 0
145 158 0
150 161 0
149 161 0
157 170 0
150 163 0
154 164 0
158 172 0
156 169 0
155 170 0
160 175 0
157 170 0
151 165 0
158 171 0
153 164 0
152 164 0
155 169 0
157 171 0
157 170 0
159 175 0
160 172 0
160 174 0
154 167 0
155 169 0
161 177 0
157 171 0
163 176 0
157 172 0
161 175 0
157 171 0
157 170 0
151 162 0
165 180 0
157 171 0
160 176 0
163 179 0
159 174 0
158 174 0
156 171 0
162 178 0
161 176 0
161 178 0
164 178 0
165 180 0
159 174 0
164 181 0
163 178 0
161 177 0
162 179 0
162 179 0
168 187 0
165 184 0
166 183 0
160 178 0
164 181 0
165 182 0
164 183 0
166 186 0
169 187 0
161 178 0
169 187 0
167 187 0
161 178 0
168 187 0
163 179 0
165 181 0
163 180 0
166 185 0
164 184 0
164 181 0
167 183 0
168 187 0
166 184 0
160 177 0
172 196 72
173 197 67
168 192 92
172 196 84
167 191 72
171 195 67
173 196 62
171 195 72
169 193 76
168 192 80
170 194 80
170 194 76
171 195 76
172 196 76
171 196 80
172 196 76
169 194 80
170 194 84
170 194 72
166 190 88
166 191 84
168 192 84
169 193 76
170 195 80
165 189 57
170 195 80
169 193 67
168 193 92
165 189 51
167 191 84
167 192 84
167 191 67
164 188 72
164 188 62
166 191 80
167 192 57
168 192 62
172 195 80
168 193 76
163 187 72
164 189 80
163 188 84
166 191 72
164 188 57
167 191 76
167 191 72
165 189 72
166 190 72
164 188 67
165 189 67
160 183 67
164 188 44
166 190 57
165 189 88
161 184 62
164 188 76
162 187 88
158 181 57
160 184 72
165 190 67
166 189 57
163 187 67
164 187 76
161 185 95
157 182 80
159 183 67
161 184 51
163 187 76
156 179 67
159 183 51
164 188 62
157 181 72
154 177 67
150 172 60
161 184 76
152 176 76
163 185 72
157 180 57
161 185 76
160 183 67
161 182 76
157 180 62
148 169 67
158 180 62
130 154 100
91 118 115
89 117 136
83 111 128
90 118 139
98 124 140
88 115 118
93 121 141
88 115 134
84 113 135
94 120 131
105 131 147
92 120 133
79 108 119
89 117 134
93 120 133
84 112 128
90 116 140
95 121 141
103 128 139
91 118 144
95 122 139
96 123 143
94 120 135
93 120 144
97 123 154
107 133 149
96 122 141
104 128 141
100 125 134
107 131 139
96 122 138
85 114 145
94 121 151
109 135 149
90 118 153
80 111 174
88 117 170
92 120 165
91 119 171
71 103 165
67 98 130
76 104 150
82 107 138
73 102 145
79 105 143
66 99 147
60 96 144
60 96 149
63 97 145
60 95 144
60 95 137
60 95 141
59 93 134
58 93 131
65 98 133
62 96 136
65 98 139
66 99 139
66 99 126
62 94 118
58 92 117
59 93 131
58 92 118
60 94 139
59 93 130
59 94 139
57 91 124
58 93 133
60 94 138
58 93 134
59 94 134
58 93 131
59 94 137
58 91 118
58 91 120
57 91 124
60 95 140
60 96 148
60 95 136
60 95 141
59 94 135
60 94 131
59 94 135
60 94 130
60 94 135
60 95 137
60 95 139
58 92 121
60 95 130
60 95 136
59 93 135
60 95 139
60 94 137
59 94 136
60 94 133
60 94 136
58 92 134
60 96 134
59 93 129
58 93 136
60 95 137
60 95 136
61 95 139
60 95 134
59 94 131
61 96 143
60 95 134
59 93 130
60 95 144
61 96 142
60 94 133
60 94 124
60 95 137
59 94 118
60 94 131
60 94 137
61 95 141
60 95 134
59 93 133
59 94 137
61 95 134
59 93 131
59 94 131
60 95 134
59 93 129
60 94 131
60 95 133
59 92 126
60 94 133
60 95 134
61 95 139
60 94 130
58 93 120
60 95 134
58 91 114
59 93 130
60 94 131
59 93 124
58 92 114
61 96 142
60 95 139
57 91 117
57 91 115
59 93 126
61 94 133
58 91 111
58 92 120
57 90 115
58 92 113
58 92 118
59 92 125
58 92 121
56 89 115
57 90 124
58 91 111
57 90 113
55 87 102
55 87 102
102 122 62
118 130 0
124 138 0
120 134 0
131 146 0
116 130 0
119 134 0
121 133 0
115 128 0
124 136 0
121 134 0
125 139 0
125 134 0
125 136 0
117 132 0
129 143 0
126 139 0
132 148 0
126 137 0
123 136 0
129 144 0
139 154 0
126 140 0
133 147 0
135 149 0
122 136 0
135 152 0
134 147 0
132 147 0
122 134 0
139 154 0
126 138 0
129 141 0
130 143 0
135 147 0
139 154 0
135 150 0
139 149 0
141 155 0
128 140 0
138 151 0
140 152 0
139 151 0
138 152 0
145 158 0
130 145 0
135 144 0
145 158 0
132 143 0
147 160 0
134 148 0
138 153 0
138 151 0
137 151 0
134 145 0
137 148 0
135 146 0
143 156 0
137 148 0
142 154 0
140 152 0
138 149 0
149 163 0
143 154 0
144 154 0
142 158 0
149 161 0
139 151 0
152 163 0
152 165 0
153 165 0
147 156 0
147 160 0
151 164 0
146 155 0
153 164 0
151 164 0
152 166 0
147 161 0
155 165 0
156 170 0
148 162 0
156 172 0
156 171 0
150 162 0
149 162 0
159 172 0
149 161 0
154 167 0
152 166 0
159 173 0
153 167 0
159 172 0
151 166 0
154 166 0
155 170 0
157 173 0
156 168 0
155 166 0
156 169 0
158 173 0
157 170 0
158 170 0
156 171 0
160 175 0
160 174 0
160 177 0
163 180 0
157 172 0
158 172 0
155 171 0
161 176 0
160 175 0
160 173 0
161 176 0
159 176 0
160 176 0
159 172 0
161 177 0
162 180 0
160 177 0
164 178 0
160 176 0
163 178 0
157 174 0
159 174 0
158 178 0
157 173 0
167 184 0
166 182 0
167 185 0
165 183 0
155 170 0
162 179 0
159 178 0
162 181 0
165 182 0
158 176 0
166 182 0
163 181 0
161 179 0
162 181 0
165 184 0
167 185 0
164 181 0
161 177 0
167 186 0
165 182 0
164 183 0
165 182 0
166 185 0
165 182 0
166 183 0
164 184 0
169 187 0
169 188 0
164 184 0
173 197 95
173 197 84
174 198 76
174 197 57
171 195 72
173 197 57
172 196 67
173 197 80
167 191 72
172 196 57
172 195 67
170 194 92
169 192 57
171 195 72
169 194 67
170 194 67
168 191 67
173 197 80
166 191 62
170 194 80
169 193 88
171 196 84
170 194 36
167 191 62
172 196 67
167 192 84
173 197 76
170 194 84
168 193 72
171 195 67
170 194 25
170 195 76
173 197 80
168 193 72
167 191 80
171 194 72
169 193 88
165 190 80
164 188 57
168 192 67
164 188 67
165 189 57
167 190 62
163 188 92
162 186 80
169 193 76
170 193 62
168 191 84
161 186 76
166 190 62
164 187 25
158 183 62
170 195 102
165 189 84
161 185 76
165 189 72
164 187 67
161 185 62
156 181 88
163 187 67
164 188 67
157 181 62
163 186 88
162 184 51
155 178 25
162 186 57
164 187 67
161 185 95
162 185 62
162 186 67
157 179 57
155 179 62
157 179 62
156 180 62
160 183 72
158 181 72
158 182 82
156 179 76
160 183 72
157 180 80
151 173 80
158 181 92
155 178 51
153 176 72
150 173 57
120 144 113
83 112 122
98 124 139
92 119 121
89 115 121
100 126 147
90 117 120
81 110 139
91 118 136
94 121 127
88 115 122
87 115 137
99 125 133
98 124 135
98 124 139
93 119 143
91 117 145
90 117 143
90 117 145
103 128 146
96 122 145
95 121 141
105 129 142
97 122 138
95 121 133
106 132 152
101 127 149
100 125 137
93 119 141
100 125 136
97 124 147
87 115 142
100 126 136
87 114 144
97 124 145
75 106 162
74 107 165
79 109 159
80 111 162
85 114 163
78 108 158
73 102 147
78 104 143
79 106 153
85 109 143
71 100 140
60 95 148
63 98 148
60 95 142
61 96 147
60 95 142
60 95 142
60 95 140
58 91 119
67 99 135
63 97 138
66 99 129
62 94 124
58 93 133
73 103 118
59 93 129
57 90 119
59 94 125
59 93 132
58 92 131
60 94 131
58 92 114
60 95 142
58 92 132
58 92 124
59 93 124
60 95 131
59 94 137
59 93 133
59 94 141
58 93 130
59 93 135
59 93 126
60 94 126
59 93 133
60 95 140
59 93 126
59 94 133
61 95 134
61 96 142
59 93 135
59 93 122
58 93 134
59 93 122
58 92 127
58 92 135
59 94 132
58 93 134
60 95 137
59 94 129
61 95 142
59 94 128
60 95 136
60 95 136
59 93 130
59 93 131
60 94 134
59 94 135
59 94 128
60 95 143
60 94 131
59 94 129
60 94 138
59 93 130
60 95 129
59 93 125
60 94 136
61 95 136
60 94 125
59 93 129
60 94 135
59 93 122
60 95 128
59 93 128
59 94 131
61 95 137
59 93 128
59 93 124
59 93 124
60 94 128
60 95 131
60 94 129
60 95 139
58 92 120
59 93 128
60 94 126
58 92 120
60 94 124
60 94 133
59 93 126
59 92 118
58 92 120
59 94 126
58 92 117
59 93 122
58 91 111
58 92 118
59 93 125
59 93 121
60 94 122
57 90 111
58 91 117
58 92 121
58 92 126
58 91 121
58 91 116
57 90 113
56 89 111
55 87 108
58 91 122
57 91 118
52 83 88
90 109 80
106 120 0
120 132 0
119 132 0
122 137 0
121 137 0
119 134 0
125 140 0
112 124 0
126 139 0
118 131 0
124 137 0
118 133 0
124 138 0
129 144 0
131 143 0
127 142 0
117 130 0
130 145 0
126 140 0
119 135 0
119 135 0
124 136 0
138 151 0
129 142 0
125 139 0
136 151 0
136 148 0
137 148 0
125 139 0
137 149 0
142 157 0
142 155 0
138 152 0
134 146 0
144 160 0
139 154 0
134 145 0
140 154 0
123 136 0
132 144 0
137 151 0
140 153 0
140 152 0
130 144 0
140 154 0
136 151 0
143 157 0
135 147 0
139 152 0
146 161 0
135 146 0
141 151 0
146 159 0
136 150 0
143 157 0
142 152 0
140 151 0
143 155 0
146 157 0
134 146 0
141 154 0
144 156 0
148 161 0
147 160 0
144 158 0
145 157 0
144 155 0
136 148 0
153 169 0
153 166 0
147 161 0
141 153 0
147 158 0
143 154 0
143 155 0
154 167 0
147 158 0
145 158 0
149 162 0
154 166 0
147 159 0
148 161 0
151 162 0
154 166 0
148 162 0
154 168 0
158 174 0
158 170 0
150 159 0
155 167 0
155 167 0
156 170 0
149 161 0
160 176 0
153 166 0
156 171 0
160 175 0
155 169 0
154 169 0
154 167 0
157 170 0
161 178 0
163 177 0
159 174 0
159 175 0
158 171 0
158 172 0
153 168 0
154 167 0
159 175 0
162 177 0
162 178 0
155 170 0
161 174 0
157 171 0
161 177 0
161 176 0
160 176 0
165 183 0
161 177 0
163 180 0
152 168 0
164 182 0
158 172 0
160 177 0
162 181 0
163 181 0
165 184 0
163 181 0
167 185 0
164 181 0
158 174 0
169 186 0
164 180 0
161 179 0
159 176 0
162 180 0
159 178 0
165 184 0
167 185 0
161 179 0
164 182 0
163 182 0
163 181 0
162 181 0
167 185 0
164 183 0
167 184 0
164 180 0
165 182 0
169 187 0
169 189 0
165 183 0
165 182 0
168 185 0
171 190 0
168 186 0
171 194 62
170 194 51
170 194 72
171 195 76
169 192 51
172 196 80
172 197 76
173 197 80
168 192 84
172 196 57
171 194 62
170 194 72
170 195 57
166 190 62
168 193 72
170 194 72
170 194 51
167 191 57
167 191 76
171 195 88
167 191 76
171 196 92
171 195 67
168 192 62
165 190 67
170 194 76
167 193 92
164 188 72
168 192 80
166 190 57
170 193 51
170 195 84
164 188 67
169 194 80
171 196 72
170 194 72
167 190 80
169 194 67
163 187 84
170 195 102
167 191 44
162 186 57
165 191 95
163 187 67
168 191 72
169 193 72
165 189 76
168 192 57
170 193 80
164 188 67
162 186 72
162 186 51
161 185 57
158 182 57
162 187 76
164 189 72
160 184 67
162 187 76
164 189 72
160 184 76
161 184 67
162 185 62
164 188 62
164 189 72
160 183 72
160 183 51
164 186 72
165 188 76
163 186 62
158 182 80
159 181 76
163 187 84
158 182 62
160 183 67
157 179 72
161 185 62
155 177 51
163 186 76
153 176 80
153 176 67
152 175 76
163 185 76
158 181 76
152 175 57
158 181 84
146 169 62
98 124 124
86 114 124
102 128 137
88 116 143
111 136 140
96 123 126
98 124 123
84 112 132
91 118 126
92 119 131
87 115 131
80 109 129
97 122 134
101 126 149
87 113 124
92 118 133
81 110 139
90 116 124
96 122 137
103 127 139
86 114 133
105 130 143
99 126 134
86 114 142
105 131 142
89 116 131
105 130 147
92 118 141
98 123 131
93 119 138
91 117 146
74 104 140
83 112 136
90 118 142
88 115 145
74 106 155
80 110 160
79 109 153
77 108 162
68 101 155
89 115 162
74 102 146
81 108 151
86 110 148
70 101 154
67 98 144
60 95 142
62 97 152
60 94 137
62 96 142
59 94 141
59 94 135
57 91 127
65 98 134
64 98 139
63 97 144
61 95 135
58 92 126
68 99 122
64 97 129
59 93 130
59 93 120
57 90 125
59 93 130
60 95 139
59 93 128
59 93 129
58 92 134
60 94 137
59 94 136
59 94 130
60 94 130
57 90 121
60 95 135
57 91 131
58 92 122
59 93 118
60 94 128
60 94 126
58 92 115
58 92 120
58 92 124
60 95 142
59 94 131
60 94 139
60 94 134
62 97 144
59 94 136
60 94 131
58 92 124
57 91 123
60 94 133
58 92 114
61 96 141
59 93 124
58 92 124
60 95 134
60 95 139
60 94 131
59 93 126
58 92 124
59 94 124
58 92 123
59 94 131
59 94 135
59 94 128
59 93 129
60 95 136
60 94 125
59 94 135
58 93 121
60 95 134
60 94 130
61 95 137
59 93 126
59 94 131
60 94 122
60 95 133
60 95 134
59 93 128
58 92 120
57 91 125
60 95 131
60 94 134
59 93 131
59 93 125
60 94 133
58 92 120
60 94 128
58 92 126
59 93 129
60 95 131
59 93 125
59 93 126
58 92 117
59 93 118
59 93 124
59 93 126
57 91 117
58 92 128
59 94 131
58 92 124
59 93 124
56 89 110
58 92 108
58 93 126
59 92 124
58 92 111
56 89 111
58 91 111
58 91 108
56 89 110
56 88 107
53 84 95
55 86 92
85 108 78
112 124 0
121 133 0
121 135 0
119 132 0
121 134 0
124 138 0
118 131 0
124 137 0
115 128 0
126 141 0
121 135 0
119 131 0
125 137 0
131 145 0
116 128 0
121 134 0
125 139 0
134 149 0
132 146 0
130 145 0
123 137 0
133 148 0
126 141 0
131 144 0
127 141 0
130 145 0
137 152 0
135 148 0
131 144 0
135 148 0
133 145 0
139 156 0
128 143 0
142 158 0
123 135 0
135 146 0
138 151 0
141 155 0
133 148 0
133 147 0
133 146 0
142 154 0
143 156 0
144 159 0
143 158 0
137 149 0
146 157 0
140 153 0
148 161 0
150 164 0
139 152 0
135 148 0
144 155 0
146 161 0
136 147 0
143 156 0
146 161 0
142 156 0
147 157 0
145 160 0
141 155 0
148 159 0
143 155 0
144 158 0
143 157 0
140 154 0
136 147 0
139 150 0
150 165 0
142 155 0
147 161 0
153 165 0
151 165 0
147 161 0
144 157 0
155 168 0
150 164 0
153 167 0
149 161 0
150 163 0
148 159 0
150 162 0
148 159 0
147 160 0
157 173 0
151 165 0
154 168 0
154 166 0
154 169 0
152 165 0
152 167 0
154 167 0
155 169 0
152 163 0
157 170 0
143 158 0
146 160 0
148 162 0
153 166 0
157 170 0
155 169 0
153 167 0
155 169 0
157 172 0
153 169 0
158 172 0
159 174 0
154 169 0
158 172 0
162 178 0
156 170 0
156 171 0
156 173 0
162 178 0
162 178 0
163 178 0
163 178 0
169 185 0
164 179 0
157 170 0
161 176 0
157 170 0
161 177 0
161 176 0
156 170 0
156 170 0
163 177 0
166 183 0
161 178 0
160 178 0
160 178 0
163 179 0
163 180 0
163 179 0
164 182 0
162 181 0
160 178 0
161 177 0
159 175 0
169 187 0
162 179 0
161 180 0
167 186 0
164 181 0
164 182 0
166 183 0
166 185 0
165 184 0
164 181 0
160 176 0
165 184 0
162 181 0
161 179 0
163 182 0
166 184 0
168 187 0
170 189 0
167 188 0
170 194 67
172 196 76
172 196 76
170 195 80
173 197 67
171 195 76
167 192 57
172 197 84
173 197 67
169 192 72
170 193 62
171 195 76
165 188 57
169 192 76
169 193 76
170 194 72
170 194 72
171 195 80
171 195 62
164 188 62
165 190 62
167 191 80
166 190 80
166 191 51
166 190 72
166 191 84
167 190 67
166 189 76
167 191 62
169 193 67
172 196 92
168 193 72
168 193 72
165 190 76
168 193 84
169 192 76
167 190 44
163 187 62
165 189 80
167 191 72
164 187 57
166 190 84
168 191 62
169 194 95
168 192 92
166 189 76
166 190 80
166 191 92
168 191 57
165 189 62
164 188 67
169 193 67
163 187 76
164 187 67
163 187 88
170 193 67
163 185 44
163 188 88
166 189 80
161 185 76
163 186 84
162 185 62
163 186 44
163 187 76
156 178 51
165 188 57
164 189 102
164 187 76
155 178 67
157 181 84
167 190 76
156 179 72
157 180 76
160 183 78
159 181 72
157 180 82
154 176 57
158 181 57
156 179 57
153 176 72
145 167 67
150 173 67
159 183 95
161 183 62
153 176 67
157 180 92
135 158 84
94 121 131
92 118 122
85 112 120
90 117 136
85 113 128
96 122 135
93 119 128
93 120 129
96 122 134
80 108 136
88 115 135
102 128 140
87 114 126
80 109 132
95 121 132
105 130 141
88 114 132
98 124 139
78 106 127
101 126 143
100 126 139
98 124 144
92 119 140
87 115 136
103 128 158
99 125 147
105 130 143
96 119 133
95 120 128
105 128 139
85 112 137
92 119 133
95 122 140
85 114 143
79 110 153
77 108 158
75 107 164
74 106 156
77 108 159
75 107 167
73 103 151
80 106 145
76 103 143
71 101 142
75 103 148
64 96 130
61 96 144
59 94 146
61 96 145
61 97 142
60 95 139
61 95 130
63 97 129
67 99 129
69 101 130
61 94 129
65 98 120
65 96 117
76 105 113
58 92 118
57 90 113
58 92 133
59 94 134
58 92 120
59 93 126
57 90 126
57 91 121
58 92 122
59 94 126
59 94 135
60 95 133
60 95 133
61 96 143
58 93 136
59 94 128
60 95 140
60 95 141
59 93 126
58 92 126
58 92 131
59 94 131
59 93 130
60 94 129
60 94 134
59 94 133
60 94 133
60 94 130
59 93 130
60 94 138
59 94 136
60 94 135
59 93 129
60 95 134
59 93 131
60 94 134
60 94 130
59 94 130
60 94 137
58 93 119
60 94 142
59 94 134
59 93 124
58 92 130
60 95 137
58 93 124
59 93 128
61 96 137
59 94 136
59 94 136
60 94 135
60 95 137
59 93 130
59 93 121
60 94 131
58 93 122
58 92 125
57 90 120
59 93 125
58 92 124
59 94 135
60 94 130
60 95 139
60 94 129
59 93 129
58 92 117
60 94 136
58 92 111
59 93 128
59 93 129
59 93 125
60 94 126
59 94 128
58 92 115
60 95 133
60 94 129
58 92 115
59 93 120
55 88 111
59 93 117
57 90 110
58 92 114
57 91 107
58 91 125
59 92 117
59 93 122
58 91 117
59 93 121
57 91 111
58 91 113
56 89 108
56 88 111
57 90 113
57 89 113
90 112 88
108 124 18
123 136 0
112 126 0
116 130 0
116 128 0
122 138 0
113 126 0
122 138 0
117 132 0
119 134 0
124 140 0
120 135 0
134 149 0
123 138 0
120 135 0
125 138 0
128 140 0
133 150 0
126 139 0
122 135 0
127 140 0
120 134 0
133 147 0
127 143 0
124 139 0
137 152 0
126 139 0
125 140 0
131 143 0
142 157 0
132 145 0
133 147 0
128 142 0
128 143 0
128 140 0
127 141 0
136 151 0
122 134 0
135 149 0
136 151 0
138 153 0
143 157 0
147 161 0
137 150 0
146 161 0
148 162 0
143 157 0
132 143 0
143 159 0
137 150 0
148 160 0
144 157 0
138 155 0
147 161 0
139 153 0
137 150 0
140 152 0
147 161 0
147 160 0
144 159 0
133 145 0
148 163 0
146 160 0
147 161 0
148 163 0
143 158 0
151 165 0
146 162 0
146 162 0
146 159 0
146 159 0
146 160 0
149 161 0
150 164 0
153 167 0
152 168 0
148 162 0
142 151 0
147 160 0
148 158 0
152 166 0
147 160 0
154 168 0
145 157 0
159 175 0
157 173 0
147 162 0
150 165 0
146 159 0
149 161 0
145 158 0
155 168 0
154 169 0
154 168 0
153 167 0
155 168 0
158 173 0
151 166 0
150 163 0
156 170 0
155 169 0
154 168 0
153 167 0
146 159 0
157 171 0
156 169 0
160 178 0
154 168 0
152 167 0
158 174 0
159 175 0
162 177 0
163 180 0
163 179 0
157 174 0
159 176 0
162 176 0
161 177 0
160 174 0
165 181 0
161 179 0
159 176 0
165 180 0
163 180 0
161 178 0
163 179 0
159 176 0
158 178 0
161 178 0
155 170 0
165 182 0
160 176 0
165 184 0
159 175 0
162 178 0
162 178 0
159 178 0
164 183 0
168 187 0
166 183 0
166 182 0
164 182 0
164 180 0
168 186 0
167 185 0
165 184 0
167 185 0
163 180 0
165 183 0
169 188 0
167 184 0
167 186 0
167 186 0
167 186 0
165 182 0
159 178 0
167 187 0
168 187 0
165 183 0
171 195 80
171 196 88
171 195 67
172 197 99
172 197 72
171 195 84
170 194 95
175 199 92
171 195 80
167 191 51
171 196 76
172 195 88
172 196 76
169 193 67
172 196 76
171 195 44
166 190 80
168 192 44
171 195 76
170 193 51
169 193 51
167 191 67
169 192 62
169 193 62
171 195 84
168 192 62
167 191 67
165 189 76
167 192 51
168 192 67
167 190 57
167 191 80
159 183 36
170 193 62
167 191 76
165 189 72
166 191 76
168 191 67
166 191 67
171 195 72
162 187 72
168 193 67
165 190 67
164 188 84
162 186 72
164 187 62
169 194 95
166 191 92
157 181 62
164 188 76
166 190 95
162 186 84
165 189 72
165 188 62
169 192 88
163 187 80
161 185 84
161 185 72
157 181 57
161 186 76
163 187 67
155 180 84
159 183 72
158 182 62
159 183 72
161 184 67
160 183 62
166 189 76
164 187 67
159 183 76
157 180 72
161 184 84
159 182 57
156 179 84
157 180 72
153 175 25
159 181 51
149 173 84
148 171 51
159 181 88
148 171 57
163 185 80
156 179 36
159 182 84
151 175 67
154 176 44
155 176 67
119 143 90
78 106 125
91 117 126
102 128 140
79 108 109
86 114 118
89 116 126
87 114 131
86 115 144
101 126 137
97 123 136
101 127 147
85 112 126
91 117 131
108 133 152
101 127 147
75 104 128
98 124 146
89 115 132
91 118 140
94 119 141
101 126 140
99 124 142
101 127 143
100 125 136
89 117 148
113 138 154
105 129 142
93 119 138
102 127 127
94 119 137
95 122 152
88 116 120
86 115 137
86 116 152
77 108 161
69 102 165
79 109 155
62 97 152
75 107 163
78 106 150
65 98 144
85 108 141
79 105 149
80 105 144
74 102 142
59 94 134
60 95 135
60 96 142
57 92 136
58 93 124
61 97 144
60 95 134
65 98 134
59 93 131
65 98 139
61 95 133
61 96 139
69 100 126
59 92 118
58 92 124
58 92 129
59 94 129
58 92 130
58 92 131
58 92 122
58 93 129
60 96 142
59 93 129
59 93 131
56 89 110
58 92 128
59 93 133
60 95 140
59 93 124
60 95 135
59 93 132
58 93 130
58 92 121
58 92 115
57 91 107
59 93 125
58 92 125
58 92 124
60 95 134
58 93 121
61 95 140
59 93 133
59 93 127
59 94 117
60 94 137
60 95 131
58 93 123
60 95 137
59 93 135
59 94 124
60 95 136
60 94 130
61 95 143
58 93 125
60 95 130
59 93 131
58 93 121
58 92 126
59 94 128
59 94 140
58 92 128
59 93 129
60 95 133
59 94 129
60 94 131
59 94 130
58 92 125
58 92 122
60 94 131
58 93 130
58 92 120
58 92 124
60 95 134
58 92 120
59 92 118
59 94 129
58 91 122
58 92 121
58 91 124
60 94 128
59 93 128
59 93 126
60 95 130
57 89 100
57 90 110
57 91 117
58 92 117
57 90 120
59 93 122
59 93 126
58 91 120
59 93 122
58 91 117
57 90 113
57 90 111
58 91 124
56 89 102
57 90 122
57 90 108
57 91 115
58 91 108
57 91 117
57 90 118
56 89 105
56 89 108
55 87 99
79 103 86
111 123 0
105 117 0
124 140 0
119 133 0
123 135 0
116 129 0
119 132 0
121 132 0
105 118 0
119 134 0
117 132 0
113 126 0
119 132 0
127 141 0
124 139 0
126 142 0
118 132 0
127 142 0
118 133 0
115 128 0
134 149 0
131 146 0
126 142 0
128 142 0
129 142 0
130 143 0
129 144 0
136 151 0
125 139 0
130 144 0
132 146 0
128 140 0
124 138 0
133 147 0
125 140 0
137 153 0
138 154 0
137 151 0
135 149 0
136 149 0
141 157 0
137 151 0
141 155 0
145 158 0
142 156 0
136 148 0
140 153 0
138 152 0
143 158 0
142 156 0
144 160 0
145 160 0
144 157 0
131 145 0
142 157 0
138 154 0
150 164 0
147 162 0
151 167 0
134 146 0
148 164 0
142 157 0
149 163 0
148 162 0
149 161 0
148 162 0
152 166 0
154 171 0
142 156 0
153 169 0
149 163 0
148 161 0
147 160 0
149 160 0
144 159 0
149 163 0
142 155 0
146 159 0
151 165 0
154 170 0
148 162 0
149 161 0
146 159 0
152 166 0
151 165 0
151 164 0
153 167 0
150 162 0
153 166 0
153 165 0
148 162 0
149 163 0
153 164 0
153 167 0
155 168 0
155 171 0
163 181 0
151 167 0
157 171 0
154 169 0
153 168 0
156 172 0
157 175 0
158 174 0
156 169 0
159 176 0
162 178 0
157 174 0
158 172 0
156 169 0
159 172 0
158 174 0
157 170 0
160 177 0
162 177 0
162 179 0
162 180 0
162 177 0
154 168 0
163 181 0
162 179 0
162 177 0
161 180 0
162 178 0
162 177 0
157 173 0
163 179 0
160 177 0
161 176 0
162 180 0
161 176 0
161 178 0
165 184 0
164 182 0
163 180 0
166 184 0
165 182 0
164 182 0
155 171 0
165 183 0
168 187 0
163 180 0
166 184 0
159 176 0
164 183 0
162 179 0
166 185 0
162 181 0
165 181 0
166 185 0
161 180 0
163 182 0
166 185 0
163 184 0
168 188 0
164 181 0
165 183 0
166 185 0
165 185 0
168 188 0
172 197 99
170 194 84
173 196 72
170 195 72
168 192 57
174 198 72
169 193 92
167 190 72
168 192 84
166 190 57
171 195 67
172 196 67
171 196 84
167 191 62
168 192 72
168 192 76
165 189 51
168 192 76
171 195 88
170 194 84
167 191 76
167 190 44
170 195 67
168 192 76
167 191 72
169 193 57
167 192 51
168 192 76
167 191 76
165 188 57
172 196 99
168 193 92
170 194 72
160 185 72
167 191 67
170 194 67
163 187 72
168 192 51
169 193 36
166 190 80
168 192 92
167 192 67
163 187 72
166 190 84
161 185 51
168 192 80
163 187 72
165 189 80
163 188 57
169 192 67
163 187 76
162 187 80
164 188 80
163 188 80
154 177 80
161 185 72
159 184 80
164 188 72
163 187 76
155 178 76
157 181 76
162 185 62
165 189 62
159 182 67
159 183 67
163 187 88
157 181 67
162 186 80
161 184 84
156 179 72
160 183 95
157 180 80
153 176 72
164 187 84
161 184 72
152 175 57
158 181 92
148 171 67
156 179 67
157 180 76
161 183 57
154 177 76
159 181 88
149 172 92
156 179 57
149 171 76
156 179 76
155 178 86
106 131 121
88 115 126
85 112 128
90 116 120
79 106 115
85 113 124
79 108 137
88 117 139
86 114 134
85 113 131
109 133 147
100 124 134
88 115 127
85 113 137
93 119 129
89 115 122
93 120 137
99 126 143
96 123 139
89 115 143
99 124 140
83 110 136
83 111 139
97 123 140
91 117 143
93 119 122
94 120 136
99 124 134
97 123 123
99 125 138
89 115 134
94 119 141
95 122 145
84 113 137
81 111 164
85 114 164
74 105 152
76 107 158
74 105 147
81 111 165
79 106 151
68 99 148
75 104 154
82 106 136
78 105 149
69 100 142
61 96 149
60 95 143
60 95 143
60 94 137
59 93 133
60 94 135
68 100 125
64 96 123
61 95 127
62 94 118
63 96 137
70 101 110
71 102 118
58 92 120
58 92 135
57 91 125
59 93 133
58 92 124
58 92 122
58 91 108
58 92 120
59 93 123
59 93 125
59 93 124
59 93 125
60 94 130
60 94 128
59 93 129
59 93 131
61 96 149
60 95 133
58 93 126
59 94 128
59 93 124
60 95 137
60 95 141
59 94 125
59 93 133
59 93 133
58 92 122
59 93 128
60 94 134
58 92 122
60 94 131
59 93 130
58 93 126
60 95 129
61 96 131
60 95 135
59 94 135
60 95 136
59 93 129
59 93 122
61 95 140
60 94 131
58 93 115
59 93 128
58 92 126
60 95 134
58 93 126
60 95 140
60 95 131
59 93 134
59 94 124
60 94 126
60 95 135
59 92 121
59 94 130
60 95 133
60 95 130
58 92 121
60 95 136
58 92 118
58 92 128
60 95 133
59 93 129
58 92 114
59 94 133
58 93 120
58 92 121
59 94 129
58 91 117
59 93 122
60 94 124
60 94 120
58 92 118
58 92 125
59 93 118
58 91 117
58 92 118
58 91 122
57 91 122
58 92 113
58 92 121
57 91 111
58 92 114
56 89 103
57 91 111
56 89 107
58 91 114
56 89 107
56 89 103
56 88 99
56 89 99
63 89 82
111 127 0
117 130 0
120 136 0
121 135 0
109 123 0
115 130 0
112 128 0
126 140 0
122 137 0
126 140 0
123 135 0
111 126 0
114 131 0
127 141 0
130 143 0
119 132 0
122 137 0
117 132 0
125 138 0
121 134 0
120 137 0
126 139 0
138 151 0
128 141 0
123 135 0
132 148 0
125 140 0
137 151 0
130 146 0
124 137 0
132 148 0
132 146 0
132 148 0
139 154 0
136 152 0
141 157 0
141 156 0
129 143 0
129 143 0
131 147 0
143 158 0
143 157 0
138 153 0
140 154 0
136 152 0
132 144 0
139 156 0
139 153 0
134 147 0
147 163 0
142 154 0
143 158 0
136 150 0
144 157 0
140 153 0
141 156 0
142 156 0
143 158 0
137 153 0
138 153 0
144 159 0
140 155 0
146 159 0
150 164 0
133 145 0
146 160 0
149 164 0
147 162 0
143 157 0
138 153 0
151 166 0
142 154 0
152 167 0
148 159 0
155 169 0
142 153 0
149 163 0
149 163 0
147 161 0
143 156 0
150 166 0
153 167 0
152 167 0
156 171 0
153 169 0
153 165 0
148 162 0
148 160 0
155 172 0
157 173 0
151 167 0
152 165 0
151 167 0
153 167 0
155 169 0
157 174 0
152 166 0
157 172 0
155 170 0
156 170 0
153 166 0
154 169 0
154 171 0
156 170 0
156 171 0
162 178 0
159 175 0
156 173 0
159 174 0
158 174 0
157 171 0
152 167 0
161 175 0
166 183 0
160 178 0
160 173 0
155 169 0
159 176 0
158 172 0
153 169 0
161 177 0
161 175 0
163 180 0
157 171 0
163 181 0
159 176 0
161 179 0
161 180 0
161 176 0
167 184 0
164 182 0
161 177 0
164 181 0
162 179 0
164 182 0
163 180 0
160 176 0
162 179 0
159 176 0
167 185 0
164 183 0
162 180 0
171 189 0
165 184 0
163 180 0
167 185 0
164 181 0
165 182 0
164 183 0
168 188 0
164 181 0
170 188 0
165 183 0
165 184 0
164 181 0
162 179 0
168 187 0
167 185 0
168 188 0
169 188 0
167 186 0
169 193 84
169 193 92
170 194 36
168 192 62
173 196 80
171 195 57
166 190 67
172 196 76
170 194 62
171 195 84
167 190 51
167 192 76
168 192 44
169 193 67
171 195 76
172 197 84
168 192 92
170 195 84
169 194 84
164 189 76
169 194 62
173 196 62
169 194 72
170 194 51
170 194 72
169 193 67
173 198 92
172 197 80
171 195 51
168 192 44
163 187 57
169 193 88
171 194 62
170 195 72
168 192 88
166 191 80
171 195 67
169 194 88
164 189 76
165 189 62
167 191 57
167 191 67
163 187 57
168 192 67
165 189 80
167 191 92
167 191 76
166 191 88
165 190 88
162 185 57
158 182 51
162 186 72
161 185 62
165 189 99
159 183 76
166 190 67
166 190 72
161 185 76
161 185 51
162 185 67
162 185 72
161 185 57
159 184 76
168 191 88
162 185 57
155 178 51
152 177 80
158 182 67
155 178 62
157 180 80
155 178 76
163 187 57
157 181 88
158 182 92
167 190 84
154 177 72
155 179 84
152 174 57
158 181 62
157 181 62
160 181 67
153 176 57
159 182 84
154 177 51
157 180 99
145 167 80
154 177 80
146 169 51
137 158 78
99 125 118
95 121 125
94 121 122
78 106 114
80 109 118
88 116 126
81 109 124
85 112 131
95 120 125
96 123 144
101 126 123
101 127 138
94 119 122
107 131 153
87 114 126
84 111 131
91 118 143
104 129 157
86 113 132
81 109 134
87 114 139
100 125 139
96 121 133
102 126 143
89 116 137
96 121 131
107 132 128
105 129 148
99 124 131
93 119 136
93 119 150
97 124 144
93 119 139
89 117 143
77 108 163
68 101 153
80 111 162
78 109 158
81 111 163
80 109 152
76 102 139
80 105 145
71 100 139
86 108 135
80 103 129
67 97 142
61 96 143
63 97 141
61 95 131
61 96 150
58 92 134
60 94 134
62 95 126
58 93 124
63 96 120
65 96 110
66 98 120
83 111 105
57 91 115
57 90 118
57 91 123
58 92 115
58 92 118
58 92 130
58 93 124
57 91 117
59 93 134
57 91 114
58 92 120
58 92 128
60 94 130
59 93 125
60 94 134
58 93 122
57 91 115
58 91 126
59 93 124
58 92 122
58 92 117
60 94 130
60 94 136
59 92 126
59 94 137
59 94 129
58 92 114
58 92 121
60 95 140
60 95 134
59 94 129
60 94 134
60 95 129
59 93 120
61 96 140
59 94 125
60 94 126
59 94 139
59 93 126
59 93 120
59 93 130
59 93 126
57 91 118
60 94 135
58 92 120
58 92 124
58 91 126
60 95 136
60 94 122
61 95 128
60 94 133
60 95 133
58 92 115
58 92 118
58 92 121
57 91 117
58 91 124
60 94 128
60 94 131
58 93 128
59 93 125
58 92 121
59 94 135
58 91 124
58 92 126
59 93 128
59 93 135
59 94 126
57 90 115
60 94 128
59 93 124
58 93 122
59 94 130
56 89 110
58 92 124
59 93 122
58 91 111
59 93 121
57 90 110
57 91 113
59 93 125
56 90 120
58 92 122
58 91 120
57 91 120
57 90 118
56 89 111
56 89 111
56 88 103
55 87 105
71 96 82
104 119 36
119 134 0
113 127 0
113 127 0
118 130 0
114 127 0
119 136 0
118 131 0
108 122 0
111 123 0
114 129 0
120 137 0
120 137 0
114 129 0
127 139 0
130 145 0
126 138 0
127 144 0
121 135 0
139 155 0
112 127 0
126 140 0
124 140 0
134 150 0
140 155 0
123 137 0
126 142 0
128 143 0
121 136 0
134 149 0
130 146 0
137 154 0
128 143 0
142 157 0
136 152 0
131 145 0
135 152 0
129 143 0
125 141 0
140 156 0
137 152 0
137 153 0
141 154 0
139 153 0
139 152 0
132 144 0
138 152 0
136 148 0
141 158 0
141 154 0
143 158 0
136 151 0
140 154 0
146 163 0
133 147 0
130 144 0
146 158 0
148 163 0
146 162 0
152 168 0
142 157 0
147 165 0
150 165 0
138 150 0
146 159 0
150 165 0
146 161 0
149 163 0
148 162 0
141 153 0
144 156 0
148 161 0
145 159 0
151 164 0
145 161 0
147 161 0
155 170 0
147 162 0
153 167 0
158 173 0
150 165 0
150 164 0
153 167 0
153 166 0
154 169 0
154 168 0
149 164 0
142 156 0
153 167 0
151 164 0
150 164 0
152 169 0
156 171 0
156 170 0
159 176 0
156 172 0
152 166 0
155 172 0
159 175 0
159 177 0
151 165 0
160 177 0
153 168 0
157 174 0
155 170 0
155 172 0
153 169 0
156 172 0
156 171 0
160 177 0
161 178 0
159 176 0
159 173 0
160 177 0
161 177 0
156 171 0
158 173 0
161 177 0
156 173 0
160 177 0
158 174 0
162 179 0
162 180 0
162 177 0
160 178 0
164 182 0
162 177 0
159 175 0
160 177 0
159 176 0
164 182 0
162 179 0
165 183 0
164 181 0
166 186 0
157 174 0
162 179 0
161 178 0
166 184 0
165 183 0
162 181 0
162 179 0
167 186 0
169 188 0
162 181 0
164 182 0
160 176 0
164 180 0
163 182 0
161 179 0
168 188 0
162 182 0
167 184 0
166 185 0
163 182 0
170 190 0
166 186 0
163 182 0
161 179 0
166 185 0
170 190 0
165 185 0
171 195 76
170 194 51
168 192 62
173 198 92
172 196 72
171 194 51
169 192 51
173 197 76
166 190 72
167 191 62
171 195 84
170 194 62
168 193 84
164 188 67
171 194 57
167 191 57
170 193 72
169 192 62
171 197 99
168 193 80
170 194 84
169 193 88
173 197 57
168 191 51
169 194 67
169 193 80
171 195 99
168 192 51
169 194 57
165 188 57
171 195 62
168 192 72
167 191 80
166 189 57
158 181 51
168 192 76
165 190 80
172 196 51
169 193 80
167 191 72
167 190 67
165 190 84
168 191 67
161 185 67
166 191 80
163 187 51
168 193 76
166 190 51
164 188 62
166 190 51
160 184 57
165 189 57
166 189 62
165 189 88
165 189 95
159 183 62
163 187 80
166 190 57
157 180 62
159 183 76
163 187 72
158 182 62
163 186 67
161 184 88
157 179 67
163 187 72
154 177 44
164 187 57
166 190 88
162 185 76
164 188 67
152 176 80
164 188 72
155 177 88
155 178 84
151 174 62
154 176 72
158 181 80
154 178 92
155 178 57
159 181 84
151 175 57
154 177 80
163 185 92
155 177 86
155 178 84
155 177 72
157 180 72
153 174 80
128 150 84
94 122 140
96 122 122
88 115 112
108 133 140
83 110 102
92 118 128
90 117 126
90 117 144
87 115 137
87 114 124
83 111 126
90 116 137
85 111 109
96 122 134
92 119 137
90 116 141
100 125 147
86 114 139
90 117 129
97 123 138
104 129 139
103 128 139
90 116 122
103 128 145
100 127 153
101 127 142
95 121 137
92 118 132
103 127 137
98 122 135
105 129 144
103 129 146
87 115 147
85 114 155
71 103 151
81 112 173
72 104 154
74 105 154
77 108 156
73 103 153
81 106 144
79 105 139
83 107 146
80 106 141
75 103 144
60 95 143
60 95 137
62 96 133
59 93 129
59 93 128
61 94 124
63 96 126
59 94 133
63 96 118
63 95 124
62 93 106
78 107 121
69 100 121
57 90 119
58 92 126
58 92 113
59 93 133
58 92 129
57 91 120
56 90 110
59 92 115
57 91 127
59 93 115
59 93 124
58 92 121
59 93 126
58 93 122
58 91 125
59 94 135
58 92 129
58 92 123
59 93 126
58 92 122
61 95 131
61 95 140
58 92 118
59 93 117
60 94 128
57 91 121
60 94 133
58 92 118
60 94 134
58 92 113
57 90 118
58 93 128
58 91 116
59 94 129
59 93 122
59 93 130
59 93 126
57 91 113
61 95 135
60 95 129
59 93 126
58 92 120
60 94 126
58 92 125
57 90 117
59 93 118
59 93 130
59 93 134
58 92 118
59 92 122
58 92 122
59 93 126
59 93 126
60 94 133
59 93 129
59 93 130
60 94 128
60 94 129
59 93 125
60 94 122
58 92 117
57 91 121
60 94 131
58 92 120
59 93 120
58 92 120
59 93 124
59 92 129
57 91 114
60 95 124
60 94 129
58 92 114
58 91 120
58 92 121
58 92 126
57 89 114
58 91 121
58 92 117
59 93 115
57 90 118
58 92 118
59 93 118
57 90 110
57 90 110
57 90 105
57 90 111
56 89 107
55 86 105
80 103 81
111 125 18
110 123 0
108 121 0
110 124 0
113 128 0
118 130 0
127 141 0
120 132 0
120 134 0
128 143 0
129 144 0
126 141 0
121 135 0
129 144 0
132 145 0
115 131 0
123 138 0
123 139 0
113 127 0
122 139 0
128 143 0
125 139 0
129 145 0
130 145 0
120 135 0
128 142 0
133 147 0
132 146 0
144 162 0
129 145 0
134 150 0
133 148 0
134 150 0
141 155 0
137 153 0
133 147 0
118 135 0
131 147 0
130 146 0
132 149 0
135 150 0
127 140 0
138 153 0
141 157 0
134 148 0
127 139 0
150 165 0
149 165 0
138 155 0
142 159 0
138 152 0
142 159 0
137 153 0
142 156 0
138 151 0
132 146 0
148 162 0
143 157 0
138 153 0
138 152 0
142 158 0
147 159 0
147 160 0
150 166 0
141 156 0
141 156 0
149 161 0
142 156 0
147 164 0
145 160 0
153 167 0
151 164 0
145 159 0
148 161 0
145 162 0
157 174 0
156 169 0
154 169 0
151 167 0
154 168 0
155 168 0
158 172 0
148 162 0
154 170 0
157 174 0
155 166 0
161 174 0
144 159 0
156 174 0
152 169 0
155 169 0
147 164 0
157 173 0
156 173 0
156 168 0
155 169 0
164 178 0
146 162 0
156 171 0
152 168 0
151 165 0
156 174 0
157 173 0
154 168 0
158 175 0
158 171 0
159 175 0
147 160 0
161 176 0
153 170 0
157 173 0
161 179 0
156 172 0
162 178 0
154 168 0
163 181 0
161 178 0
157 171 0
159 175 0
160 175 0
159 174 0
161 179 0
159 176 0
160 176 0
158 174 0
162 179 0
163 181 0
161 177 0
161 180 0
165 182 0
160 176 0
165 182 0
164 182 0
163 181 0
167 184 0
163 180 0
164 182 0
168 187 0
165 185 0
166 184 0
167 186 0
162 178 0
163 181 0
168 186 0
165 183 0
164 183 0
164 184 0
169 188 0
165 183 0
162 182 0
163 183 0
164 183 0
163 181 0
166 184 0
160 180 0
165 181 0
166 186 0
168 187 0
162 179 0
165 184 0
165 184 0
168 188 0
169 187 0
171 195 76
172 196 57
170 194 72
170 195 67
171 195 76
172 197 80
172 196 102
169 193 67
168 193 92
173 197 88
172 195 72
167 190 72
173 196 72
173 198 84
175 198 76
167 191 72
167 190 62
170 195 76
171 195 67
165 190 80
163 187 72
169 193 67
168 193 84
166 191 92
167 191 57
167 191 72
171 196 84
169 194 57
166 190 51
165 189 62
167 190 67
172 196 92
165 189 72
167 191 67
163 187 57
163 186 67
165 189 67
168 191 62
161 186 88
171 195 76
164 188 62
163 187 80
164 189 76
159 183 51
165 190 67
163 187 80
166 189 51
169 193 57
170 194 84
170 194 88
159 183 62
167 192 92
158 183 88
159 182 67
165 189 76
159 182 44
166 189 44
160 184 72
157 182 72
162 186 62
159 182 51
161 185 80
171 194 72
159 183 72
161 184 72
165 188 84
162 185 67
169 192 80
159 182 57
163 186 80
155 178 67
163 187 99
158 182 76
155 177 62
148 170 80
153 177 76
154 178 67
153 177 67
161 185 76
151 174 88
160 183 92
159 181 67
154 176 72
151 174 62
154 176 67
151 172 76
142 164 44
153 176 92
144 166 67
150 172 76
120 144 94
85 112 115
89 115 117
89 116 113
100 126 125
85 112 118
93 120 137
84 112 122
80 108 113
86 112 110
83 111 120
88 114 133
93 120 142
79 107 122
93 118 138
105 129 141
93 120 141
77 106 128
101 126 127
99 123 142
95 121 140
84 111 129
94 121 141
98 122 129
104 130 143
101 126 121
100 125 146
103 127 136
96 120 125
107 129 128
105 127 141
94 120 131
82 111 143
91 118 144
84 113 161
75 106 162
80 110 162
86 115 165
83 111 154
94 121 172
65 98 144
80 105 138
79 105 143
79 104 138
71 101 144
70 99 132
60 95 134
60 95 138
60 95 140
60 95 135
62 95 130
63 95 124
60 95 136
59 92 113
65 98 128
62 95 121
58 91 123
69 101 115
58 92 124
59 93 139
56 88 114
58 92 115
59 93 129
58 92 123
57 91 115
58 92 122
57 91 119
56 90 115
57 90 120
59 93 125
58 91 127
59 93 126
59 93 124
58 92 124
60 95 134
57 90 116
60 95 134
59 93 126
58 92 128
58 93 124
58 92 124
59 93 122
57 91 121
59 93 130
58 92 128
59 93 124
60 94 126
61 95 139
57 90 113
59 93 124
59 93 121
60 94 129
60 94 126
59 93 125
58 92 125
58 92 115
60 95 133
58 92 121
59 94 125
60 94 124
59 94 125
60 94 126
59 94 128
59 93 120
58 92 114
59 93 126
60 94 129
60 94 133
59 93 117
59 94 135
56 90 100
58 91 114
58 92 115
60 95 137
60 94 135
60 94 122
59 93 121
59 93 126
58 92 115
58 91 115
59 92 121
58 91 120
60 94 134
58 92 124
59 93 126
59 93 114
58 92 113
58 92 120
57 90 115
56 89 103
57 90 114
57 91 120
57 89 110
59 93 115
59 92 124
58 91 115
59 92 122
57 90 103
58 91 125
55 88 99
55 88 113
55 87 99
57 90 100
55 87 92
54 86 100
66 92 84
108 120 0
106 119 0
115 128 0
116 129 0
111 125 0
113 125 0
121 136 0
122 135 0
116 131 0
128 143 0
137 152 0
126 143 0
111 126 0
129 143 0
130 144 0
118 133 0
122 136 0
133 145 0
132 149 0
115 130 0
128 142 0
132 148 0
127 142 0
118 133 0
140 155 0
128 144 0
133 147 0
122 138 0
128 146 0
128 144 0
137 152 0
133 148 0
128 142 0
140 158 0
132 147 0
131 146 0
136 150 0
144 160 0
131 148 0
137 153 0
134 149 0
138 155 0
136 150 0
137 152 0
127 141 0
138 153 0
141 157 0
135 149 0
122 139 0
138 151 0
136 150 0
151 167 0
138 153 0
134 148 0
136 150 0
135 152 0
136 154 0
142 155 0
144 159 0
135 149 0
140 154 0
154 169 0
150 166 0
146 161 0
141 157 0
142 158 0
143 159 0
147 163 0
144 159 0
138 152 0
142 158 0
145 160 0
140 155 0
149 164 0
148 163 0
145 160 0
149 163 0
146 162 0
146 162 0
152 168 0
156 171 0
149 164 0
149 164 0
151 165 0
150 164 0
151 165 0
148 163 0
145 158 0
158 173 0
156 174 0
153 169 0
158 169 0
154 171 0
158 175 0
154 171 0
149 163 0
156 174 0
151 166 0
154 170 0
159 176 0
154 168 0
156 172 0
156 173 0
156 170 0
157 173 0
154 169 0
161 178 0
154 170 0
158 173 0
158 172 0
161 178 0
158 175 0
157 173 0
158 175 0
154 171 0
161 179 0
162 180 0
157 174 0
164 182 0
159 176 0
160 176 0
160 175 0
161 178 0
160 178 0
159 174 0
165 182 0
162 180 0
159 174 0
165 181 0
166 182 0
161 178 0
157 172 0
163 181 0
161 178 0
159 177 0
164 179 0
166 184 0
160 177 0
162 178 0
161 180 0
166 185 0
167 185 0
164 182 0
167 187 0
165 183 0
162 181 0
163 182 0
167 187 0
163 182 0
163 181 0
162 180 0
166 185 0
161 179 0
163 183 0
166 184 0
166 185 0
168 185 0
168 188 0
163 181 0
165 184 0
164 183 0
168 188 0
165 184 0
162 181 0
168 191 67
169 193 76
165 189 57
170 195 80
173 197 92
171 195 88
169 194 67
169 193 62
171 195 67
171 196 67
173 197 88
164 188 62
172 195 76
174 197 62
169 193 72
169 193 62
171 195 67
169 192 62
166 191 62
166 190 57
169 194 67
169 193 76
171 195 72
166 190 80
171 194 57
172 197 95
169 194 72
168 192 76
167 192 76
164 189 72
165 190 92
166 189 62
167 191 72
165 188 62
167 191 62
169 193 67
168 193 88
167 191 76
163 186 62
165 189 62
168 192 72
165 191 84
161 185 84
171 195 80
166 190 76
163 187 80
164 188 72
161 185 76
165 190 76
164 189 72
165 190 72
163 188 72
162 186 76
170 195 88
161 185 88
162 185 62
162 186 67
159 183 67
163 187 72
160 184 62
166 191 95
166 189 72
156 180 76
156 180 62
162 186 84
161 185 80
154 177 62
153 177 57
163 187 84
155 179 72
161 184 76
153 176 76
155 179 67
155 178 72
153 176 80
148 171 72
153 176 67
157 180 62
166 188 95
152 175 76
155 177 62
149 171 67
156 178 76
158 181 72
160 182 80
146 167 76
154 177 72
144 166 84
144 165 88
145 168 84
157 179 84
101 124 94
87 114 126
89 116 108
100 125 134
97 122 136
76 104 123
89 115 126
84 111 113
93 118 126
82 109 121
96 122 136
100 124 140
88 114 127
96 121 140
92 118 137
102 127 133
98 124 150
87 114 141
103 127 129
96 122 149
96 122 139
89 116 142
98 123 138
100 125 129
107 131 152
96 122 136
103 128 142
96 121 136
105 129 134
104 128 140
100 123 142
89 116 137
77 106 129
82 112 157
69 102 153
88 116 161
68 101 155
86 114 159
85 114 155
72 102 140
73 101 143
77 104 134
73 101 129
75 102 139
74 101 133
65 97 134
59 94 141
62 96 133
57 91 126
60 95 136
62 96 130
63 96 120
61 94 120
63 96 124
62 96 133
61 93 113
84 112 105
61 93 115
56 89 114
59 94 124
58 92 125
56 89 110
57 90 113
57 91 114
59 93 128
59 94 129
56 89 118
59 92 113
57 91 113
59 94 130
60 94 126
58 91 122
59 93 128
58 92 122
58 92 120
59 94 134
57 91 118
57 90 122
59 93 129
59 93 126
59 93 124
59 93 125
59 94 126
59 93 129
59 94 130
59 93 118
57 91 126
59 93 133
58 92 126
58 92 120
58 93 121
59 93 129
59 93 128
61 95 142
59 93 124
57 91 115
58 92 117
59 94 128
59 93 130
59 93 118
59 93 120
57 91 124
59 93 124
59 93 135
58 91 114
59 93 125
58 91 108
60 94 135
58 92 114
60 94 121
57 91 111
60 94 131
59 93 120
59 93 117
57 91 118
59 93 128
57 91 120
59 92 129
58 91 126
59 93 113
60 94 126
58 91 122
59 93 120
58 91 113
57 90 117
58 91 118
57 90 105
56 89 110
58 91 117
58 92 129
60 94 128
57 90 117
57 90 115
58 92 126
57 90 105
59 93 128
56 89 115
56 88 110
57 90 114
56 89 103
53 84 95
53 85 88
56 88 104
80 103 76
107 122 0
106 121 0
111 128 0
115 129 0
121 138 0
111 125 0
114 126 0
115 131 0
117 133 0
121 135 0
119 133 0
107 121 0
122 136 0
118 133 0
114 130 0
116 131 0
115 130 0
124 140 0
119 134 0
129 146 0
120 134 0
127 144 0
117 132 0
117 132 0
129 146 0
119 134 0
131 147 0
123 139 0
125 141 0
132 145 0
132 149 0
127 143 0
140 157 0
137 151 0
129 146 0
134 148 0
138 153 0
134 151 0
134 150 0
122 137 0
130 146 0
137 153 0
138 155 0
138 153 0
134 149 0
139 157 0
135 150 0
143 160 0
132 147 0
142 156 0
149 164 0
144 161 0
135 149 0
143 160 0
147 163 0
149 166 0
142 159 0
138 152 0
148 163 0
149 164 0
144 162 0
144 161 0
148 164 0
142 155 0
137 152 0
143 160 0
142 157 0
150 165 0
147 163 0
143 157 0
142 158 0
148 165 0
148 164 0
149 163 0
149 164 0
152 166 0
151 166 0
142 156 0
153 169 0
151 164 0
148 164 0
153 170 0
146 162 0
147 162 0
156 173 0
148 161 0
148 165 0
152 170 0
153 167 0
150 165 0
154 171 0
156 173 0
157 172 0
153 170 0
155 171 0
152 166 0
159 174 0
154 169 0
149 163 0
157 174 0
154 169 0
158 173 0
153 168 0
153 168 0
156 171 0
162 178 0
157 172 0
151 165 0
153 169 0
160 176 0
158 174 0
166 182 0
155 170 0
159 175 0
156 173 0
156 172 0
158 171 0
164 180 0
158 175 0
157 173 0
160 176 0
158 176 0
160 174 0
162 180 0
159 176 0
156 172 0
158 174 0
160 178 0
158 173 0
161 176 0
161 179 0
160 177 0
163 180 0
162 182 0
160 178 0
161 180 0
161 178 0
162 179 0
161 176 0
165 182 0
163 181 0
163 180 0
165 183 0
161 179 0
166 183 0
166 183 0
166 184 0
165 184 0
163 179 0
163 182 0
166 183 0
166 184 0
165 184 0
166 183 0
166 185 0
164 183 0
167 186 0
167 185 0
169 188 0
169 189 0
168 188 0
167 187 0
166 186 0
167 187 0
168 188 0
173 198 67
172 195 67
169 193 80
172 197 105
169 194 92
170 194 57
168 193 62
174 198 72
168 192 92
174 197 76
170 194 76
167 191 80
164 188 57
169 193 62
167 192 92
171 195 57
168 193 88
168 193 57
168 192 72
163 187 67
167 193 80
168 193 51
170 195 62
170 194 72
169 193 72
169 194 80
162 186 67
168 191 80
165 189 80
167 191 51
168 191 62
170 193 76
167 190 57
170 194 80
167 192 105
162 187 76
162 187 67
168 193 67
166 190 72
163 186 84
165 188 72
167 192 80
166 190 57
165 189 84
166 190 62
163 187 57
172 195 57
162 186 62
163 187 67
167 192 67
165 188 80
167 192 80
166 191 80
163 187 84
161 185 95
163 188 88
162 185 67
157 181 88
162 185 57
162 186 80
162 187 76
159 181 44
165 189 76
156 180 67
161 184 80
153 176 72
157 180 57
156 181 62
159 182 67
165 188 62
158 181 72
160 183 80
161 183 57
156 180 92
160 183 62
153 176 72
158 181 105
152 175 80
157 180 76
155 177 92
153 176 84
160 182 80
140 162 57
156 178 88
153 176 76
150 170 67
151 174 72
153 175 84
142 164 62
141 162 67
138 161 74
150 172 86
109 133 120
95 121 128
91 117 118
81 108 95
94 120 123
97 122 129
85 112 118
100 124 133
79 107 115
91 118 133
95 122 136
92 119 128
94 119 126
109 133 134
92 118 130
97 122 134
93 119 126
88 115 129
88 114 146
90 117 122
88 115 135
92 119 132
110 135 136
96 123 128
102 127 133
108 132 136
88 114 129
94 121 128
106 129 137
107 129 135
94 119 136
90 116 144
79 107 131
75 106 162
69 102 159
82 111 150
73 104 145
78 109 153
78 108 156
79 106 142
69 99 139
76 103 146
72 101 139
77 103 131
76 101 126
62 96 143
60 95 147
59 94 133
59 94 128
59 93 131
63 96 128
68 100 125
61 93 116
67 98 122
64 95 111
77 105 99
75 104 111
57 91 108
58 91 125
58 92 118
56 89 109
59 94 118
58 92 126
58 92 121
59 93 122
57 91 108
60 94 131
57 91 118
59 93 131
58 92 111
58 92 121
58 91 131
59 93 130
60 94 131
57 91 103
59 93 124
59 93 130
59 93 122
60 95 130
57 91 117
58 92 117
60 95 135
60 94 131
60 95 133
59 94 124
58 92 122
57 91 124
59 93 126
58 92 120
58 93 120
58 92 120
58 93 127
57 91 108
57 91 115
58 91 121
58 92 110
59 93 126
57 91 117
58 92 121
58 92 114
60 94 134
58 92 127
58 91 115
58 91 114
59 94 128
59 93 122
59 93 126
58 91 113
58 92 111
59 93 124
59 93 126
59 94 129
59 94 121
59 93 126
59 94 128
58 92 115
57 91 117
59 92 129
60 95 136
58 91 117
58 92 118
56 88 92
58 91 121
57 90 105
59 93 121
58 92 115
57 90 108
58 90 114
57 90 110
56 89 107
57 89 102
57 90 108
58 91 115
57 89 100
55 88 92
57 90 113
55 88 100
56 89 111
56 88 95
55 88 99
54 85 95
80 101 74
97 110 18
117 132 0
119 135 0
115 131 0
112 126 0
115 131 0
121 136 0
114 130 0
106 119 0
123 138 0
123 138 0
121 136 0
116 131 0
116 133 0
126 142 0
127 142 0
126 140 0
128 145 0
119 134 0
126 141 0
125 140 0
117 133 0
127 143 0
133 147 0
132 148 0
131 146 0
126 142 0
144 159 0
125 142 0
132 148 0
128 143 0
136 150 0
129 146 0
132 147 0
133 148 0
130 147 0
138 152 0
130 143 0
136 152 0
142 158 0
140 157 0
151 167 0
137 153 0
138 153 0
138 156 0
140 156 0
135 149 0
146 162 0
144 161 0
146 162 0
141 159 0
139 153 0
155 172 0
140 153 0
142 156 0
135 150 0
142 157 0
137 152 0
150 165 0
152 170 0
137 152 0
145 161 0
152 166 0
145 159 0
146 160 0
144 161 0
149 165 0
142 155 0
147 162 0
151 166 0
141 155 0
155 169 0
152 167 0
148 165 0
146 162 0
148 165 0
143 159 0
149 166 0
150 166 0
142 157 0
156 173 0
149 163 0
139 151 0
150 166 0
154 169 0
152 168 0
146 161 0
156 171 0
150 166 0
155 170 0
154 170 0
144 158 0
152 166 0
156 172 0
158 173 0
153 168 0
154 170 0
160 176 0
149 162 0
152 167 0
157 171 0
152 167 0
151 164 0
150 166 0
156 171 0
152 169 0
149 166 0
157 171 0
159 175 0
158 175 0
163 180 0
156 172 0
154 170 0
162 181 0
159 175 0
154 170 0
164 182 0
158 175 0
157 175 0
160 179 0
157 173 0
159 175 0
158 176 0
161 176 0
161 180 0
159 176 0
159 176 0
163 179 0
160 178 0
164 181 0
160 177 0
159 178 0
162 181 0
167 185 0
165 183 0
166 183 0
159 177 0
166 184 0
161 180 0
170 189 0
164 181 0
163 180 0
163 183 0
167 185 0
167 186 0
161 179 0
166 183 0
164 182 0
165 185 0
164 181 0
166 186 0
163 182 0
162 179 0
162 181 0
158 177 0
164 182 0
164 181 0
165 185 0
166 183 0
163 181 0
167 186 0
164 184 0
166 184 0
170 189 0
167 187 0
163 184 0
169 193 72
168 192 51
172 196 88
172 196 92
166 190 62
169 193 72
171 196 88
170 195 76
169 193 80
165 189 62
169 193 84
169 193 62
169 193 84
172 195 44
165 190 67
170 195 72
165 189 80
168 193 67
164 189 67
167 191 76
168 192 76
166 191 62
169 193 84
168 192 57
165 190 76
164 188 51
170 194 80
170 195 84
168 192 76
168 192 76
168 192 76
167 190 44
168 192 72
165 190 72
166 189 76
163 187 62
164 188 57
164 189 80
166 190 67
171 195 84
165 189 92
163 187 80
161 185 67
170 195 84
163 187 51
164 189 72
161 184 51
165 189 76
158 181 67
161 184 67
167 191 84
157 181 44
164 188 84
168 191 92
163 186 99
167 191 92
163 186 84
167 191 95
170 194 88
161 184 88
160 184 84
162 186 72
162 186 80
153 176 72
161 185 88
156 179 76
159 183 88
157 181 67
163 187 84
162 185 92
156 180 76
162 184 67
157 180 62
156 179 62
155 177 84
151 174 51
151 174 72
155 177 72
150 174 92
156 179 57
153 176 62
141 164 51
157 180 84
150 172 76
154 177 57
152 174 76
144 165 84
153 175 57
152 175 72
156 178 84
139 160 51
143 165 84
144 166 95
95 120 114
78 106 111
93 120 122
84 111 107
96 122 128
91 118 133
88 115 122
99 124 121
89 115 131
91 117 110
91 117 122
90 116 122
89 116 141
91 117 120
97 123 144
82 110 129
87 113 129
97 122 131
88 115 110
108 132 138
105 129 134
90 116 132
103 127 127
94 120 130
114 137 144
102 126 139
101 124 129
104 127 136
96 119 126
88 114 131
89 115 137
84 113 137
75 106 145
77 108 154
74 105 149
86 114 157
83 112 157
88 115 151
69 102 153
72 99 123
77 103 144
80 104 127
75 101 116
75 102 131
62 95 140
59 93 134
63 96 134
61 94 128
60 93 129
63 96 125
62 96 115
56 89 100
61 94 124
58 91 109
73 102 103
86 113 78
57 90 110
58 91 124
55 89 110
57 91 114
58 92 126
57 91 115
57 90 115
56 90 110
59 93 126
57 90 113
58 91 131
60 94 124
59 93 117
59 93 124
59 93 128
60 94 126
59 93 118
57 91 120
59 93 126
59 93 128
58 92 108
59 93 126
58 91 115
58 92 125
59 93 125
58 92 128
58 92 124
60 94 125
59 93 125
57 91 113
59 93 121
59 93 118
60 95 137
58 92 122
59 92 125
60 94 134
57 91 121
61 95 131
58 93 117
57 90 104
58 92 120
59 93 120
58 92 120
58 92 120
59 93 128
59 93 128
60 94 136
58 92 115
59 93 121
60 94 122
58 91 110
60 94 130
58 91 120
58 91 118
59 93 124
60 94 118
58 91 113
58 92 121
59 93 117
59 93 125
59 93 115
60 94 122
59 92 129
58 92 120
57 90 113
56 89 105
58 91 118
56 89 113
58 92 114
57 89 105
57 90 113
58 92 110
56 89 115
59 92 121
56 88 102
58 92 118
56 88 95
57 89 120
59 92 108
55 86 97
54 86 95
55 87 92
60 91 105
92 111 57
120 135 0
116 130 0
112 126 0
109 122 0
123 138 0
116 131 0
118 130 0
117 132 0
113 129 0
110 123 0
125 140 0
121 136 0
122 137 0
123 139 0
126 143 0
127 140 0
125 137 0
133 149 0
126 142 0
125 142 0
128 146 0
126 144 0
123 136 0
125 139 0
129 144 0
136 153 0
125 139 0
140 156 0
130 146 0
135 151 0
136 154 0
139 154 0
136 152 0
126 140 0
127 142 0
135 149 0
134 150 0
134 151 0
135 151 0
131 148 0
139 153 0
133 151 0
141 157 0
141 156 0
141 156 0
136 152 0
137 151 0
147 164 0
143 159 0
142 158 0
142 160 0
145 162 0
138 156 0
141 158 0
142 157 0
143 160 0
145 164 0
149 166 0
142 157 0
134 150 0
148 165 0
138 155 0
146 164 0
141 157 0
145 160 0
151 167 0
154 170 0
152 170 0
150 164 0
150 165 0
148 160 0
147 164 0
143 157 0
147 162 0
145 161 0
140 157 0
151 166 0
142 158 0
150 165 0
146 162 0
144 160 0
149 165 0
153 170 0
151 166 0
153 172 0
151 166 0
152 168 0
156 172 0
156 172 0
148 162 0
154 170 0
161 177 0
158 176 0
150 162 0
150 167 0
150 164 0
154 170 0
155 173 0
155 171 0
162 180 0
158 174 0
155 171 0
154 170 0
152 167 0
157 172 0
151 168 0
154 170 0
157 172 0
156 171 0
151 165 0
160 175 0
154 170 0
162 178 0
154 170 0
160 176 0
164 182 0
151 164 0
157 171 0
163 181 0
162 178 0
158 174 0
160 176 0
157 172 0
158 176 0
156 175 0
163 181 0
161 179 0
159 179 0
156 171 0
163 181 0
161 178 0
162 180 0
155 171 0
159 177 0
163 182 0
158 175 0
166 184 0
167 185 0
162 181 0
160 178 0
164 183 0
167 188 0
164 185 0
164 182 0
166 185 0
163 180 0
166 185 0
164 182 0
162 179 0
166 184 0
164 183 0
161 178 0
165 183 0
164 182 0
165 182 0
164 184 0
161 179 0
166 183 0
167 186 0
166 183 0
162 179 0
163 182 0
163 181 0
166 187 0
163 181 0
164 184 0
163 182 0
169 193 72
171 195 62
174 199 102
172 196 80
172 196 76
172 196 76
167 192 57
169 193 67
174 198 80
168 192 72
168 193 76
174 197 67
172 196 67
171 195 80
168 192 62
169 192 44
166 190 57
168 193 62
164 189 76
172 195 57
166 190 80
169 193 76
169 194 80
168 192 72
166 190 67
168 193 88
165 189 44
167 191 84
166 190 95
166 190 62
164 188 72
170 194 57
171 196 99
169 193 67
168 192 80
172 196 76
158 182 67
167 191 72
169 194 72
164 188 72
162 186 80
166 191 102
166 191 99
164 188 57
166 190 84
166 189 92
167 190 88
164 187 80
163 187 72
165 189 62
164 186 62
163 187 80
164 189 99
163 187 99
170 195 99
159 182 95
162 185 72
163 187 92
160 184 57
158 180 62
159 182 92
167 189 80
165 188 76
163 185 72
160 184 51
163 186 92
158 182 72
161 184 62
157 180 88
157 179 84
155 177 51
162 185 84
157 181 84
160 183 76
153 176 95
153 175 62
148 171 62
160 183 80
154 177 67
159 181 60
147 170 62
149 172 76
155 177 84
143 165 67
148 170 62
151 173 84
142 164 62
156 177 76
151 173 67
142 164 62
143 164 62
152 174 57
146 166 67
134 155 82
86 111 90
83 111 121
94 119 121
92 118 123
99 125 131
96 121 126
89 115 124
80 108 119
93 119 121
101 126 133
96 122 130
91 118 144
92 117 134
105 128 137
98 123 125
101 126 134
95 121 135
85 111 129
85 112 133
103 128 138
91 118 130
95 121 147
105 130 128
102 126 137
101 126 144
98 123 129
94 119 129
92 117 131
91 116 124
96 120 146
100 124 130
83 111 145
66 100 156
75 106 158
91 118 162
71 102 151
80 109 148
86 113 139
77 106 145
79 103 138
76 102 133
82 105 123
79 103 120
83 105 119
62 97 144
59 93 128
61 94 129
57 91 118
59 93 129
67 99 116
63 96 114
63 97 136
62 94 105
63 93 101
92 118 99
63 95 115
57 90 117
57 91 124
57 90 123
59 93 129
58 93 122
56 89 110
56 89 114
58 91 119
56 89 108
58 92 115
57 90 111
58 92 118
58 92 118
58 92 120
59 92 120
58 92 129
58 92 118
59 93 121
58 92 122
58 91 119
58 92 126
58 93 128
58 92 114
59 94 133
60 94 127
56 89 117
58 92 118
58 92 100
58 92 117
60 95 125
60 94 129
59 92 129
58 92 115
56 89 103
57 90 118
57 91 114
59 93 131
58 92 121
58 92 115
59 93 124
60 94 133
57 90 107
58 93 113
59 94 126
59 94 121
60 94 130
58 92 122
59 94 121
57 91 117
59 92 122
59 94 121
57 90 117
59 93 125
58 92 113
58 91 111
60 94 130
57 90 107
57 91 126
59 93 122
56 89 122
58 91 118
58 92 118
57 90 120
58 92 118
58 91 110
56 89 114
58 91 111
56 88 102
57 91 114
55 87 99
57 91 105
57 90 108
58 91 118
57 90 115
58 91 114
56 89 107
58 91 111
59 92 115
53 84 97
56 88 102
55 86 95
107 122 47
105 119 0
113 126 0
108 123 0
118 131 0
107 119 0
112 125 0
124 139 0
114 129 0
121 137 0
104 118 0
114 129 0
120 135 0
110 126 0
131 148 0
114 129 0
120 138 0
133 148 0
118 134 0
121 133 0
132 147 0
125 142 0
124 139 0
133 149 0
124 139 0
128 144 0
132 149 0
138 155 0
133 149 0
128 142 0
124 141 0
142 159 0
132 150 0
135 152 0
138 154 0
141 157 0
140 156 0
132 150 0
134 151 0
135 151 0
133 148 0
142 161 0
138 154 0
135 151 0
131 148 0
136 151 0
140 157 0
132 147 0
140 154 0
136 152 0
132 145 0
144 159 0
134 151 0
141 156 0
132 149 0
127 142 0
143 160 0
144 161 0
147 161 0
149 163 0
146 162 0
144 160 0
142 157 0
143 160 0
143 158 0
148 165 0
146 163 0
140 155 0
147 165 0
157 172 0
149 166 0
151 166 0
148 165 0
147 164 0
150 165 0
143 160 0
144 161 0
153 169 0
141 157 0
144 158 0
151 165 0
150 166 0
148 166 0
151 166 0
147 165 0
149 165 0
147 162 0
149 165 0
151 169 0
154 170 0
155 170 0
151 167 0
155 173 0
149 166 0
158 173 0
155 172 0
151 168 0
149 163 0
157 173 0
155 171 0
156 173 0
156 170 0
156 173 0
158 175 0
158 175 0
158 176 0
155 170 0
159 175 0
154 170 0
159 176 0
158 173 0
160 177 0
164 181 0
162 181 0
158 175 0
156 172 0
157 175 0
155 171 0
159 177 0
158 175 0
154 169 0
162 177 0
159 177 0
158 176 0
159 175 0
160 175 0
157 174 0
161 180 0
166 184 0
162 180 0
160 178 0
164 182 0
159 178 0
154 170 0
165 184 0
162 177 0
165 184 0
162 182 0
162 180 0
164 181 0
162 181 0
162 178 0
162 180 0
164 181 0
166 183 0
167 186 0
163 182 0
166 184 0
162 178 0
169 187 0
164 181 0
162 180 0
160 178 0
164 183 0
166 185 0
163 182 0
170 191 0
165 187 0
163 181 0
166 184 0
167 188 0
165 184 0
165 183 0
165 184 0
163 183 0
167 187 0
167 187 0
168 187 0
165 184 0
172 197 95
169 193 72
171 195 62
172 196 80
169 192 72
171 195 76
168 192 76
169 194 88
168 193 62
171 195 80
168 192 62
170 194 62
168 193 72
170 195 99
172 195 72
170 193 57
168 192 57
168 192 84
171 194 76
166 189 57
163 188 72
169 194 57
169 193 67
174 198 67
166 190 72
168 192 80
167 190 57
166 190 57
169 192 72
172 197 80
167 191 62
171 195 88
163 188 92
166 190 80
167 190 72
166 191 84
165 188 72
165 189 57
171 195 88
167 191 84
165 188 72
168 191 67
169 193 92
167 191 95
166 191 105
166 189 84
168 192 76
162 186 80
168 191 88
159 183 72
163 187 88
165 189 92
168 191 92
162 185 84
159 183 62
167 190 88
164 187 67
168 192 99
161 185 95
160 183 76
164 187 57
161 184 88
164 188 72
155 177 99
168 191 88
151 173 76
156 178 80
162 185 88
153 176 80
163 185 72
158 180 80
157 180 88
163 186 95
156 179 84
158 179 57
155 179 51
154 177 88
159 182 80
154 176 57
155 178 92
153 176 72
153 177 76
155 178 76
154 176 62
155 177 80
150 172 67
151 173 67
152 174 72
142 165 62
142 163 72
142 164 76
144 165 72
140 161 62
141 162 84
133 155 108
92 118 107
93 117 122
87 114 122
94 119 129
83 111 122
87 114 125
80 109 121
86 112 80
94 119 131
91 117 131
82 109 114
83 111 121
102 127 139
93 118 121
77 107 127
88 114 133
96 121 129
97 123 119
100 123 125
85 112 134
98 122 143
98 123 128
111 135 145
110 133 146
109 134 150
98 122 126
104 127 126
91 114 108
90 116 139
104 128 136
93 120 133
81 110 154
80 110 159
81 111 163
72 103 155
75 106 159
84 112 154
86 113 150
66 99 139
78 104 135
69 97 125
81 104 130
77 102 123
72 100 135
59 93 130
59 94 131
58 92 121
62 95 126
65 96 119
64 97 114
62 95 114
62 95 121
60 93 108
89 115 103
72 102 111
58 92 117
56 89 103
56 89 110
57 90 105
58 91 115
59 93 122
58 92 120
58 92 120
59 92 124
55 87 109
58 92 121
58 92 120
59 93 134
57 90 112
60 94 133
57 90 105
60 94 126
58 92 120
58 92 123
59 94 127
60 94 130
58 92 124
57 90 111
58 91 120
57 90 113
58 91 120
58 91 117
59 93 127
58 91 111
59 93 129
58 91 111
58 91 123
58 91 115
59 93 124
58 92 115
58 92 124
59 93 115
58 92 124
58 92 115
57 91 115
57 90 118
59 93 125
57 91 108
59 93 121
59 94 113
56 89 110
59 94 121
59 93 125
57 90 110
57 90 113
59 92 131
58 92 114
57 91 110
58 91 118
59 93 121
58 92 115
59 93 118
58 91 120
58 92 111
56 88 110
58 91 118
57 91 115
58 91 118
55 87 108
58 91 115
57 90 121
57 90 110
58 91 107
56 88 108
55 87 105
57 91 117
57 91 113
56 88 115
57 90 117
55 87 110
56 88 95
55 87 102
56 88 110
55 87 99
64 90 82
88 104 25
99 114 0
118 132 0
111 123 0
102 119 0
119 135 0
118 132 0
103 117 0
121 135 0
111 126 0
106 120 0
122 138 0
122 137 0
109 121 0
114 130 0
115 131 0
122 137 0
121 138 0
115 129 0
132 147 0
122 138 0
140 156 0
137 154 0
131 148 0
130 147 0
117 132 0
125 142 0
124 140 0
122 138 0
125 141 0
127 145 0
128 144 0
135 152 0
147 163 0
132 148 0
133 148 0
131 147 0
141 158 0
130 146 0
137 155 0
131 147 0
137 154 0
142 157 0
137 154 0
142 158 0
129 144 0
133 149 0
140 156 0
142 158 0
142 157 0
137 151 0
137 156 0
138 154 0
146 162 0
137 153 0
142 159 0
141 158 0
145 164 0
149 165 0
147 162 0
136 152 0
143 159 0
144 160 0
145 160 0
141 155 0
154 171 0
148 163 0
141 159 0
152 168 0
149 164 0
142 158 0
152 168 0
159 175 0
153 168 0
142 159 0
141 155 0
154 170 0
146 159 0
147 163 0
144 161 0
148 167 0
151 165 0
154 171 0
149 167 0
152 166 0
151 166 0
147 163 0
151 166 0
158 173 0
153 168 0
148 164 0
153 169 0
158 176 0
158 174 0
152 168 0
158 175 0
155 173 0
157 173 0
156 172 0
159 176 0
152 169 0
158 176 0
154 171 0
160 176 0
158 175 0
157 175 0
157 172 0
156 173 0
154 170 0
155 172 0
155 170 0
159 175 0
154 170 0
160 176 0
157 173 0
161 179 0
156 172 0
159 176 0
158 175 0
161 175 0
159 176 0
157 174 0
162 180 0
158 175 0
161 177 0
163 180 0
163 180 0
163 182 0
161 177 0
160 175 0
159 176 0
159 177 0
164 184 0
165 185 0
163 180 0
160 178 0
163 180 0
163 183 0
163 183 0
161 180 0
161 180 0
161 179 0
163 184 0
162 180 0
167 184 0
161 181 0
166 185 0
165 183 0
160 176 0
164 183 0
164 184 0
162 182 0
164 183 0
161 179 0
166 186 0
168 188 0
163 183 0
163 183 0
163 182 0
165 184 0
164 184 0
168 187 0
167 187 0
166 186 0
160 179 0
167 187 0
169 189 0
165 185 0
167 186 0
165 184 0
172 196 84
171 195 76
171 195 67
169 193 62
171 195 80
173 198 84
165 188 51
169 193 80
168 192 62
168 192 51
166 190 84
168 193 80
167 191 72
167 192 76
169 193 72
162 186 67
169 193 62
169 193 92
167 191 76
169 194 84
166 190 72
165 190 57
166 191 88
169 193 57
172 196 92
166 191 76
167 191 72
167 192 72
168 193 80
167 190 51
167 192 76
167 191 88
164 189 92
168 192 80
169 193 92
166 190 92
167 190 84
173 197 105
165 190 92
173 196 105
168 192 95
169 193 92
168 192 57
171 195 88
163 186 88
161 185 62
163 187 72
158 182 84
163 186 88
159 182 67
163 186 67
164 187 62
160 183 99
162 186 102
170 193 108
165 189 62
157 180 57
154 178 57
161 184 67
154 177 84
164 188 88
153 176 67
162 186 111
159 182 57
166 189 92
161 184 62
159 181 92
163 187 92
166 189 88
166 188 76
160 183 92
156 180 80
155 178 67
157 180 92
151 173 84
162 185 84
159 182 95
151 172 67
150 171 80
158 179 102
165 187 88
153 175 67
148 170 95
156 178 57
155 177 80
155 178 88
152 174 80
139 161 72
147 169 72
148 170 76
130 151 57
144 165 57
144 165 80
149 170 95
139 159 51
130 153 94
94 119 118
92 118 114
83 111 114
89 115 125
94 119 124
84 110 117
107 130 139
81 109 124
100 125 128
90 116 115
89 116 137
103 127 127
95 120 137
97 121 127
99 123 131
96 122 128
95 121 141
97 122 119
95 119 133
88 114 120
98 124 144
94 119 125
117 140 128
90 117 128
103 127 134
88 114 130
108 131 130
106 127 142
109 131 129
84 111 134
94 119 146
72 104 158
72 103 153
65 99 151
90 116 152
86 113 153
94 119 157
71 102 122
68 101 133
74 101 126
76 101 125
68 98 124
69 98 130
69 97 115
57 90 111
58 92 129
61 94 133
66 98 125
62 94 122
61 94 120
61 94 120
61 93 120
79 106 90
83 109 95
57 91 109
57 91 113
57 90 113
57 90 114
58 91 125
57 90 112
58 92 120
60 94 133
59 92 121
58 93 125
58 92 114
59 94 126
58 92 120
58 91 118
56 90 111
57 91 117
59 93 122
56 89 105
59 93 128
57 90 108
59 93 130
56 89 108
58 91 118
59 93 130
59 93 122
57 90 108
58 91 117
57 91 111
56 89 103
57 91 120
58 92 128
58 92 128
58 92 128
59 94 129
59 93 128
57 91 115
59 93 114
58 92 114
60 94 124
58 92 121
58 92 114
57 90 102
58 91 118
59 94 129
57 90 108
56 89 110
58 92 115
57 91 117
58 92 118
60 94 126
58 92 120
59 93 129
57 91 120
54 86 108
57 90 115
58 92 120
58 92 111
57 91 103
58 91 117
57 90 108
57 90 120
57 90 110
56 88 92
58 91 114
58 91 107
57 90 128
57 90 115
58 91 113
57 90 113
57 90 102
56 89 110
56 88 90
56 88 108
56 88 100
54 86 92
55 88 94
55 88 99
55 87 99
75 100 78
109 121 0
119 133 0
108 123 0
105 119 0
116 130 0
117 133 0
105 119 0
106 121 0
115 131 0
122 137 0
118 133 0
116 131 0
127 143 0
111 127 0
117 133 0
119 130 0
121 138 0
128 143 0
119 134 0
131 147 0
125 141 0
129 145 0
134 150 0
122 140 0
134 149 0
136 154 0
127 145 0
131 146 0
126 142 0
137 154 0
141 157 0
127 142 0
127 145 0
121 135 0
130 144 0
128 143 0
133 150 0
127 143 0
129 143 0
125 142 0
135 151 0
138 156 0
138 154 0
125 140 0
142 158 0
131 146 0
141 156 0
137 154 0
143 162 0
136 153 0
140 156 0
142 159 0
142 158 0
137 151 0
139 156 0
144 161 0
137 152 0
145 161 0
146 164 0
145 161 0
149 166 0
136 152 0
146 165 0
143 159 0
148 164 0
150 165 0
148 164 0
149 165 0
140 155 0
144 161 0
146 164 0
153 168 0
151 169 0
148 165 0
151 168 0
143 161 0
148 163 0
147 164 0
147 165 0
146 163 0
153 169 0
151 167 0
146 161 0
146 162 0
152 169 0
154 171 0
142 158 0
148 164 0
146 161 0
149 163 0
155 172 0
157 174 0
152 168 0
151 167 0
157 175 0
149 166 0
151 168 0
158 175 0
151 168 0
149 165 0
158 175 0
158 178 0
155 172 0
160 175 0
158 174 0
157 174 0
157 174 0
151 168 0
159 177 0
159 175 0
157 174 0
152 166 0
157 174 0
158 174 0
157 173 0
155 174 0
153 169 0
158 174 0
157 174 0
162 179 0
153 170 0
157 175 0
151 169 0
162 181 0
161 178 0
157 173 0
161 178 0
158 176 0
155 172 0
161 180 0
159 178 0
159 176 0
166 184 0
162 180 0
167 184 0
159 177 0
165 183 0
162 179 0
160 180 0
161 179 0
161 178 0
160 178 0
162 179 0
160 179 0
162 179 0
164 182 0
163 180 0
165 183 0
164 182 0
166 184 0
165 182 0
160 178 0
163 181 0
165 185 0
163 181 0
164 184 0
164 184 0
167 186 0
166 185 0
165 186 0
165 183 0
166 186 0
168 189 0
168 189 0
163 181 0
163 182 0
168 187 0
167 187 0
165 184 0
163 184 0
166 185 0
169 194 62
169 193 67
168 192 67
170 194 76
171 195 76
171 196 72
172 196 62
169 192 62
172 196 72
169 193 88
170 194 84
165 191 84
166 190 25
165 189 72
170 194 88
171 194 57
167 191 67
168 193 67
166 190 62
169 193 67
166 190 76
166 190 62
165 189 72
168 193 62
168 193 80
167 192 67
164 189 72
167 192 76
164 188 51
170 193 92
167 190 80
170 194 80
165 189 88
167 190 84
167 190 80
169 192 84
171 194 67
166 190 88
168 192 92
166 190 102
172 195 95
160 184 92
171 193 62
170 193 80
170 193 76
171 194 92
164 187 92
167 190 102
167 189 92
168 191 92
164 186 80
166 188 92
166 189 99
164 188 102
170 194 111
164 188 117
164 187 114
167 190 84
161 185 80
159 182 80
165 187 80
166 190 111
165 188 88
163 186 111
156 178 88
161 185 95
156 179 84
157 180 88
160 184 95
160 182 88
163 186 88
162 185 99
154 176 88
160 183 67
151 174 88
153 175 88
152 175 92
155 176 76
152 174 88
146 168 57
158 180 84
142 163 57
154 176 67
152 174 67
146 168 72
144 167 88
152 173 62
141 164 80
151 173 72
142 164 57
158 179 95
143 165 44
137 158 80
147 167 76
150 171 62
144 165 95
125 146 93
93 117 110
92 119 118
95 121 126
88 114 107
87 114 118
94 120 125
91 117 129
102 127 130
91 116 128
98 122 130
88 115 137
83 110 133
82 109 127
84 111 138
103 125 127
89 115 133
105 128 128
86 114 128
85 112 125
105 128 136
96 120 133
105 129 138
97 122 137
96 121 132
102 126 116
107 129 129
117 140 132
95 118 125
97 120 122
87 114 128
89 115 152
80 110 157
90 117 155
88 115 157
77 106 150
80 109 149
71 103 136
78 109 129
75 101 124
81 105 130
66 96 128
70 98 118
69 97 117
61 94 131
58 92 131
64 97 129
67 99 126
58 90 90
63 97 133
60 93 125
57 90 113
70 101 113
86 112 94
57 90 107
57 91 104
57 91 115
57 90 107
58 92 124
58 93 115
56 89 100
57 90 111
58 91 121
57 91 118
58 92 117
59 93 133
57 89 113
56 89 113
57 90 120
57 91 117
57 91 108
59 93 117
58 92 111
57 90 108
58 92 123
59 93 128
56 90 112
57 91 114
59 93 120
59 92 125
57 90 107
57 91 113
58 92 118
57 90 108
57 91 113
58 92 129
56 89 111
59 93 125
59 94 113
57 91 111
56 89 107
57 91 107
57 91 108
57 90 110
58 91 107
57 90 111
57 91 114
58 92 111
58 92 122
56 89 105
58 92 115
58 91 117
58 92 124
57 90 114
58 91 117
58 92 124
56 89 114
57 91 111
57 91 111
58 92 120
57 90 108
56 89 100
56 89 102
57 90 105
57 91 108
56 89 105
58 92 111
57 89 110
59 92 118
56 89 115
56 89 107
56 89 115
56 89 100
56 89 102
58 91 105
56 89 90
55 87 107
57 89 113
53 84 95
55 87 102
63 92 110
94 110 54
94 109 0
111 125 0
102 116 0
116 131 0
102 114 0
109 122 0
119 135 0
116 130 0
116 130 0
106 121 0
117 131 0
119 135 0
120 134 0
122 136 0
128 143 0
125 140 0
122 138 0
119 136 0
119 136 0
125 139 0
125 142 0
132 148 0
124 140 0
133 150 0
128 143 0
128 145 0
128 145 0
127 142 0
127 143 0
130 147 0
117 134 0
120 135 0
138 154 0
128 145 0
129 144 0
129 146 0
132 149 0
131 148 0
132 150 0
129 145 0
144 161 0
138 155 0
131 147 0
136 154 0
138 154 0
134 149 0
143 161 0
147 166 0
141 159 0
149 166 0
137 155 0
141 155 0
145 160 0
149 165 0
140 157 0
139 156 0
141 155 0
143 161 0
147 165 0
146 162 0
151 168 0
149 166 0
150 168 0
144 161 0
148 164 0
145 164 0
150 168 0
153 174 0
145 161 0
149 167 0
155 172 0
151 168 0
150 167 0
139 155 0
143 160 0
156 173 0
148 163 0
153 171 0
154 172 0
151 168 0
154 171 0
141 160 0
152 171 0
148 164 0
149 167 0
147 165 0
150 169 0
155 170 0
157 172 0
153 170 0
155 172 0
152 170 0
155 172 0
154 170 0
156 174 0
154 172 0
159 175 0
159 176 0
153 171 0
150 167 0
155 173 0
155 169 0
155 173 0
157 175 0
149 165 0
160 178 0
157 174 0
158 176 0
155 171 0
158 176 0
163 180 0
160 178 0
164 179 0
163 181 0
157 174 0
156 174 0
163 181 0
163 182 0
160 178 0
156 174 0
158 175 0
158 174 0
162 177 0
158 175 0
164 182 0
160 177 0
153 172 0
165 185 0
165 184 0
160 179 0
163 181 0
163 180 0
163 181 0
159 177 0
162 179 0
159 176 0
167 187 0
162 179 0
167 185 0
165 180 0
161 180 0
165 184 0
165 183 0
166 184 0
158 177 0
163 182 0
162 183 0
164 183 0
163 182 0
168 186 0
165 185 0
166 186 0
160 179 0
163 181 0
162 182 0
168 188 0
164 182 0
163 183 0
162 181 0
165 185 0
169 190 0
168 187 0
165 186 0
166 186 0
166 185 0
162 184 0
170 190 0
165 184 0
166 184 0
160 179 0
169 190 0
169 188 0
168 192 67
169 194 72
170 195 92
171 195 76
169 193 72
167 191 51
166 191 67
168 192 67
170 194 72
169 193 80
168 192 67
171 195 62
164 187 51
170 195 84
170 195 84
171 195 51
167 191 80
169 194 92
169 193 44
164 188 44
169 193 80
162 185 36
169 193 67
170 193 57
170 194 76
173 197 72
168 192 88
171 193 72
166 189 84
173 196 102
172 196 67
173 197 105
169 193 102
172 197 95
162 186 84
166 190 84
167 192 92
171 194 95
168 191 72
164 188 88
173 196 102
171 194 102
165 189 88
164 188 95
163 187 84
166 190 92
170 192 99
165 188 95
167 190 99
169 192 111
168 190 105
172 195 125
161 185 102
158 182 88
166 190 114
170 193 99
169 191 102
161 184 99
166 188 88
168 191 92
168 191 84
164 187 105
163 187 117
162 185 99
163 185 102
157 179 88
161 183 99
160 181 88
155 176 92
166 188 92
157 180 72
154 176 80
163 185 99
155 177 67
157 179 102
159 181 72
151 173 88
150 172 72
153 175 88
156 179 72
155 178 88
147 169 92
153 175 102
150 171 62
147 169 67
151 172 88
149 171 72
141 162 44
143 165 76
147 169 72
144 165 76
146 167 57
150 171 88
149 169 57
147 168 72
145 166 76
137 158 76
107 130 84
93 118 111
85 111 103
76 102 107
91 116 115
87 113 108
86 112 105
100 125 129
96 121 125
98 122 121
94 119 120
83 109 121
97 122 122
102 126 118
102 124 143
99 123 128
91 116 127
93 119 115
82 109 122
99 122 135
91 117 115
94 120 128
93 119 131
106 131 128
102 126 137
100 125 127
110 131 128
94 116 122
113 132 133
91 117 134
109 124 117
75 106 149
72 104 152
82 110 151
78 108 150
85 112 144
74 104 114
78 109 135
73 103 131
62 94 133
67 97 126
73 101 128
66 96 121
63 93 107
59 94 132
60 95 134
61 94 115
62 94 120
69 101 124
56 90 109
63 95 117
55 86 94
107 130 90
69 100 113
55 88 108
59 92 126
58 92 111
56 89 113
56 88 114
57 91 115
57 90 116
57 91 105
57 91 124
57 91 114
58 91 121
57 91 121
56 89 105
57 91 114
58 91 122
56 89 107
56 89 120
58 92 111
57 91 120
59 93 120
56 89 111
59 93 122
57 90 111
57 90 111
58 92 115
59 93 126
58 92 114
57 90 117
57 91 110
56 89 100
58 92 123
59 92 120
55 88 97
58 92 118
59 93 115
57 91 111
59 93 128
57 90 111
57 91 111
58 91 121
58 92 117
56 89 105
56 89 107
57 91 110
57 91 117
58 92 130
57 91 118
58 92 115
55 88 103
56 90 108
57 90 110
57 91 105
56 89 102
55 88 110
56 89 97
57 90 102
58 91 110
60 94 128
57 90 102
57 90 111
59 93 120
57 91 108
58 91 117
55 87 99
57 90 107
58 91 107
57 89 103
55 88 92
56 89 102
54 86 90
55 87 92
55 87 97
57 89 107
54 86 103
65 89 76
94 108 25
95 107 0
100 115 0
107 122 0
105 118 0
93 107 0
97 112 0
116 133 0
109 124 0
113 128 0
115 131 0
118 134 0
129 144 0
122 138 0
119 135 0
122 135 0
109 124 0
121 138 0
122 137 0
118 135 0
121 137 0
126 141 0
127 147 0
124 139 0
126 143 0
123 139 0
127 144 0
131 150 0
132 147 0
134 150 0
123 140 0
137 153 0
129 144 0
131 148 0
137 151 0
130 148 0
135 153 0
124 140 0
135 153 0
138 154 0
131 146 0
136 153 0
145 165 0
136 154 0
129 145 0
132 149 0
132 151 0
136 152 0
141 159 0
139 157 0
133 150 0
141 158 0
141 158 0
140 157 0
146 162 0
147 165 0
140 156 0
145 162 0
148 165 0
144 161 0
148 163 0
141 157 0
141 156 0
146 164 0
150 167 0
149 168 0
148 166 0
153 171 0
142 158 0
149 165 0
142 157 0
145 160 0
149 166 0
148 163 0
141 158 0
151 166 0
142 157 0
150 167 0
148 164 0
151 168 0
150 165 0
152 168 0
157 175 0
153 168 0
155 173 0
147 163 0
158 174 0
151 167 0
157 174 0
152 169 0
160 179 0
153 172 0
151 169 0
154 171 0
150 165 0
150 167 0
152 168 0
157 176 0
154 170 0
149 166 0
149 164 0
145 162 0
152 168 0
157 174 0
154 170 0
157 173 0
156 175 0
160 177 0
149 164 0
160 177 0
161 178 0
146 164 0
156 171 0
159 177 0
159 177 0
158 173 0
158 177 0
157 175 0
152 170 0
152 168 0
159 178 0
155 172 0
157 176 0
166 184 0
162 180 0
159 175 0
160 178 0
163 181 0
157 173 0
160 179 0
164 181 0
161 176 0
161 179 0
164 183 0
160 178 0
161 178 0
161 179 0
159 177 0
166 185 0
160 177 0
157 177 0
165 182 0
164 186 0
168 187 0
164 181 0
161 182 0
160 178 0
156 174 0
162 181 0
162 182 0
163 180 0
166 185 0
162 181 0
162 182 0
166 184 0
161 178 0
163 182 0
163 182 0
168 185 0
165 184 0
163 180 0
166 185 0
165 185 0
165 184 0
162 179 0
165 186 0
167 187 0
169 188 0
160 180 0
165 184 0
171 192 0
164 183 0
167 188 0
168 187 0
170 194 99
168 192 76
167 191 62
173 197 80
171 195 92
170 194 92
169 193 80
169 193 62
172 197 76
167 191 72
169 192 51
167 192 67
169 193 72
170 194 57
170 195 76
170 194 67
168 193 99
169 194 102
170 195 72
169 193 62
167 192 88
167 191 72
166 190 76
170 194 102
167 190 88
166 189 92
171 194 76
170 193 80
164 188 76
164 189 84
171 194 108
169 194 72
164 188 102
170 194 84
163 188 72
167 191 95
168 191 92
167 191 102
167 190 88
168 192 102
164 187 105
173 196 105
165 189 84
166 190 95
170 194 102
168 191 105
163 187 80
172 195 128
172 194 114
169 191 108
166 189 111
161 185 80
169 192 125
167 190 92
161 183 92
165 188 102
163 185 102
160 183 76
165 187 111
162 185 92
168 190 108
170 192 88
169 191 111
160 182 105
157 180 92
157 181 76
158 181 72
161 182 105
160 182 80
156 178 92
165 186 99
164 187 108
154 177 84
152 175 84
163 184 95
167 190 102
156 179 99
155 178 95
166 188 84
154 176 88
160 182 102
149 171 92
153 175 88
153 175 76
144 165 99
156 177 88
156 178 99
147 168 80
143 164 62
136 156 62
134 156 57
145 166 72
144 165 67
140 160 80
145 167 84
141 162 67
137 157 76
139 159 76
114 136 121
98 123 113
98 123 121
86 112 118
92 117 129
90 114 110
82 109 115
87 113 124
88 114 109
102 126 131
98 123 136
94 119 133
90 116 137
94 119 128
95 121 125
96 121 134
95 121 129
92 118 136
92 118 122
94 120 134
103 127 133
103 127 137
101 126 126
95 120 119
104 129 131
96 121 123
97 120 126
103 125 130
97 122 122
113 127 106
113 125 114
83 112 156
75 106 154
71 102 147
74 104 136
74 105 131
79 109 130
78 108 126
71 102 125
67 97 135
72 98 114
72 99 124
71 99 131
60 93 120
62 95 131
58 92 125
65 97 114
65 98 118
66 98 115
68 98 115
61 92 105
96 120 78
74 103 110
57 90 95
56 90 99
57 90 97
56 89 110
58 92 120
56 89 99
58 91 117
57 91 115
56 89 111
57 90 108
57 90 115
56 90 110
56 90 103
57 90 110
55 88 108
55 88 103
57 90 110
55 88 113
59 93 126
56 89 108
57 90 111
59 93 118
58 91 118
55 87 105
58 92 113
57 91 113
57 90 114
57 91 108
57 90 100
57 90 113
58 92 111
56 90 102
58 91 122
58 92 115
57 91 118
57 91 113
58 92 115
58 91 121
56 88 102
56 89 114
58 92 120
59 93 126
58 91 113
57 90 107
57 91 110
56 90 107
57 91 107
55 88 99
57 91 122
57 90 113
57 91 114
58 91 122
57 90 108
58 91 105
57 90 102
56 89 111
58 91 117
58 92 113
56 89 99
57 90 117
56 88 99
57 89 110
55 87 97
57 90 110
56 88 103
58 91 108
59 92 118
56 88 92
53 84 88
54 86 86
56 88 103
56 88 108
58 88 88
86 105 65
105 119 18
117 132 0
99 113 0
116 132 0
103 117 0
104 117 0
126 142 0
117 132 0
108 123 0
103 115 0
107 122 0
121 137 0
124 141 0
98 113 0
125 139 0
121 137 0
123 138 0
125 141 0
107 123 0
123 139 0
113 132 0
127 143 0
122 138 0
135 152 0
121 137 0
117 135 0
116 133 0
129 146 0
128 146 0
127 142 0
132 149 0
132 148 0
141 157 0
133 151 0
140 156 0
138 157 0
134 147 0
131 147 0
131 150 0
135 153 0
134 150 0
132 149 0
131 148 0
140 156 0
138 155 0
134 152 0
131 148 0
142 161 0
145 162 0
131 147 0
142 160 0
137 154 0
148 166 0
147 166 0
136 153 0
144 161 0
152 171 0
143 161 0
143 159 0
143 161 0
144 162 0
142 162 0
144 162 0
147 162 0
148 168 0
138 155 0
151 168 0
141 159 0
145 159 0
150 167 0
154 173 0
141 156 0
146 162 0
139 156 0
145 160 0
150 164 0
148 164 0
153 170 0
144 162 0
150 167 0
152 168 0
151 166 0
138 155 0
152 170 0
145 161 0
148 167 0
144 162 0
155 172 0
152 169 0
152 170 0
156 173 0
153 169 0
152 169 0
156 172 0
150 166 0
154 173 0
151 167 0
153 170 0
153 170 0
151 170 0
153 170 0
150 167 0
152 169 0
160 177 0
156 172 0
153 172 0
155 173 0
156 172 0
161 177 0
157 173 0
153 170 0
157 174 0
154 173 0
157 175 0
158 176 0
159 173 0
158 177 0
162 179 0
162 179 0
153 173 0
160 177 0
162 182 0
158 174 0
162 180 0
164 183 0
159 177 0
156 174 0
157 176 0
163 181 0
163 181 0
159 178 0
157 176 0
165 184 0
160 179 0
158 177 0
163 180 0
160 178 0
162 179 0
164 182 0
159 178 0
160 178 0
164 182 0
162 180 0
162 181 0
159 177 0
166 186 0
165 184 0
164 183 0
164 182 0
163 183 0
163 183 0
168 189 0
160 180 0
167 186 0
163 182 0
166 184 0
164 185 0
168 187 0
165 184 0
165 184 0
168 188 0
165 184 0
166 185 0
164 184 0
166 185 0
165 184 0
163 183 0
159 178 0
161 180 0
166 187 0
169 190 0
165 183 0
169 187 0
164 185 0
167 188 0
174 198 88
171 196 84
172 196 95
171 194 57
171 195 80
170 194 76
170 194 76
168 193 57
173 197 67
167 191 62
167 191 57
173 197 76
171 196 80
171 196 88
164 188 57
168 192 84
168 192 80
169 193 51
169 194 76
167 192 84
165 189 72
172 196 102
170 193 99
165 188 88
173 197 88
167 191 72
168 192 80
168 193 76
174 198 80
164 187 67
172 195 92
168 192 76
173 196 117
163 186 80
174 198 120
171 194 99
164 187 88
165 190 88
169 192 92
169 192 95
173 196 120
166 190 99
160 184 76
166 189 105
165 188 95
169 193 108
170 192 102
173 197 84
163 187 92
171 194 108
170 194 114
165 189 92
171 193 102
159 182 84
168 190 95
169 192 99
160 183 99
161 184 111
162 183 80
167 190 95
167 189 114
167 189 105
161 183 92
163 186 95
164 187 95
164 186 99
154 177 95
162 184 102
170 191 99
165 187 117
165 187 114
156 178 76
160 181 105
151 173 76
166 187 99
157 178 95
155 177 95
159 180 105
157 179 99
155 177 67
157 180 99
155 176 111
149 170 102
148 170 92
154 177 95
153 176 76
148 170 76
150 171 88
155 176 117
146 167 84
145 167 72
149 171 72
132 153 80
143 163 67
139 160 76
139 159 84
143 164 88
148 169 88
143 163 86
103 125 78
97 122 113
100 124 128
90 115 120
88 115 113
85 111 122
95 120 117
79 106 120
97 122 129
86 112 130
91 117 118
91 118 128
95 120 126
103 127 122
93 119 120
88 115 123
85 112 120
104 128 126
98 123 124
92 118 129
105 129 139
101 125 136
88 116 133
102 127 128
100 124 117
97 122 119
96 121 125
86 111 122
93 117 117
138 138 75
94 115 144
85 113 150
87 114 155
77 106 148
73 104 119
75 106 121
74 105 131
70 103 130
73 103 122
67 96 126
81 102 114
68 96 120
67 93 121
57 90 115
62 94 110
62 95 115
65 98 117
61 93 114
60 93 120
56 88 110
91 116 88
79 106 97
56 89 108
57 90 117
57 91 117
58 92 114
56 89 107
57 90 102
57 90 110
57 90 120
55 88 109
56 89 102
55 88 108
57 91 110
57 91 117
55 89 110
57 90 107
57 90 113
57 91 106
57 90 108
59 92 118
56 89 103
59 92 115
56 90 111
56 90 114
57 90 105
58 91 110
58 92 121
56 89 99
58 92 114
57 91 105
57 91 117
56 89 105
56 89 95
60 94 126
56 90 108
57 91 114
59 93 120
57 91 114
56 89 107
57 90 103
57 90 115
56 89 110
57 91 111
57 90 113
58 91 121
55 87 95
56 90 108
56 88 110
57 90 107
57 90 122
57 90 111
57 89 111
56 89 102
57 90 94
56 89 97
56 88 108
58 91 114
57 90 102
59 93 117
56 89 102
56 89 100
56 89 92
56 89 102
56 89 108
57 90 100
55 88 99
55 87 86
55 87 102
54 86 94
56 88 97
55 87 99
54 85 88
64 87 67
90 106 31
105 119 0
93 108 0
99 112 0
103 118 0
103 117 0
100 113 0
110 127 0
116 130 0
105 120 0
98 111 0
112 128 0
118 133 0
112 128 0
125 142 0
113 129 0
122 140 0
125 142 0
127 143 0
122 136 0
117 131 0
120 136 0
128 145 0
125 142 0
126 141 0
130 148 0
127 145 0
121 138 0
126 142 0
127 145 0
119 137 0
125 140 0
136 150 0
133 148 0
134 151 0
127 145 0
137 155 0
133 151 0
131 150 0
132 150 0
128 143 0
135 152 0
144 163 0
140 157 0
142 160 0
141 157 0
134 152 0
141 159 0
143 159 0
134 152 0
139 158 0
139 156 0
137 156 0
128 145 0
149 168 0
142 161 0
142 158 0
137 155 0
141 158 0
144 163 0
146 164 0
142 160 0
145 163 0
141 160 0
144 161 0
144 161 0
147 165 0
149 167 0
150 168 0
144 161 0
142 159 0
150 169 0
141 160 0
153 172 0
153 171 0
144 160 0
149 166 0
154 173 0
147 163 0
137 152 0
150 168 0
142 159 0
151 169 0
146 163 0
151 170 0
150 169 0
148 166 0
152 170 0
151 170 0
154 171 0
146 160 0
152 169 0
153 170 0
156 174 0
149 166 0
150 168 0
151 167 0
151 169 0
153 171 0
153 170 0
146 162 0
147 163 0
152 170 0
156 170 0
156 172 0
159 176 0
154 171 0
162 181 0
157 175 0
153 169 0
160 177 0
157 174 0
161 178 0
156 172 0
160 179 0
162 180 0
155 173 0
155 171 0
154 170 0
161 178 0
158 177 0
160 179 0
161 175 0
158 176 0
160 176 0
158 174 0
159 178 0
162 181 0
156 174 0
169 188 0
158 172 0
161 179 0
163 182 0
163 183 0
154 171 0
163 182 0
158 177 0
161 177 0
163 182 0
158 177 0
160 177 0
163 183 0
165 186 0
162 181 0
163 179 0
162 179 0
161 182 0
162 180 0
161 179 0
164 184 0
160 176 0
161 179 0
160 179 0
165 182 0
166 187 0
164 183 0
167 186 0
166 185 0
167 187 0
166 185 0
169 189 0
166 186 0
165 187 0
164 181 0
161 180 0
166 185 0
161 179 0
161 181 0
165 184 0
166 185 0
163 181 0
164 183 0
167 187 0
163 183 0
168 189 0
167 188 0
169 190 0
170 194 51
174 198 111
171 195 67
173 197 88
171 195 72
171 195 67
167 191 62
170 194 62
170 194 76
165 189 62
174 198 92
163 187 76
169 194 88
167 192 76
168 193 88
165 189 72
170 194 76
173 197 95
169 193 92
169 193 72
169 194 92
166 190 92
171 194 99
168 192 67
171 194 92
171 194 76
169 192 92
170 193 67
170 193 95
172 194 95
172 195 133
169 193 102
175 197 114
167 192 108
175 198 130
167 190 62
173 196 128
170 193 80
170 193 111
170 193 99
165 188 76
172 195 92
164 186 92
169 192 88
169 192 95
163 186 88
165 189 99
171 194 88
165 188 72
172 193 99
167 190 111
161 184 95
169 193 105
165 187 102
166 188 95
165 189 80
162 185 99
162 185 102
167 190 99
160 183 88
161 184 88
162 185 111
169 191 105
162 185 88
167 189 105
157 180 95
163 186 108
158 180 84
165 187 105
164 186 117
160 182 102
159 181 92
151 175 88
149 171 76
157 178 76
160 180 102
155 178 99
150 172 99
163 183 111
159 180 114
153 175 84
159 180 95
143 163 57
155 177 99
145 167 76
154 174 95
156 178 84
145 166 72
137 158 67
146 167 80
147 167 105
144 165 102
142 163 62
146 167 99
137 156 92
142 161 84
132 153 62
140 159 77
136 156 76
134 154 74
95 117 79
82 107 110
93 117 102
92 117 118
102 126 131
86 112 99
86 112 127
93 118 117
73 101 88
99 123 130
91 118 110
101 125 122
92 117 111
94 118 114
91 116 107
89 114 119
90 116 120
100 125 131
91 116 132
99 123 129
98 122 125
96 121 141
98 123 135
103 129 120
91 118 103
92 116 122
91 116 120
96 120 125
132 136 89
140 142 86
86 112 148
76 106 140
85 112 144
74 104 124
74 105 129
74 104 115
72 104 134
79 109 128
67 99 126
69 96 123
72 98 121
64 93 118
65 93 114
56 90 107
61 92 110
69 99 127
64 96 107
58 90 107
58 91 103
83 110 92
94 119 86
58 89 97
57 90 107
56 89 96
56 89 108
56 88 102
57 90 114
56 89 109
58 92 111
55 87 97
58 92 111
58 91 110
55 88 103
56 88 115
56 89 102
57 90 108
58 91 110
56 89 99
58 91 115
58 91 117
58 91 117
57 90 110
55 88 90
56 90 102
55 86 107
57 90 111
56 89 107
58 91 111
58 92 118
56 89 107
56 89 110
57 90 108
56 88 103
56 89 105
58 91 118
57 91 114
58 91 117
57 90 118
57 90 108
56 89 107
56 89 107
56 89 102
58 92 111
56 90 99
57 90 108
57 90 107
56 89 107
56 89 110
59 93 114
56 89 102
56 89 110
57 90 108
56 89 107
55 88 100
56 88 97
56 90 100
55 87 102
54 87 95
56 88 108
57 89 108
56 88 90
57 90 103
55 88 102
55 87 103
53 85 88
55 87 95
55 87 92
53 84 94
53 85 94
55 87 102
54 84 88
81 97 44
93 107 0
105 120 0
106 121 0
118 132 0
114 128 0
104 118 0
104 117 0
121 136 0
107 123 0
104 120 0
113 130 0
119 134 0
114 129 0
110 126 0
122 138 0
111 127 0
116 132 0
115 132 0
117 133 0
117 134 0
117 133 0
113 127 0
129 146 0
116 134 0
120 136 0
123 139 0
125 142 0
124 142 0
116 134 0
121 139 0
125 142 0
132 149 0
135 152 0
129 146 0
129 145 0
124 140 0
123 141 0
132 149 0
131 149 0
118 134 0
138 155 0
130 145 0
127 146 0
139 154 0
143 160 0
131 149 0
134 151 0
139 156 0
144 164 0
145 161 0
134 151 0
131 149 0
132 148 0
149 165 0
137 153 0
140 159 0
133 150 0
141 158 0
141 158 0
139 156 0
147 164 0
144 162 0
141 160 0
145 163 0
150 167 0
144 162 0
145 162 0
144 163 0
155 172 0
147 164 0
142 159 0
140 158 0
152 169 0
151 169 0
149 168 0
146 162 0
149 166 0
142 160 0
146 161 0
144 161 0
153 171 0
149 165 0
148 166 0
151 168 0
152 169 0
150 167 0
153 168 0
154 173 0
155 172 0
157 173 0
149 167 0
157 176 0
153 171 0
148 164 0
156 176 0
149 166 0
156 174 0
159 176 0
147 164 0
157 175 0
148 164 0
157 173 0
148 165 0
159 178 0
158 176 0
160 179 0
151 168 0
162 179 0
158 176 0
158 176 0
157 177 0
154 173 0
156 170 0
159 177 0
162 182 0
154 172 0
158 176 0
156 175 0
157 175 0
161 179 0
160 178 0
164 181 0
156 175 0
156 173 0
165 184 0
157 174 0
156 175 0
161 178 0
157 175 0
162 180 0
156 175 0
159 178 0
162 179 0
164 182 0
162 178 0
163 179 0
157 175 0
160 179 0
161 182 0
165 185 0
160 178 0
163 181 0
161 181 0
164 181 0
160 182 0
164 185 0
156 175 0
162 181 0
163 181 0
163 182 0
161 181 0
166 185 0
160 180 0
163 183 0
164 181 0
164 183 0
163 182 0
164 185 0
165 185 0
165 185 0
163 182 0
164 181 0
167 187 0
163 181 0
163 183 0
168 188 0
165 184 0
166 184 0
165 184 0
163 183 0
165 185 0
169 190 0
167 187 0
165 186 0
165 184 0
171 191 0
166 187 0
165 186 0
170 195 80
171 195 67
167 191 67
169 193 57
166 191 62
170 194 84
167 191 67
168 192 80
165 190 76
167 191 36
170 193 62
170 193 67
165 190 80
165 189 57
169 193 80
171 194 67
169 193 72
167 190 67
173 196 80
164 188 44
169 192 72
172 195 95
167 190 67
171 195 88
167 192 95
170 193 80
164 188 99
169 194 88
172 196 108
175 198 108
164 186 76
172 197 108
168 191 84
174 196 99
170 193 92
171 194 105
169 191 80
172 195 105
169 192 108
167 191 92
168 192 105
165 189 108
172 195 92
167 191 67
163 186 84
166 190 80
165 190 76
168 192 88
169 191 95
170 193 99
167 191 114
165 188 95
161 184 92
162 185 99
168 190 92
162 184 84
167 191 102
164 186 102
163 187 99
162 184 80
160 184 102
160 183 92
162 185 99
167 189 114
164 186 102
159 182 92
161 183 108
163 186 108
156 179 92
171 194 111
163 186 95
156 178 88
162 184 102
165 188 95
150 173 92
157 179 102
163 187 99
153 174 92
148 170 80
151 173 95
152 174 84
159 181 102
146 168 72
156 177 102
156 178 105
141 162 84
151 172 92
149 170 76
143 164 80
145 166 67
151 172 95
146 166 114
153 173 88
137 157 76
144 164 95
128 147 62
134 154 76
137 158 76
131 150 57
127 147 95
127 147 62
106 128 103
79 104 90
93 118 113
98 122 121
96 120 115
92 116 118
110 134 133
91 115 110
95 119 121
81 109 113
80 107 107
90 115 114
91 116 136
90 116 130
107 131 135
112 136 151
90 117 129
105 128 122
94 119 110
107 130 135
109 133 128
99 125 130
105 130 113
101 127 121
95 120 135
94 119 124
90 115 121
119 131 105
150 147 57
121 127 102
86 113 151
78 107 136
63 95 130
70 102 128
78 108 118
65 98 119
70 101 131
78 109 131
71 101 117
73 98 113
68 95 114
69 95 107
71 99 102
56 90 114
62 93 116
61 93 115
63 95 102
58 91 107
82 106 86
97 121 78
67 97 105
56 88 105
56 89 101
55 87 94
58 92 108
56 89 102
56 89 99
56 89 110
57 90 115
54 86 103
58 92 115
57 90 107
57 90 113
56 89 113
58 91 117
55 87 107
58 91 108
58 91 114
57 91 105
58 92 124
56 90 110
56 88 102
58 92 115
57 90 118
57 91 111
57 90 108
58 92 115
57 91 108
58 91 110
56 88 105
55 88 113
59 92 122
57 90 102
57 90 107
57 90 108
56 89 99
56 89 103
58 91 122
56 89 115
55 87 108
57 90 103
57 91 108
57 90 108
58 91 108
59 92 115
56 90 102
56 90 110
58 91 114
57 91 115
55 88 107
57 91 111
56 89 94
57 90 107
58 91 114
55 87 90
56 89 92
56 89 105
56 89 102
56 89 111
56 89 117
57 90 103
53 85 100
54 86 102
55 87 102
54 85 88
51 82 76
50 81 74
52 83 92
80 104 92
95 112 31
102 114 0
104 118 0
109 123 0
111 128 0
109 121 0
123 137 0
109 124 0
119 134 0
101 115 0
109 123 0
118 133 0
101 116 0
121 135 0
116 132 0
112 128 0
107 125 0
110 126 0
119 134 0
130 146 0
128 145 0
117 135 0
125 144 0
127 144 0
120 135 0
123 140 0
129 146 0
118 133 0
114 130 0
130 147 0
115 131 0
131 146 0
134 152 0
124 140 0
127 141 0
121 137 0
135 153 0
131 145 0
127 144 0
123 140 0
131 145 0
134 152 0
131 149 0
134 152 0
126 144 0
137 153 0
140 158 0
136 154 0
140 157 0
143 162 0
142 161 0
141 159 0
145 162 0
141 158 0
139 156 0
137 154 0
143 162 0
138 155 0
136 151 0
145 161 0
141 161 0
143 161 0
142 158 0
151 170 0
137 154 0
146 166 0
143 163 0
148 166 0
151 170 0
148 165 0
142 162 0
136 152 0
146 164 0
155 173 0
151 168 0
149 168 0
156 175 0
152 171 0
150 169 0
147 161 0
148 165 0
147 164 0
149 166 0
158 176 0
151 167 0
148 166 0
158 176 0
148 165 0
148 167 0
155 171 0
149 167 0
152 172 0
148 167 0
152 169 0
155 173 0
153 169 0
149 166 0
157 174 0
158 176 0
154 173 0
153 170 0
154 171 0
159 178 0
156 173 0
158 176 0
153 170 0
162 180 0
153 172 0
159 179 0
153 172 0
159 178 0
155 173 0
161 179 0
157 174 0
163 182 0
153 169 0
156 172 0
156 175 0
154 172 0
157 173 0
158 175 0
160 178 0
161 178 0
162 181 0
166 185 0
159 180 0
158 175 0
164 184 0
164 181 0
161 178 0
155 174 0
160 179 0
160 180 0
164 184 0
159 177 0
164 184 0
156 178 0
166 188 0
158 178 0
161 180 0
160 180 0
167 186 0
164 185 0
162 181 0
163 180 0
169 186 0
162 182 0
162 182 0
167 185 0
165 183 0
164 182 0
160 181 0
168 187 0
164 182 0
165 185 0
167 187 0
165 186 0
166 185 0
166 186 0
161 183 0
165 183 0
166 185 0
165 185 0
162 183 0
165 182 0
167 186 0
167 187 0
160 179 0
166 186 0
168 188 0
158 177 0
167 187 0
168 189 0
164 183 0
168 189 0
168 189 0
165 187 0
167 187 0
167 187 0
169 190 0
170 195 67
171 194 67
173 197 62
170 193 57
172 195 84
170 194 57
171 195 67
171 195 80
166 191 67
167 191 36
173 197 76
166 189 84
170 194 80
174 197 67
171 195 88
174 198 92
171 195 80
169 193 92
171 194 62
168 193 80
172 195 80
166 190 67
170 194 102
169 193 99
173 197 99
171 195 111
167 190 76
164 188 88
169 193 117
170 193 92
173 197 105
168 191 105
169 192 105
166 190 88
164 187 62
173 196 108
170 193 76
167 190 105
168 191 95
164 188 95
170 193 99
167 191 99
166 189 84
167 189 99
168 191 102
163 186 80
161 184 84
164 188 76
165 187 92
172 196 99
162 185 92
169 191 99
165 189 99
168 191 80
169 192 105
166 189 111
170 193 95
164 188 84
157 179 80
163 186 92
158 180 80
164 187 84
163 186 111
163 185 108
167 190 99
157 181 84
159 181 95
152 173 84
159 182 105
158 179 99
156 179 95
154 176 84
148 170 84
155 178 95
152 175 102
162 184 102
154 177 95
159 181 102
154 176 108
157 180 95
162 184 114
160 181 99
150 171 92
154 175 102
151 173 102
149 170 88
147 168 80
137 158 84
145 166 76
144 164 95
139 160 76
146 168 95
152 172 99
141 161 84
131 152 51
140 160 62
131 152 36
146 166 102
134 153 72
133 152 67
134 153 72
129 148 25
106 128 103
73 99 96
101 124 124
94 118 102
97 122 121
97 123 138
83 109 102
95 120 125
77 105 105
108 131 129
85 111 103
84 110 119
91 115 112
90 116 118
94 118 118
77 105 110
92 117 124
105 129 133
113 136 137
96 121 129
107 132 135
109 133 125
99 125 129
95 120 118
84 111 111
82 108 112
110 131 133
157 156 86
135 129 44
108 120 111
69 101 129
68 101 134
71 102 125
70 100 126
71 101 115
76 105 121
68 100 135
74 103 107
75 104 105
78 107 117
84 108 114
68 96 114
63 95 107
59 92 118
60 93 111
59 90 88
66 96 107
59 89 97
109 131 95
74 102 82
54 87 88
55 87 95
56 89 95
57 89 111
55 87 103
56 89 100
56 88 107
54 86 102
54 87 94
57 90 107
57 90 115
57 90 100
55 87 99
57 91 110
57 90 114
57 90 113
56 89 108
55 88 100
57 90 108
57 91 115
55 87 100
56 89 107
57 91 105
57 90 102
57 89 110
56 89 110
58 91 116
57 90 114
57 90 108
57 91 122
57 90 108
54 86 97
57 90 103
56 89 103
56 89 110
58 90 111
58 91 115
58 91 110
55 87 108
56 89 115
57 89 111
56 89 108
56 89 102
56 89 100
56 89 95
56 90 100
57 90 110
58 91 120
55 87 107
56 89 115
57 91 110
56 88 95
56 89 102
56 88 107
53 84 97
57 91 117
54 86 97
56 88 108
54 86 97
57 90 113
55 87 99
55 87 95
57 90 108
54 86 84
53 85 97
65 91 67
88 106 47
94 108 0
88 104 0
107 123 0
102 116 0
103 116 0
104 120 0
103 117 0
113 130 0
111 127 0
107 122 0
100 113 0
119 134 0
110 126 0
114 130 0
121 138 0
113 128 0
117 132 0
113 128 0
109 124 0
117 132 0
121 136 0
122 138 0
126 143 0
136 152 0
119 135 0
131 148 0
112 128 0
127 144 0
126 143 0
135 152 0
125 140 0
133 149 0
119 137 0
120 139 0
125 142 0
136 155 0
128 144 0
142 161 0
131 148 0
132 149 0
138 156 0
121 138 0
149 165 0
135 151 0
129 145 0
135 152 0
129 147 0
143 160 0
136 154 0
133 150 0
139 156 0
149 166 0
141 160 0
138 156 0
147 166 0
129 148 0
131 148 0
142 156 0
137 153 0
136 153 0
141 156 0
132 148 0
144 161 0
140 158 0
143 162 0
151 167 0
141 160 0
147 165 0
144 159 0
136 155 0
141 160 0
145 161 0
144 160 0
148 166 0
151 168 0
142 158 0
143 160 0
148 166 0
144 161 0
148 167 0
149 168 0
146 164 0
147 166 0
154 170 0
152 169 0
154 171 0
146 163 0
146 164 0
150 169 0
150 168 0
149 167 0
148 167 0
152 172 0
154 171 0
154 172 0
157 175 0
161 179 0
157 174 0
153 171 0
155 172 0
153 171 0
156 174 0
153 170 0
157 174 0
157 176 0
157 175 0
156 175 0
157 176 0
156 175 0
149 164 0
155 173 0
160 178 0
158 177 0
156 173 0
157 175 0
157 176 0
164 182 0
162 180 0
158 177 0
160 177 0
158 176 0
162 181 0
157 175 0
160 181 0
164 183 0
157 176 0
155 175 0
165 185 0
162 180 0
161 179 0
160 178 0
163 181 0
161 179 0
161 178 0
158 176 0
167 186 0
164 184 0
162 181 0
159 180 0
165 185 0
164 182 0
167 186 0
159 178 0
160 176 0
159 177 0
163 181 0
162 182 0
167 185 0
160 179 0
158 176 0
161 181 0
165 185 0
164 183 0
165 185 0
163 183 0
162 181 0
158 176 0
164 185 0
164 180 0
161 182 0
162 180 0
167 185 0
167 187 0
163 181 0
165 185 0
164 184 0
166 185 0
168 188 0
166 185 0
168 188 0
164 182 0
167 187 0
165 187 0
168 187 0
159 179 0
165 184 0
169 190 0
166 187 0
166 188 0
167 187 0
168 189 0
173 197 67
168 191 57
165 190 67
170 194 72
169 192 44
168 193 99
170 194 51
172 196 72
169 194 72
168 192 88
168 191 72
170 194 92
170 193 88
171 194 92
171 195 76
172 195 111
168 192 62
169 193 80
173 196 80
170 193 76
168 192 92
171 194 102
167 190 92
164 187 84
175 197 99
169 192 108
173 196 99
169 192 92
165 187 108
168 191 108
168 191 88
170 194 105
166 190 92
171 193 76
163 187 80
174 197 111
168 192 92
165 189 76
161 185 67
169 192 102
173 197 88
168 192 102
160 183 84
167 190 76
168 190 117
161 184 92
164 187 102
167 189 84
160 183 88
163 188 108
168 191 108
162 185 84
169 193 108
163 186 88
164 186 102
166 189 88
158 181 90
165 187 99
169 193 114
162 184 76
169 193 105
165 188 105
161 183 99
157 180 84
165 188 95
159 181 80
163 186 122
163 186 102
163 185 99
162 184 99
151 174 108
158 181 92
161 184 95
160 182 120
155 177 80
161 184 92
156 179 84
153 175 99
155 176 108
157 179 125
153 174 95
159 182 92
148 169 92
159 180 88
152 173 111
157 177 114
143 164 95
141 162 62
145 166 92
149 170 84
143 164 80
141 161 76
137 157 67
147 167 80
153 173 88
143 164 80
142 162 72
130 150 102
138 158 80
135 154 76
138 157 82
136 155 62
128 146 72
112 133 113
91 116 107
81 108 108
73 101 95
99 123 124
77 103 108
100 124 126
93 118 117
89 113 110
101 124 128
85 111 115
101 125 126
100 124 122
89 114 114
89 115 121
89 115 124
99 123 130
114 137 139
92 118 131
101 125 120
96 121 124
102 127 110
101 125 99
89 117 114
101 125 129
90 116 128
131 134 87
132 126 60
125 120 67
94 111 126
74 106 126
72 104 133
65 97 118
81 111 126
84 112 110
78 108 113
79 107 108
75 104 105
83 109 95
79 106 115
79 100 102
71 97 99
62 94 113
57 91 108
62 94 103
56 90 113
63 92 99
91 114 76
82 109 84
56 89 105
54 86 86
58 91 111
53 85 90
55 87 90
55 87 99
57 90 104
56 89 92
55 87 99
56 90 108
57 90 107
56 89 111
56 89 96
55 88 110
59 92 125
57 90 108
56 89 102
56 89 102
57 90 114
58 92 114
56 89 103
57 90 110
55 88 97
56 90 102
55 87 90
56 89 107
55 89 99
56 89 99
56 89 108
55 88 99
57 90 95
57 91 105
56 89 100
56 89 115
55 88 95
56 89 97
54 86 107
56 89 113
55 88 95
56 88 107
57 90 100
58 91 118
58 91 111
55 87 95
57 90 103
57 90 103
56 89 108
53 85 86
55 87 86
53 85 99
55 88 103
56 88 110
54 85 84
55 88 105
54 85 97
56 88 102
56 89 100
55 87 110
54 86 92
55 87 100
51 82 60
53 85 90
51 82 84
63 88 74
90 107 40
104 117 0
95 110 0
104 120 0
108 124 0
102 116 0
101 117 0
108 122 0
100 114 0
111 124 0
100 116 0
104 118 0
113 128 0
106 123 0
108 125 0
104 122 0
111 129 0
99 113 0
124 141 0
115 132 0
114 129 0
104 121 0
122 139 0
114 131 0
122 137 0
121 137 0
129 146 0
125 141 0
128 145 0
121 137 0
128 146 0
125 141 0
136 154 0
126 145 0
140 157 0
127 143 0
130 147 0
132 149 0
137 155 0
138 156 0
129 145 0
122 139 0
128 144 0
136 152 0
137 153 0
143 163 0
130 148 0
135 153 0
141 156 0
140 159 0
139 156 0
141 158 0
144 164 0
140 158 0
134 151 0
143 160 0
143 160 0
143 159 0
142 162 0
138 157 0
141 159 0
137 155 0
145 164 0
143 160 0
143 161 0
147 166 0
135 151 0
132 149 0
141 161 0
144 161 0
144 160 0
151 169 0
137 155 0
152 169 0
151 170 0
135 151 0
149 168 0
142 159 0
147 165 0
150 169 0
143 160 0
151 168 0
150 168 0
152 170 0
154 171 0
154 173 0
154 173 0
156 174 0
150 168 0
149 167 0
151 169 0
151 168 0
149 166 0
149 166 0
150 168 0
147 166 0
150 166 0
149 168 0
153 169 0
150 167 0
147 163 0
157 174 0
158 176 0
153 172 0
159 177 0
161 179 0
149 166 0
149 167 0
155 174 0
154 170 0
157 176 0
152 171 0
151 171 0
160 178 0
155 173 0
159 179 0
161 179 0
154 171 0
163 183 0
157 176 0
156 175 0
162 181 0
162 181 0
160 180 0
164 182 0
158 177 0
162 181 0
160 178 0
157 177 0
160 177 0
158 173 0
157 176 0
164 183 0
160 180 0
159 178 0
160 178 0
161 182 0
158 176 0
162 183 0
158 177 0
158 177 0
161 180 0
163 183 0
165 182 0
161 180 0
163 182 0
159 179 0
162 180 0
167 188 0
159 178 0
165 185 0
163 181 0
159 177 0
161 180 0
167 187 0
165 186 0
156 175 0
168 188 0
160 179 0
166 186 0
167 189 0
166 184 0
162 181 0
163 184 0
167 187 0
166 188 0
165 185 0
166 185 0
167 187 0
166 186 0
164 184 0
164 185 0
165 185 0
164 185 0
165 185 0
164 186 0
162 182 0
169 190 0
167 187 0
167 186 0
168 189 0
169 190 0
168 188 0
167 187 0
171 195 72
170 194 67
166 190 51
171 195 62
173 196 72
162 186 72
172 197 76
169 193 67
170 193 67
168 192 57
171 195 84
165 189 67
172 195 80
167 192 84
167 192 99
169 192 80
171 195 99
172 196 88
167 190 67
169 193 84
171 194 80
174 197 105
174 197 99
172 196 67
174 197 108
174 196 108
169 192 84
169 193 88
164 187 92
170 195 105
167 191 102
166 189 95
171 195 80
163 187 76
171 194 111
165 189 99
166 188 80
170 193 111
161 184 80
171 194 108
172 195 88
167 190 88
173 196 99
170 194 99
166 190 84
170 193 95
166 189 95
165 187 105
162 186 88
161 185 62
166 190 102
170 193 99
166 189 95
156 180 90
165 189 105
157 180 97
163 187 92
155 178 47
167 190 120
161 184 88
170 192 120
160 184 90
163 186 99
164 187 99
165 188 88
163 186 88
165 188 102
162 185 108
159 181 111
157 179 105
165 187 117
153 175 88
159 183 108
158 181 95
160 181 92
155 177 88
158 180 128
154 176 88
156 178 95
155 178 99
154 177 84
140 162 72
152 173 92
153 174 76
146 168 67
149 169 95
146 167 108
151 172 105
148 169 111
157 178 95
148 169 62
147 167 88
142 163 76
150 170 92
152 172 80
138 158 95
135 155 76
141 161 95
135 155 92
137 156 80
135 154 76
130 149 84
127 147 51
130 149 72
127 147 126
94 119 115
93 116 111
102 126 120
102 125 133
95 119 122
74 101 107
100 124 112
89 114 124
94 118 122
101 124 130
84 110 108
99 124 129
85 111 115
96 119 130
95 119 116
105 129 131
102 126 113
101 126 121
100 124 118
98 124 122
98 123 124
101 125 111
109 131 131
96 120 115
125 142 93
135 137 64
133 134 74
126 132 70
78 108 128
73 104 122
66 99 122
75 105 117
75 105 113
79 108 108
80 109 120
72 102 110
79 107 108
75 103 115
66 93 99
72 99 90
57 90 108
66 97 110
63 94 107
62 93 95
62 93 95
92 115 81
101 125 86
57 90 100
54 86 95
55 87 94
53 84 86
56 88 99
57 91 97
57 90 105
56 88 105
56 89 90
55 88 92
55 87 92
57 90 108
57 90 107
57 90 111
55 88 108
55 87 87
56 89 102
55 88 94
57 90 100
56 90 105
57 89 111
57 90 111
53 85 84
56 89 97
57 91 107
57 91 108
55 88 100
57 90 107
54 87 88
56 88 103
56 89 103
57 90 115
56 89 103
57 91 111
57 90 108
56 89 114
56 88 103
56 89 103
55 88 103
56 88 108
54 87 90
55 88 99
56 89 103
56 89 100
56 88 103
56 89 102
56 89 103
56 88 111
54 86 95
55 87 102
55 87 97
56 88 105
51 82 80
56 88 88
55 87 95
53 85 95
54 85 95
54 85 82
54 85 84
54 86 84
55 87 90
70 93 70
96 111 40
98 112 0
84 100 0
95 109 0
96 111 0
95 110 0
107 122 0
104 121 0
106 120 0
100 114 0
106 120 0
97 110 0
107 123 0
107 123 0
118 135 0
112 127 0
108 124 0
110 127 0
126 142 0
121 137 0
117 133 0
122 138 0
107 122 0
114 130 0
117 132 0
120 135 0
116 134 0
123 139 0
124 142 0
126 145 0
120 135 0
121 139 0
134 151 0
131 147 0
129 144 0
140 158 0
125 143 0
143 162 0
136 154 0
128 146 0
128 145 0
128 145 0
128 145 0
135 153 0
125 141 0
134 150 0
144 163 0
136 152 0
138 156 0
146 164 0
140 157 0
141 157 0
141 159 0
135 150 0
123 142 0
131 150 0
142 160 0
137 155 0
132 150 0
143 161 0
144 163 0
149 167 0
147 166 0
140 159 0
148 167 0
139 158 0
144 162 0
148 166 0
142 161 0
142 161 0
145 162 0
145 163 0
140 157 0
136 155 0
141 159 0
147 166 0
154 171 0
143 161 0
148 165 0
146 165 0
150 166 0
137 154 0
148 166 0
152 169 0
152 172 0
149 167 0
153 171 0
155 174 0
153 170 0
154 171 0
155 175 0
149 167 0
151 169 0
147 164 0
145 162 0
158 177 0
153 172 0
157 175 0
156 175 0
148 166 0
154 172 0
151 170 0
145 162 0
158 177 0
151 167 0
157 176 0
156 175 0
155 173 0
156 175 0
158 174 0
155 174 0
157 176 0
153 172 0
159 177 0
156 176 0
156 174 0
164 183 0
157 175 0
160 179 0
154 173 0
155 174 0
159 179 0
157 175 0
152 170 0
155 173 0
160 179 0
155 173 0
161 179 0
159 179 0
166 187 0
158 175 0
163 181 0
160 178 0
162 182 0
158 178 0
163 181 0
162 181 0
159 179 0
161 179 0
165 184 0
158 178 0
162 181 0
162 181 0
163 183 0
160 179 0
161 180 0
159 179 0
163 184 0
165 185 0
162 183 0
162 182 0
165 183 0
167 187 0
167 188 0
164 183 0
161 179 0
164 183 0
164 183 0
163 182 0
165 185 0
166 184 0
164 184 0
165 186 0
161 182 0
166 186 0
166 186 0
163 184 0
161 180 0
166 186 0
166 186 0
167 186 0
163 183 0
169 191 0
170 190 0
164 182 0
166 187 0
166 186 0
166 186 0
165 185 0
167 188 0
168 188 0
168 189 0
166 186 0
167 188 0
166 187 0
166 188 0
172 196 76
170 195 80
172 196 84
171 195 84
172 196 80
168 193 76
169 193 51
170 193 62
168 192 92
171 194 57
174 198 105
174 197 108
172 195 76
171 195 92
174 197 95
171 195 92
170 193 95
164 188 57
175 198 102
171 193 95
172 195 117
170 194 102
172 195 102
174 198 105
169 193 99
170 194 92
169 193 95
171 195 99
171 193 108
169 193 99
174 197 102
173 196 92
170 194 99
171 193 111
170 193 92
175 197 111
168 192 122
168 192 84
157 181 80
166 189 88
170 194 105
161 185 67
167 191 76
168 191 99
168 192 105
167 190 92
169 192 111
170 194 105
166 188 108
164 188 92
169 191 88
167 190 95
169 192 108
169 192 117
166 190 92
166 189 102
159 182 95
166 189 128
162 185 95
162 184 97
163 186 100
161 184 103
163 186 84
154 177 100
164 187 107
160 183 92
161 183 92
170 193 108
154 176 92
162 184 76
166 188 105
159 181 92
157 179 117
154 176 105
155 177 95
160 182 105
153 175 88
155 177 95
158 180 105
153 176 84
149 170 80
160 181 67
159 179 105
155 176 102
150 172 92
153 174 92
150 170 99
155 176 95
142 163 99
150 170 102
144 164 80
150 171 102
137 156 67
147 168 84
145 165 72
137 157 80
140 160 80
132 152 76
139 158 80
136 156 51
136 155 57
120 138 67
133 150 76
128 147 92
119 136 72
106 126 86
86 110 108
92 116 107
86 111 108
100 123 124
99 123 125
91 115 100
79 105 92
89 114 114
86 111 105
93 118 121
90 115 124
94 117 111
89 114 102
100 124 128
91 116 114
109 132 128
99 122 108
101 125 120
107 130 99
101 126 118
105 128 115
100 124 113
107 131 120
120 142 113
170 189 67
164 177 74
154 161 40
121 129 70
74 104 118
70 102 126
71 103 135
73 104 129
82 111 117
67 97 113
71 100 110
82 110 107
76 100 113
81 105 86
78 103 103
72 101 120
58 92 121
62 94 108
58 89 96
61 92 99
89 111 65
95 118 67
61 92 103
54 86 95
53 85 84
55 87 95
55 87 108
55 88 94
54 86 97
56 88 99
56 89 110
56 90 94
57 90 107
56 89 94
56 89 110
56 88 103
56 89 111
57 90 113
56 88 100
55 88 86
56 88 110
53 84 88
53 85 80
56 89 92
57 90 103
55 87 97
55 88 103
55 87 92
56 89 114
55 87 97
54 86 80
56 88 100
56 89 90
56 89 110
55 87 103
56 89 103
57 90 103
55 88 103
56 89 94
58 92 111
55 88 97
55 88 103
55 87 88
57 90 105
55 88 100
55 88 95
56 88 108
53 84 92
55 87 95
55 87 100
56 88 108
55 87 99
55 87 88
55 87 110
53 85 103
53 85 72
55 86 99
54 85 99
53 84 88
52 82 84
53 84 92
70 94 82
71 86 31
99 114 0
95 108 0
103 117 0
102 116 0
96 110 0
111 128 0
92 108 0
98 113 0
107 121 0
110 126 0
107 124 0
107 122 0
107 123 0
119 133 0
117 134 0
111 127 0
109 125 0
115 131 0
116 132 0
110 125 0
102 118 0
112 127 0
112 128 0
122 139 0
119 134 0
119 138 0
113 130 0
131 148 0
123 140 0
127 143 0
134 152 0
127 145 0
118 136 0
120 139 0
131 148 0
138 154 0
134 151 0
134 150 0
136 154 0
129 147 0
126 145 0
133 149 0
135 153 0
134 153 0
132 149 0
129 146 0
145 163 0
138 158 0
135 151 0
133 150 0
135 152 0
146 166 0
136 153 0
144 162 0
142 161 0
137 154 0
139 157 0
142 161 0
144 163 0
142 158 0
143 161 0
145 165 0
144 162 0
143 160 0
136 155 0
146 165 0
137 157 0
138 158 0
140 158 0
147 165 0
145 165 0
147 165 0
140 159 0
147 164 0
150 169 0
147 164 0
144 161 0
155 174 0
145 163 0
158 177 0
146 164 0
156 175 0
146 164 0
147 164 0
146 166 0
155 175 0
151 169 0
149 167 0
152 171 0
152 170 0
153 172 0
149 166 0
154 170 0
153 172 0
151 171 0
157 175 0
150 169 0
153 170 0
152 169 0
154 172 0
159 178 0
152 170 0
153 174 0
159 178 0
157 174 0
159 177 0
158 178 0
152 171 0
163 182 0
154 172 0
160 178 0
157 175 0
156 176 0
157 175 0
158 177 0
161 179 0
158 176 0
157 176 0
153 171 0
157 176 0
159 178 0
160 180 0
156 176 0
156 174 0
159 177 0
162 181 0
157 174 0
157 175 0
160 180 0
164 184 0
161 183 0
158 176 0
164 184 0
160 177 0
161 180 0
161 181 0
163 183 0
160 179 0
162 181 0
163 181 0
159 175 0
160 178 0
168 186 0
164 184 0
164 185 0
167 186 0
160 180 0
161 180 0
162 181 0
164 184 0
162 183 0
161 181 0
167 187 0
160 179 0
161 181 0
158 180 0
161 180 0
163 184 0
163 183 0
158 178 0
165 185 0
163 182 0
164 184 0
162 181 0
164 183 0
164 184 0
165 186 0
162 181 0
163 181 0
164 185 0
164 183 0
166 186 0
164 183 0
164 185 0
162 181 0
163 182 0
164 185 0
163 184 0
168 189 0
165 187 0
166 186 0
164 185 0
164 185 0
166 186 0
166 187 0
164 185 0
164 184 0
169 194 62
170 193 57
174 197 72
170 193 57
171 194 76
171 195 57
172 195 67
172 195 92
173 197 84
172 196 108
170 194 76
172 195 92
174 198 92
172 195 99
170 194 95
169 193 72
174 197 108
169 191 92
171 194 80
173 196 108
174 198 105
170 192 80
170 193 84
173 196 102
169 193 99
172 195 84
167 191 80
174 197 105
170 194 117
171 194 80
170 195 102
165 188 76
169 193 95
170 193 114
164 187 99
167 190 99
170 192 88
160 183 102
170 194 120
167 190 99
164 188 88
164 189 95
170 194 99
170 194 92
168 192 111
166 190 105
168 191 108
169 192 102
166 189 102
162 186 88
163 186 105
173 196 88
159 182 88
161 184 102
162 185 108
164 188 82
164 186 107
164 187 80
162 185 86
166 188 108
172 194 122
158 182 99
162 184 94
163 185 92
162 185 94
161 184 114
156 179 76
161 183 102
167 190 76
160 182 92
155 178 95
162 184 111
158 180 99
160 182 102
150 173 76
156 179 95
162 184 120
155 177 105
157 178 99
146 167 72
162 184 105
160 180 102
152 173 92
148 170 108
152 172 108
145 166 88
160 180 99
148 169 105
151 172 111
150 170 107
140 161 84
140 160 99
148 167 111
145 165 102
136 156 62
137 155 88
140 160 84
145 164 84
140 159 80
151 170 108
132 152 67
144 164 76
138 158 80
133 151 88
137 155 80
122 139 67
101 120 82
83 108 100
96 118 107
94 119 99
95 119 114
87 112 99
93 118 119
81 106 90
91 117 108
90 116 125
80 106 107
98 122 133
98 121 124
98 121 124
104 127 118
93 118 129
100 125 114
102 126 124
92 119 105
102 127 115
98 124 115
104 127 114
103 126 110
110 133 117
162 179 62
164 180 31
156 165 40
141 147 31
109 122 82
77 107 121
71 102 126
68 100 115
71 102 135
68 98 105
84 111 121
78 105 114
81 106 113
66 94 100
75 101 90
76 103 100
59 90 110
60 93 107
59 92 102
59 90 80
79 104 76
92 116 78
72 101 94
54 86 90
55 87 89
54 86 86
54 86 91
53 85 90
56 89 90
54 86 100
54 86 97
56 89 92
54 86 94
54 86 99
55 88 90
55 87 95
55 87 94
56 89 103
55 87 102
54 86 110
55 87 100
54 86 92
56 89 102
54 86 88
55 87 94
56 89 97
54 86 92
57 90 100
56 89 110
54 86 95
55 87 92
57 90 103
55 88 95
54 87 84
56 89 102
54 87 95
58 90 111
53 85 84
55 86 105
54 86 97
54 85 95
54 86 97
54 85 92
54 86 100
55 87 82
54 86 92
55 87 95
55 87 102
55 87 103
53 83 90
53 85 92
55 86 88
53 85 90
52 83 84
52 83 90
55 87 102
52 84 84
53 84 94
55 83 84
83 103 57
86 101 36
99 115 0
102 117 0
96 110 0
100 116 0
96 112 0
105 120 0
102 117 0
104 120 0
98 113 0
107 123 0
112 128 0
114 130 0
111 125 0
111 129 0
106 121 0
106 121 0
120 137 0
105 118 0
91 104 0
119 136 0
116 132 0
116 133 0
114 131 0
99 114 0
127 143 0
123 140 0
123 140 0
127 143 0
130 147 0
126 144 0
123 140 0
124 141 0
122 140 0
120 139 0
124 142 0
125 141 0
129 148 0
140 157 0
142 162 0
122 140 0
136 154 0
128 145 0
128 146 0
130 150 0
127 144 0
131 150 0
135 151 0
131 151 0
132 147 0
133 152 0
133 152 0
131 149 0
140 158 0
146 165 0
133 151 0
132 149 0
142 161 0
127 145 0
137 156 0
146 166 0
150 170 0
137 155 0
141 158 0
134 152 0
140 155 0
142 161 0
141 159 0
133 151 0
139 157 0
141 158 0
141 158 0
145 164 0
149 168 0
148 167 0
146 164 0
144 164 0
146 164 0
150 169 0
145 162 0
149 168 0
141 159 0
149 169 0
150 168 0
150 168 0
142 158 0
142 159 0
153 170 0
146 165 0
151 169 0
151 169 0
147 168 0
147 164 0
151 167 0
153 172 0
153 170 0
156 172 0
149 167 0
148 167 0
148 167 0
153 170 0
152 169 0
152 172 0
159 178 0
159 176 0
157 175 0
160 181 0
161 179 0
156 174 0
159 180 0
155 173 0
156 173 0
159 178 0
149 168 0
157 177 0
147 166 0
158 175 0
153 171 0
160 180 0
158 176 0
158 177 0
158 176 0
156 172 0
151 169 0
162 180 0
158 176 0
155 173 0
159 177 0
156 173 0
149 167 0
155 173 0
157 174 0
154 174 0
163 181 0
164 185 0
155 173 0
164 183 0
161 181 0
155 174 0
162 183 0
159 178 0
157 177 0
160 178 0
164 182 0
162 184 0
161 181 0
157 177 0
163 183 0
160 181 0
160 181 0
163 181 0
159 177 0
160 181 0
166 186 0
165 186 0
160 179 0
166 184 0
161 182 0
163 179 0
161 180 0
163 183 0
165 185 0
165 185 0
165 186 0
168 188 0
160 179 0
164 183 0
163 182 0
167 187 0
166 187 0
164 184 0
166 186 0
167 189 0
168 187 0
164 183 0
161 182 0
169 190 0
164 183 0
161 179 0
166 187 0
164 183 0
163 182 0
165 186 0
166 186 0
168 189 0
168 189 0
166 186 0
166 187 0
162 184 0
165 185 0
170 194 57
170 194 76
172 196 67
170 194 76
167 190 57
171 194 80
168 192 84
173 197 95
172 196 84
174 197 84
166 189 72
171 194 67
173 196 88
171 194 99
177 199 108
172 196 95
174 197 114
172 196 99
173 196 99
167 192 102
168 191 92
173 196 102
170 193 114
171 194 95
169 191 99
169 192 80
171 194 92
170 194 102
171 194 105
167 190 76
170 193 99
170 193 102
172 195 122
171 194 102
170 194 102
167 190 88
166 190 92
167 191 102
166 190 88
159 182 84
169 191 99
166 189 88
166 189 99
165 188 120
167 190 95
170 194 92
170 193 84
164 188 88
167 190 84
171 195 122
161 184 72
162 185 95
171 195 105
169 192 105
162 185 108
157 181 92
165 188 92
162 185 105
155 178 84
172 195 122
161 183 88
159 181 105
168 190 115
155 178 92
161 184 110
163 187 105
165 188 114
155 178 97
162 184 102
165 185 95
158 181 99
155 177 108
160 182 84
163 186 76
161 183 102
151 174 88
157 179 88
155 178 99
157 178 102
161 184 111
161 183 117
153 174 95
152 173 120
161 182 108
155 176 105
149 169 88
152 173 99
144 165 76
156 176 105
151 171 99
149 170 114
146 166 99
144 164 88
150 170 105
136 156 76
137 157 72
151 170 95
140 160 84
141 160 99
135 154 72
140 159 88
125 144 44
122 141 36
125 143 67
120 138 67
125 143 67
122 139 80
105 123 70
83 108 84
88 113 102
99 121 125
87 111 104
94 119 100
98 122 125
94 119 114
92 116 118
99 123 121
94 118 111
93 116 115
92 117 113
87 112 114
91 116 117
98 122 124
108 132 111
101 125 115
91 116 89
109 130 107
100 123 103
102 126 118
89 115 125
150 167 78
167 182 54
159 170 25
154 164 18
139 143 18
90 114 110
70 101 111
67 98 121
77 106 107
71 100 97
75 103 99
76 103 106
71 98 99
72 100 99
81 104 108
74 100 91
71 98 93
64 94 93
65 95 76
62 92 99
97 117 57
108 130 71
74 101 88
54 85 88
54 86 90
55 87 86
58 91 102
52 84 70
53 85 82
54 85 100
55 88 99
56 89 107
56 88 100
56 89 97
55 87 84
57 89 100
53 84 88
52 83 86
55 87 102
56 89 95
55 88 99
55 86 90
55 87 108
54 86 96
54 86 90
56 88 103
54 86 92
56 88 100
54 86 94
56 89 107
55 87 94
54 86 94
56 89 102
54 86 88
55 87 102
56 88 100
56 89 99
58 91 120
56 88 95
55 87 105
53 84 94
54 86 94
53 85 100
53 85 102
54 85 97
55 87 108
53 85 80
55 87 100
53 84 90
54 86 95
55 87 94
52 83 84
51 81 82
53 84 80
54 86 86
50 79 74
55 81 62
77 94 44
97 109 0
98 111 0
95 109 0
107 120 0
101 115 0
101 116 0
108 123 0
104 119 0
94 110 0
108 123 0
91 107 0
110 126 0
102 118 0
108 123 0
108 122 0
104 122 0
116 131 0
111 127 0
109 123 0
115 130 0
98 113 0
116 132 0
114 130 0
107 124 0
129 144 0
118 136 0
108 123 0
125 143 0
126 143 0
131 147 0
134 151 0
127 144 0
119 135 0
118 134 0
131 150 0
119 137 0
138 157 0
122 137 0
124 143 0
123 139 0
127 145 0
132 149 0
130 148 0
133 149 0
130 147 0
127 144 0
133 152 0
127 143 0
141 160 0
119 137 0
132 151 0
137 156 0
129 147 0
137 157 0
131 149 0
141 158 0
139 157 0
142 160 0
139 155 0
146 166 0
135 153 0
144 163 0
138 157 0
146 164 0
147 167 0
143 162 0
143 160 0
142 160 0
144 164 0
147 166 0
138 157 0
148 169 0
137 154 0
141 159 0
150 171 0
148 166 0
148 168 0
148 168 0
149 169 0
152 172 0
145 164 0
150 166 0
151 169 0
149 167 0
154 172 0
150 167 0
143 163 0
147 166 0
150 168 0
151 170 0
146 165 0
148 166 0
153 173 0
150 167 0
149 167 0
151 169 0
157 176 0
151 169 0
151 170 0
154 172 0
154 172 0
150 169 0
152 172 0
157 176 0
154 173 0
157 177 0
154 173 0
155 174 0
153 173 0
160 181 0
155 175 0
161 181 0
152 172 0
163 181 0
152 169 0
154 175 0
147 165 0
159 178 0
156 175 0
158 177 0
152 168 0
155 174 0
158 177 0
165 183 0
155 173 0
162 181 0
160 179 0
162 180 0
152 170 0
162 183 0
160 179 0
153 172 0
164 184 0
156 173 0
158 177 0
160 178 0
162 181 0
158 178 0
163 180 0
153 172 0
166 186 0
159 177 0
157 177 0
162 181 0
156 174 0
161 179 0
158 177 0
165 184 0
162 181 0
164 182 0
164 184 0
160 179 0
167 186 0
165 186 0
165 185 0
163 183 0
161 179 0
159 178 0
162 179 0
159 178 0
164 184 0
160 179 0
167 187 0
163 183 0
164 184 0
165 184 0
163 183 0
166 186 0
163 183 0
166 186 0
168 188 0
163 184 0
167 188 0
166 186 0
165 185 0
163 183 0
165 185 0
168 186 0
163 183 0
169 189 0
167 186 0
168 189 0
166 186 0
165 185 0
161 181 0
164 185 0
167 186 0
167 186 0
166 187 0
168 189 0
168 189 0
166 187 0
170 193 62
171 196 62
169 194 72
173 196 92
174 197 88
172 195 76
172 196 84
169 193 99
167 191 72
171 195 88
172 196 105
171 194 102
170 193 84
178 201 92
169 192 88
171 194 72
174 197 111
174 197 105
168 192 67
174 196 108
176 199 122
172 196 105
169 192 122
166 189 99
175 197 105
174 197 108
165 187 84
175 197 122
172 194 99
168 191 84
168 191 102
164 188 80
168 192 117
168 192 84
174 199 117
174 197 99
163 186 84
167 190 95
170 194 99
165 188 102
170 194 105
167 191 114
166 189 92
169 193 95
166 190 88
162 185 88
161 184 99
165 189 88
167 191 114
161 184 67
161 184 62
164 187 95
168 192 114
168 191 92
163 187 99
166 189 100
163 185 99
163 186 99
165 188 99
165 188 92
156 179 88
161 185 107
167 190 102
163 186 67
162 185 111
156 178 92
159 182 111
166 188 102
156 179 102
163 184 111
157 179 84
167 189 117
162 184 99
163 184 108
153 176 80
159 181 108
157 178 99
158 179 99
154 176 80
152 174 105
147 169 102
153 174 105
159 180 95
157 179 102
148 168 105
153 173 99
151 173 92
136 157 84
157 178 105
147 167 92
146 166 84
149 169 105
143 162 99
157 176 111
141 160 95
142 162 80
134 153 57
136 155 92
145 164 88
131 151 76
140 158 92
140 157 92
133 151 72
128 147 76
129 147 62
124 141 67
135 153 67
123 140 51
111 129 76
90 114 95
75 100 92
90 115 107
99 123 115
89 112 95
76 102 92
111 133 122
95 118 126
106 129 128
92 115 108
108 131 129
102 125 133
103 128 114
102 126 107
99 124 130
101 125 117
97 123 107
96 121 110
99 124 107
102 126 135
102 126 114
133 152 92
162 175 57
150 159 0
154 163 18
136 144 40
125 135 47
73 102 103
79 107 107
81 108 118
78 107 105
69 99 86
79 107 114
74 99 97
80 103 99
81 105 97
74 100 99
76 103 102
57 87 88
72 100 103
59 91 102
72 95 60
102 124 74
91 115 72
51 82 74
51 82 94
54 86 92
54 86 95
53 85 97
53 84 90
53 84 84
52 84 82
54 87 86
52 83 95
52 83 80
56 89 100
52 83 72
53 84 91
54 85 91
54 86 97
52 83 82
57 90 94
54 86 84
51 82 82
56 88 97
55 87 100
55 87 97
56 88 100
55 88 88
52 83 78
56 89 110
55 88 78
55 88 94
55 87 76
54 85 74
54 85 86
56 90 97
54 86 99
53 84 97
55 88 95
55 87 95
54 86 88
53 84 91
53 84 94
54 86 84
52 84 86
54 85 99
54 85 80
50 80 74
54 85 97
53 84 92
51 82 88
52 83 86
48 77 67
54 81 62
65 86 57
89 105 36
96 110 0
83 98 0
95 109 0
92 108 0
96 109 0
92 106 0
104 119 0
95 110 0
96 113 0
108 126 0
103 119 0
114 129 0
104 118 0
107 121 0
101 118 0
105 121 0
100 114 0
120 136 0
119 136 0
113 130 0
122 139 0
117 133 0
112 129 0
100 117 0
123 141 0
118 132 0
114 131 0
116 132 0
122 137 0
116 132 0
131 150 0
118 136 0
123 141 0
120 136 0
122 138 0
123 140 0
128 145 0
128 146 0
131 149 0
133 149 0
128 145 0
120 139 0
132 150 0
131 148 0
129 146 0
127 146 0
131 147 0
128 147 0
132 150 0
129 147 0
138 158 0
126 144 0
137 154 0
140 158 0
139 156 0
132 149 0
134 153 0
131 149 0
139 158 0
138 155 0
134 152 0
144 163 0
141 158 0
132 150 0
143 161 0
142 161 0
148 166 0
144 162 0
139 157 0
142 159 0
150 169 0
145 162 0
147 167 0
146 165 0
147 166 0
137 157 0
146 164 0
138 158 0
149 166 0
150 169 0
152 171 0
143 163 0
149 166 0
151 171 0
153 172 0
147 166 0
155 173 0
151 170 0
150 169 0
153 174 0
148 164 0
152 172 0
149 168 0
151 168 0
145 165 0
151 170 0
157 176 0
152 171 0
149 168 0
155 174 0
143 160 0
153 170 0
152 169 0
153 170 0
153 173 0
149 165 0
153 171 0
150 168 0
157 177 0
155 174 0
153 173 0
154 173 0
157 175 0
158 176 0
161 182 0
156 176 0
154 173 0
157 175 0
158 175 0
160 177 0
159 180 0
160 180 0
159 178 0
156 176 0
158 176 0
157 175 0
161 180 0
163 182 0
152 170 0
155 172 0
158 177 0
159 179 0
158 177 0
157 175 0
153 172 0
162 182 0
155 175 0
163 182 0
158 177 0
156 174 0
160 178 0
158 177 0
160 179 0
163 183 0
164 184 0
163 183 0
162 181 0
163 183 0
163 182 0
163 183 0
159 179 0
159 179 0
162 182 0
164 183 0
161 178 0
164 183 0
166 184 0
158 177 0
166 187 0
163 182 0
161 181 0
163 183 0
163 181 0
163 184 0
163 181 0
164 184 0
166 187 0
158 179 0
165 185 0
167 185 0
168 187 0
165 186 0
166 186 0
167 188 0
166 187 0
165 186 0
163 182 0
164 185 0
168 188 0
164 181 0
167 186 0
165 185 0
169 190 0
167 189 0
164 183 0
160 180 0
165 186 0
169 190 0
169 189 0
165 186 0
167 188 0
169 189 0
162 183 0
165 187 0
171 195 84
173 196 88
171 195 84
170 194 84
170 194 102
171 195 92
173 196 99
176 199 95
171 195 88
174 198 99
171 193 92
174 197 99
174 198 108
171 194 99
168 191 102
171 194 95
176 200 117
167 191 72
171 194 92
167 190 92
168 192 105
173 196 105
169 192 105
172 195 92
167 190 102
165 190 102
167 191 84
170 193 88
169 193 102
167 192 102
163 187 76
168 191 95
172 195 95
164 187 95
167 191 108
170 194 114
164 187 102
162 185 108
166 191 80
171 195 105
167 191 108
166 190 92
170 194 80
164 187 84
168 192 105
165 188 102
166 189 102
165 190 84
171 193 102
164 187 72
160 183 102
163 185 95
166 188 108
165 189 108
157 181 99
160 184 76
169 193 95
164 187 111
162 184 80
166 189 84
165 188 100
169 192 115
164 188 99
164 187 100
158 180 99
156 180 92
158 180 92
155 177 80
161 183 97
157 179 84
165 188 99
151 173 84
162 185 88
166 190 99
160 180 95
162 184 108
159 181 102
162 184 105
152 173 105
162 184 95
154 176 105
155 177 67
147 169 92
146 168 99
158 178 108
145 167 76
145 165 105
147 167 84
149 172 76
143 163 84
158 179 102
148 169 95
152 171 111
153 173 105
143 163 76
146 166 111
135 155 80
144 164 92
140 159 76
147 166 92
142 160 99
145 164 99
139 157 95
130 148 84
131 149 80
124 144 80
128 146 76
128 146 88
126 144 44
108 125 82
80 104 88
76 100 84
92 115 109
85 110 94
93 117 114
99 122 130
81 107 103
100 122 115
101 125 120
87 113 113
99 121 110
84 110 114
89 114 105
89 115 95
104 129 103
109 133 111
115 138 110
92 118 112
100 124 113
90 116 105
116 134 84
162 177 51
156 168 18
157 166 18
149 160 0
143 154 18
114 131 54
67 96 97
73 103 110
77 107 118
75 104 97
67 97 107
69 99 107
74 102 99
86 112 94
84 108 90
83 108 95
78 102 74
62 92 93
54 85 80
81 100 72
86 112 100
100 125 88
51 81 74
51 82 82
51 81 67
53 84 86
54 86 86
53 85 85
54 87 90
52 83 82
52 84 90
54 86 92
53 84 84
53 85 86
54 86 94
54 85 97
54 85 86
55 87 82
53 85 80
55 88 92
54 86 102
54 87 84
54 86 95
54 87 102
55 88 88
52 83 82
54 86 90
53 85 80
53 85 99
54 86 99
55 87 94
52 83 82
55 88 107
54 86 88
54 86 94
53 84 92
54 86 97
53 84 88
54 85 100
53 84 90
57 89 107
51 82 76
52 83 78
53 84 94
55 87 103
53 83 76
50 81 80
50 79 70
53 84 82
64 91 76
77 97 65
90 106 47
92 107 0
87 103 0
105 120 0
101 115 0
91 105 0
73 87 0
104 118 0
91 106 0
87 102 0
95 110 0
107 120 0
110 126 0
93 108 0
103 119 0
105 121 0
115 131 0
114 129 0
106 123 0
108 125 0
103 118 0
112 129 0
105 120 0
126 142 0
110 126 0
112 127 0
129 148 0
111 126 0
118 135 0
113 130 0
118 135 0
126 146 0
125 142 0
127 142 0
126 144 0
115 132 0
120 138 0
129 146 0
129 146 0
130 148 0
129 147 0
121 138 0
134 153 0
130 149 0
122 142 0
142 161 0
123 141 0
130 148 0
129 147 0
126 145 0
126 143 0
129 147 0
137 154 0
129 147 0
141 160 0
135 154 0
128 144 0
135 154 0
138 156 0
129 148 0
134 152 0
141 160 0
140 159 0
141 159 0
141 159 0
141 158 0
139 158 0
138 157 0
136 155 0
136 154 0
143 160 0
139 159 0
134 153 0
134 154 0
147 167 0
147 166 0
143 161 0
147 167 0
135 154 0
151 170 0
144 163 0
136 154 0
143 162 0
146 165 0
152 170 0
144 163 0
140 157 0
157 176 0
149 166 0
148 167 0
148 168 0
150 168 0
143 160 0
142 161 0
151 170 0
148 168 0
158 177 0
148 167 0
153 172 0
150 170 0
152 171 0
151 168 0
157 177 0
154 172 0
155 172 0
152 170 0
161 181 0
155 175 0
150 171 0
156 174 0
153 172 0
154 172 0
154 171 0
156 175 0
161 180 0
159 176 0
162 183 0
151 170 0
156 174 0
155 173 0
160 180 0
152 171 0
155 176 0
152 170 0
156 175 0
160 179 0
154 173 0
157 176 0
152 170 0
152 172 0
161 180 0
156 174 0
161 181 0
157 175 0
152 171 0
160 179 0
159 176 0
163 183 0
162 181 0
162 181 0
160 178 0
158 176 0
162 181 0
163 181 0
162 180 0
155 174 0
162 182 0
158 176 0
158 176 0
162 182 0
165 184 0
159 181 0
161 182 0
159 179 0
155 175 0
158 178 0
163 183 0
162 182 0
164 184 0
163 182 0
165 185 0
164 185 0
158 175 0
158 180 0
164 184 0
167 188 0
163 183 0
167 187 0
158 178 0
166 185 0
163 181 0
167 188 0
166 185 0
161 182 0
167 187 0
163 181 0
164 183 0
166 187 0
168 189 0
164 185 0
165 184 0
165 184 0
172 192 0
166 187 0
164 184 0
164 182 0
167 187 0
165 184 0
164 185 0
165 185 0
169 190 0
166 186 0
167 186 0
165 186 0
171 191 0
167 189 0
167 188 0
167 188 0
175 199 92
175 199 99
169 192 80
178 201 102
176 199 99
173 198 92
167 191 72
173 196 105
169 193 88
172 196 105
167 191 95
172 195 105
170 194 62
172 195 105
170 194 88
172 195 95
166 189 80
173 197 105
165 189 80
173 195 108
173 197 99
175 198 114
174 197 102
171 195 95
165 188 80
169 191 102
164 187 99
159 183 76
170 193 88
164 187 99
171 194 99
172 196 95
171 194 108
170 193 111
166 189 95
165 188 95
165 189 92
164 188 84
173 195 111
168 191 95
165 188 95
164 187 92
164 187 108
169 192 108
165 188 111
160 184 92
171 194 99
165 188 72
169 191 84
168 191 105
166 189 105
162 185 78
163 186 102
167 190 110
162 185 95
159 182 80
162 184 102
161 184 80
166 188 92
158 180 103
158 180 95
161 185 97
154 177 74
164 188 115
153 176 88
160 183 92
151 174 80
158 181 92
161 183 102
164 186 114
161 184 108
161 183 95
161 183 102
158 180 111
159 182 102
158 181 95
155 176 105
161 182 105
166 187 125
155 177 111
163 185 99
157 178 92
153 174 76
149 170 88
153 175 92
153 175 92
153 174 95
155 175 111
155 174 95
156 176 88
151 172 99
152 172 74
162 182 111
153 172 102
138 158 95
147 167 84
143 163 92
144 163 95
138 158 80
132 150 88
126 145 67
129 148 84
132 151 51
140 159 92
130 148 76
123 142 57
126 143 72
122 139 72
116 132 80
116 132 72
129 145 72
105 124 102
72 98 70
82 107 99
90 115 103
91 114 111
86 110 110
85 112 103
104 126 118
95 119 124
100 122 115
96 120 105
101 126 97
104 129 111
92 118 102
101 125 113
97 121 90
97 121 103
89 116 118
105 130 118
113 135 107
162 178 47
160 173 0
150 160 18
149 161 18
138 149 18
140 153 36
120 137 65
70 99 100
64 95 113
79 105 99
73 102 113
80 104 99
75 103 111
78 102 90
86 111 84
79 103 90
79 103 72
71 97 97
62 91 82
98 117 62
97 118 47
93 116 74
60 89 78
51 82 76
50 80 76
53 84 88
53 83 76
54 85 90
53 84 88
51 82 76
52 84 82
51 81 86
51 81 72
54 86 96
49 79 76
53 84 82
53 85 88
52 82 97
54 85 80
52 83 76
52 83 76
53 84 86
53 85 94
53 84 84
54 85 94
54 86 88
54 86 105
54 86 82
53 84 80
54 85 88
53 84 86
54 85 100
54 86 99
54 85 74
54 85 84
55 87 90
54 85 94
53 84 82
50 79 80
50 79 70
52 83 86
54 85 94
53 84 94
51 81 78
48 77 78
55 83 82
66 90 74
72 91 44
83 97 31
89 103 0
89 102 0
93 107 0
103 118 0
94 107 0
98 112 0
99 112 0
107 122 0
114 129 0
93 106 0
96 112 0
89 103 0
95 110 0
104 121 0
100 114 0
103 119 0
103 117 0
107 122 0
104 119 0
111 126 0
105 121 0
115 132 0
113 130 0
128 143 0
113 129 0
113 127 0
105 123 0
113 128 0
117 134 0
109 127 0
122 138 0
109 122 0
116 131 0
127 144 0
114 133 0
119 134 0
127 146 0
121 138 0
135 151 0
131 148 0
130 148 0
121 139 0
127 146 0
128 144 0
133 151 0
119 137 0
135 153 0
139 157 0
132 149 0
129 147 0
128 146 0
124 141 0
126 146 0
128 145 0
132 150 0
132 150 0
138 157 0
129 149 0
133 151 0
140 159 0
146 166 0
132 150 0
135 155 0
142 161 0
140 159 0
143 162 0
136 153 0
137 156 0
138 156 0
142 161 0
134 152 0
139 158 0
139 157 0
147 166 0
149 166 0
145 163 0
138 158 0
134 154 0
136 156 0
147 166 0
140 158 0
153 171 0
147 164 0
145 164 0
147 166 0
142 162 0
150 168 0
155 174 0
148 167 0
143 162 0
149 168 0
150 168 0
139 158 0
145 163 0
154 173 0
153 171 0
151 170 0
152 170 0
148 166 0
149 165 0
154 172 0
150 168 0
154 173 0
148 166 0
151 169 0
152 170 0
154 173 0
154 174 0
148 166 0
154 174 0
151 168 0
162 180 0
156 176 0
154 172 0
146 167 0
158 177 0
164 181 0
155 175 0
152 171 0
149 168 0
159 179 0
157 177 0
160 177 0
153 172 0
158 178 0
159 175 0
160 180 0
157 177 0
152 171 0
162 182 0
157 176 0
164 184 0
155 175 0
161 180 0
155 175 0
155 175 0
154 174 0
159 177 0
156 174 0
161 182 0
154 172 0
161 179 0
160 179 0
159 178 0
162 182 0
156 174 0
153 172 0
162 182 0
157 177 0
161 181 0
157 175 0
159 177 0
159 179 0
160 180 0
157 175 0
161 180 0
154 172 0
159 178 0
163 184 0
166 186 0
156 172 0
164 184 0
166 187 0
161 180 0
162 181 0
168 191 0
166 186 0
167 187 0
159 180 0
162 183 0
160 180 0
166 188 0
163 181 0
159 178 0
167 189 0
164 183 0
163 183 0
164 184 0
164 183 0
160 180 0
162 183 0
165 185 0
164 184 0
164 186 0
167 187 0
160 181 0
164 186 0
165 186 0
168 190 0
167 188 0
163 185 0
164 183 0
168 189 0
166 186 0
163 184 0
166 188 0
165 186 0
164 185 0
167 188 0
170 190 0
174 197 76
175 198 92
173 197 84
171 194 99
174 198 95
172 195 72
170 194 102
173 197 102
170 193 105
171 195 120
170 193 92
172 194 95
171 195 95
172 195 105
171 194 95
166 190 92
172 195 95
174 197 114
174 196 108
163 187 72
173 197 105
172 196 99
169 192 92
170 192 95
171 194 102
172 196 102
172 196 108
176 200 114
170 193 99
170 193 108
169 193 95
173 198 111
170 193 88
166 189 92
168 191 117
167 190 84
171 194 92
167 190 102
166 189 99
171 195 102
171 195 84
168 192 95
167 189 92
160 184 84
167 190 88
167 191 99
168 192 102
171 193 108
166 189 105
161 185 99
164 187 99
167 189 70
165 188 84
162 187 92
162 184 97
160 183 86
162 185 92
158 180 80
163 186 94
162 185 99
163 186 95
163 186 102
166 190 94
153 176 72
161 184 103
154 177 88
161 184 100
164 187 108
154 177 100
159 182 102
158 181 105
164 186 117
159 181 92
153 175 84
164 186 102
160 182 88
159 180 111
155 177 102
157 178 95
157 179 122
145 168 92
153 175 80
163 184 102
138 159 80
150 172 88
158 179 99
156 177 108
154 174 95
139 159 88
150 169 111
150 170 76
154 173 108
140 160 72
142 161 80
145 165 84
138 158 92
147 167 114
142 162 102
151 170 105
133 151 88
141 160 76
136 155 67
133 151 84
132 150 95
132 151 84
131 149 62
128 145 67
122 139 67
118 136 67
117 133 62
115 131 62
109 124 62
102 121 72
88 111 92
91 114 110
87 111 90
90 114 92
92 115 95
89 112 108
97 120 117
83 108 102
100 123 125
102 125 111
89 113 94
86 112 92
103 128 107
105 128 111
108 132 107
102 124 118
87 113 117
113 132 102
154 170 25
157 169 0
155 167 0
149 160 0
143 155 0
136 148 25
139 151 18
105 126 78
79 107 103
64 95 103
77 105 103
71 100 99
72 100 107
79 102 102
75 101 92
77 103 94
80 106 92
74 99 84
65 93 86
93 114 65
99 120 47
97 119 65
77 99 57
73 94 52
79 100 60
59 86 82
53 85 92
51 82 65
49 79 54
50 80 92
51 82 76
51 82 74
49 79 74
52 83 75
51 82 72
51 82 84
53 84 86
54 87 80
54 85 82
51 81 72
54 86 84
54 86 82
53 85 80
54 85 90
54 85 90
55 87 94
50 80 67
53 83 86
55 87 92
52 82 95
52 84 90
52 83 88
51 82 72
51 81 86
53 84 92
52 83 82
52 83 78
52 83 78
52 83 80
49 79 62
51 81 82
51 77 62
71 93 62
89 106 44
83 99 18
84 100 0
74 86 0
92 106 0
84 96 0
101 115 0
89 103 0
89 103 0
107 122 0
86 101 0
97 113 0
115 132 0
102 115 0
81 94 0
98 112 0
107 122 0
98 114 0
112 127 0
98 112 0
104 120 0
108 125 0
105 121 0
108 123 0
106 123 0
99 114 0
112 128 0
113 129 0
106 121 0
118 135 0
115 132 0
111 129 0
115 131 0
116 133 0
116 134 0
116 134 0
116 133 0
112 129 0
125 142 0
125 141 0
124 141 0
133 153 0
127 146 0
118 135 0
128 147 0
128 146 0
118 135 0
138 158 0
113 132 0
134 153 0
129 149 0
119 136 0
121 139 0
131 151 0
132 152 0
127 146 0
128 147 0
131 148 0
137 155 0
135 153 0
141 161 0
140 157 0
131 150 0
142 161 0
132 148 0
138 156 0
131 148 0
140 157 0
145 162 0
140 159 0
134 153 0
140 160 0
142 162 0
140 158 0
138 159 0
132 150 0
143 160 0
148 166 0
145 166 0
135 154 0
144 161 0
144 163 0
147 166 0
138 155 0
146 166 0
150 171 0
144 163 0
146 165 0
149 166 0
154 174 0
151 172 0
147 166 0
144 163 0
140 158 0
148 166 0
156 175 0
138 156 0
142 161 0
157 176 0
157 176 0
149 168 0
146 164 0
154 175 0
157 176 0
152 170 0
157 178 0
146 165 0
153 172 0
149 166 0
156 173 0
157 177 0
152 172 0
147 164 0
153 171 0
154 171 0
157 177 0
150 169 0
149 167 0
152 171 0
155 174 0
155 173 0
155 173 0
155 176 0
146 164 0
156 176 0
160 180 0
156 175 0
154 173 0
153 171 0
150 170 0
155 173 0
156 175 0
157 177 0
156 175 0
161 179 0
159 177 0
158 179 0
150 170 0
159 178 0
152 172 0
157 174 0
159 179 0
160 180 0
159 178 0
163 183 0
159 180 0
153 172 0
155 174 0
157 176 0
157 177 0
155 174 0
163 181 0
158 177 0
163 183 0
160 180 0
157 178 0
163 183 0
160 176 0
162 180 0
161 182 0
158 178 0
161 180 0
161 181 0
163 183 0
165 184 0
161 180 0
159 177 0
167 189 0
160 181 0
165 183 0
160 179 0
164 182 0
164 184 0
163 183 0
166 188 0
166 188 0
166 187 0
164 186 0
165 186 0
164 186 0
166 187 0
167 187 0
170 191 0
167 188 0
165 185 0
169 191 0
161 181 0
165 186 0
168 188 0
163 183 0
162 183 0
167 186 0
168 187 0
167 189 0
163 184 0
165 186 0
163 184 0
164 185 0
168 188 0
165 184 0
167 187 0
164 184 0
166 186 0
167 188 0
164 184 0
169 190 0
170 193 51
177 200 114
177 200 102
166 191 84
171 194 80
177 200 88
171 195 88
173 196 99
170 194 99
176 200 105
171 195 99
170 194 72
168 191 92
170 193 99
170 193 80
165 188 80
169 193 80
172 196 99
172 195 99
171 194 80
169 192 62
163 186 76
169 193 95
166 190 88
169 192 99
164 187 95
171 193 95
172 195 95
171 194 84
173 196 108
166 190 84
167 189 99
172 195 92
168 191 92
171 195 108
167 190 92
170 193 95
169 193 92
175 199 122
165 188 102
169 192 88
168 190 92
166 189 102
165 189 105
167 191 95
166 189 88
166 189 105
165 189 95
163 186 105
167 190 117
162 185 84
163 187 94
165 188 102
162 185 95
159 181 92
165 188 108
160 183 99
164 187 99
162 186 111
163 186 111
168 190 102
162 185 106
162 183 88
164 187 95
161 183 108
161 185 105
166 189 100
162 185 94
154 176 88
164 187 118
156 178 80
162 184 102
158 180 84
166 188 105
158 179 95
161 182 114
155 177 92
163 185 105
160 182 99
154 176 102
144 165 76
152 173 88
156 177 88
158 179 99
155 176 88
158 178 108
159 180 102
151 171 114
152 173 84
146 167 80
143 163 111
156 176 120
149 169 102
150 170 84
149 169 95
138 157 80
137 156 92
152 171 111
140 159 99
145 164 95
131 150 67
147 166 92
139 158 92
131 150 84
124 142 84
131 147 88
135 152 92
118 136 62
124 141 76
130 147 92
129 145 108
97 112 25
117 133 62
108 124 82
94 114 111
82 106 88
103 124 120
95 118 108
97 120 107
79 103 101
100 122 124
81 108 99
94 117 106
95 120 110
108 131 108
98 122 103
99 124 120
101 124 90
100 123 97
91 115 111
97 120 86
151 169 25
155 168 25
150 163 31
152 166 0
142 155 0
136 150 25
141 158 18
140 159 18
100 123 97
73 101 99
76 104 97
72 101 110
74 102 111
72 97 86
68 94 76
82 105 97
79 105 80
81 103 70
91 112 65
95 114 60
99 120 54
99 122 65
96 115 36
88 101 0
84 99 0
99 113 0
92 108 18
81 98 31
68 87 31
74 94 57
51 76 60
54 81 65
49 79 65
47 76 62
53 84 76
50 80 70
52 82 80
51 81 72
50 80 65
51 80 80
51 81 78
53 84 84
51 81 72
50 80 80
52 82 82
53 84 94
52 84 86
50 80 82
52 83 82
52 83 86
49 79 74
51 81 74
51 81 65
47 76 57
51 82 76
56 84 82
60 84 70
71 93 54
79 97 44
87 103 40
72 87 0
78 92 0
89 103 0
83 96 0
88 103 0
83 99 0
96 110 0
93 108 0
103 119 0
82 97 0
96 110 0
104 119 0
102 116 0
113 128 0
96 110 0
108 125 0
104 119 0
100 113 0
88 104 0
101 118 0
103 116 0
93 109 0
104 118 0
109 125 0
114 130 0
101 115 0
112 128 0
123 141 0
102 118 0
114 131 0
114 131 0
123 140 0
109 126 0
115 132 0
112 129 0
107 123 0
114 130 0
120 137 0
130 148 0
126 144 0
123 140 0
117 133 0
114 132 0
127 144 0
130 149 0
123 141 0
130 147 0
129 148 0
134 153 0
136 154 0
127 145 0
119 138 0
133 151 0
130 149 0
128 145 0
138 155 0
135 153 0
135 154 0
138 156 0
130 150 0
135 154 0
136 155 0
136 153 0
140 159 0
135 152 0
135 154 0
134 154 0
134 152 0
143 162 0
141 159 0
136 155 0
126 145 0
138 156 0
142 160 0
143 162 0
134 152 0
141 160 0
142 163 0
141 161 0
137 156 0
146 165 0
139 157 0
146 163 0
130 149 0
147 166 0
137 156 0
146 167 0
134 153 0
144 162 0
150 168 0
146 165 0
149 169 0
150 171 0
148 168 0
148 168 0
139 158 0
149 167 0
149 169 0
148 167 0
155 175 0
150 168 0
148 167 0
150 171 0
151 169 0
152 169 0
148 168 0
145 165 0
153 172 0
147 166 0
145 165 0
148 167 0
152 170 0
156 175 0
153 173 0
154 175 0
148 167 0
152 170 0
155 176 0
156 176 0
160 180 0
162 183 0
154 172 0
153 172 0
149 168 0
159 176 0
160 181 0
152 172 0
157 174 0
159 178 0
155 174 0
159 179 0
158 179 0
150 169 0
152 171 0
158 175 0
163 182 0
161 180 0
161 181 0
155 171 0
161 179 0
162 182 0
158 180 0
155 175 0
155 174 0
159 180 0
158 179 0
157 176 0
160 177 0
160 180 0
154 174 0
164 184 0
159 180 0
163 184 0
161 179 0
159 179 0
161 178 0
160 179 0
159 179 0
159 177 0
161 181 0
164 185 0
162 181 0
158 178 0
165 186 0
158 177 0
163 184 0
160 181 0
166 185 0
161 182 0
162 181 0
166 187 0
161 183 0
158 179 0
161 180 0
158 177 0
167 187 0
161 182 0
166 186 0
161 182 0
166 188 0
165 185 0
164 185 0
165 184 0
162 182 0
166 186 0
165 186 0
163 182 0
164 184 0
168 189 0
169 190 0
166 189 0
165 187 0
166 185 0
171 194 0
165 185 0
164 184 0
165 185 0
168 187 0
165 186 0
165 185 0
169 190 0
167 186 0
168 188 0
165 185 0
162 181 0
166 187 0
163 184 0
167 189 0
169 190 0
170 194 88
173 195 67
169 193 76
166 189 72
173 198 99
174 197 95
176 198 105
176 198 111
169 193 99
179 202 111
174 197 88
169 192 102
177 200 122
170 193 88
168 192 111
170 194 95
174 197 95
173 196 99
169 193 92
174 197 102
176 199 120
168 191 80
172 195 95
172 195 105
173 196 105
171 195 108
173 196 111
169 193 99
177 199 120
168 191 95
173 197 105
164 187 99
171 194 95
167 190 95
168 191 88
173 195 95
164 189 114
172 196 99
168 191 95
170 193 105
169 192 111
168 192 114
172 194 108
165 189 92
162 186 88
168 192 114
163 185 95
163 187 102
158 181 72
164 186 111
163 186 92
169 193 105
168 191 111
156 180 84
166 190 105
157 179 90
163 186 111
150 172 84
161 184 111
167 190 95
160 182 84
159 181 95
150 173 65
160 183 84
158 181 99
155 177 102
162 185 78
158 180 88
159 182 80
159 182 103
164 186 110
157 179 92
157 179 92
150 173 72
156 178 84
161 184 99
147 169 92
157 179 88
160 181 95
157 179 111
153 175 76
148 170 95
149 170 99
154 175 105
151 171 84
150 171 111
148 167 108
150 171 92
154 176 80
149 169 95
157 178 84
150 170 67
144 164 92
158 177 120
150 169 108
145 164 92
146 166 99
151 171 111
149 168 105
131 149 88
140 159 76
139 158 92
133 152 95
130 148 88
139 158 76
125 143 72
128 146 84
138 155 88
117 134 51
121 137 51
117 135 67
111 126 67
120 135 67
132 148 88
90 105 62
94 115 88
84 105 80
98 119 103
93 116 102
100 123 99
102 124 102
94 117 88
91 114 105
81 106 92
97 123 105
96 120 96
108 131 109
110 133 107
105 130 110
93 116 86
102 125 78
128 146 40
158 174 0
151 164 0
153 168 25
150 164 0
146 160 18
138 156 18
134 151 25
132 149 40
80 105 78
76 104 107
68 95 76
75 101 88
65 93 97
74 99 88
71 99 94
88 111 65
81 105 74
86 104 36
97 116 44
102 122 44
92 115 65
83 105 60
103 118 0
87 102 0
84 97 0
91 106 0
88 102 0
103 118 0
95 109 0
92 105 0
85 99 0
87 101 0
71 87 25
80 96 31
71 88 47
68 88 47
65 86 70
65 86 51
64 86 60
54 75 51
68 89 65
58 79 47
56 80 44
63 88 72
62 85 72
48 73 57
66 88 60
50 70 40
79 96 47
71 88 40
68 87 31
86 101 25
81 95 18
75 88 0
97 110 0
89 102 0
88 103 0
90 105 0
101 114 0
85 98 0
76 89 0
79 94 0
105 119 0
89 104 0
100 114 0
91 106 0
90 106 0
96 111 0
83 97 0
100 115 0
95 109 0
105 119 0
98 114 0
93 107 0
97 111 0
102 118 0
105 121 0
105 120 0
97 113 0
114 129 0
94 110 0
108 122 0
117 134 0
107 122 0
113 130 0
99 114 0
109 126 0
125 143 0
108 124 0
113 131 0
117 135 0
123 140 0
120 137 0
111 129 0
112 130 0
122 141 0
125 143 0
118 134 0
118 135 0
116 135 0
132 149 0
122 139 0
125 144 0
122 140 0
122 141 0
135 154 0
117 134 0
134 151 0
126 146 0
120 141 0
122 141 0
131 148 0
137 156 0
129 146 0
121 138 0
133 151 0
129 146 0
117 135 0
132 151 0
135 153 0
134 153 0
139 157 0
141 160 0
132 151 0
134 152 0
132 148 0
131 148 0
131 151 0
137 155 0
138 157 0
136 155 0
136 157 0
136 155 0
141 159 0
142 160 0
144 162 0
144 163 0
147 167 0
130 148 0
142 162 0
149 169 0
146 164 0
153 173 0
142 162 0
148 165 0
145 166 0
145 165 0
147 167 0
143 162 0
149 169 0
156 175 0
154 174 0
153 170 0
149 168 0
146 164 0
143 164 0
151 170 0
151 168 0
144 164 0
153 173 0
150 168 0
155 176 0
150 170 0
144 164 0
151 170 0
150 167 0
152 170 0
152 169 0
146 165 0
146 165 0
151 168 0
150 170 0
154 173 0
156 176 0
153 171 0
157 177 0
151 169 0
153 173 0
157 177 0
152 171 0
153 172 0
155 176 0
158 179 0
153 171 0
160 179 0
160 179 0
156 176 0
156 175 0
158 177 0
159 180 0
156 174 0
161 180 0
156 176 0
162 182 0
153 174 0
154 173 0
155 173 0
158 176 0
160 180 0
160 179 0
161 182 0
156 176 0
159 180 0
157 177 0
158 176 0
157 175 0
157 178 0
157 177 0
161 180 0
157 177 0
154 173 0
162 182 0
163 181 0
160 178 0
161 181 0
156 177 0
164 183 0
160 178 0
165 187 0
160 181 0
154 172 0
158 177 0
159 180 0
165 185 0
160 180 0
159 179 0
161 180 0
158 177 0
165 184 0
166 187 0
161 182 0
163 183 0
162 182 0
166 185 0
167 187 0
163 181 0
164 184 0
162 183 0
165 187 0
167 187 0
163 185 0
164 186 0
164 183 0
166 187 0
163 184 0
164 185 0
165 186 0
167 188 0
166 186 0
169 188 0
168 188 0
163 182 0
167 188 0
165 185 0
164 184 0
162 183 0
167 186 0
166 187 0
167 189 0
168 187 0
166 186 0
168 190 0
168 190 0
166 187 0
168 188 0
167 188 0
167 188 0
171 192 0
175 199 105
174 196 92
167 190 67
175 197 111
175 199 92
171 195 92
175 197 92
169 192 102
173 197 95
176 197 108
176 199 117
171 194 80
169 192 80
173 195 108
175 197 122
170 192 99
171 194 88
173 196 111
173 197 105
167 190 84
172 194 84
172 195 76
170 193 95
175 197 92
173 196 105
170 195 95
167 191 95
169 194 92
165 189 92
168 191 88
166 190 76
167 191 80
169 192 102
169 192 102
167 191 108
171 195 108
167 190 95
166 190 88
164 187 72
166 189 72
164 187 95
166 190 88
159 183 88
164 188 99
167 190 95
166 190 114
166 189 108
167 190 88
162 185 92
168 191 111
161 185 78
162 185 76
166 189 108
159 182 84
165 188 82
170 193 120
160 183 108
162 185 103
162 184 111
157 180 92
156 179 94
157 180 99
150 173 103
163 186 88
162 185 110
161 184 111
160 182 105
156 179 97
158 180 92
163 185 95
158 181 84
161 185 111
152 175 95
164 187 95
161 182 117
162 184 120
163 185 114
151 173 92
158 179 102
150 172 76
148 170 80
160 182 95
156 177 105
141 162 88
151 172 99
156 176 120
136 157 88
153 174 99
149 169 99
157 178 95
151 171 76
150 171 108
153 173 111
149 169 108
151 171 102
150 169 102
155 175 88
144 164 105
147 167 95
148 166 114
148 168 92
143 162 105
141 161 88
132 150 72
127 145 84
139 158 95
139 157 80
123 139 95
125 142 57
142 159 76
133 150 76
131 149 88
136 153 92
113 129 84
102 117 25
110 124 76
94 110 80
92 114 86
99 120 105
81 106 95
108 129 108
94 117 78
86 111 74
87 112 88
93 117 100
90 115 105
102 125 90
106 129 110
102 126 100
107 128 110
101 124 70
132 150 62
156 169 18
156 174 0
160 176 18
146 163 18
147 163 0
143 160 18
141 158 0
126 143 25
110 124 25
80 104 74
67 96 90
65 94 97
65 94 95
75 99 76
70 96 86
71 96 84
70 96 78
93 109 25
98 112 0
100 119 44
102 123 57
98 118 36
92 107 0
101 116 0
94 108 0
106 121 0
86 102 0
89 104 0
85 99 0
114 128 0
91 106 0
96 112 0
94 109 0
97 111 0
93 107 0
89 104 0
84 98 0
74 89 0
86 100 0
101 116 0
85 99 0
93 106 0
85 99 0
86 100 0
94 108 0
83 97 0
79 92 0
87 101 0
91 106 0
95 110 0
92 105 0
77 92 0
85 99 0
93 108 0
88 103 0
93 108 0
91 103 0
89 103 0
75 90 0
81 96 0
79 93 0
96 110 0
98 113 0
91 106 0
91 105 0
89 105 0
92 107 0
103 118 0
93 109 0
106 120 0
90 106 0
100 116 0
97 114 0
98 115 0
113 128 0
103 119 0
99 115 0
96 112 0
107 122 0
107 123 0
125 141 0
123 139 0
105 120 0
117 134 0
107 122 0
106 123 0
114 132 0
115 133 0
113 131 0
121 139 0
115 131 0
112 128 0
124 141 0
118 135 0
118 136 0
125 142 0
104 121 0
125 142 0
131 151 0
134 152 0
111 129 0
118 136 0
127 146 0
122 140 0
124 143 0
127 146 0
128 143 0
125 145 0
127 144 0
135 153 0
138 156 0
133 152 0
133 152 0
136 154 0
134 152 0
132 151 0
138 156 0
133 152 0
123 141 0
133 152 0
134 152 0
128 146 0
127 144 0
143 162 0
131 150 0
142 160 0
142 161 0
140 159 0
134 152 0
142 161 0
142 161 0
137 157 0
134 154 0
144 165 0
140 159 0
143 162 0
146 165 0
148 168 0
139 159 0
146 166 0
144 165 0
150 170 0
148 169 0
150 171 0
148 168 0
143 162 0
143 161 0
147 168 0
153 174 0
145 164 0
150 171 0
151 168 0
153 173 0
143 164 0
149 166 0
149 168 0
147 166 0
143 161 0
149 166 0
158 177 0
140 160 0
153 173 0
153 173 0
152 173 0
147 166 0
156 176 0
153 172 0
150 170 0
153 172 0
149 169 0
148 168 0
145 162 0
151 170 0
151 169 0
151 171 0
154 172 0
156 174 0
153 175 0
153 173 0
157 179 0
149 169 0
152 174 0
154 174 0
153 171 0
150 169 0
154 172 0
158 180 0
158 178 0
159 179 0
161 181 0
155 176 0
156 176 0
153 173 0
155 175 0
160 178 0
164 183 0
160 181 0
157 176 0
154 174 0
159 180 0
161 181 0
154 173 0
159 179 0
158 176 0
152 172 0
159 177 0
156 174 0
161 182 0
162 181 0
156 175 0
164 186 0
162 181 0
158 179 0
164 184 0
165 184 0
164 183 0
156 174 0
163 183 0
160 180 0
158 180 0
163 182 0
156 174 0
157 177 0
164 185 0
160 181 0
160 181 0
159 180 0
161 182 0
161 181 0
164 184 0
166 185 0
164 183 0
164 181 0
163 183 0
168 188 0
165 184 0
170 190 0
161 180 0
162 182 0
167 188 0
167 190 0
158 179 0
170 190 0
163 184 0
164 185 0
165 185 0
168 188 0
165 187 0
161 182 0
164 183 0
163 183 0
167 188 0
169 190 0
168 188 0
165 186 0
167 187 0
164 184 0
169 190 0
162 183 0
170 192 0
164 184 0
161 183 0
167 188 0
163 183 0
164 186 0
170 192 0
167 190 0
164 184 0
173 196 92
171 195 99
172 194 99
172 194 84
175 197 114
177 200 108
175 198 105
169 192 99
175 199 99
171 195 95
167 190 80
173 196 95
177 201 122
173 197 84
173 195 95
168 191 105
170 193 102
169 193 84
168 192 99
171 194 88
172 195 114
163 186 99
171 195 95
170 193 92
168 191 92
175 198 114
169 192 80
164 187 84
169 193 99
168 191 102
169 192 92
169 193 105
171 194 122
166 189 95
168 192 84
166 190 92
162 186 92
166 189 80
166 190 108
167 191 92
158 182 88
168 191 105
169 192 105
168 193 105
168 192 92
165 188 84
167 190 99
161 184 95
166 189 102
168 191 102
167 190 92
160 184 105
164 188 88
164 188 102
167 190 114
169 192 114
170 193 120
159 182 76
164 187 82
160 184 86
162 185 88
166 190 97
159 182 80
169 192 114
159 181 97
160 183 99
158 180 72
158 182 92
170 193 115
163 186 108
154 176 84
163 186 99
161 184 117
164 186 99
157 178 105
155 178 92
161 183 105
157 178 95
161 184 92
148 169 105
152 174 95
155 176 84
153 175 92
154 175 72
161 183 111
153 174 76
155 177 105
149 170 76
147 168 105
137 158 99
157 178 122
151 172 95
141 161 80
155 176 95
151 171 88
146 166 99
148 167 122
137 158 67
142 161 80
140 160 92
138 157 95
149 167 117
140 158 92
136 155 72
142 160 102
139 157 105
120 139 51
127 145 76
126 144 76
134 151 80
112 128 51
128 145 57
123 139 76
113 129 62
114 131 80
124 140 88
124 139 84
111 126 70
84 105 78
108 129 118
99 121 108
100 122 86
93 117 85
101 124 97
93 116 84
95 120 90
105 129 84
99 122 102
94 116 92
104 125 111
109 131 57
138 156 44
153 168 18
152 166 0
152 167 25
150 166 0
139 155 25
142 156 18
136 153 18
136 155 25
139 157 0
119 136 0
97 118 72
76 102 88
75 99 80
74 99 84
69 95 82
80 103 70
85 103 44
94 108 0
97 113 0
107 126 25
97 119 51
98 117 40
92 106 0
101 117 0
94 110 0
99 115 0
93 108 0
99 114 0
100 115 0
94 109 0
96 110 0
90 104 0
94 108 0
94 108 0
96 111 0
105 120 0
97 112 0
96 110 0
74 88 0
88 102 0
94 107 0
89 103 0
87 100 0
87 101 0
83 96 0
89 104 0
92 105 0
87 102 0
91 105 0
96 111 0
87 102 0
91 105 0
79 94 0
95 110 0
93 107 0
92 107 0
84 98 0
91 103 0
98 113 0
90 104 0
99 114 0
94 109 0
91 107 0
94 107 0
94 108 0
94 109 0
96 111 0
84 101 0
110 126 0
95 110 0
108 123 0
102 117 0
94 110 0
115 131 0
104 120 0
96 112 0
109 126 0
110 126 0
112 128 0
116 131 0
112 129 0
111 126 0
106 122 0
100 116 0
116 134 0
112 130 0
118 135 0
100 117 0
117 133 0
107 125 0
118 136 0
131 150 0
111 127 0
112 130 0
116 135 0
125 144 0
134 153 0
119 137 0
115 130 0
135 152 0
123 139 0
132 150 0
123 139 0
122 141 0
118 135 0
128 145 0
127 146 0
137 157 0
130 150 0
123 142 0
127 144 0
128 146 0
136 155 0
127 145 0
131 148 0
131 149 0
130 149 0
142 161 0
125 144 0
138 157 0
140 157 0
133 153 0
137 155 0
138 158 0
123 140 0
128 146 0
144 164 0
138 157 0
139 159 0
134 154 0
143 162 0
146 164 0
139 159 0
140 160 0
141 160 0
137 157 0
146 166 0
153 172 0
144 163 0
143 163 0
152 172 0
152 172 0
146 166 0
138 157 0
154 172 0
146 166 0
147 168 0
156 177 0
147 167 0
151 172 0
149 170 0
148 167 0
153 171 0
151 171 0
145 165 0
152 172 0
150 170 0
150 168 0
151 171 0
154 174 0
150 171 0
154 173 0
143 164 0
145 164 0
151 171 0
146 166 0
140 158 0
148 167 0
158 179 0
158 178 0
161 183 0
155 175 0
153 174 0
160 180 0
157 176 0
158 177 0
153 172 0
163 182 0
149 169 0
153 172 0
152 171 0
154 175 0
153 171 0
147 168 0
159 177 0
148 168 0
157 177 0
152 171 0
147 167 0
161 182 0
157 178 0
152 170 0
154 174 0
158 178 0
154 174 0
163 183 0
163 182 0
162 181 0
160 180 0
159 180 0
161 179 0
159 178 0
168 187 0
160 180 0
157 176 0
165 186 0
158 177 0
157 176 0
159 177 0
161 182 0
163 183 0
157 176 0
157 178 0
164 183 0
160 181 0
163 181 0
162 183 0
160 180 0
158 179 0
163 183 0
159 179 0
161 182 0
160 181 0
162 182 0
165 185 0
164 183 0
164 183 0
165 185 0
162 181 0
159 179 0
167 188 0
168 188 0
165 186 0
161 182 0
160 179 0
161 180 0
162 181 0
170 190 0
160 179 0
166 188 0
160 181 0
164 184 0
165 186 0
164 185 0
162 183 0
165 186 0
160 181 0
166 185 0
164 184 0
164 187 0
168 189 0
162 183 0
163 183 0
163 184 0
162 182 0
166 185 0
164 185 0
162 182 0
163 182 0
166 186 0
168 189 0
167 188 0
165 185 0
169 191 0
170 192 0
165 186 0
166 186 0
171 192 0
177 200 99
172 195 72
172 196 102
174 197 99
174 197 99
176 199 108
170 194 88
174 196 105
172 195 80
172 196 102
173 196 84
176 199 111
172 195 99
174 196 102
171 195 92
170 192 95
167 191 84
167 190 92
167 190 108
171 194 102
171 194 88
171 194 95
173 196 102
170 194 88
172 195 102
168 191 108
171 194 99
175 198 105
173 196 114
177 201 130
166 190 108
171 195 95
161 183 76
167 189 84
170 192 95
167 190 88
172 195 95
166 191 102
166 190 92
170 192 105
167 191 114
167 189 95
164 187 88
169 193 99
169 192 95
166 189 88
171 194 99
164 188 88
162 185 95
171 195 108
168 191 105
159 183 80
163 187 88
164 187 80
164 187 84
163 186 102
162 185 102
165 188 105
163 186 90
164 187 99
157 180 72
162 185 74
158 181 95
165 188 110
157 180 128
158 180 92
162 185 107
157 179 88
159 182 84
160 182 94
157 180 95
166 187 92
158 179 102
158 180 88
161 184 99
154 175 95
152 174 88
153 174 84
156 178 76
153 175 92
161 183 88
154 176 99
165 187 125
153 175 99
159 181 117
156 177 95
153 174 92
151 171 105
155 177 102
148 169 92
151 171 95
153 173 95
149 169 102
149 169 102
155 176 95
145 164 92
148 167 105
152 172 122
143 162 84
147 166 105
150 169 102
145 163 105
130 150 67
137 156 57
137 156 88
133 151 80
134 152 92
138 157 84
129 147 76
136 155 95
128 145 72
138 155 92
122 137 72
123 139 62
127 143 76
118 132 80
121 136 67
127 141 84
107 120 84
101 117 74
74 99 74
85 108 74
90 113 100
90 114 99
96 119 90
99 122 107
99 123 76
94 116 92
100 124 95
87 109 80
119 138 47
118 137 55
163 178 0
157 173 0
159 175 25
152 169 0
144 159 18
147 164 0
140 157 0
132 150 0
118 133 0
121 138 0
121 135 0
99 117 44
73 98 74
68 93 82
73 97 65
71 94 72
94 109 31
116 130 0
100 117 0
116 132 0
101 119 36
95 113 31
88 103 0
105 121 0
110 127 0
95 111 0
94 108 0
95 110 0
78 94 0
94 111 0
91 106 0
93 108 0
85 100 0
92 108 0
106 121 0
79 92 0
98 112 0
86 102 0
81 95 0
91 106 0
104 120 0
87 101 0
91 105 0
90 106 0
87 101 0
102 116 0
85 99 0
89 103 0
87 102 0
96 110 0
90 104 0
89 103 0
86 98 0
98 113 0
93 107 0
100 114 0
95 110 0
106 121 0
102 118 0
97 112 0
95 111 0
91 107 0
91 106 0
111 128 0
105 122 0
98 115 0
94 110 0
97 114 0
108 124 0
104 120 0
104 120 0
98 113 0
102 116 0
104 118 0
116 132 0
107 125 0
105 122 0
93 110 0
108 125 0
96 112 0
105 121 0
103 120 0
110 128 0
120 136 0
114 133 0
102 119 0
119 136 0
114 133 0
120 138 0
114 133 0
102 118 0
123 140 0
115 132 0
116 134 0
116 135 0
124 141 0
124 144 0
114 132 0
124 142 0
126 145 0
120 139 0
120 139 0
130 148 0
123 140 0
132 150 0
132 152 0
120 138 0
122 140 0
129 148 0
136 155 0
126 145 0
129 149 0
139 156 0
126 144 0
138 159 0
135 155 0
136 155 0
124 144 0
133 152 0
132 150 0
136 155 0
140 158 0
139 157 0
144 163 0
138 157 0
130 149 0
137 155 0
144 163 0
150 170 0
146 165 0
141 160 0
142 161 0
148 167 0
141 160 0
142 160 0
131 149 0
149 168 0
143 160 0
145 166 0
149 168 0
142 161 0
149 170 0
142 162 0
147 165 0
144 163 0
147 165 0
149 170 0
148 168 0
154 174 0
149 167 0
144 166 0
149 169 0
145 165 0
133 152 0
158 179 0
153 172 0
147 167 0
146 167 0
151 170 0
156 176 0
151 172 0
148 167 0
149 166 0
151 171 0
150 169 0
158 176 0
157 178 0
155 174 0
149 167 0
153 172 0
154 174 0
158 177 0
156 175 0
160 181 0
148 168 0
156 176 0
157 177 0
154 174 0
158 177 0
156 176 0
155 174 0
159 178 0
158 180 0
159 179 0
154 173 0
148 167 0
155 174 0
152 172 0
158 177 0
158 178 0
158 176 0
150 168 0
156 176 0
153 173 0
157 176 0
159 179 0
159 179 0
166 185 0
158 177 0
153 172 0
160 181 0
165 186 0
164 183 0
155 174 0
151 170 0
164 185 0
161 183 0
162 183 0
165 187 0
159 177 0
163 183 0
162 183 0
158 177 0
158 178 0
163 184 0
162 182 0
157 177 0
159 179 0
158 178 0
167 187 0
161 181 0
158 177 0
161 182 0
154 175 0
159 180 0
167 188 0
166 185 0
161 180 0
165 185 0
159 179 0
165 184 0
164 183 0
167 187 0
167 188 0
165 185 0
170 191 0
159 181 0
166 187 0
165 185 0
165 187 0
163 183 0
161 182 0
167 187 0
170 191 0
164 184 0
168 188 0
168 188 0
166 186 0
165 185 0
164 182 0
162 182 0
162 183 0
165 186 0
165 185 0
166 188 0
168 189 0
168 189 0
165 186 0
166 188 0
165 184 0
167 189 0
164 182 0
163 183 0
160 181 0
167 186 0
163 183 0
164 185 0
167 190 0
173 196 99
175 199 105
174 197 92
169 192 88
175 198 92
172 195 95
175 198 105
174 196 102
172 195 102
171 194 84
170 192 95
172 195 95
176 199 111
178 202 114
172 195 117
175 198 99
163 187 102
167 191 76
172 196 105
167 190 84
171 195 120
175 198 117
166 190 72
171 194 99
174 197 102
159 183 88
170 193 99
174 198 117
171 194 88
172 195 95
168 192 99
170 193 105
170 192 108
171 194 122
170 192 95
166 191 108
165 188 95
172 196 102
161 185 88
162 186 72
159 183 67
162 186 76
169 193 120
170 193 105
162 186 108
155 178 80
167 191 76
161 184 108
162 185 111
163 188 108
174 196 117
158 182 97
159 182 108
165 189 99
164 187 105
161 184 76
161 185 105
160 184 102
169 192 105
166 190 114
161 183 88
161 183 105
160 183 88
160 181 84
158 181 95
161 183 92
162 185 84
157 180 60
157 179 88
155 177 88
145 166 76
157 180 84
162 184 102
158 181 80
161 182 105
153 175 92
150 172 99
164 186 95
153 174 84
151 173 102
161 183 95
157 178 108
155 176 72
158 180 88
141 163 80
161 182 111
153 175 105
159 180 92
158 180 99
157 176 133
155 176 99
155 176 84
139 159 108
155 175 99
150 170 99
149 169 102
140 158 76
150 170 88
144 163 95
134 153 67
141 159 88
145 164 99
139 157 95
149 168 102
133 152 76
139 158 80
141 160 88
139 157 108
135 153 76
130 148 84
124 143 72
126 144 67
126 144 84
128 144 80
124 140 84
109 124 80
110 126 80
112 125 80
119 134 67
113 129 51
97 111 54
94 114 70
99 122 94
84 109 94
96 119 92
104 125 108
92 116 72
92 115 65
89 113 86
81 104 74
122 141 40
122 140 31
154 172 0
155 171 0
151 168 18
156 175 18
145 164 0
138 155 0
141 158 18
126 144 0
133 149 0
132 149 0
129 145 0
120 137 0
105 119 0
105 123 44
94 112 44
79 93 0
92 107 0
104 119 0
108 125 0
112 129 0
113 129 0
99 115 0
89 104 0
96 112 0
95 111 0
95 110 0
99 114 0
110 125 0
101 117 0
90 105 0
94 109 0
117 133 0
84 100 0
108 124 0
85 101 0
95 110 0
101 116 0
88 104 0
82 97 0
95 111 0
98 114 0
97 112 0
87 102 0
107 122 0
100 115 0
99 114 0
88 103 0
92 108 0
89 105 0
95 110 0
93 108 0
87 101 0
96 110 0
80 95 0
98 114 0
90 106 0
85 99 0
98 113 0
97 112 0
106 122 0
92 107 0
84 99 0
106 120 0
104 119 0
97 112 0
107 123 0
106 123 0
106 120 0
106 123 0
98 115 0
100 116 0
96 110 0
112 128 0
102 119 0
97 112 0
108 126 0
113 128 0
115 131 0
107 124 0
111 129 0
105 121 0
107 123 0
114 131 0
121 138 0
119 137 0
115 132 0
119 136 0
112 129 0
119 138 0
119 136 0
123 142 0
123 140 0
125 144 0
121 139 0
122 141 0
132 152 0
121 140 0
119 136 0
137 156 0
122 141 0
126 144 0
137 155 0
125 143 0
125 143 0
120 140 0
133 152 0
132 150 0
131 149 0
125 143 0
134 152 0
131 149 0
135 155 0
143 160 0
137 155 0
127 144 0
136 157 0
139 157 0
132 148 0
132 150 0
139 158 0
140 160 0
130 148 0
137 156 0
144 164 0
135 153 0
137 156 0
135 154 0
143 162 0
140 161 0
137 156 0
141 160 0
139 158 0
139 158 0
152 172 0
143 161 0
142 161 0
149 168 0
149 170 0
144 162 0
135 153 0
149 167 0
149 168 0
150 169 0
144 164 0
141 162 0
151 170 0
145 164 0
149 168 0
152 172 0
155 175 0
150 171 0
147 166 0
146 166 0
147 165 0
153 173 0
155 172 0
150 168 0
152 172 0
152 172 0
156 177 0
152 172 0
147 166 0
147 167 0
146 165 0
153 173 0
157 177 0
147 168 0
155 174 0
149 168 0
152 172 0
154 174 0
154 174 0
157 175 0
156 176 0
156 174 0
156 174 0
154 173 0
157 178 0
155 174 0
160 176 0
149 168 0
160 180 0
159 180 0
155 175 0
161 181 0
152 172 0
150 168 0
158 179 0
150 170 0
160 180 0
153 171 0
156 177 0
157 175 0
157 177 0
158 178 0
158 177 0
157 178 0
153 174 0
159 179 0
153 172 0
161 182 0
160 180 0
156 175 0
157 179 0
160 180 0
161 181 0
157 176 0
155 174 0
164 184 0
163 182 0
158 177 0
158 179 0
163 184 0
160 180 0
159 180 0
163 182 0
163 184 0
160 179 0
166 186 0
163 182 0
162 183 0
160 179 0
167 188 0
166 185 0
166 188 0
163 184 0
156 175 0
162 183 0
165 185 0
166 188 0
164 185 0
161 182 0
160 180 0
161 184 0
162 182 0
161 181 0
163 182 0
164 184 0
162 184 0
163 183 0
166 186 0
166 186 0
168 189 0
167 185 0
168 190 0
163 183 0
166 188 0
163 183 0
166 186 0
168 189 0
165 187 0
170 191 0
165 186 0
167 188 0
164 184 0
166 187 0
167 187 0
169 190 0
166 186 0
168 189 0
166 187 0
165 187 0
168 190 0
165 186 0
163 184 0
162 182 0
167 187 0
165 187 0
175 197 67
169 193 80
174 196 102
175 198 95
174 196 95
173 196 92
169 192 95
170 194 88
171 194 72
173 196 95
177 199 108
167 190 84
173 197 102
169 193 84
171 194 99
171 195 95
166 190 80
173 197 114
168 191 99
172 195 114
167 191 111
168 190 88
166 190 102
171 195 114
164 188 92
163 186 76
171 194 84
171 195 111
171 195 111
163 187 84
169 193 102
168 191 84
167 190 95
167 190 92
174 198 108
170 194 108
169 192 88
170 192 92
169 193 95
174 197 105
169 193 108
172 196 114
160 183 92
170 194 117
168 191 84
167 190 99
165 189 114
166 190 105
163 187 95
161 184 108
158 181 102
163 186 99
162 186 84
160 184 90
165 189 97
168 190 95
165 188 86
160 183 117
169 192 80
163 187 99
162 185 95
168 191 105
162 185 105
164 186 117
165 188 111
163 186 99
166 190 114
162 185 97
166 189 111
159 182 76
156 179 86
156 178 103
158 180 95
160 182 114
158 180 92
156 178 88
156 178 88
159 181 108
164 186 105
149 171 102
157 179 102
156 177 105
151 171 84
162 184 95
154 175 88
151 172 88
155 176 99
158 180 95
149 171 84
155 176 114
146 166 95
143 164 95
148 169 95
149 169 111
139 161 84
143 162 105
145 165 84
148 167 102
156 175 114
142 161 80
144 163 99
146 164 105
143 162 88
146 164 105
135 154 80
142 161 88
129 147 88
139 158 88
130 148 67
128 147 76
120 137 62
120 138 76
132 149 57
115 132 62
124 142 67
119 134 80
114 129 80
117 132 84
114 128 76
108 124 36
112 127 57
105 120 57
106 122 54
98 116 82
92 114 99
83 107 62
92 115 90
87 110 74
99 121 76
113 131 36
124 140 0
125 144 25
153 169 0
158 173 0
152 168 0
154 172 0
148 166 0
154 171 18
142 161 0
145 163 0
135 153 0
121 136 0
129 146 0
117 132 0
111 128 0
106 120 0
96 111 0
89 105 0
110 124 0
101 116 0
111 128 0
115 132 0
117 136 0
105 122 0
96 113 0
109 125 0
98 114 0
104 120 0
95 110 0
104 121 0
100 115 0
107 124 0
100 116 0
103 118 0
85 100 0
92 108 0
87 103 0
89 104 0
96 112 0
109 126 0
96 112 0
96 111 0
91 107 0
109 125 0
99 113 0
103 118 0
90 106 0
90 105 0
100 115 0
86 101 0
105 120 0
103 119 0
88 104 0
89 104 0
103 120 0
93 109 0
92 108 0
95 110 0
93 107 0
96 111 0
105 120 0
94 110 0
114 131 0
101 116 0
102 118 0
100 116 0
100 118 0
112 129 0
103 119 0
105 121 0
100 116 0
101 119 0
114 131 0
102 119 0
120 136 0
116 133 0
100 118 0
112 128 0
104 122 0
108 125 0
103 120 0
97 113 0
111 129 0
104 123 0
118 136 0
122 139 0
107 125 0
105 124 0
128 145 0
118 136 0
118 137 0
106 122 0
117 134 0
115 132 0
124 143 0
128 147 0
124 142 0
112 130 0
128 146 0
126 144 0
129 147 0
123 141 0
128 147 0
129 148 0
129 146 0
115 133 0
125 143 0
124 141 0
124 142 0
132 150 0
132 150 0
132 150 0
132 150 0
142 162 0
133 153 0
127 145 0
137 156 0
138 156 0
126 145 0
123 140 0
139 160 0
131 150 0
135 153 0
138 158 0
134 153 0
143 163 0
139 160 0
137 155 0
142 162 0
138 159 0
138 158 0
144 163 0
138 157 0
143 162 0
146 166 0
152 173 0
136 156 0
143 163 0
144 164 0
147 167 0
140 160 0
144 162 0
144 164 0
147 166 0
148 168 0
149 167 0
146 165 0
143 163 0
148 168 0
144 164 0
151 169 0
159 180 0
143 163 0
145 165 0
147 168 0
146 166 0
144 163 0
142 160 0
147 167 0
156 176 0
150 168 0
154 174 0
154 174 0
149 166 0
150 169 0
151 170 0
154 172 0
152 171 0
155 176 0
151 169 0
160 180 0
157 177 0
152 172 0
153 174 0
153 172 0
158 179 0
160 182 0
151 172 0
154 174 0
153 175 0
155 175 0
157 178 0
157 175 0
153 173 0
160 179 0
157 176 0
155 174 0
156 176 0
158 178 0
157 178 0
156 175 0
157 177 0
156 177 0
149 168 0
155 174 0
155 176 0
162 183 0
152 173 0
160 179 0
152 171 0
159 179 0
157 177 0
160 180 0
160 180 0
158 177 0
160 181 0
155 176 0
162 183 0
160 179 0
155 174 0
160 180 0
157 177 0
164 185 0
158 178 0
160 180 0
162 184 0
165 187 0
163 184 0
159 179 0
165 186 0
165 185 0
159 181 0
164 183 0
166 187 0
162 182 0
159 180 0
161 181 0
163 183 0
163 185 0
165 186 0
160 181 0
165 186 0
163 185 0
162 183 0
163 184 0
166 186 0
166 187 0
162 182 0
163 183 0
167 187 0
166 187 0
165 186 0
166 186 0
165 187 0
166 186 0
167 188 0
165 186 0
166 187 0
167 187 0
167 187 0
163 185 0
165 185 0
161 180 0
158 177 0
169 191 0
167 187 0
166 187 0
163 185 0
168 189 0
164 186 0
168 190 0
167 189 0
163 185 0
169 191 0
168 189 0
164 184 0
164 185 0
169 190 0
168 190 0
169 188 0
170 194 111
171 195 99
178 200 88
173 197 105
169 192 76
172 195 99
170 193 105
166 190 102
177 200 111
176 200 105
173 196 108
170 194 99
174 197 114
177 201 120
173 196 105
164 187 88
166 190 80
173 195 99
170 193 44
171 193 99
171 194 99
173 197 102
166 190 99
174 197 105
170 193 92
169 192 80
167 189 102
174 197 95
166 190 105
172 196 108
172 195 105
164 188 92
169 193 105
166 189 88
167 191 84
165 189 95
173 197 92
162 186 88
167 191 80
163 187 92
162 184 92
163 187 84
168 190 102
163 187 95
163 186 95
169 192 105
166 189 92
163 187 105
163 186 105
168 191 120
159 181 92
154 177 95
164 187 99
165 188 99
160 183 70
165 189 120
159 182 80
158 182 95
158 182 67
160 183 88
163 186 72
162 186 108
166 189 108
163 186 117
160 182 100
159 181 105
162 184 88
158 181 105
161 184 82
160 183 102
165 188 99
169 191 108
151 173 95
148 170 95
162 184 95
154 176 92
150 171 92
156 178 88
165 187 99
155 176 84
156 179 95
159 181 95
152 174 76
152 174 88
157 178 105
158 179 108
147 169 88
157 178 111
138 159 76
146 166 102
146 167 95
157 177 117
139 160 72
151 172 76
136 157 80
151 172 105
155 175 105
147 167 92
150 169 108
148 168 88
145 164 99
143 161 105
148 166 102
145 163 102
149 167 108
129 147 76
142 159 108
135 154 92
129 146 76
136 154 95
136 154 88
135 152 88
122 139 67
133 150 76
124 141 72
130 147 76
125 141 76
117 133 72
120 135 67
107 124 25
102 117 36
115 130 72
121 137 57
99 114 25
93 108 36
101 116 70
99 119 54
109 128 62
129 147 62
123 140 0
124 140 25
133 150 44
154 169 0
157 174 0
157 173 0
150 168 0
143 160 0
148 167 0
132 151 0
132 151 0
130 148 0
132 148 0
120 137 0
103 118 0
116 132 0
113 129 0
103 120 0
98 112 0
107 122 0
114 129 0
108 126 0
109 127 0
110 128 0
114 131 0
103 120 0
116 132 0
108 124 0
115 132 0
115 131 0
107 123 0
116 131 0
108 124 0
93 107 0
98 114 0
86 104 0
101 117 0
91 107 0
95 112 0
89 103 0
89 103 0
108 124 0
96 111 0
99 115 0
95 110 0
88 104 0
106 123 0
103 117 0
90 106 0
94 109 0
95 110 0
108 123 0
93 106 0
98 115 0
95 110 0
96 112 0
111 127 0
84 100 0
106 122 0
99 115 0
102 120 0
95 111 0
97 112 0
106 122 0
111 128 0
116 133 0
102 118 0
101 116 0
110 127 0
102 118 0
104 119 0
98 115 0
101 118 0
114 131 0
103 121 0
112 129 0
101 119 0
106 123 0
104 122 0
110 127 0
99 115 0
116 134 0
113 130 0
129 145 0
110 126 0
119 137 0
124 143 0
116 133 0
115 133 0
113 129 0
134 152 0
111 129 0
123 140 0
125 143 0
120 139 0
121 139 0
124 142 0
123 141 0
119 138 0
133 151 0
126 144 0
136 156 0
133 152 0
126 144 0
113 131 0
115 134 0
136 155 0
128 146 0
132 151 0
129 148 0
133 154 0
132 150 0
131 151 0
135 155 0
133 154 0
136 156 0
138 159 0
133 152 0
134 152 0
143 164 0
137 158 0
142 162 0
142 162 0
142 161 0
139 159 0
140 160 0
144 164 0
141 160 0
145 166 0
142 162 0
128 147 0
145 166 0
144 164 0
141 161 0
144 162 0
142 161 0
142 162 0
143 161 0
142 162 0
140 159 0
142 159 0
147 167 0
150 170 0
143 164 0
138 157 0
145 164 0
149 169 0
141 160 0
151 170 0
149 169 0
143 162 0
150 170 0
151 172 0
155 174 0
152 172 0
144 165 0
149 168 0
155 176 0
149 169 0
154 175 0
146 166 0
147 166 0
155 176 0
153 171 0
150 170 0
154 174 0
152 174 0
158 178 0
160 180 0
158 179 0
153 170 0
150 172 0
158 179 0
156 175 0
158 180 0
154 174 0
152 173 0
154 174 0
156 178 0
155 176 0
151 171 0
158 178 0
162 183 0
158 177 0
154 173 0
157 177 0
155 177 0
162 183 0
162 182 0
157 178 0
159 180 0
158 177 0
159 179 0
161 180 0
163 183 0
160 180 0
160 180 0
157 175 0
160 180 0
162 182 0
163 183 0
156 177 0
161 181 0
165 185 0
158 179 0
158 178 0
162 181 0
157 176 0
163 183 0
161 181 0
162 183 0
162 183 0
158 179 0
156 176 0
160 180 0
153 172 0
159 179 0
164 185 0
162 182 0
164 185 0
161 182 0
162 182 0
161 182 0
161 181 0
158 179 0
164 186 0
165 184 0
163 182 0
164 183 0
161 181 0
159 178 0
156 178 0
165 187 0
163 184 0
164 185 0
160 177 0
161 181 0
163 183 0
166 187 0
168 189 0
164 183 0
161 181 0
165 187 0
165 185 0
164 184 0
161 181 0
164 184 0
162 182 0
169 190 0
164 184 0
163 185 0
165 187 0
162 183 0
165 185 0
163 184 0
167 189 0
170 190 0
162 183 0
166 188 0
164 184 0
165 185 0
164 186 0
166 187 0
169 189 0
166 187 0
169 189 0
170 193 0
167 188 0
166 185 0
165 187 0
168 191 0
173 196 102
171 193 92
174 196 102
168 190 95
169 192 84
169 192 95
171 193 99
175 198 125
172 195 102
169 192 99
172 195 95
173 196 102
169 192 95
172 195 99
166 190 95
174 197 95
168 191 95
171 193 92
172 195 95
175 198 117
166 189 95
172 196 108
167 190 88
170 194 88
172 195 117
167 190 88
170 194 117
166 189 88
171 195 111
167 191 105
169 192 92
172 195 105
168 192 92
167 190 95
172 195 102
169 192 84
173 196 120
166 190 92
163 186 80
160 184 88
169 193 95
166 189 80
167 189 88
165 188 102
168 193 108
159 183 88
165 189 88
168 192 105
169 193 117
153 177 84
168 193 117
165 188 120
157 180 108
156 178 76
166 189 80
159 183 105
158 181 80
158 181 95
159 182 95
157 181 99
163 186 111
154 177 94
165 188 105
161 184 105
159 181 92
162 185 110
159 182 97
163 186 95
151 174 88
165 187 88
166 188 88
165 188 111
160 182 94
166 188 111
162 183 95
158 180 130
163 184 92
158 180 95
159 181 88
162 183 111
150 172 95
163 184 114
163 184 99
159 180 84
145 166 99
150 172 99
148 169 92
152 172 114
155 176 105
154 175 84
155 175 102
144 165 84
152 173 99
164 184 117
162 183 117
153 174 92
142 162 102
146 166 108
136 156 76
149 169 95
145 164 117
139 157 88
149 168 105
146 164 108
141 160 111
143 161 105
142 159 80
144 162 95
144 163 102
136 154 80
130 148 80
135 154 76
132 150 80
133 150 72
123 140 84
126 143 67
117 135 36
109 124 62
112 129 44
108 123 51
123 138 80
118 134 67
97 112 51
87 102 36
114 128 62
109 123 51
113 129 44
115 133 44
125 140 51
125 144 0
128 145 36
139 156 25
152 170 0
154 171 0
156 173 0
156 174 0
141 160 0
147 167 0
138 159 0
141 159 0
135 152 0
124 141 0
117 134 0
124 141 0
125 143 0
113 129 0
109 124 0
94 111 0
97 114 0
105 121 0
103 119 0
113 132 0
128 146 0
117 136 0
105 121 0
105 122 0
111 127 0
103 120 0
100 116 0
99 115 0
93 110 0
108 124 0
96 113 0
106 123 0
107 124 0
110 127 0
104 120 0
97 113 0
91 106 0
109 125 0
94 110 0
103 120 0
93 110 0
100 117 0
98 113 0
100 116 0
98 114 0
102 117 0
77 92 0
99 114 0
108 125 0
107 121 0
108 125 0
97 113 0
85 101 0
103 118 0
97 114 0
100 116 0
96 111 0
100 117 0
109 125 0
103 119 0
112 129 0
104 119 0
105 121 0
112 129 0
113 130 0
99 117 0
110 126 0
108 126 0
107 124 0
102 119 0
109 126 0
113 130 0
109 125 0
110 127 0
114 131 0
103 121 0
116 133 0
107 125 0
114 130 0
132 150 0
118 136 0
117 134 0
121 139 0
119 136 0
118 137 0
115 131 0
114 132 0
117 136 0
123 142 0
105 122 0
123 142 0
133 152 0
118 136 0
115 132 0
131 150 0
132 152 0
118 136 0
121 141 0
136 155 0
135 154 0
124 144 0
128 146 0
119 138 0
132 152 0
124 141 0
125 144 0
128 146 0
128 146 0
127 145 0
138 157 0
131 150 0
133 152 0
132 153 0
136 155 0
148 169 0
131 150 0
141 161 0
144 163 0
132 151 0
142 161 0
142 162 0
139 159 0
140 160 0
142 162 0
131 152 0
146 165 0
149 168 0
139 158 0
138 159 0
141 161 0
144 162 0
146 168 0
142 162 0
142 161 0
144 164 0
142 162 0
147 167 0
140 159 0
146 164 0
145 166 0
149 167 0
149 168 0
141 161 0
152 170 0
148 168 0
155 174 0
147 166 0
148 168 0
146 165 0
152 171 0
150 171 0
151 170 0
148 168 0
155 176 0
149 169 0
154 175 0
139 158 0
157 178 0
149 169 0
153 173 0
150 171 0
150 170 0
152 173 0
154 174 0
150 170 0
154 173 0
158 179 0
151 171 0
148 166 0
159 179 0
150 170 0
156 175 0
151 170 0
150 172 0
146 166 0
153 172 0
153 172 0
153 173 0
157 178 0
151 171 0
153 172 0
155 175 0
153 171 0
145 164 0
156 176 0
155 173 0
157 176 0
155 174 0
158 179 0
155 177 0
160 180 0
155 175 0
157 177 0
159 179 0
159 177 0
163 182 0
159 179 0
159 179 0
159 179 0
160 182 0
156 176 0
161 181 0
158 178 0
156 177 0
161 184 0
156 176 0
160 181 0
160 181 0
161 181 0
162 184 0
166 185 0
161 180 0
159 180 0
159 180 0
163 184 0
166 188 0
159 179 0
156 176 0
157 178 0
162 180 0
164 184 0
162 182 0
159 181 0
165 187 0
165 186 0
162 183 0
162 183 0
162 182 0
161 183 0
165 185 0
163 183 0
166 186 0
162 183 0
166 187 0
158 177 0
165 186 0
157 178 0
163 184 0
163 183 0
169 189 0
162 185 0
165 186 0
160 179 0
163 184 0
167 188 0
163 183 0
162 184 0
167 188 0
164 185 0
166 187 0
156 175 0
168 190 0
162 183 0
165 185 0
161 182 0
167 186 0
163 184 0
168 188 0
163 185 0
160 180 0
168 189 0
166 186 0
165 187 0
166 187 0
171 193 0
171 193 0
167 189 0
165 185 0
169 193 92
172 195 95
173 196 92
176 200 111
170 194 102
172 194 80
173 196 108
178 201 128
173 197 108
172 196 102
169 192 84
168 192 92
168 192 80
171 194 95
172 195 102
167 191 95
172 195 108
169 192 80
165 190 84
172 195 80
173 196 117
172 196 108
168 191 102
166 190 99
167 190 88
171 194 99
169 193 88
168 192 99
169 192 105
170 193 99
163 187 62
170 195 99
162 186 105
157 180 76
162 185 76
166 189 76
165 188 95
166 189 76
164 188 102
164 188 80
163 185 84
167 191 95
163 186 72
164 188 99
170 193 105
165 189 108
170 193 95
167 190 88
167 190 88
167 190 88
165 188 105
166 189 117
164 188 95
160 184 102
168 191 92
160 182 84
159 183 84
170 192 99
162 184 102
162 185 99
164 187 105
162 185 80
163 186 99
154 177 47
162 185 88
163 186 110
163 186 118
155 178 95
166 189 114
162 185 92
163 186 108
155 177 80
158 181 92
162 184 111
154 175 95
170 192 111
160 182 111
159 182 95
161 184 99
153 175 80
158 180 76
158 180 111
168 189 99
157 179 105
158 179 120
151 172 99
142 163 80
151 172 80
157 177 117
154 175 88
153 174 84
141 161 95
158 179 84
160 181 102
152 172 92
155 174 114
157 178 105
151 170 108
144 164 99
147 167 84
144 163 92
152 171 108
154 173 102
149 166 102
143 162 92
144 162 95
139 157 102
137 156 67
144 163 102
132 150 92
140 158 99
131 149 80
128 146 80
129 147 57
126 145 67
123 141 67
129 146 76
127 144 72
121 137 62
117 134 62
111 126 72
124 141 51
127 143 72
107 122 51
116 132 44
106 122 36
112 127 57
117 134 51
119 136 25
110 128 0
134 152 25
134 152 0
155 176 0
155 173 0
153 172 0
159 178 0
143 163 0
137 155 0
128 144 0
140 159 0
129 148 0
125 145 0
125 144 0
117 135 0
113 129 0
117 134 0
120 138 0
112 129 0
100 116 0
101 117 0
98 115 0
121 140 0
123 141 0
118 136 0
111 128 0
110 127 0
113 130 0
116 133 0
119 136 0
102 118 0
107 125 0
104 121 0
99 116 0
100 116 0
102 118 0
106 122 0
106 123 0
97 112 0
115 132 0
109 128 0
107 124 0
101 118 0
98 114 0
98 113 0
104 120 0
104 120 0
96 113 0
97 112 0
100 116 0
83 100 0
109 126 0
104 120 0
98 115 0
107 125 0
89 105 0
110 126 0
111 128 0
105 122 0
112 129 0
112 129 0
106 121 0
106 121 0
106 122 0
107 124 0
101 117 0
108 125 0
112 130 0
107 124 0
110 128 0
108 125 0
102 121 0
121 139 0
118 136 0
124 141 0
116 134 0
101 118 0
113 130 0
104 122 0
106 124 0
121 139 0
107 123 0
98 116 0
114 131 0
110 128 0
124 142 0
115 134 0
116 134 0
132 149 0
115 134 0
120 139 0
121 141 0
121 138 0
127 145 0
112 131 0
116 134 0
122 140 0
117 135 0
133 152 0
139 157 0
120 140 0
127 146 0
130 149 0
132 151 0
123 142 0
127 147 0
134 153 0
125 146 0
126 146 0
139 160 0
124 141 0
141 159 0
127 145 0
134 154 0
128 147 0
139 157 0
137 156 0
141 161 0
136 156 0
133 153 0
128 148 0
141 160 0
142 163 0
141 161 0
131 151 0
143 163 0
142 163 0
139 157 0
138 158 0
147 167 0
141 160 0
154 174 0
142 162 0
142 161 0
145 164 0
145 164 0
149 169 0
141 161 0
139 158 0
145 164 0
142 161 0
141 160 0
140 159 0
145 165 0
144 164 0
148 169 0
143 165 0
153 172 0
154 176 0
142 162 0
153 172 0
146 166 0
147 167 0
154 174 0
152 172 0
151 171 0
152 171 0
144 164 0
150 170 0
148 167 0
155 175 0
159 179 0
149 170 0
150 170 0
147 168 0
145 164 0
161 182 0
159 178 0
152 173 0
153 172 0
150 171 0
151 170 0
156 176 0
145 163 0
158 177 0
156 177 0
153 172 0
154 176 0
153 171 0
155 173 0
155 175 0
156 175 0
161 182 0
152 172 0
148 168 0
149 168 0
152 172 0
155 175 0
157 177 0
162 182 0
161 180 0
160 180 0
151 171 0
162 184 0
159 180 0
162 181 0
156 175 0
158 178 0
157 177 0
157 178 0
162 182 0
157 177 0
159 180 0
163 182 0
157 175 0
164 187 0
165 185 0
162 183 0
161 180 0
161 181 0
164 184 0
164 185 0
162 182 0
161 178 0
159 179 0
165 185 0
167 189 0
162 183 0
156 176 0
166 187 0
162 183 0
167 187 0
165 186 0
155 175 0
163 185 0
160 180 0
155 175 0
164 184 0
163 184 0
162 183 0
161 183 0
164 186 0
161 180 0
164 184 0
164 185 0
158 177 0
163 183 0
160 180 0
164 185 0
167 187 0
167 188 0
164 184 0
166 186 0
162 182 0
163 182 0
166 186 0
165 188 0
164 184 0
166 186 0
163 186 0
165 187 0
157 177 0
167 188 0
161 182 0
168 190 0
161 182 0
167 187 0
164 184 0
166 188 0
167 188 0
163 184 0
162 183 0
165 187 0
163 185 0
169 189 0
166 187 0
166 187 0
167 187 0
168 189 0
167 189 0
166 188 0
172 195 114
174 197 108
172 195 102
173 196 88
174 197 111
176 200 111
172 196 111
175 198 95
176 199 105
172 196 114
175 198 105
168 191 95
169 193 88
171 194 108
170 194 88
167 190 84
172 196 95
170 193 99
170 193 111
172 195 105
170 194 95
173 196 92
173 197 76
167 190 92
173 197 88
166 189 102
170 193 111
168 191 92
167 190 88
174 197 111
168 191 88
170 193 105
167 190 88
170 194 76
167 191 108
169 192 99
166 190 105
166 190 88
164 187 84
170 193 102
163 187 80
159 181 72
162 185 102
165 188 102
164 188 84
161 184 92
160 183 88
162 186 92
163 186 105
160 183 80
166 190 114
160 183 88
162 185 84
164 186 80
159 183 70
165 188 118
161 184 105
161 183 102
163 186 88
167 190 76
164 186 84
162 184 108
155 177 80
167 190 95
166 189 76
154 176 88
167 189 102
169 193 122
152 175 84
162 185 102
160 183 105
160 183 76
160 181 95
161 184 102
161 183 84
159 181 80
158 180 80
158 180 92
148 169 88
162 184 114
152 173 72
148 169 99
152 174 95
158 179 105
161 183 122
166 187 111
151 173 105
160 181 120
161 183 108
149 169 95
154 175 114
153 174 80
147 168 102
155 176 95
146 167 99
149 168 111
150 171 111
152 173 99
146 166 102
140 160 95
150 169 102
146 165 105
140 160 84
139 158 92
152 170 111
137 155 88
136 155 88
141 160 84
133 151 80
137 156 76
143 161 84
149 167 111
137 156 88
132 151 72
134 152 72
122 140 51
120 138 67
136 154 62
114 131 57
114 130 51
119 136 62
109 125 44
123 139 67
121 137 44
105 122 51
123 139 67
122 138 57
114 132 36
118 136 36
127 145 25
137 156 0
133 150 0
147 166 0
154 173 0
157 178 0
152 173 0
154 174 0
140 158 0
136 154 0
139 158 0
132 148 0
134 153 0
126 144 0
125 142 0
119 137 0
114 132 0
104 120 0
116 133 0
107 124 0
109 126 0
124 142 0
113 131 0
117 135 0
105 122 0
119 137 0
114 132 0
111 129 0
115 132 0
119 136 0
107 123 0
103 121 0
94 112 0
112 129 0
102 118 0
109 126 0
105 122 0
107 124 0
94 111 0
112 129 0
119 136 0
119 137 0
99 116 0
108 125 0
112 129 0
113 130 0
112 129 0
100 116 0
109 126 0
102 120 0
108 125 0
110 127 0
102 118 0
103 120 0
105 122 0
103 120 0
98 115 0
100 115 0
108 125 0
104 121 0
98 115 0
108 125 0
111 129 0
104 122 0
111 128 0
109 126 0
104 121 0
122 139 0
109 126 0
118 134 0
110 129 0
116 134 0
111 127 0
113 129 0
118 136 0
108 126 0
121 139 0
115 132 0
125 142 0
116 133 0
124 142 0
113 129 0
119 137 0
122 142 0
123 140 0
124 141 0
115 133 0
116 133 0
125 143 0
118 137 0
117 136 0
124 143 0
118 135 0
128 146 0
127 145 0
122 140 0
134 152 0
123 142 0
127 146 0
132 151 0
135 152 0
135 154 0
130 148 0
125 144 0
126 144 0
139 159 0
118 137 0
130 149 0
131 151 0
133 153 0
137 155 0
124 143 0
132 153 0
138 156 0
132 150 0
139 158 0
126 146 0
142 162 0
131 151 0
142 162 0
128 149 0
140 159 0
137 155 0
134 153 0
139 158 0
140 161 0
145 164 0
139 159 0
149 170 0
137 157 0
144 163 0
148 169 0
155 175 0
146 166 0
145 163 0
149 168 0
149 171 0
147 165 0
147 167 0
137 158 0
140 160 0
142 163 0
149 168 0
139 160 0
149 169 0
143 162 0
144 165 0
149 169 0
153 174 0
140 160 0
143 163 0
143 162 0
142 162 0
148 167 0
140 160 0
152 172 0
152 170 0
152 172 0
152 170 0
144 163 0
146 167 0
154 174 0
160 182 0
153 173 0
149 170 0
151 172 0
147 166 0
152 173 0
150 169 0
155 174 0
152 174 0
156 176 0
158 178 0
156 178 0
153 175 0
150 171 0
160 181 0
151 171 0
161 183 0
156 176 0
161 180 0
161 183 0
156 178 0
158 179 0
155 176 0
155 173 0
154 173 0
159 180 0
159 179 0
160 180 0
154 173 0
160 179 0
161 182 0
165 186 0
161 182 0
161 183 0
163 183 0
152 171 0
156 176 0
163 184 0
158 178 0
163 184 0
162 182 0
162 182 0
158 177 0
163 184 0
160 180 0
165 186 0
159 179 0
162 182 0
163 185 0
162 183 0
163 183 0
162 182 0
155 175 0
157 178 0
162 183 0
161 183 0
159 180 0
159 180 0
163 182 0
164 186 0
164 183 0
158 180 0
163 184 0
156 176 0
160 180 0
157 176 0
163 185 0
158 179 0
165 186 0
166 187 0
159 180 0
165 187 0
160 180 0
161 183 0
164 185 0
159 178 0
166 189 0
162 184 0
161 183 0
166 187 0
163 185 0
164 186 0
166 189 0
162 183 0
162 183 0
163 183 0
166 187 0
166 187 0
166 188 0
166 188 0
170 191 0
164 185 0
168 189 0
162 182 0
167 189 0
168 190 0
165 185 0
165 186 0
166 186 0
167 189 0
160 182 0
167 188 0
168 189 0
165 186 0
168 189 0
165 186 0
161 181 0
166 187 0
169 190 0
175 197 84
173 196 84
175 198 92
171 194 99
170 194 92
172 196 95
174 197 92
174 197 108
166 189 99
172 195 111
171 195 84
171 195 92
171 195 84
174 197 99
171 195 95
173 195 102
171 194 92
172 195 99
167 190 84
169 192 95
171 194 88
169 192 67
173 196 84
169 192 95
172 195 105
166 191 92
173 197 111
169 193 92
168 191 102
170 194 99
168 192 102
163 187 88
170 194 102
162 185 114
159 182 84
169 193 88
171 194 111
165 189 114
168 192 105
167 191 105
171 194 120
167 191 102
165 189 95
167 190 111
164 188 84
157 182 114
163 186 88
168 191 102
164 187 88
164 187 122
162 185 80
156 180 88
162 185 108
163 186 99
167 190 95
165 188 92
166 190 95
167 191 108
158 181 84
170 194 111
165 188 99
163 186 118
156 178 67
159 182 99
164 186 105
164 187 110
159 181 76
162 185 120
153 175 102
160 182 84
160 182 102
160 182 88
165 187 102
161 183 84
157 180 108
158 179 95
157 179 99
162 185 88
153 175 99
158 180 99
153 174 84
153 175 84
154 175 95
167 188 105
153 175 111
151 173 95
156 177 72
157 178 84
158 179 105
143 163 80
153 174 88
157 178 114
157 178 108
141 161 88
153 174 88
152 172 72
146 166 105
147 168 84
151 171 92
151 172 92
152 171 105
149 167 102
156 175 99
152 170 92
139 158 105
136 155 80
148 167 99
147 166 88
145 164 76
143 162 84
136 154 67
135 152 88
132 149 88
122 140 76
122 140 72
134 152 67
132 150 80
119 137 51
125 143 57
103 121 25
136 154 72
132 149 51
109 126 36
110 127 62
122 139 62
136 152 76
121 137 67
117 136 0
115 133 0
123 141 0
127 145 0
128 148 0
149 169 0
157 176 0
150 170 0
155 174 0
148 167 0
154 173 0
151 170 0
139 158 0
140 159 0
135 154 0
128 146 0
123 142 0
121 139 0
106 123 0
118 135 0
117 134 0
119 137 0
103 120 0
121 138 0
125 144 0
124 142 0
131 149 0
120 138 0
109 127 0
110 128 0
112 130 0
107 124 0
117 135 0
104 122 0
111 128 0
115 133 0
114 132 0
96 113 0
103 119 0
97 114 0
103 120 0
93 110 0
98 115 0
102 119 0
113 130 0
105 121 0
100 116 0
112 129 0
103 120 0
103 120 0
111 127 0
113 130 0
99 117 0
113 131 0
107 124 0
104 121 0
110 127 0
109 127 0
108 125 0
108 125 0
102 121 0
116 134 0
106 122 0
102 118 0
119 137 0
104 121 0
105 123 0
99 117 0
116 134 0
112 129 0
120 136 0
118 136 0
115 132 0
110 127 0
103 122 0
114 132 0
125 142 0
127 145 0
118 135 0
116 135 0
122 141 0
125 141 0
119 138 0
116 134 0
118 133 0
131 150 0
123 142 0
124 143 0
125 144 0
128 148 0
127 145 0
128 146 0
119 137 0
123 142 0
122 139 0
127 146 0
127 147 0
124 143 0
137 155 0
131 150 0
126 144 0
137 157 0
133 151 0
124 142 0
135 152 0
126 144 0
138 157 0
125 145 0
130 149 0
126 146 0
137 157 0
130 150 0
135 153 0
130 148 0
137 156 0
134 154 0
130 150 0
128 148 0
143 164 0
145 165 0
144 164 0
131 151 0
129 149 0
145 164 0
143 161 0
135 154 0
131 150 0
142 160 0
139 159 0
139 157 0
147 166 0
135 155 0
144 163 0
140 160 0
133 153 0
143 164 0
145 165 0
147 166 0
144 165 0
149 168 0
142 163 0
141 161 0
156 176 0
146 166 0
144 163 0
150 169 0
147 166 0
142 160 0
151 173 0
142 162 0
150 171 0
149 170 0
149 171 0
150 173 0
144 165 0
157 178 0
151 171 0
146 166 0
144 163 0
156 177 0
151 174 0
150 170 0
155 177 0
157 178 0
150 170 0
153 172 0
153 173 0
150 171 0
151 171 0
157 178 0
157 178 0
156 176 0
154 175 0
158 179 0
149 168 0
152 172 0
155 176 0
145 165 0
155 176 0
158 178 0
153 174 0
153 173 0
159 181 0
156 176 0
147 168 0
159 177 0
158 177 0
156 174 0
158 179 0
155 175 0
160 181 0
156 177 0
160 181 0
165 186 0
162 183 0
154 173 0
157 176 0
161 183 0
163 183 0
159 179 0
158 178 0
156 176 0
160 181 0
160 180 0
158 178 0
163 184 0
157 178 0
165 184 0
165 187 0
163 183 0
158 178 0
164 184 0
165 186 0
160 179 0
160 181 0
165 187 0
161 182 0
160 181 0
161 183 0
167 188 0
158 177 0
161 181 0
168 190 0
161 182 0
160 180 0
166 186 0
164 186 0
158 178 0
164 185 0
162 182 0
163 184 0
164 184 0
166 186 0
170 189 0
159 179 0
160 181 0
163 184 0
165 187 0
160 179 0
165 185 0
163 184 0
166 186 0
159 180 0
167 189 0
163 184 0
164 183 0
163 184 0
165 187 0
167 186 0
165 186 0
165 185 0
164 187 0
164 185 0
164 186 0
163 184 0
166 188 0
165 187 0
169 191 0
164 183 0
166 187 0
166 186 0
161 182 0
167 186 0
170 192 0
169 191 0
165 186 0
167 187 0
166 187 0
163 185 0
166 188 0
166 188 0
167 190 0
169 190 0
171 194 99
177 199 114
173 196 99
171 194 80
175 199 88
174 197 92
175 198 102
170 194 88
172 194 102
173 197 108
176 199 111
169 192 84
166 190 84
173 196 102
165 188 84
169 193 102
173 196 95
167 190 102
169 193 114
169 193 84
167 190 114
170 194 92
170 194 111
172 195 84
170 193 105
170 194 95
170 194 120
168 192 76
171 194 111
173 195 84
165 189 72
167 190 88
171 195 105
173 196 99
166 189 105
163 186 92
167 190 105
167 191 99
165 189 95
169 192 105
171 195 114
167 190 105
167 190 72
167 191 92
169 193 99
159 183 92
166 190 102
162 186 114
165 187 84
161 184 95
171 194 92
166 190 114
169 192 99
162 186 95
163 186 84
164 188 95
158 181 80
168 191 114
155 177 84
157 180 94
166 189 95
161 183 111
165 188 88
159 181 88
152 175 95
157 179 100
160 183 88
155 177 103
166 189 105
160 182 105
159 182 114
169 191 108
159 181 105
158 179 62
154 176 108
161 183 88
163 185 95
156 178 102
157 179 92
153 175 92
158 179 102
158 180 102
152 174 84
162 183 111
158 179 105
161 182 102
165 187 99
153 174 92
152 173 95
156 177 99
156 177 105
157 177 108
152 173 108
156 177 102
150 171 99
152 172 102
151 171 80
154 173 95
149 168 99
158 178 111
145 164 102
155 175 102
149 169 99
148 168 102
145 165 99
145 164 84
148 166 99
153 172 92
137 156 88
144 163 84
137 155 67
141 159 88
142 160 80
135 154 72
135 152 80
137 155 76
143 162 76
131 150 72
118 135 51
130 147 72
131 148 67
136 154 80
130 146 95
117 135 57
140 157 80
123 139 67
126 144 51
135 152 0
125 144 36
123 142 0
144 163 25
132 151 0
136 155 0
156 176 0
160 180 0
148 167 0
152 172 0
148 167 0
148 168 0
138 158 0
126 145 0
139 158 0
126 144 0
122 140 0
126 144 0
99 115 0
124 142 0
106 122 0
113 128 0
127 146 0
117 136 0
121 140 0
129 149 0
114 133 0
118 135 0
107 125 0
105 122 0
110 126 0
107 125 0
105 123 0
101 119 0
106 123 0
108 126 0
113 130 0
119 137 0
107 124 0
102 119 0
116 133 0
90 107 0
120 137 0
114 131 0
109 126 0
108 126 0
102 118 0
112 128 0
110 126 0
106 123 0
103 121 0
105 123 0
107 125 0
101 118 0
118 135 0
124 141 0
111 128 0
94 111 0
104 121 0
107 124 0
120 138 0
113 130 0
113 130 0
107 124 0
114 131 0
123 140 0
118 136 0
100 118 0
127 147 0
119 137 0
101 118 0
109 126 0
128 146 0
118 136 0
111 130 0
109 128 0
121 137 0
118 135 0
115 131 0
125 143 0
128 147 0
112 130 0
114 134 0
131 151 0
119 137 0
123 141 0
118 135 0
122 141 0
126 144 0
128 147 0
115 131 0
120 140 0
127 146 0
130 149 0
116 135 0
114 131 0
124 143 0
132 152 0
126 144 0
132 151 0
131 150 0
126 144 0
127 148 0
126 144 0
126 145 0
131 151 0
131 150 0
139 157 0
134 154 0
137 158 0
132 151 0
129 148 0
131 152 0
133 152 0
140 160 0
143 164 0
133 154 0
129 148 0
139 158 0
139 160 0
131 151 0
137 157 0
138 156 0
133 152 0
143 164 0
138 157 0
142 161 0
140 161 0
139 159 0
144 164 0
137 155 0
139 160 0
139 157 0
149 169 0
150 169 0
156 176 0
148 169 0
146 165 0
147 167 0
145 165 0
151 173 0
139 159 0
146 166 0
146 167 0
151 173 0
147 167 0
143 163 0
151 172 0
150 169 0
149 170 0
146 168 0
149 171 0
150 171 0
146 168 0
145 164 0
154 174 0
150 170 0
155 176 0
153 174 0
156 177 0
162 182 0
155 176 0
149 171 0
155 175 0
144 164 0
158 179 0
156 177 0
156 175 0
155 176 0
151 171 0
152 172 0
152 172 0
157 177 0
159 180 0
151 171 0
149 168 0
156 176 0
155 176 0
155 175 0
147 168 0
148 168 0
155 174 0
162 183 0
154 174 0
150 170 0
157 178 0
161 182 0
159 179 0
161 183 0
150 171 0
151 172 0
158 180 0
159 179 0
159 178 0
164 185 0
156 177 0
151 170 0
153 174 0
157 177 0
161 182 0
161 182 0
158 176 0
160 181 0
157 176 0
158 179 0
163 184 0
167 189 0
161 183 0
155 175 0
163 184 0
159 178 0
159 180 0
163 184 0
163 185 0
164 184 0
154 173 0
161 182 0
161 182 0
156 177 0
164 185 0
167 189 0
160 181 0
163 185 0
165 185 0
165 185 0
157 177 0
164 185 0
158 179 0
156 177 0
161 182 0
163 183 0
159 180 0
161 182 0
167 188 0
160 180 0
163 184 0
164 185 0
166 187 0
161 184 0
164 183 0
160 179 0
163 184 0
162 183 0
167 188 0
164 186 0
165 187 0
163 184 0
169 191 0
166 187 0
165 185 0
168 188 0
161 182 0
164 185 0
165 186 0
162 182 0
166 186 0
167 186 0
165 186 0
166 188 0
163 184 0
166 187 0
169 192 0
170 190 0
163 184 0
168 191 0
166 187 0
168 188 0
165 186 0
166 187 0
170 192 0
167 188 0
164 187 0
168 190 0
178 199 99
170 194 80
170 195 95
169 192 44
173 196 84
172 195 95
169 194 80
170 194 80
169 193 105
170 194 99
179 202 117
173 196 114
174 196 105
175 199 105
174 198 102
169 192 102
173 197 102
169 192 117
168 191 76
171 194 80
171 194 95
172 196 88
171 194 95
174 197 105
170 194 88
170 192 105
169 193 92
174 198 105
168 192 111
166 190 95
164 188 67
166 189 88
167 190 80
167 190 88
164 187 92
168 192 108
169 192 111
168 191 72
163 186 84
166 189 88
166 189 108
164 188 102
165 188 72
168 190 76
167 191 102
167 191 105
169 192 108
171 195 120
165 188 99
165 188 84
167 190 114
162 184 102
171 195 114
163 186 92
162 185 105
163 186 99
167 190 95
167 190 99
165 188 102
166 189 99
165 189 114
160 183 92
168 192 99
165 187 102
164 187 102
165 188 107
165 187 99
159 182 57
154 176 84
160 183 80
166 189 108
164 187 102
158 180 105
158 180 92
160 182 84
165 188 105
160 182 88
157 178 88
161 184 92
162 184 111
164 186 99
153 174 72
151 172 102
159 181 108
162 184 114
147 169 92
158 179 102
158 179 108
157 178 102
162 183 111
150 172 80
147 167 111
166 187 117
153 175 80
153 174 92
151 170 102
146 166 95
157 178 122
146 166 88
141 160 76
149 169 92
144 164 76
150 170 92
157 177 99
146 165 88
146 165 92
152 171 114
145 163 111
136 155 88
136 154 80
144 162 95
141 159 84
141 160 76
142 160 92
141 157 102
144 162 88
121 138 57
135 154 51
129 148 44
142 160 72
128 146 72
121 139 36
111 128 51
118 136 67
128 147 72
131 148 76
126 144 36
117 135 25
126 145 0
122 143 25
132 151 0
130 149 0
139 157 0
160 182 0
158 178 0
140 158 0
156 178 0
151 171 0
145 165 0
131 150 0
128 149 0
126 144 0
132 151 0
122 141 0
126 145 0
128 146 0
126 143 0
120 136 0
130 147 0
118 135 0
112 130 0
122 141 0
127 146 0
118 136 0
125 142 0
119 136 0
114 131 0
107 126 0
109 128 0
110 129 0
119 137 0
116 133 0
115 132 0
131 149 0
122 140 0
118 137 0
106 123 0
111 130 0
102 120 0
105 123 0
105 122 0
115 134 0
116 134 0
119 136 0
106 124 0
106 123 0
105 122 0
109 125 0
114 131 0
110 127 0
112 130 0
111 129 0
121 140 0
108 126 0
117 136 0
107 123 0
121 139 0
102 120 0
116 134 0
107 124 0
121 139 0
121 138 0
116 135 0
125 142 0
125 143 0
103 121 0
113 130 0
115 132 0
114 132 0
109 126 0
109 126 0
115 133 0
118 137 0
108 125 0
118 136 0
112 128 0
111 129 0
115 132 0
114 132 0
120 138 0
116 135 0
128 147 0
129 148 0
125 144 0
123 141 0
116 133 0
122 141 0
128 147 0
128 148 0
129 148 0
123 142 0
131 152 0
119 137 0
123 142 0
124 143 0
127 147 0
127 147 0
129 147 0
124 144 0
135 154 0
126 145 0
124 143 0
136 154 0
129 150 0
135 154 0
128 148 0
138 157 0
136 156 0
132 152 0
134 153 0
129 149 0
142 162 0
138 158 0
138 158 0
131 151 0
145 164 0
142 164 0
145 167 0
136 157 0
145 165 0
137 156 0
144 164 0
143 162 0
146 167 0
143 164 0
138 158 0
143 163 0
143 163 0
149 169 0
139 158 0
141 162 0
140 159 0
147 166 0
148 168 0
141 161 0
147 168 0
147 167 0
152 172 0
149 168 0
154 175 0
141 161 0
139 160 0
147 167 0
150 169 0
149 170 0
153 174 0
155 175 0
148 168 0
151 172 0
151 172 0
163 183 0
152 173 0
148 169 0
151 172 0
153 173 0
153 173 0
154 176 0
155 176 0
156 177 0
155 176 0
144 164 0
154 175 0
151 172 0
154 175 0
150 171 0
147 167 0
158 180 0
160 179 0
159 179 0
158 178 0
156 178 0
156 174 0
149 170 0
151 170 0
156 178 0
163 185 0
158 178 0
158 179 0
161 181 0
152 174 0
153 174 0
161 181 0
152 171 0
163 185 0
161 182 0
152 173 0
157 177 0
159 180 0
163 183 0
159 180 0
153 174 0
154 174 0
151 171 0
155 174 0
160 182 0
158 177 0
162 184 0
159 180 0
160 183 0
161 183 0
160 181 0
160 181 0
158 180 0
163 185 0
155 176 0
163 183 0
159 180 0
163 184 0
164 186 0
167 187 0
165 186 0
158 177 0
163 181 0
164 184 0
167 188 0
160 180 0
164 184 0
160 180 0
161 181 0
162 184 0
163 183 0
161 183 0
160 181 0
162 183 0
166 185 0
163 184 0
164 184 0
165 186 0
161 183 0
158 179 0
162 184 0
161 182 0
157 177 0
165 186 0
162 182 0
163 183 0
159 179 0
162 183 0
163 183 0
166 187 0
163 184 0
163 183 0
161 181 0
166 186 0
161 182 0
164 185 0
170 193 0
168 190 0
171 192 0
162 182 0
163 185 0
164 185 0
168 190 0
166 188 0
170 191 0
169 191 0
166 188 0
161 183 0
165 187 0
165 186 0
168 189 0
168 191 0
170 192 0
163 184 0
167 187 0
170 191 0
168 188 0
169 191 0
167 189 0
166 186 0
176 198 102
174 198 105
174 195 111
174 197 88
170 193 84
170 192 99
173 195 88
173 196 105
169 191 84
172 195 92
171 195 80
173 197 102
167 189 72
171 194 80
168 191 67
172 195 108
173 196 99
168 191 84
170 194 114
167 190 92
176 199 108
171 194 99
166 189 88
164 188 84
172 196 99
168 191 95
172 196 120
164 187 92
169 192 99
174 197 102
167 191 102
172 195 102
171 195 111
171 194 99
168 191 105
172 195 117
167 190 72
161 183 84
169 192 114
164 188 108
166 190 102
165 188 105
161 184 111
165 188 92
169 193 67
161 184 108
165 188 108
161 183 80
161 184 84
168 193 114
163 187 84
162 185 108
167 190 99
168 192 125
160 183 62
158 181 102
164 186 111
159 182 88
162 185 99
159 182 88
166 189 105
168 191 114
162 184 102
162 185 92
163 187 108
153 177 88
169 192 125
161 183 102
163 185 95
166 189 99
162 184 84
160 181 99
159 182 102
157 179 92
157 179 111
154 176 102
158 180 84
156 178 105
163 184 105
160 182 95
153 174 95
157 178 92
161 183 114
147 168 95
160 181 95
157 178 92
150 171 92
156 178 108
157 178 102
154 176 111
153 174 99
160 181 117
148 168 72
149 169 95
159 180 111
144 164 80
160 182 108
154 174 95
151 171 92
142 162 88
157 177 102
147 167 88
145 165 88
155 174 111
158 177 128
156 174 114
143 162 95
150 168 111
148 167 99
143 160 99
133 152 72
140 159 76
142 162 62
137 154 99
134 153 80
127 144 57
140 159 57
128 147 0
131 150 72
127 144 67
138 155 76
128 146 57
133 151 67
124 142 36
140 157 72
129 147 57
127 146 25
128 147 25
126 145 25
131 151 36
133 153 0
135 154 0
150 170 0
154 175 0
160 181 0
150 172 0
152 172 0
146 168 0
143 164 0
150 169 0
137 155 0
131 150 0
134 153 0
126 146 0
122 140 0
124 143 0
115 132 0
113 131 0
119 136 0
118 135 0
125 143 0
122 141 0
121 140 0
125 143 0
124 143 0
121 139 0
110 128 0
114 133 0
115 132 0
113 131 0
120 137 0
113 131 0
120 137 0
120 138 0
115 133 0
108 127 0
118 136 0
122 141 0
116 135 0
115 132 0
116 134 0
121 138 0
118 136 0
113 131 0
114 131 0
114 131 0
117 137 0
99 118 0
122 140 0
108 126 0
112 129 0
114 132 0
122 141 0
130 148 0
112 128 0
118 136 0
111 128 0
116 134 0
103 119 0
113 130 0
119 136 0
109 129 0
115 133 0
123 141 0
105 123 0
118 135 0
109 128 0
105 121 0
126 145 0
112 130 0
127 145 0
124 141 0
111 128 0
119 137 0
122 141 0
113 133 0
125 143 0
121 140 0
124 142 0
133 152 0
126 145 0
133 152 0
115 134 0
127 146 0
114 132 0
133 152 0
124 143 0
116 136 0
136 156 0
130 149 0
126 144 0
127 144 0
126 144 0
131 149 0
131 151 0
136 156 0
137 157 0
137 157 0
127 146 0
133 153 0
131 151 0
134 154 0
139 159 0
140 159 0
129 148 0
139 157 0
138 158 0
129 147 0
130 150 0
135 156 0
140 157 0
144 163 0
131 150 0
133 151 0
144 164 0
140 161 0
141 161 0
146 166 0
137 157 0
134 154 0
134 155 0
134 156 0
143 164 0
141 162 0
141 160 0
147 168 0
145 165 0
142 160 0
140 160 0
145 164 0
142 161 0
146 166 0
142 162 0
147 168 0
154 175 0
138 159 0
150 170 0
153 175 0
153 173 0
142 163 0
148 169 0
150 171 0
144 165 0
146 165 0
140 160 0
148 169 0
145 163 0
146 166 0
141 161 0
148 168 0
151 173 0
151 171 0
144 163 0
143 162 0
152 172 0
150 169 0
151 171 0
148 169 0
155 175 0
156 177 0
147 168 0
154 176 0
149 170 0
148 170 0
160 180 0
153 172 0
144 164 0
155 176 0
152 174 0
154 176 0
155 176 0
154 176 0
157 178 0
152 173 0
158 179 0
155 176 0
155 175 0
158 177 0
156 176 0
160 180 0
159 180 0
155 176 0
164 184 0
156 176 0
157 178 0
153 172 0
164 183 0
158 179 0
160 181 0
160 181 0
155 175 0
154 175 0
161 182 0
155 176 0
159 179 0
155 176 0
158 180 0
162 183 0
161 182 0
163 182 0
160 182 0
157 177 0
161 183 0
159 178 0
161 181 0
158 179 0
159 179 0
161 182 0
163 183 0
162 182 0
166 186 0
158 179 0
158 178 0
159 180 0
164 184 0
163 183 0
157 178 0
161 183 0
162 182 0
160 180 0
162 183 0
167 188 0
163 185 0
160 181 0
161 181 0
161 181 0
168 190 0
163 183 0
162 182 0
163 183 0
162 183 0
163 185 0
159 181 0
161 181 0
161 182 0
164 186 0
167 188 0
162 183 0
164 185 0
163 185 0
164 185 0
166 186 0
164 186 0
166 187 0
165 186 0
166 187 0
165 186 0
166 187 0
166 185 0
168 190 0
167 189 0
164 184 0
164 185 0
166 186 0
169 191 0
168 189 0
162 182 0
169 190 0
165 187 0
167 186 0
162 183 0
168 189 0
166 187 0
167 186 0
169 189 0
169 191 0
168 190 0
166 187 0
167 189 0
164 186 0
170 193 88
177 199 102
173 196 108
176 199 102
176 199 99
177 200 102
174 198 114
173 196 102
176 198 102
170 193 80
172 196 108
174 197 76
167 191 84
176 198 120
175 198 99
175 198 102
172 194 95
166 190 72
171 195 88
173 196 102
167 190 84
168 191 95
170 194 95
165 189 80
164 188 99
170 193 80
163 185 95
172 195 108
171 194 84
169 192 99
172 195 117
165 189 92
167 190 92
166 190 102
162 185 92
163 186 76
168 191 95
167 190 99
165 188 80
160 183 80
171 195 114
162 185 84
165 189 105
163 187 92
163 187 105
168 191 105
165 188 88
162 186 102
159 183 76
161 184 80
166 190 120
169 192 120
161 184 95
161 184 102
162 185 92
159 182 108
165 188 95
159 181 99
160 182 67
161 183 108
159 182 105
167 190 117
161 184 88
158 181 102
161 183 105
160 183 105
155 177 99
157 179 102
166 189 108
160 182 92
164 186 117
162 185 99
158 181 108
159 182 84
160 181 67
164 187 111
156 178 105
160 183 80
154 176 99
165 187 108
154 175 105
158 178 76
160 182 95
157 178 111
153 175 92
162 183 95
159 179 80
151 172 92
160 181 108
159 180 92
157 179 92
153 173 88
149 170 88
151 172 88
151 172 76
160 180 95
149 170 84
155 175 102
145 165 80
149 169 95
148 168 105
148 167 95
148 168 105
150 169 92
149 168 88
140 158 105
143 161 80
152 170 99
144 163 80
152 171 114
151 170 80
138 157 92
143 161 80
152 170 111
138 157 80
137 156 51
134 152 57
140 159 76
132 150 67
129 147 76
134 152 51
132 151 36
128 147 57
135 153 72
130 148 72
126 145 44
129 146 44
122 141 0
134 152 25
138 158 25
127 145 51
136 156 0
152 172 0
156 174 0
150 171 0
154 176 0
152 173 0
148 168 0
141 162 0
143 163 0
136 157 0
133 152 0
126 145 0
129 147 0
137 155 0
123 142 0
117 135 0
130 149 0
111 129 0
119 139 0
121 139 0
123 142 0
121 139 0
115 133 0
117 136 0
114 133 0
106 123 0
121 140 0
115 134 0
112 131 0
106 125 0
118 135 0
126 145 0
107 126 0
116 134 0
121 140 0
120 136 0
116 135 0
118 136 0
122 141 0
123 141 0
107 125 0
117 134 0
123 141 0
104 121 0
119 137 0
101 119 0
119 137 0
111 129 0
107 127 0
120 139 0
125 143 0
117 136 0
116 134 0
112 130 0
114 133 0
116 135 0
117 133 0
119 138 0
115 132 0
109 127 0
107 125 0
119 137 0
121 139 0
110 128 0
122 141 0
113 131 0
115 132 0
115 133 0
119 135 0
133 150 0
124 143 0
122 141 0
115 133 0
129 148 0
116 134 0
129 148 0
127 146 0
121 141 0
120 139 0
121 139 0
124 143 0
119 139 0
126 146 0
132 149 0
136 155 0
131 150 0
124 142 0
123 144 0
127 146 0
131 149 0
126 145 0
131 151 0
128 147 0
131 151 0
130 151 0
129 149 0
121 142 0
135 154 0
126 147 0
138 159 0
142 161 0
140 160 0
142 160 0
130 151 0
135 155 0
134 154 0
138 158 0
134 154 0
131 152 0
141 161 0
147 167 0
143 164 0
139 160 0
139 159 0
132 153 0
139 157 0
130 149 0
143 162 0
144 165 0
131 151 0
142 162 0
146 166 0
148 168 0
134 155 0
138 159 0
143 164 0
139 160 0
143 163 0
146 168 0
142 162 0
147 167 0
150 171 0
146 167 0
137 158 0
144 166 0
144 165 0
147 166 0
145 165 0
142 162 0
142 163 0
150 170 0
146 165 0
155 176 0
148 169 0
150 168 0
146 166 0
143 164 0
151 171 0
155 176 0
153 176 0
154 175 0
148 168 0
146 164 0
150 171 0
157 176 0
155 176 0
156 178 0
154 175 0
151 173 0
156 178 0
155 178 0
146 166 0
149 170 0
153 174 0
152 171 0
149 170 0
149 170 0
146 165 0
153 172 0
160 181 0
151 171 0
158 180 0
156 176 0
154 174 0
151 170 0
158 180 0
152 173 0
153 174 0
164 186 0
163 183 0
154 175 0
149 169 0
158 178 0
160 181 0
160 182 0
159 178 0
157 180 0
161 184 0
160 181 0
152 172 0
162 184 0
164 186 0
160 181 0
159 179 0
152 172 0
161 182 0
161 181 0
159 179 0
163 182 0
162 182 0
157 178 0
165 189 0
158 178 0
154 176 0
164 185 0
160 182 0
163 185 0
159 179 0
164 184 0
162 183 0
161 184 0
166 188 0
168 190 0
159 180 0
162 182 0
166 187 0
162 182 0
164 184 0
161 182 0
167 190 0
162 183 0
158 179 0
165 188 0
166 187 0
161 182 0
164 184 0
164 186 0
157 179 0
164 185 0
168 188 0
166 186 0
166 187 0
164 186 0
162 185 0
162 183 0
168 190 0
165 185 0
162 183 0
163 184 0
167 189 0
168 189 0
165 187 0
164 185 0
166 187 0
166 189 0
166 187 0
167 189 0
165 187 0
162 183 0
164 186 0
164 184 0
167 186 0
162 182 0
166 186 0
167 188 0
169 190 0
167 188 0
167 187 0
165 185 0
166 189 0
166 188 0
169 191 0
169 190 0
166 188 0
167 188 0
169 191 0
166 188 0
171 192 0
166 187 0
171 195 88
172 195 99
174 196 84
172 195 95
173 195 95
172 196 80
174 197 102
175 198 108
174 197 95
169 192 99
173 196 92
170 193 95
170 193 99
173 196 117
173 196 111
170 193 92
171 194 117
169 192 92
169 192 92
169 191 88
168 192 99
167 190 76
167 190 99
164 187 84
171 194 108
167 191 92
167 190 111
169 193 76
172 196 95
169 193 99
171 195 102
168 193 99
171 195 102
165 190 99
168 192 95
167 191 88
163 186 72
166 189 111
162 184 92
165 188 80
166 190 102
167 189 84
165 189 95
173 196 99
168 192 102
162 185 88
167 190 108
166 188 92
167 191 92
166 189 88
166 189 122
165 188 102
168 191 92
166 189 102
159 183 102
161 184 99
156 180 95
168 191 88
160 183 88
158 180 88
158 180 88
164 187 117
164 187 117
155 178 80
163 186 99
164 186 80
160 182 95
168 192 111
163 187 111
164 187 102
166 188 117
157 179 99
166 188 111
166 188 102
152 174 84
159 181 92
155 178 102
160 182 92
159 181 99
159 182 95
162 183 99
152 174 80
165 186 102
159 181 99
155 177 84
159 181 92
155 176 99
146 167 92
151 171 80
148 169 88
161 183 102
159 180 99
157 177 99
158 179 111
149 168 105
158 178 108
151 171 62
150 169 105
153 172 108
149 168 108
149 169 88
153 173 95
149 169 95
150 168 108
150 169 105
150 170 88
153 172 99
157 176 108
150 168 88
147 165 102
152 170 102
155 174 108
139 157 80
157 176 88
141 159 76
137 157 44
125 144 36
135 154 51
139 157 67
138 158 44
136 155 62
128 146 62
136 156 25
130 148 62
134 152 57
127 146 25
130 150 0
127 146 25
135 156 51
142 161 25
135 156 25
140 161 0
152 173 25
163 184 0
155 177 0
150 172 0
150 170 0
151 171 0
149 170 0
141 161 0
142 163 0
138 159 0
143 162 0
129 149 0
136 155 0
128 147 0
121 139 0
118 138 0
126 144 0
116 135 0
125 144 0
126 145 0
124 142 0
124 143 0
123 141 0
114 134 0
121 140 0
116 134 0
115 134 0
112 130 0
116 134 0
110 129 0
111 128 0
118 136 0
125 143 0
110 127 0
122 141 0
126 144 0
120 140 0
125 143 0
116 133 0
103 123 0
101 120 0
129 148 0
120 139 0
115 133 0
117 135 0
113 131 0
115 134 0
114 133 0
117 134 0
118 136 0
118 137 0
120 140 0
112 130 0
122 141 0
106 124 0
108 126 0
126 144 0
103 122 0
114 132 0
124 142 0
117 135 0
115 134 0
113 131 0
119 138 0
117 135 0
123 140 0
107 125 0
116 135 0
113 132 0
114 132 0
124 143 0
122 141 0
127 146 0
121 140 0
108 125 0
124 143 0
131 150 0
131 151 0
127 146 0
123 142 0
120 139 0
125 144 0
123 142 0
127 145 0
125 144 0
140 158 0
129 149 0
124 143 0
126 145 0
130 150 0
136 155 0
132 151 0
138 156 0
131 151 0
127 147 0
136 155 0
132 153 0
122 142 0
127 146 0
125 144 0
131 151 0
139 160 0
140 159 0
140 158 0
144 166 0
137 159 0
126 145 0
130 149 0
139 161 0
139 159 0
137 158 0
140 160 0
148 168 0
141 161 0
142 161 0
141 161 0
143 164 0
151 172 0
152 172 0
146 167 0
142 164 0
139 158 0
138 157 0
148 168 0
137 158 0
146 167 0
142 162 0
139 160 0
134 153 0
143 163 0
152 172 0
135 155 0
150 170 0
149 170 0
143 162 0
153 175 0
150 171 0
150 171 0
149 170 0
152 173 0
151 171 0
149 170 0
153 173 0
147 168 0
143 164 0
151 172 0
148 168 0
145 164 0
153 172 0
163 185 0
151 172 0
147 168 0
148 167 0
158 180 0
155 175 0
154 174 0
148 169 0
154 175 0
151 171 0
149 169 0
156 177 0
159 180 0
153 174 0
154 176 0
154 175 0
154 175 0
154 173 0
152 172 0
151 172 0
157 178 0
155 174 0
156 177 0
159 180 0
153 174 0
153 174 0
151 173 0
159 179 0
154 175 0
155 175 0
156 177 0
159 182 0
160 181 0
151 171 0
158 180 0
157 178 0
157 177 0
153 173 0
162 184 0
155 176 0
159 179 0
163 184 0
160 181 0
161 182 0
163 184 0
164 186 0
160 181 0
161 183 0
159 179 0
153 175 0
160 181 0
157 179 0
160 181 0
152 171 0
161 183 0
164 185 0
160 181 0
159 180 0
158 178 0
167 187 0
162 183 0
171 193 0
159 179 0
166 188 0
163 183 0
158 179 0
161 181 0
165 184 0
164 185 0
166 186 0
165 186 0
162 185 0
167 187 0
163 186 0
164 184 0
165 188 0
157 179 0
163 186 0
158 178 0
160 180 0
161 184 0
163 185 0
163 185 0
163 183 0
157 180 0
161 184 0
169 190 0
162 183 0
159 181 0
168 190 0
162 184 0
167 189 0
165 186 0
164 186 0
167 189 0
165 185 0
170 192 0
165 188 0
165 187 0
169 190 0
165 186 0
164 185 0
161 182 0
166 188 0
165 187 0
166 187 0
167 186 0
165 187 0
167 189 0
165 187 0
166 189 0
166 188 0
163 184 0
166 189 0
168 190 0
166 188 0
168 191 0
166 188 0
169 190 0
174 197 99
174 197 102
174 197 92
174 196 102
168 191 84
174 196 105
169 192 76
175 198 108
173 196 120
172 195 117
166 189 80
174 197 111
169 193 102
172 195 99
174 197 105
172 196 102
171 195 117
165 189 99
174 197 108
170 194 84
174 198 111
171 194 99
171 194 111
172 195 99
170 193 102
166 188 102
173 197 111
163 187 88
163 187 76
167 190 84
169 193 92
166 190 105
166 189 92
166 189 84
164 187 84
164 187 76
167 190 95
166 189 84
164 187 117
168 191 102
168 191 99
167 190 84
161 183 95
166 189 88
167 190 84
161 185 95
164 188 99
163 187 102
164 187 92
160 182 80
163 186 102
160 183 95
167 190 95
165 189 95
168 191 92
165 188 99
159 181 84
164 187 95
162 185 67
153 176 84
160 183 108
172 196 99
165 188 105
160 183 92
158 180 88
159 181 88
161 184 95
160 182 99
164 186 95
157 179 67
160 184 80
162 184 92
154 176 62
162 184 108
156 178 84
158 181 105
153 174 92
156 178 88
159 181 102
162 184 108
160 182 114
151 172 80
164 186 95
162 184 105
160 182 105
158 180 92
154 176 105
154 175 88
158 180 99
152 174 76
156 177 92
156 177 102
159 179 102
154 175 99
144 164 102
155 174 108
152 173 102
155 175 102
150 171 102
145 164 92
147 166 111
148 167 99
141 160 95
157 177 102
150 168 122
147 168 88
154 173 128
161 179 117
143 161 95
143 162 92
138 156 76
141 158 92
145 164 80
154 173 92
129 147 72
139 158 36
143 162 62
130 150 25
128 148 25
135 155 44
134 153 44
136 155 51
142 159 80
132 150 57
136 155 44
132 153 36
131 150 36
138 156 25
133 152 25
134 155 25
135 155 0
137 156 25
144 163 0
164 186 0
154 175 0
155 176 0
151 173 0
148 169 0
142 162 0
149 171 0
145 166 0
140 160 0
128 149 0
130 150 0
131 150 0
123 143 0
118 136 0
130 150 0
124 145 0
126 145 0
130 150 0
124 143 0
132 152 0
135 155 0
127 146 0
122 140 0
127 146 0
110 128 0
127 146 0
124 142 0
121 140 0
118 136 0
122 141 0
110 129 0
119 138 0
123 141 0
112 129 0
125 144 0
119 137 0
115 133 0
127 145 0
105 124 0
109 129 0
121 141 0
116 134 0
107 125 0
109 126 0
123 141 0
113 132 0
113 131 0
120 138 0
123 142 0
123 142 0
121 141 0
118 136 0
119 136 0
126 146 0
128 146 0
108 126 0
112 131 0
125 142 0
111 130 0
123 142 0
112 132 0
132 151 0
116 133 0
120 139 0
118 137 0
114 134 0
116 135 0
133 152 0
126 144 0
117 136 0
127 146 0
127 146 0
128 147 0
111 130 0
115 134 0
123 143 0
126 145 0
125 144 0
125 144 0
127 147 0
135 153 0
123 141 0
118 138 0
126 145 0
132 152 0
127 147 0
131 150 0
127 147 0
123 142 0
122 142 0
132 151 0
134 153 0
126 144 0
134 154 0
130 151 0
145 165 0
124 144 0
138 158 0
138 158 0
133 152 0
133 153 0
148 168 0
131 151 0
140 160 0
134 154 0
143 162 0
140 159 0
139 158 0
137 157 0
144 165 0
138 159 0
142 160 0
137 158 0
148 169 0
137 156 0
144 164 0
143 164 0
133 154 0
139 160 0
146 166 0
144 165 0
142 162 0
146 166 0
154 175 0
152 174 0
147 166 0
147 166 0
142 162 0
145 165 0
145 164 0
144 165 0
155 175 0
144 165 0
148 167 0
151 171 0
143 164 0
149 170 0
149 169 0
156 177 0
152 172 0
143 164 0
140 160 0
159 180 0
144 163 0
152 173 0
150 171 0
154 177 0
150 170 0
150 171 0
150 170 0
151 172 0
152 174 0
151 171 0
145 165 0
149 172 0
159 181 0
157 176 0
157 178 0
156 176 0
159 178 0
154 174 0
161 182 0
157 177 0
157 176 0
150 170 0
159 181 0
157 178 0
152 175 0
154 175 0
155 176 0
157 177 0
157 178 0
156 177 0
158 178 0
158 180 0
155 176 0
158 178 0
159 180 0
159 179 0
155 177 0
162 184 0
157 176 0
159 179 0
156 176 0
160 180 0
157 178 0
160 182 0
158 180 0
162 185 0
154 174 0
158 178 0
163 182 0
155 174 0
166 186 0
164 184 0
156 176 0
161 182 0
161 182 0
158 180 0
160 182 0
163 183 0
160 183 0
163 184 0
163 184 0
159 180 0
162 183 0
155 176 0
160 182 0
160 181 0
166 186 0
156 177 0
160 181 0
162 183 0
167 188 0
167 188 0
153 173 0
160 181 0
159 178 0
163 183 0
163 184 0
164 186 0
164 185 0
162 183 0
166 189 0
166 187 0
160 180 0
166 187 0
162 182 0
163 186 0
170 191 0
165 187 0
161 181 0
165 188 0
164 186 0
164 185 0
157 179 0
164 185 0
166 187 0
162 184 0
166 188 0
162 183 0
169 192 0
163 184 0
170 192 0
163 185 0
161 183 0
169 191 0
160 182 0
164 185 0
164 186 0
164 184 0
168 190 0
169 190 0
166 188 0
162 184 0
167 189 0
167 190 0
165 187 0
167 188 0
167 188 0
168 191 0
167 188 0
162 183 0
166 188 0
165 186 0
169 191 0
165 186 0
175 198 99
176 199 108
175 197 99
174 197 111
175 198 80
172 195 105
174 198 108
173 196 111
172 195 111
173 196 105
171 195 102
173 197 95
174 197 108
169 192 92
175 197 102
168 192 88
168 192 84
170 193 84
171 194 88
172 196 108
166 190 88
170 192 88
165 189 84
174 197 80
169 193 92
166 190 72
173 197 95
170 193 102
168 193 105
167 190 72
167 190 95
171 194 102
166 189 67
165 189 95
171 194 95
165 189 88
168 191 117
167 190 99
168 192 99
166 190 99
163 186 92
168 191 84
168 191 102
163 186 95
173 196 111
167 191 105
169 192 99
167 190 88
162 185 88
164 187 105
167 191 95
167 190 99
164 188 99
166 189 99
166 189 92
162 185 99
160 182 92
171 193 92
161 183 102
165 188 122
165 188 80
162 185 95
167 190 102
163 186 114
167 189 111
161 184 99
167 191 114
154 176 84
163 185 88
165 188 102
160 183 88
151 174 108
167 190 105
170 192 92
164 186 95
166 188 114
160 182 102
147 168 102
165 187 111
152 174 62
161 183 92
162 184 99
156 178 80
160 182 99
164 185 111
160 182 95
153 174 108
157 178 88
163 184 95
154 175 95
155 176 102
154 176 95
159 180 88
153 173 108
150 170 76
153 173 105
156 177 92
151 170 95
160 180 117
153 173 92
146 166 76
151 170 117
162 181 111
141 161 80
155 175 108
155 173 102
152 172 72
147 165 95
136 155 67
149 167 102
152 170 105
147 165 95
138 157 57
141 161 62
148 167 84
141 160 80
142 162 72
144 164 72
133 152 57
143 163 51
137 155 67
140 158 76
143 162 62
134 153 36
119 139 0
127 148 36
128 147 25
137 157 25
139 158 25
127 147 0
135 153 0
138 158 25
152 172 25
160 183 0
159 181 0
159 179 0
152 171 0
153 172 0
148 169 0
145 167 0
147 167 0
145 164 0
130 150 0
127 145 0
132 151 0
116 134 0
139 157 0
119 138 0
128 148 0
125 144 0
121 141 0
128 148 0
130 149 0
134 154 0
123 142 0
118 136 0
127 146 0
117 138 0
119 138 0
118 137 0
123 142 0
114 132 0
116 134 0
113 131 0
122 141 0
125 143 0
121 139 0
114 133 0
126 144 0
124 143 0
108 126 0
127 147 0
113 130 0
112 130 0
124 141 0
113 132 0
120 139 0
112 130 0
125 143 0
109 127 0
114 132 0
113 131 0
118 137 0
120 138 0
125 143 0
125 143 0
116 134 0
128 147 0
119 139 0
121 138 0
116 135 0
123 141 0
136 155 0
122 141 0
120 138 0
131 149 0
130 149 0
111 130 0
115 135 0
127 146 0
140 159 0
128 147 0
119 137 0
121 139 0
132 151 0
133 153 0
136 155 0
115 134 0
134 153 0
119 139 0
140 159 0
123 143 0
126 144 0
129 148 0
125 144 0
132 151 0
121 140 0
123 143 0
130 148 0
119 138 0
124 142 0
137 158 0
121 139 0
126 145 0
129 149 0
133 153 0
124 143 0
140 159 0
136 156 0
126 145 0
127 147 0
130 150 0
136 157 0
128 148 0
135 156 0
137 157 0
133 153 0
137 158 0
132 151 0
136 156 0
143 163 0
131 151 0
133 152 0
147 168 0
134 154 0
140 160 0
137 158 0
142 163 0
142 163 0
142 162 0
139 160 0
136 157 0
153 173 0
153 174 0
145 166 0
147 168 0
148 169 0
145 166 0
146 167 0
148 168 0
145 165 0
150 171 0
154 174 0
146 166 0
151 171 0
152 175 0
148 168 0
137 154 0
148 168 0
151 171 0
148 168 0
148 168 0
155 176 0
148 167 0
142 163 0
156 177 0
146 165 0
149 169 0
153 173 0
148 170 0
150 170 0
150 170 0
155 175 0
150 172 0
153 174 0
149 171 0
150 171 0
149 169 0
153 173 0
152 173 0
161 181 0
159 180 0
149 168 0
152 171 0
153 173 0
154 176 0
149 170 0
160 181 0
148 169 0
153 174 0
152 172 0
154 173 0
149 168 0
157 178 0
157 177 0
152 172 0
148 168 0
158 179 0
153 173 0
166 186 0
152 172 0
159 179 0
158 181 0
158 179 0
157 179 0
161 183 0
159 180 0
157 178 0
156 177 0
157 179 0
163 182 0
156 178 0
159 181 0
158 181 0
162 184 0
163 185 0
163 184 0
164 185 0
163 184 0
158 180 0
162 183 0
164 184 0
162 183 0
160 182 0
158 178 0
157 179 0
164 186 0
161 182 0
163 181 0
161 182 0
167 188 0
157 177 0
160 180 0
164 186 0
160 180 0
162 184 0
161 182 0
162 184 0
162 182 0
165 185 0
166 188 0
164 184 0
161 184 0
163 183 0
164 185 0
163 182 0
165 186 0
166 187 0
164 186 0
163 185 0
166 186 0
168 189 0
165 186 0
163 184 0
164 184 0
167 189 0
164 185 0
167 188 0
167 188 0
164 187 0
166 187 0
162 183 0
167 189 0
166 188 0
159 178 0
166 187 0
169 189 0
167 188 0
163 185 0
165 186 0
166 188 0
169 191 0
171 194 0
166 187 0
165 186 0
165 188 0
161 183 0
167 188 0
167 188 0
163 184 0
164 184 0
168 189 0
164 186 0
166 188 0
165 187 0
168 190 0
166 188 0
171 191 0
164 186 0
165 186 0
172 196 88
172 195 76
171 194 92
175 198 99
167 189 105
175 198 95
175 197 117
177 199 99
171 194 105
173 197 105
174 198 111
173 196 95
170 193 88
166 189 84
175 198 99
173 197 117
171 194 92
166 190 99
169 192 99
171 195 108
169 192 76
171 195 102
167 190 105
169 193 88
165 189 62
167 190 105
166 189 92
164 188 84
172 195 114
172 195 92
172 196 108
166 189 92
167 190 122
165 188 88
173 197 108
167 190 111
162 185 111
170 193 102
163 186 114
165 188 108
166 189 72
172 195 114
171 195 99
168 191 95
167 191 95
160 183 88
159 182 80
170 194 102
163 186 80
172 196 111
175 198 111
163 186 80
162 185 102
162 185 95
167 191 99
160 183 99
159 181 92
161 183 88
164 187 99
156 179 76
167 190 95
163 186 105
161 184 92
160 182 88
159 182 105
163 185 92
169 191 108
160 182 95
162 185 95
159 181 95
171 193 95
162 184 76
162 184 99
160 183 95
145 167 80
160 183 99
164 187 95
159 182 108
154 175 76
160 182 95
164 185 80
155 175 114
158 180 92
161 182 95
157 177 102
153 175 84
157 178 88
161 182 114
152 174 88
158 179 84
148 169 80
163 185 111
157 177 102
157 178 99
153 174 102
153 174 76
155 174 120
156 177 88
151 171 99
151 171 99
150 169 92
148 167 95
155 175 99
146 165 84
151 171 102
143 162 95
146 166 92
144 163 95
148 167 99
151 169 108
149 168 102
142 160 88
146 165 72
138 157 67
144 164 67
146 166 62
134 154 44
139 159 57
144 163 67
139 158 62
132 151 67
139 158 72
145 164 67
135 155 0
135 155 44
132 152 0
128 148 36
139 159 36
136 157 36
134 154 25
141 162 0
148 168 51
152 174 0
155 176 0
161 185 0
153 174 0
156 177 0
149 171 0
154 175 0
144 165 0
146 166 0
137 157 0
128 147 0
134 155 0
126 145 0
130 149 0
134 153 0
126 145 0
135 155 0
128 148 0
125 144 0
125 145 0
127 147 0
126 146 0
132 151 0
125 144 0
121 141 0
124 144 0
116 133 0
122 142 0
129 148 0
126 146 0
122 142 0
128 145 0
113 132 0
125 144 0
123 141 0
112 130 0
117 136 0
114 133 0
127 144 0
120 138 0
128 147 0
128 149 0
118 136 0
131 150 0
122 140 0
118 138 0
116 135 0
118 138 0
126 146 0
117 136 0
110 128 0
119 138 0
116 137 0
131 150 0
124 143 0
120 139 0
132 152 0
117 136 0
112 131 0
118 139 0
129 148 0
127 146 0
124 145 0
126 146 0
108 126 0
121 140 0
119 139 0
120 138 0
117 135 0
122 142 0
134 154 0
130 149 0
127 147 0
119 138 0
123 142 0
126 145 0
125 143 0
129 150 0
128 147 0
126 144 0
135 154 0
124 145 0
122 141 0
129 149 0
144 164 0
132 152 0
137 157 0
117 136 0
133 154 0
140 160 0
127 147 0
139 159 0
122 141 0
133 153 0
132 153 0
128 147 0
138 158 0
131 151 0
142 163 0
136 157 0
141 161 0
124 144 0
139 159 0
135 154 0
143 163 0
136 155 0
137 157 0
136 156 0
130 151 0
139 157 0
144 164 0
140 160 0
144 166 0
145 164 0
154 173 0
148 167 0
140 160 0
142 162 0
135 154 0
153 175 0
141 161 0
143 164 0
141 162 0
144 165 0
143 164 0
144 165 0
144 164 0
142 160 0
145 166 0
149 169 0
145 165 0
146 167 0
147 168 0
146 168 0
145 165 0
150 171 0
152 173 0
148 168 0
152 174 0
139 159 0
146 167 0
147 167 0
156 177 0
150 171 0
152 173 0
145 166 0
157 177 0
151 173 0
155 175 0
155 175 0
155 175 0
147 167 0
150 172 0
160 181 0
150 173 0
157 178 0
149 169 0
153 173 0
150 170 0
153 173 0
154 175 0
148 169 0
156 177 0
157 178 0
159 180 0
157 178 0
158 179 0
151 173 0
147 167 0
148 170 0
160 181 0
157 178 0
155 177 0
157 178 0
156 177 0
159 179 0
158 180 0
159 179 0
156 177 0
157 178 0
159 181 0
154 174 0
155 175 0
154 175 0
156 176 0
158 179 0
163 184 0
158 179 0
161 184 0
156 177 0
158 180 0
163 184 0
157 177 0
155 175 0
158 179 0
160 182 0
155 175 0
162 182 0
162 182 0
158 177 0
163 183 0
167 188 0
155 174 0
161 183 0
162 183 0
163 185 0
163 182 0
163 184 0
166 187 0
162 183 0
159 180 0
164 183 0
164 184 0
164 184 0
154 174 0
157 178 0
167 189 0
162 184 0
163 184 0
161 181 0
164 185 0
162 184 0
161 181 0
164 186 0
164 186 0
160 180 0
162 185 0
165 186 0
161 180 0
163 184 0
165 186 0
166 188 0
167 190 0
166 188 0
166 187 0
164 185 0
163 184 0
161 184 0
163 184 0
165 185 0
172 193 0
169 190 0
158 180 0
162 182 0
164 187 0
166 187 0
168 189 0
164 186 0
165 187 0
166 189 0
168 191 0
167 188 0
164 185 0
161 180 0
167 191 0
163 184 0
167 186 0
165 186 0
162 184 0
168 191 0
169 190 0
168 191 0
168 190 0
165 186 0
168 190 0
162 182 0
163 186 0
169 190 0
176 199 102
168 191 80
171 194 92
172 195 88
170 193 92
171 193 95
171 194 88
168 191 102
169 192 108
171 195 92
172 195 105
174 197 102
172 196 95
173 196 99
175 198 111
171 195 120
171 194 102
171 194 105
169 192 92
172 195 99
171 195 92
170 193 111
168 191 76
172 195 95
171 194 95
168 191 80
168 191 88
164 187 92
167 189 95
170 193 122
171 194 99
169 192 102
169 193 99
165 189 84
166 189 102
169 192 99
174 197 88
161 184 92
169 192 102
161 184 67
171 193 92
165 188 88
165 189 95
165 188 72
167 191 102
159 182 105
161 184 80
168 192 108
171 195 102
164 187 111
168 190 92
163 187 95
161 184 105
164 186 92
169 192 92
163 185 99
159 180 111
163 185 84
162 185 95
160 183 99
158 181 62
164 187 88
168 191 111
162 185 102
156 179 108
162 184 102
159 182 99
166 189 108
162 184 108
161 184 105
155 176 84
157 179 108
156 178 76
159 181 88
158 181 76
163 185 95
155 177 80
157 178 92
162 184 102
159 181 99
149 171 88
159 180 102
163 185 99
158 179 99
151 171 95
159 181 102
162 184 108
150 171 92
159 180 108
151 172 102
159 180 84
149 170 92
152 172 95
157 178 76
160 180 122
152 172 88
154 174 105
156 176 84
152 172 67
155 174 108
149 169 84
158 177 111
159 179 108
155 174 108
161 180 95
153 172 102
155 174 105
156 175 105
158 177 105
152 171 105
144 163 76
154 174 92
134 154 57
131 150 67
139 159 57
132 151 44
129 149 57
142 162 57
147 167 57
135 155 51
139 158 36
126 146 36
128 146 25
139 159 25
130 149 25
136 155 25
135 155 36
132 152 0
127 147 25
144 164 25
146 166 25
145 165 0
152 173 0
161 183 0
154 176 0
152 172 0
154 176 0
150 171 0
138 158 0
146 167 0
144 164 0
140 161 0
135 154 0
140 158 0
144 165 0
135 155 0
135 154 0
125 144 0
122 141 0
128 149 0
128 148 0
127 146 0
130 148 0
126 144 0
120 139 0
130 150 0
130 150 0
131 150 0
127 146 0
122 141 0
124 142 0
137 156 0
128 148 0
131 151 0
123 142 0
120 139 0
127 146 0
133 153 0
123 141 0
123 142 0
123 141 0
116 135 0
123 142 0
120 139 0
123 143 0
120 137 0
133 151 0
120 138 0
122 140 0
125 143 0
111 130 0
128 148 0
122 142 0
120 139 0
123 141 0
117 136 0
126 145 0
127 147 0
127 147 0
124 143 0
127 146 0
133 153 0
122 141 0
124 144 0
120 140 0
125 144 0
135 153 0
127 146 0
122 140 0
122 141 0
123 142 0
121 140 0
129 148 0
133 152 0
132 152 0
123 142 0
125 144 0
129 148 0
120 139 0
128 147 0
133 151 0
119 140 0
120 140 0
124 144 0
130 149 0
129 149 0
132 152 0
134 153 0
133 153 0
143 164 0
129 148 0
134 155 0
140 161 0
141 162 0
126 145 0
140 161 0
135 155 0
137 158 0
141 160 0
131 152 0
135 154 0
135 155 0
140 161 0
139 159 0
128 149 0
144 165 0
136 155 0
149 168 0
137 157 0
141 161 0
139 159 0
138 157 0
136 157 0
143 163 0
138 158 0
145 166 0
139 160 0
145 167 0
143 165 0
145 165 0
134 154 0
143 163 0
135 157 0
144 165 0
149 171 0
142 162 0
148 167 0
145 164 0
150 172 0
140 158 0
145 165 0
144 163 0
148 167 0
154 176 0
150 171 0
147 167 0
150 170 0
153 171 0
148 170 0
151 172 0
150 169 0
153 174 0
146 166 0
155 175 0
154 175 0
149 170 0
151 172 0
159 180 0
156 177 0
151 172 0
156 177 0
154 173 0
152 174 0
152 173 0
150 170 0
153 174 0
154 177 0
147 169 0
154 175 0
153 174 0
151 171 0
150 169 0
155 176 0
153 173 0
160 181 0
158 177 0
158 178 0
155 177 0
156 176 0
154 175 0
152 173 0
157 178 0
161 183 0
157 177 0
149 169 0
158 177 0
153 176 0
159 180 0
155 175 0
160 181 0
155 177 0
156 178 0
160 181 0
160 180 0
156 178 0
154 174 0
159 181 0
154 176 0
162 183 0
158 181 0
165 187 0
161 182 0
155 177 0
153 175 0
160 180 0
165 186 0
160 183 0
164 185 0
160 180 0
160 183 0
157 178 0
160 181 0
156 178 0
156 177 0
163 186 0
164 184 0
162 183 0
166 188 0
159 181 0
164 186 0
166 187 0
164 186 0
165 187 0
160 182 0
166 187 0
159 182 0
159 179 0
164 184 0
161 182 0
159 178 0
162 184 0
168 188 0
156 178 0
161 183 0
166 188 0
163 185 0
165 186 0
166 187 0
165 185 0
165 186 0
164 185 0
163 186 0
165 186 0
165 187 0
161 183 0
163 185 0
161 183 0
162 184 0
165 186 0
167 191 0
163 185 0
164 185 0
170 191 0
163 185 0
162 182 0
165 186 0
162 183 0
165 186 0
170 191 0
163 183 0
165 188 0
164 186 0
164 185 0
163 183 0
166 186 0
164 185 0
166 188 0
171 193 0
166 187 0
166 188 0
166 188 0
166 187 0
163 185 0
165 187 0
170 192 0
165 188 0
168 190 0
169 191 0
171 191 0
167 189 0
172 195 95
172 195 88
178 201 114
173 195 95
173 196 108
170 194 92
171 193 88
175 197 80
170 193 84
172 195 84
170 194 122
175 198 95
174 197 102
170 194 80
172 195 105
168 191 84
171 195 102
170 194 95
173 195 92
169 192 92
169 192 102
171 194 80
169 192 99
169 192 111
170 193 80
170 194 88
170 193 72
172 195 108
168 192 105
169 193 102
169 193 92
171 194 108
170 194 92
171 193 80
167 190 84
170 194 95
166 190 92
166 189 84
165 187 88
166 189 105
165 189 80
163 185 76
166 189 95
166 189 111
168 191 76
163 186 95
165 188 102
162 184 99
171 195 114
160 183 102
163 186 105
165 188 95
162 184 84
164 187 95
164 187 99
163 187 92
161 185 111
165 188 95
168 191 102
166 188 95
164 186 95
159 183 88
160 183 99
166 189 102
160 182 99
152 175 72
160 182 105
159 181 76
164 186 84
156 178 92
165 187 92
157 179 92
156 177 92
163 185 76
157 179 99
151 173 76
149 171 67
162 184 92
161 182 80
160 181 114
162 184 99
153 174 88
153 174 80
157 178 108
152 174 72
155 177 84
161 182 117
157 177 99
155 175 95
155 176 88
158 179 114
149 170 102
156 177 92
160 181 108
155 176 84
150 171 95
157 177 102
163 184 99
162 182 99
151 171 99
153 172 108
155 175 95
159 179 108
160 180 99
152 172 92
147 167 105
158 177 120
140 159 92
144 163 99
150 168 99
157 176 105
152 172 62
155 174 84
145 164 72
148 167 76
148 168 72
142 162 51
149 170 36
144 163 67
126 146 25
147 168 44
131 150 44
132 152 25
144 164 36
140 160 0
128 149 36
141 161 44
134 154 44
141 160 25
139 160 36
137 157 25
137 157 0
146 166 0
154 176 0
161 183 0
149 170 0
150 171 0
151 173 0
144 164 0
143 163 0
145 167 0
149 171 0
139 161 0
140 160 0
138 158 0
130 149 0
129 147 0
137 158 0
133 153 0
125 146 0
137 157 0
121 140 0
137 158 0
129 148 0
129 148 0
128 148 0
121 140 0
121 141 0
124 144 0
123 141 0
118 137 0
117 136 0
116 135 0
119 139 0
129 148 0
114 134 0
125 143 0
115 134 0
131 151 0
127 145 0
119 138 0
122 141 0
127 146 0
129 148 0
130 149 0
118 137 0
116 135 0
128 147 0
128 147 0
128 145 0
131 149 0
120 139 0
124 144 0
120 139 0
118 138 0
128 148 0
125 145 0
122 141 0
128 147 0
125 143 0
126 146 0
121 141 0
139 159 0
122 141 0
118 138 0
114 134 0
130 149 0
119 139 0
128 148 0
135 156 0
121 141 0
132 152 0
131 151 0
141 161 0
132 151 0
127 148 0
124 144 0
125 144 0
126 144 0
140 159 0
135 155 0
137 157 0
129 149 0
135 155 0
138 157 0
132 150 0
137 157 0
137 157 0
137 155 0
138 157 0
136 156 0
134 154 0
124 144 0
141 162 0
138 158 0
131 151 0
132 152 0
133 153 0
138 158 0
144 164 0
132 152 0
136 156 0
134 155 0
129 148 0
127 146 0
139 159 0
139 159 0
135 156 0
148 168 0
137 157 0
148 169 0
138 158 0
136 157 0
147 169 0
140 162 0
145 166 0
146 168 0
133 153 0
142 164 0
142 164 0
140 160 0
143 165 0
148 169 0
140 159 0
145 165 0
148 169 0
151 172 0
152 172 0
146 166 0
154 175 0
148 167 0
142 162 0
152 173 0
151 173 0
151 172 0
148 169 0
143 163 0
150 171 0
151 172 0
145 167 0
147 168 0
147 169 0
153 172 0
139 161 0
152 173 0
148 169 0
151 173 0
152 173 0
151 171 0
151 172 0
157 178 0
149 168 0
147 166 0
159 179 0
151 173 0
159 181 0
153 176 0
153 173 0
154 175 0
153 173 0
153 174 0
150 168 0
155 177 0
153 175 0
151 172 0
152 174 0
150 171 0
158 179 0
160 181 0
160 181 0
148 170 0
153 176 0
156 177 0
155 176 0
154 175 0
151 171 0
157 177 0
160 182 0
156 176 0
155 177 0
162 184 0
159 180 0
156 176 0
161 182 0
152 173 0
155 175 0
162 183 0
156 177 0
156 177 0
156 178 0
159 180 0
161 183 0
158 180 0
162 184 0
166 187 0
156 178 0
163 186 0
158 178 0
162 183 0
159 180 0
161 183 0
164 185 0
166 186 0
161 181 0
161 180 0
164 185 0
161 182 0
161 183 0
160 182 0
166 186 0
164 185 0
159 180 0
168 190 0
162 183 0
156 178 0
166 187 0
160 181 0
166 187 0
164 186 0
168 190 0
163 185 0
165 188 0
164 186 0
164 186 0
163 184 0
167 190 0
161 182 0
160 180 0
162 183 0
164 186 0
157 176 0
163 184 0
163 185 0
167 188 0
167 189 0
169 190 0
163 185 0
161 182 0
167 189 0
164 184 0
166 187 0
161 181 0
167 188 0
167 190 0
166 188 0
166 187 0
167 189 0
162 184 0
168 189 0
166 187 0
164 185 0
165 187 0
165 186 0
170 193 0
165 187 0
167 188 0
164 186 0
168 191 0
167 190 0
167 189 0
160 181 0
168 190 0
168 190 0
163 184 0
164 187 0
165 187 0
167 188 0
169 190 0
169 193 0
166 189 0
176 199 95
175 197 105
170 192 92
170 194 80
171 195 105
176 199 120
171 194 84
174 197 105
174 198 102
173 196 114
174 197 122
171 194 92
174 197 99
177 200 125
166 189 95
172 195 92
173 195 80
175 199 105
169 192 95
164 187 84
171 194 105
173 196 99
170 193 92
171 194 76
169 193 84
169 191 102
166 190 114
168 191 84
168 192 92
162 186 95
169 192 102
167 190 84
171 194 102
168 191 80
167 190 99
170 194 95
169 192 88
170 194 88
168 191 92
169 192 105
162 185 99
170 193 108
164 188 84
167 191 108
168 192 84
160 183 80
166 189 114
162 185 95
164 187 92
165 188 102
162 185 92
168 191 105
163 186 105
166 189 88
166 189 117
163 186 88
165 188 105
168 191 108
166 189 108
163 186 95
162 184 105
161 184 102
164 186 117
166 188 95
157 179 95
162 185 92
161 183 99
160 182 102
154 176 88
160 181 102
153 175 88
163 185 108
166 188 95
160 182 80
157 179 102
163 185 105
158 181 99
159 182 84
167 189 117
159 180 92
157 179 105
157 178 111
156 178 114
166 188 105
158 180 102
157 178 95
153 175 99
163 184 76
159 181 102
167 188 117
148 168 84
158 179 102
153 174 102
157 178 88
153 174 95
152 172 95
161 181 105
155 176 105
153 174 92
159 179 108
147 168 88
161 181 99
163 183 133
148 168 92
149 169 95
153 172 111
149 168 99
155 174 105
157 177 88
146 165 95
158 176 120
142 163 51
147 167 72
149 168 88
149 169 51
144 165 67
140 161 51
142 162 57
132 152 36
142 162 57
148 169 51
139 159 25
145 166 36
140 160 25
137 157 25
144 164 36
131 153 25
138 158 0
146 167 0
140 161 25
148 169 0
148 168 0
156 178 0
155 176 0
159 180 0
154 174 0
149 170 0
151 173 0
145 165 0
144 166 0
138 159 0
135 155 0
142 163 0
136 158 0
118 138 0
125 145 0
138 157 0
132 150 0
127 146 0
134 154 0
125 145 0
138 158 0
128 148 0
129 150 0
131 151 0
116 135 0
117 137 0
131 151 0
128 148 0
121 140 0
131 151 0
123 142 0
126 145 0
132 152 0
129 149 0
114 133 0
122 141 0
132 151 0
129 148 0
125 144 0
121 139 0
130 150 0
115 135 0
132 152 0
128 148 0
117 136 0
119 138 0
128 147 0
134 153 0
128 147 0
127 145 0
126 146 0
120 140 0
127 146 0
133 153 0
124 142 0
122 140 0
134 154 0
137 157 0
126 145 0
127 148 0
121 140 0
125 145 0
125 146 0
123 142 0
130 149 0
118 137 0
121 141 0
121 140 0
136 156 0
131 151 0
127 146 0
131 150 0
132 150 0
130 150 0
133 153 0
131 151 0
138 158 0
132 152 0
121 139 0
138 157 0
134 152 0
131 151 0
135 154 0
132 152 0
127 148 0
135 155 0
131 149 0
141 162 0
138 159 0
132 152 0
139 159 0
131 151 0
129 150 0
134 154 0
138 158 0
142 163 0
129 147 0
131 151 0
134 154 0
143 162 0
143 164 0
144 165 0
139 159 0
128 149 0
136 157 0
134 154 0
141 160 0
142 162 0
139 160 0
149 170 0
138 158 0
146 165 0
146 167 0
145 165 0
141 161 0
137 158 0
156 178 0
137 155 0
143 162 0
151 173 0
149 169 0
141 162 0
141 162 0
154 175 0
145 167 0
146 167 0
146 168 0
144 165 0
149 169 0
144 165 0
148 168 0
152 173 0
144 166 0
154 176 0
150 170 0
150 171 0
150 170 0
144 165 0
150 172 0
152 173 0
151 172 0
155 175 0
151 172 0
154 174 0
150 170 0
149 171 0
152 171 0
147 170 0
160 182 0
152 174 0
151 172 0
153 174 0
146 167 0
156 177 0
147 168 0
154 175 0
158 178 0
158 178 0
153 174 0
152 172 0
161 182 0
149 170 0
153 175 0
150 170 0
151 173 0
156 178 0
156 175 0
163 184 0
156 177 0
156 176 0
154 175 0
156 176 0
162 183 0
156 176 0
154 175 0
151 173 0
155 175 0
153 175 0
163 185 0
156 177 0
155 176 0
159 180 0
161 182 0
163 185 0
158 180 0
159 182 0
165 185 0
158 179 0
158 179 0
160 182 0
162 184 0
165 185 0
156 177 0
153 175 0
157 179 0
159 179 0
164 187 0
157 179 0
160 181 0
163 184 0
164 185 0
161 182 0
158 179 0
163 183 0
163 183 0
169 191 0
161 181 0
158 179 0
163 184 0
162 182 0
161 183 0
163 185 0
164 186 0
163 186 0
164 185 0
166 188 0
164 186 0
158 179 0
162 184 0
170 190 0
164 185 0
165 186 0
164 185 0
165 186 0
162 183 0
163 185 0
164 187 0
164 185 0
168 189 0
164 186 0
164 185 0
165 186 0
166 188 0
164 186 0
163 184 0
168 188 0
165 187 0
161 183 0
167 188 0
169 191 0
169 190 0
168 191 0
166 186 0
162 184 0
165 187 0
164 186 0
164 186 0
167 189 0
167 188 0
166 187 0
167 189 0
163 185 0
170 192 0
164 186 0
166 187 0
164 186 0
166 188 0
169 190 0
167 187 0
166 188 0
165 185 0
168 190 0
167 186 0
166 188 0
169 191 0
167 189 0
167 190 0
167 189 0
168 191 0
176 199 102
172 195 80
172 195 80
177 200 102
172 195 62
175 199 99
167 191 88
173 195 102
176 199 108
174 197 99
173 196 102
164 186 92
171 194 102
178 200 111
171 195 99
174 197 108
168 191 105
170 193 111
169 192 95
168 192 102
169 193 102
164 186 84
174 198 105
170 193 99
162 186 80
170 193 88
169 193 92
166 190 99
169 192 95
165 189 111
169 192 102
173 197 105
171 194 95
163 186 102
162 185 108
162 186 84
168 190 102
170 194 76
161 185 92
167 189 108
165 188 67
168 192 88
162 186 95
165 188 105
170 193 84
166 189 92
167 191 99
161 183 95
164 187 102
165 188 99
162 185 95
165 187 80
160 183 80
163 187 92
154 177 88
160 183 105
166 189 95
166 189 95
163 186 95
159 182 102
165 188 102
161 184 76
163 185 88
164 186 84
162 185 92
167 189 111
162 184 95
163 185 99
166 188 92
168 190 114
166 189 114
159 181 76
151 172 95
160 181 80
154 176 76
158 181 92
166 187 95
163 185 114
163 185 102
159 182 114
162 183 92
154 175 114
162 183 108
156 177 102
156 177 88
155 177 92
157 178 95
163 184 99
157 179 99
158 179 84
161 183 108
159 180 95
155 176 92
154 175 99
156 177 99
152 173 84
162 182 117
157 178 95
154 174 95
151 171 92
162 182 99
159 179 111
159 178 108
139 158 76
152 172 80
149 168 80
154 174 95
146 166 84
157 177 114
147 167 84
153 171 92
158 179 76
148 169 84
152 173 67
154 175 80
140 160 67
147 167 62
144 164 25
130 151 36
142 162 51
144 165 44
139 160 25
139 159 25
139 160 0
144 164 44
141 162 36
141 162 25
141 161 0
144 165 36
139 160 51
150 171 25
142 163 0
161 183 0
154 175 0
156 178 0
157 179 0
153 174 0
155 177 0
143 164 0
159 179 0
148 168 0
138 158 0
141 162 0
136 156 0
147 166 0
134 155 0
135 155 0
135 155 0
140 160 0
134 155 0
130 151 0
135 154 0
138 159 0
125 144 0
120 140 0
132 152 0
126 147 0
137 157 0
130 150 0
125 145 0
127 147 0
134 154 0
125 145 0
125 143 0
121 140 0
124 144 0
109 129 0
139 159 0
131 150 0
120 139 0
121 139 0
129 149 0
119 139 0
130 148 0
124 142 0
114 133 0
126 146 0
117 136 0
119 138 0
126 147 0
129 148 0
137 156 0
119 139 0
132 151 0
118 136 0
124 142 0
130 149 0
125 145 0
118 139 0
133 152 0
134 154 0
122 142 0
129 148 0
137 157 0
127 147 0
128 148 0
127 147 0
120 139 0
123 141 0
137 156 0
129 149 0
127 145 0
135 156 0
135 155 0
135 154 0
135 155 0
127 147 0
135 154 0
128 149 0
128 148 0
127 144 0
127 145 0
135 156 0
129 148 0
135 156 0
134 155 0
139 160 0
131 152 0
127 147 0
138 158 0
128 147 0
135 154 0
138 158 0
124 143 0
140 159 0
129 151 0
135 155 0
137 157 0
142 162 0
141 161 0
134 156 0
123 144 0
136 158 0
141 160 0
136 156 0
134 152 0
138 159 0
148 168 0
132 154 0
152 174 0
142 162 0
141 161 0
140 161 0
138 158 0
143 163 0
150 169 0
141 164 0
151 172 0
137 158 0
139 160 0
144 164 0
141 162 0
144 165 0
139 159 0
144 164 0
143 163 0
146 166 0
149 171 0
155 177 0
146 167 0
143 162 0
149 169 0
146 166 0
147 169 0
146 166 0
150 170 0
155 176 0
138 160 0
152 174 0
143 163 0
143 164 0
156 177 0
149 169 0
155 177 0
154 175 0
153 174 0
154 175 0
153 175 0
155 177 0
152 174 0
160 182 0
156 176 0
151 172 0
154 175 0
155 176 0
153 175 0
153 173 0
159 181 0
156 178 0
154 176 0
150 171 0
160 182 0
154 174 0
155 176 0
156 176 0
162 183 0
164 185 0
152 174 0
154 175 0
161 182 0
161 183 0
157 178 0
152 173 0
164 187 0
158 179 0
159 181 0
160 181 0
152 174 0
164 186 0
157 179 0
159 182 0
154 175 0
163 184 0
162 184 0
163 185 0
162 183 0
162 183 0
157 178 0
153 174 0
156 179 0
158 178 0
164 186 0
158 179 0
160 182 0
159 179 0
157 178 0
159 180 0
162 183 0
164 186 0
161 183 0
163 184 0
160 181 0
163 186 0
159 180 0
164 186 0
160 182 0
163 184 0
165 186 0
165 187 0
165 187 0
155 176 0
161 182 0
161 183 0
164 186 0
167 189 0
166 187 0
164 187 0
167 188 0
164 185 0
161 183 0
163 185 0
163 184 0
165 186 0
167 190 0
163 184 0
166 186 0
165 188 0
167 189 0
166 186 0
162 183 0
165 186 0
163 181 0
162 184 0
164 185 0
159 179 0
166 187 0
166 187 0
168 188 0
162 183 0
168 189 0
164 184 0
164 185 0
163 185 0
165 187 0
164 187 0
169 191 0
167 188 0
166 188 0
166 187 0
169 191 0
167 189 0
167 189 0
159 180 0
169 191 0
167 189 0
167 190 0
166 188 0
162 184 0
163 185 0
163 185 0
167 189 0
168 189 0
169 192 0
171 193 0
167 189 0
167 189 0
164 187 0
166 187 0
166 188 0
170 192 0
175 197 114
176 199 114
179 202 108
171 194 95
167 189 80
173 196 122
175 198 102
177 200 120
169 192 92
172 195 88
174 197 108
176 199 108
173 196 108
172 195 80
170 194 99
170 193 82
171 194 114
170 193 88
170 193 102
172 196 92
174 197 117
168 190 114
169 191 95
178 201 114
167 190 76
173 196 111
171 194 105
173 197 122
165 188 102
166 190 108
160 184 102
167 190 99
171 194 99
167 189 92
171 194 99
164 188 105
167 191 99
174 198 151
170 194 95
170 193 111
168 192 99
162 185 84
165 189 114
163 185 84
169 192 76
169 192 105
168 190 102
170 193 102
163 186 99
161 184 80
160 183 88
164 187 102
165 188 105
165 188 92
168 190 95
166 188 105
165 187 114
166 188 92
162 184 102
165 187 108
157 179 99
163 185 111
166 189 108
156 178 76
163 185 102
162 185 105
154 177 92
162 185 99
166 187 92
163 185 88
161 184 99
166 188 108
159 181 99
163 185 95
162 184 111
163 185 95
165 187 102
152 174 76
165 187 108
163 185 92
156 178 92
164 185 92
159 181 99
161 183 102
166 187 117
157 178 92
160 181 108
157 178 111
163 184 88
162 184 108
156 176 99
154 176 92
152 173 88
163 184 102
153 175 84
156 177 88
162 183 102
147 168 67
158 178 108
158 179 88
156 175 111
157 177 84
152 173 105
152 171 95
153 171 108
162 181 105
153 172 99
155 175 84
142 161 88
152 172 88
152 172 80
157 178 72
146 167 44
153 172 80
149 169 67
149 169 51
148 169 67
150 170 57
129 149 44
149 170 51
140 161 44
141 162 25
132 154 44
140 161 36
136 156 0
136 157 36
135 155 36
141 162 36
130 151 36
145 166 0
143 164 0
135 155 0
148 170 0
160 182 0
160 180 0
159 181 0
154 176 0
157 178 0
146 167 0
147 167 0
150 172 0
137 158 0
143 165 0
146 166 0
141 162 0
134 154 0
134 155 0
122 142 0
130 150 0
140 160 0
144 164 0
126 146 0
134 153 0
133 153 0
125 144 0
137 157 0
123 143 0
137 156 0
134 154 0
131 151 0
125 145 0
138 158 0
134 154 0
130 150 0
117 136 0
130 149 0
131 152 0
129 148 0
124 143 0
125 144 0
129 149 0
125 144 0
138 157 0
132 152 0
132 152 0
128 147 0
114 133 0
129 149 0
138 158 0
129 149 0
121 140 0
133 153 0
130 151 0
119 138 0
122 142 0
132 152 0
131 151 0
127 147 0
130 150 0
121 140 0
127 147 0
135 155 0
131 150 0
131 151 0
116 135 0
126 147 0
133 153 0
122 141 0
117 138 0
134 154 0
135 154 0
121 140 0
131 151 0
136 156 0
131 151 0
131 151 0
134 152 0
131 151 0
122 142 0
136 156 0
133 152 0
130 151 0
125 144 0
137 158 0
133 152 0
148 169 0
135 155 0
139 159 0
130 150 0
139 159 0
133 154 0
137 159 0
139 159 0
144 164 0
141 162 0
128 148 0
134 155 0
136 156 0
138 157 0
138 160 0
145 165 0
138 158 0
141 162 0
139 159 0
138 157 0
137 158 0
141 162 0
135 156 0
131 152 0
147 168 0
138 159 0
145 164 0
138 159 0
146 167 0
140 161 0
138 159 0
139 159 0
152 174 0
139 160 0
143 163 0
150 169 0
149 169 0
137 158 0
151 172 0
145 165 0
146 166 0
154 176 0
150 169 0
146 166 0
146 167 0
145 166 0
152 172 0
150 171 0
151 172 0
158 179 0
147 168 0
154 176 0
148 168 0
147 166 0
154 175 0
148 169 0
153 174 0
150 171 0
149 169 0
153 176 0
157 177 0
152 174 0
152 173 0
158 179 0
154 175 0
148 168 0
151 171 0
158 180 0
156 177 0
155 177 0
149 170 0
153 174 0
157 178 0
151 173 0
151 173 0
160 181 0
159 181 0
150 170 0
150 172 0
153 174 0
157 179 0
155 175 0
161 182 0
153 175 0
155 177 0
152 175 0
152 173 0
159 180 0
156 179 0
158 180 0
158 178 0
156 177 0
157 178 0
160 181 0
156 177 0
163 185 0
160 181 0
165 186 0
155 174 0
157 178 0
161 183 0
160 181 0
158 179 0
160 182 0
159 180 0
160 181 0
163 185 0
159 180 0
159 180 0
157 178 0
160 182 0
161 183 0
163 184 0
161 182 0
162 183 0
162 183 0
157 176 0
165 188 0
167 188 0
159 180 0
159 179 0
166 188 0
158 180 0
164 185 0
162 184 0
159 181 0
162 180 0
160 183 0
158 181 0
161 181 0
165 187 0
164 186 0
166 189 0
161 183 0
167 189 0
160 181 0
166 187 0
163 184 0
164 187 0
166 188 0
161 181 0
167 188 0
162 184 0
165 187 0
165 188 0
166 188 0
159 180 0
166 188 0
164 184 0
160 181 0
162 183 0
165 186 0
163 185 0
165 186 0
162 182 0
164 184 0
165 188 0
166 188 0
163 184 0
169 192 0
161 181 0
169 192 0
168 190 0
163 184 0
163 185 0
168 191 0
171 192 0
168 190 0
166 189 0
164 187 0
170 192 0
166 188 0
167 187 0
165 186 0
164 186 0
169 192 0
171 194 0
168 191 0
164 186 0
165 187 0
167 190 0
169 192 0
172 193 0
169 192 0
163 184 0
175 198 117
176 198 88
175 198 99
177 200 111
174 197 108
176 199 108
172 195 95
168 191 99
171 195 99
170 193 102
172 195 88
166 190 99
168 191 92
175 198 108
172 196 111
167 190 80
167 191 92
172 195 88
168 192 95
169 192 102
164 187 80
169 193 102
171 195 108
172 195 95
169 192 95
166 189 95
163 186 88
163 186 105
166 189 84
166 190 80
168 190 111
164 187 76
170 193 102
164 187 88
169 192 111
168 191 88
165 188 72
158 181 80
160 184 99
165 187 84
169 193 105
164 187 84
163 186 95
167 190 95
165 188 102
159 182 99
164 186 95
163 185 57
159 182 80
157 180 84
165 188 105
168 191 105
165 189 95
164 186 88
166 188 99
168 191 105
164 187 102
163 186 95
165 188 108
161 184 105
159 183 88
161 184 84
162 185 99
155 178 95
166 188 108
163 184 88
165 187 92
159 181 88
158 180 88
158 180 67
158 180 84
166 187 108
157 180 95
157 180 92
158 180 92
168 191 105
166 188 102
162 183 120
161 183 92
155 176 92
159 181 105
155 176 76
163 184 62
167 188 95
164 185 99
156 177 99
162 183 114
158 180 92
154 174 88
155 176 95
157 178 95
157 178 76
160 182 80
157 179 102
162 183 108
152 172 80
150 171 88
154 175 95
158 179 102
160 180 120
155 175 92
157 178 80
159 179 92
160 180 111
156 174 117
156 175 99
153 172 99
160 180 92
151 171 84
145 165 76
152 171 95
149 168 80
150 171 84
152 172 57
149 169 72
145 166 57
149 170 67
144 163 62
150 170 57
142 163 0
137 158 25
149 170 25
136 157 0
140 159 25
145 166 25
141 162 0
146 167 0
143 164 25
156 177 44
135 156 25
139 160 25
147 168 44
156 178 0
153 174 0
158 180 0
153 174 0
158 181 0
155 178 0
154 174 0
147 169 0
139 160 0
146 166 0
147 169 0
144 165 0
141 161 0
145 166 0
142 163 0
135 156 0
132 152 0
132 153 0
136 157 0
135 156 0
138 158 0
133 154 0
130 149 0
126 145 0
127 147 0
143 163 0
132 151 0
129 149 0
137 157 0
129 148 0
133 152 0
125 145 0
124 145 0
125 145 0
123 143 0
124 145 0
127 147 0
118 138 0
132 153 0
129 149 0
121 140 0
127 146 0
128 147 0
126 146 0
123 142 0
114 134 0
131 151 0
128 148 0
139 159 0
131 151 0
125 143 0
125 145 0
129 150 0
132 153 0
123 143 0
138 158 0
120 139 0
127 147 0
138 159 0
128 148 0
134 154 0
133 154 0
137 157 0
131 150 0
132 151 0
117 138 0
129 149 0
133 153 0
134 153 0
135 156 0
136 156 0
142 162 0
130 149 0
141 161 0
136 156 0
131 151 0
137 158 0
129 150 0
135 157 0
143 164 0
143 163 0
129 149 0
138 158 0
136 157 0
130 150 0
144 165 0
129 149 0
140 162 0
131 152 0
138 159 0
143 164 0
141 161 0
142 164 0
131 153 0
147 169 0
135 156 0
138 158 0
144 165 0
138 158 0
139 159 0
142 162 0
133 154 0
137 157 0
144 165 0
135 157 0
136 157 0
142 164 0
139 160 0
150 171 0
138 160 0
147 167 0
141 162 0
143 164 0
140 162 0
145 167 0
140 161 0
133 154 0
140 161 0
135 156 0
141 164 0
142 163 0
133 153 0
147 166 0
148 169 0
156 177 0
151 172 0
147 168 0
150 169 0
155 177 0
150 172 0
146 167 0
153 175 0
157 178 0
144 165 0
146 169 0
149 170 0
149 171 0
152 174 0
146 166 0
163 185 0
150 171 0
147 167 0
156 178 0
152 174 0
153 173 0
158 179 0
150 172 0
151 171 0
152 174 0
140 162 0
151 173 0
152 174 0
151 171 0
158 178 0
151 172 0
151 171 0
157 177 0
151 172 0
158 178 0
153 175 0
149 170 0
157 178 0
147 168 0
155 176 0
155 176 0
157 178 0
161 183 0
158 179 0
163 184 0
156 178 0
153 174 0
155 175 0
160 181 0
162 184 0
159 180 0
163 185 0
160 181 0
161 182 0
159 181 0
158 179 0
158 179 0
160 183 0
157 179 0
160 180 0
159 181 0
155 176 0
162 182 0
161 182 0
162 182 0
157 178 0
161 183 0
160 181 0
160 181 0
154 177 0
160 181 0
163 184 0
158 180 0
158 178 0
159 180 0
170 192 0
164 187 0
165 187 0
157 178 0
159 180 0
162 182 0
164 185 0
161 182 0
165 186 0
166 187 0
157 180 0
162 184 0
162 184 0
164 186 0
159 182 0
161 183 0
161 183 0
160 181 0
166 187 0
165 187 0
160 180 0
165 186 0
163 184 0
164 185 0
161 181 0
166 187 0
162 182 0
163 185 0
163 183 0
163 184 0
167 188 0
167 189 0
161 182 0
169 190 0
165 187 0
165 187 0
170 191 0
162 182 0
165 186 0
170 192 0
168 191 0
164 187 0
169 190 0
161 182 0
163 185 0
166 187 0
164 185 0
167 187 0
165 186 0
164 186 0
168 190 0
170 191 0
164 184 0
167 190 0
165 187 0
167 188 0
169 191 0
165 187 0
167 190 0
164 186 0
169 191 0
168 189 0
166 188 0
168 191 0
169 191 0
168 190 0
164 186 0
168 189 0
165 188 0
172 195 88
171 194 84
176 199 111
176 198 122
170 192 80
171 193 99
176 199 92
172 195 88
173 195 108
174 198 102
170 193 108
171 194 84
172 195 92
173 197 99
166 189 92
167 190 88
174 197 95
171 193 84
170 194 99
171 194 80
166 190 92
169 192 62
169 192 99
169 193 111
169 192 95
173 196 108
170 194 92
165 188 84
167 190 84
170 194 102
170 193 102
169 193 99
165 188 80
165 189 88
164 187 105
173 197 105
163 186 99
168 191 108
165 188 105
169 193 108
163 187 99
168 191 102
165 189 102
171 194 95
167 190 95
172 195 95
167 190 92
169 192 99
166 190 108
167 190 102
162 185 99
160 182 80
165 187 102
164 187 84
165 188 102
167 191 84
166 188 88
171 194 117
161 184 76
158 180 76
161 184 102
157 179 76
166 189 95
158 180 92
159 181 92
152 174 67
163 186 102
161 184 92
168 191 105
165 187 111
158 180 84
164 187 84
160 182 88
147 169 84
162 184 99
168 189 114
160 182 92
157 179 76
156 177 99
153 176 84
158 180 92
158 179 92
167 189 92
160 182 99
163 184 102
161 182 95
160 182 88
162 182 92
158 179 114
154 175 80
163 184 102
163 184 114
163 184 120
166 187 105
152 172 84
160 182 95
156 177 105
159 180 102
158 179 99
149 170 80
155 175 95
159 179 105
151 171 105
162 182 105
150 170 92
165 184 108
143 163 84
158 178 80
145 166 67
143 162 72
153 172 88
152 172 84
162 183 67
156 176 72
158 178 92
150 171 67
144 163 72
149 169 62
142 164 36
145 167 0
149 170 44
148 170 36
148 168 51
141 162 36
148 170 57
153 173 44
143 164 25
140 161 0
137 158 25
143 164 25
140 161 0
150 171 0
156 176 0
155 176 0
156 179 0
149 171 0
153 175 0
154 175 0
148 169 0
149 172 0
142 165 0
137 157 0
143 164 0
142 162 0
136 157 0
140 160 0
141 162 0
139 159 0
137 158 0
130 150 0
123 143 0
130 151 0
136 156 0
135 155 0
127 148 0
137 157 0
125 145 0
137 156 0
136 157 0
124 144 0
123 143 0
134 153 0
134 154 0
132 152 0
129 148 0
133 152 0
132 153 0
126 147 0
124 144 0
122 142 0
127 147 0
122 143 0
134 153 0
130 150 0
129 148 0
128 148 0
127 147 0
125 143 0
135 155 0
132 152 0
133 153 0
128 147 0
138 158 0
130 151 0
121 140 0
130 150 0
133 153 0
137 158 0
130 150 0
129 150 0
133 152 0
136 157 0
125 146 0
140 160 0
142 163 0
133 153 0
137 157 0
126 146 0
131 150 0
121 141 0
127 147 0
126 145 0
130 151 0
134 154 0
126 145 0
140 161 0
137 157 0
138 158 0
129 149 0
137 157 0
137 158 0
130 149 0
125 147 0
135 155 0
121 141 0
136 157 0
145 166 0
139 160 0
141 161 0
139 159 0
137 158 0
141 163 0
136 157 0
132 151 0
139 159 0
140 160 0
143 164 0
136 156 0
143 165 0
145 167 0
144 165 0
139 161 0
139 159 0
138 159 0
152 173 0
145 165 0
143 165 0
146 168 0
147 169 0
138 159 0
150 171 0
137 156 0
147 167 0
144 164 0
143 163 0
146 168 0
147 168 0
149 170 0
143 164 0
146 166 0
145 166 0
146 168 0
143 165 0
146 167 0
145 165 0
145 164 0
143 163 0
146 168 0
144 165 0
152 174 0
146 168 0
148 169 0
150 171 0
156 178 0
153 174 0
154 174 0
154 175 0
157 177 0
140 161 0
147 169 0
157 178 0
159 181 0
150 171 0
153 174 0
146 166 0
155 176 0
152 175 0
156 176 0
156 178 0
150 173 0
156 177 0
154 175 0
159 180 0
154 175 0
160 182 0
155 178 0
151 172 0
156 177 0
159 182 0
154 176 0
155 176 0
159 180 0
158 179 0
157 177 0
155 175 0
157 180 0
153 175 0
161 182 0
160 181 0
155 177 0
157 178 0
159 180 0
160 181 0
155 176 0
160 181 0
159 179 0
160 183 0
156 178 0
159 181 0
156 178 0
148 169 0
159 181 0
162 184 0
164 186 0
162 184 0
156 178 0
168 189 0
155 176 0
157 178 0
159 181 0
158 181 0
155 177 0
153 174 0
159 180 0
164 184 0
163 184 0
160 182 0
159 180 0
161 183 0
165 188 0
157 178 0
161 183 0
162 183 0
161 183 0
161 183 0
160 181 0
159 181 0
161 182 0
164 186 0
164 187 0
161 183 0
163 185 0
161 182 0
161 182 0
163 185 0
166 188 0
164 186 0
165 187 0
167 189 0
164 186 0
165 187 0
160 180 0
168 190 0
168 191 0
163 185 0
167 190 0
160 182 0
168 190 0
161 182 0
166 189 0
160 181 0
167 189 0
167 190 0
163 185 0
167 190 0
166 188 0
166 188 0
164 185 0
163 185 0
168 191 0
165 188 0
160 181 0
170 191 0
164 186 0
164 182 0
168 190 0
164 183 0
169 191 0
166 188 0
164 186 0
165 186 0
164 184 0
165 186 0
168 191 0
168 190 0
170 192 0
168 189 0
166 189 0
164 187 0
168 190 0
166 188 0
168 190 0
167 189 0
160 182 0
165 187 0
169 192 0
172 194 0
170 190 0
167 189 0
170 191 0
172 195 80
174 197 117
176 199 111
169 191 95
175 198 102
173 195 95
168 192 95
174 197 99
172 195 95
177 199 122
173 197 102
171 194 84
172 196 114
174 197 95
174 197 92
165 188 88
171 195 114
175 198 95
173 197 122
171 195 105
173 196 120
170 194 111
170 193 72
173 196 99
170 193 99
169 192 88
174 197 114
165 188 102
168 191 95
170 193 114
166 189 80
169 193 88
165 188 88
171 194 111
171 194 117
166 189 92
168 191 92
168 191 95
163 186 88
163 187 88
165 189 84
170 193 114
167 190 114
172 195 108
163 186 76
165 188 76
160 182 76
165 188 117
166 189 99
167 189 88
162 185 102
166 188 80
171 193 95
159 182 92
163 187 99
160 182 76
163 185 76
168 191 80
163 187 99
159 181 95
159 182 108
164 186 76
159 181 99
163 185 80
167 190 84
161 183 99
165 188 92
163 187 108
157 180 76
159 180 99
160 181 88
167 189 99
159 181 92
163 186 95
165 187 111
167 189 114
161 183 92
163 185 95
167 189 111
157 179 105
153 174 80
158 179 84
166 188 117
162 184 92
163 185 105
160 181 108
156 176 92
166 187 105
162 182 105
161 182 99
159 180 102
160 182 95
163 183 114
164 185 102
146 167 92
159 180 92
161 182 80
149 169 88
153 173 76
159 179 95
157 177 114
154 174 108
163 183 117
153 174 76
155 174 95
167 186 111
155 175 72
157 178 62
150 170 76
157 177 95
153 173 67
151 170 95
153 174 57
162 181 99
155 176 67
154 174 72
148 169 51
143 164 25
145 166 36
138 160 0
136 157 25
141 163 25
144 165 25
145 166 25
144 166 36
143 164 25
142 163 25
132 154 25
155 176 44
145 166 44
146 167 0
157 179 0
157 179 0
159 181 0
159 180 0
159 182 0
154 176 0
153 174 0
152 171 0
145 167 0
144 166 0
129 150 0
142 163 0
131 151 0
133 154 0
147 167 0
136 157 0
140 161 0
128 150 0
138 159 0
141 161 0
138 158 0
133 153 0
131 152 0
134 154 0
132 154 0
135 156 0
132 152 0
117 137 0
125 145 0
135 155 0
131 152 0
126 146 0
130 150 0
127 148 0
132 153 0
119 138 0
134 155 0
125 144 0
130 150 0
137 157 0
137 157 0
134 154 0
133 155 0
130 151 0
127 147 0
131 150 0
126 146 0
131 151 0
137 158 0
136 157 0
131 151 0
131 151 0
118 138 0
135 155 0
130 151 0
136 158 0
134 154 0
134 155 0
132 153 0
134 153 0
142 163 0
129 149 0
123 144 0
124 144 0
142 162 0
132 153 0
134 155 0
141 161 0
131 151 0
134 154 0
133 154 0
135 155 0
141 161 0
141 160 0
134 154 0
129 150 0
123 143 0
132 152 0
139 159 0
137 157 0
132 152 0
131 151 0
137 155 0
146 167 0
134 154 0
135 154 0
134 154 0
127 148 0
144 164 0
140 162 0
134 154 0
136 156 0
137 157 0
132 152 0
142 164 0
149 170 0
149 169 0
143 164 0
141 163 0
132 154 0
143 164 0
142 162 0
148 168 0
147 167 0
145 167 0
139 159 0
142 164 0
144 166 0
143 163 0
143 165 0
145 167 0
144 165 0
146 168 0
147 167 0
143 164 0
150 170 0
146 168 0
155 178 0
148 168 0
142 162 0
145 167 0
148 168 0
145 166 0
147 168 0
150 170 0
142 162 0
156 177 0
147 167 0
147 168 0
152 174 0
147 168 0
151 172 0
150 172 0
153 175 0
151 173 0
151 172 0
155 176 0
145 166 0
152 172 0
152 174 0
148 170 0
148 166 0
144 164 0
157 179 0
154 173 0
149 171 0
151 171 0
161 183 0
153 173 0
153 175 0
148 170 0
156 177 0
156 176 0
157 178 0
156 177 0
156 177 0
157 177 0
157 178 0
157 179 0
160 181 0
157 177 0
152 174 0
159 181 0
154 173 0
157 177 0
162 185 0
164 186 0
154 177 0
157 179 0
160 182 0
157 178 0
157 178 0
160 182 0
157 179 0
161 182 0
159 179 0
154 175 0
158 180 0
161 183 0
158 181 0
160 182 0
157 179 0
162 184 0
159 181 0
160 181 0
161 183 0
161 181 0
160 181 0
162 182 0
157 176 0
160 181 0
162 184 0
158 179 0
161 182 0
163 184 0
163 184 0
158 180 0
151 173 0
162 182 0
160 181 0
161 182 0
158 180 0
158 180 0
160 182 0
164 185 0
160 181 0
157 179 0
156 176 0
165 187 0
162 184 0
163 186 0
161 183 0
160 181 0
159 181 0
160 181 0
159 180 0
164 186 0
162 186 0
164 186 0
168 190 0
161 182 0
163 183 0
158 180 0
161 182 0
163 183 0
167 188 0
163 185 0
165 187 0
169 192 0
165 187 0
165 186 0
170 192 0
160 181 0
166 188 0
168 188 0
162 184 0
165 185 0
162 184 0
168 188 0
163 186 0
163 185 0
164 186 0
166 188 0
166 188 0
170 191 0
165 189 0
168 192 0
163 185 0
170 192 0
169 191 0
167 189 0
169 191 0
167 189 0
165 187 0
167 188 0
167 189 0
168 189 0
166 188 0
162 184 0
167 190 0
172 194 0
165 187 0
168 190 0
168 190 0
170 192 0
168 190 0
168 190 0
170 192 0
166 188 0
175 198 99
179 201 114
174 196 99
173 196 88
169 192 84
174 196 99
170 194 95
174 197 111
172 195 92
166 188 105
169 191 76
173 196 102
170 193 92
171 194 88
172 195 84
172 196 108
173 196 108
165 188 95
171 194 76
168 192 92
169 193 90
169 193 84
171 194 111
170 193 105
168 190 114
172 196 108
166 190 76
172 195 108
170 193 117
163 186 99
163 186 114
164 186 72
168 191 102
168 192 95
167 191 102
160 182 88
166 190 111
169 192 105
173 196 99
173 196 105
164 187 62
167 190 108
164 188 80
169 191 111
172 195 102
165 188 108
166 189 102
165 189 88
166 189 111
161 184 95
160 183 99
163 186 99
160 184 84
169 192 105
164 187 72
163 185 114
170 193 95
163 186 120
165 187 105
165 187 67
161 184 120
161 184 99
159 181 105
163 185 76
163 186 105
166 188 84
160 181 67
165 186 102
164 186 95
162 184 95
165 187 108
167 189 111
170 192 99
159 181 99
161 183 80
160 182 105
160 183 92
160 182 92
160 180 67
168 189 105
157 178 95
158 179 84
160 181 108
161 182 80
166 188 102
158 179 92
152 173 92
165 186 99
166 187 99
160 180 99
155 175 117
158 179 92
155 176 76
159 180 95
162 183 88
157 178 102
151 171 95
158 179 102
152 172 99
159 179 105
155 176 92
154 175 88
159 179 102
150 170 92
168 189 108
150 171 84
149 169 80
156 175 92
154 174 99
156 177 88
155 174 99
150 172 67
144 165 57
153 173 80
151 171 76
145 165 72
156 177 62
137 158 25
142 163 51
135 156 0
143 164 0
139 160 25
145 167 44
148 169 57
146 168 36
145 166 25
138 158 25
145 166 51
152 174 0
151 172 0
150 171 25
157 178 0
160 182 0
155 176 0
156 178 0
152 172 0
156 179 0
151 172 0
150 172 0
152 174 0
141 163 0
142 163 0
150 170 0
146 167 0
148 169 0
137 158 0
143 163 0
144 166 0
138 159 0
129 149 0
134 154 0
149 169 0
136 156 0
139 160 0
135 156 0
147 167 0
136 156 0
134 155 0
135 156 0
140 161 0
121 141 0
128 148 0
131 151 0
144 164 0
129 151 0
132 151 0
128 149 0
140 159 0
141 162 0
122 142 0
127 146 0
133 153 0
119 139 0
133 153 0
134 154 0
128 149 0
136 156 0
128 149 0
125 144 0
142 163 0
137 157 0
139 159 0
135 155 0
131 152 0
131 152 0
142 164 0
138 159 0
139 159 0
130 152 0
136 156 0
123 143 0
121 142 0
131 151 0
128 148 0
142 164 0
134 154 0
129 148 0
140 160 0
139 159 0
142 163 0
136 157 0
134 155 0
130 151 0
126 147 0
141 162 0
144 164 0
128 149 0
135 155 0
128 148 0
133 154 0
136 157 0
144 165 0
130 150 0
138 157 0
134 154 0
133 154 0
140 161 0
137 158 0
136 156 0
133 155 0
149 171 0
143 164 0
147 169 0
138 159 0
132 152 0
143 165 0
131 149 0
136 157 0
137 158 0
143 165 0
146 168 0
146 167 0
145 167 0
138 159 0
137 157 0
144 165 0
142 164 0
144 165 0
151 173 0
146 166 0
141 160 0
146 167 0
143 165 0
143 163 0
151 173 0
146 168 0
150 172 0
153 174 0
146 167 0
154 174 0
149 169 0
144 165 0
150 171 0
139 160 0
152 173 0
153 174 0
149 170 0
145 165 0
150 170 0
141 162 0
148 170 0
150 173 0
148 169 0
151 172 0
154 175 0
149 169 0
146 169 0
152 173 0
157 177 0
154 175 0
156 177 0
151 173 0
154 176 0
147 168 0
154 177 0
157 179 0
154 173 0
150 171 0
149 171 0
153 176 0
156 177 0
151 172 0
156 177 0
154 174 0
154 175 0
151 171 0
154 175 0
155 177 0
152 174 0
151 173 0
150 169 0
160 182 0
161 182 0
150 172 0
156 178 0
154 176 0
158 180 0
151 173 0
154 175 0
158 180 0
157 177 0
157 178 0
161 182 0
165 186 0
157 178 0
162 184 0
159 182 0
157 177 0
160 181 0
154 176 0
159 180 0
161 181 0
161 182 0
158 179 0
165 187 0
164 185 0
158 179 0
162 184 0
160 182 0
164 185 0
159 181 0
161 184 0
163 184 0
163 185 0
158 178 0
162 184 0
162 183 0
158 179 0
159 179 0
159 180 0
156 178 0
164 187 0
164 186 0
158 180 0
161 183 0
163 185 0
161 182 0
164 186 0
162 184 0
168 190 0
164 186 0
167 189 0
164 186 0
165 187 0
160 182 0
160 181 0
166 187 0
159 178 0
163 186 0
166 187 0
162 183 0
160 181 0
164 186 0
164 186 0
163 185 0
160 182 0
163 185 0
164 186 0
160 182 0
164 185 0
161 184 0
163 185 0
163 186 0
165 186 0
167 189 0
167 190 0
166 188 0
160 181 0
165 186 0
163 184 0
165 187 0
163 186 0
168 190 0
162 184 0
167 190 0
167 190 0
166 188 0
168 191 0
165 186 0
165 186 0
170 192 0
164 187 0
164 186 0
166 189 0
161 183 0
166 188 0
166 189 0
162 183 0
167 188 0
166 188 0
169 191 0
167 190 0
161 184 0
168 190 0
170 190 0
166 190 0
169 190 0
167 189 0
171 194 0
165 187 0
174 197 92
173 196 102
172 195 111
173 195 99
175 198 108
176 199 120
176 199 120
170 194 95
175 198 102
171 193 80
171 194 84
170 194 102
172 195 72
168 190 88
174 197 108
172 194 72
169 192 76
170 192 95
172 195 95
173 196 88
169 191 99
169 192 92
172 195 114
171 194 99
168 192 67
173 196 114
166 190 84
169 193 95
166 189 95
171 194 102
167 190 99
172 194 88
168 192 92
173 196 92
167 191 95
165 189 88
170 192 92
162 185 72
165 188 102
171 194 92
170 193 102
167 189 111
168 191 114
167 190 102
172 196 125
160 183 84
167 190 102
165 187 108
163 186 95
162 185 95
160 183 92
161 185 88
168 190 102
169 192 102
167 189 111
167 189 95
156 178 95
163 185 102
162 184 92
166 189 120
159 181 99
158 181 99
157 179 92
164 186 84
160 182 92
157 179 80
159 181 99
163 185 120
156 179 80
160 182 92
167 189 99
155 177 76
155 177 88
160 181 76
164 185 108
168 191 111
159 182 102
167 189 120
159 181 102
163 185 111
163 184 111
161 182 102
162 184 80
155 177 76
171 192 95
161 183 99
161 183 84
160 181 92
160 182 95
160 181 108
162 183 84
155 175 108
163 183 108
161 181 122
161 182 114
161 182 99
164 184 125
163 183 120
146 167 76
162 182 92
165 186 117
151 171 95
153 173 84
163 183 108
149 169 76
152 172 92
159 180 67
152 171 76
160 180 102
156 176 67
145 165 84
165 185 99
153 173 84
152 172 76
148 169 62
156 177 72
152 173 36
153 174 36
151 173 25
155 176 25
145 166 0
143 164 36
150 172 25
139 160 0
146 165 25
143 165 36
143 164 25
149 171 25
145 167 25
138 158 25
149 170 25
151 173 25
160 183 0
159 182 0
157 179 0
148 170 0
151 173 0
152 173 0
149 171 0
140 161 0
148 169 0
155 176 0
137 158 0
149 169 0
133 154 0
140 161 0
127 148 0
141 161 0
132 153 0
135 155 0
137 158 0
134 157 0
136 157 0
148 170 0
139 159 0
135 156 0
144 164 0
139 159 0
134 153 0
142 162 0
129 148 0
133 154 0
139 159 0
130 150 0
134 154 0
138 159 0
130 149 0
137 160 0
133 152 0
134 154 0
130 151 0
135 154 0
127 148 0
132 152 0
125 145 0
126 146 0
133 155 0
130 150 0
133 153 0
134 154 0
121 142 0
135 156 0
135 156 0
130 151 0
123 142 0
128 148 0
123 143 0
142 162 0
134 155 0
138 158 0
130 151 0
129 148 0
131 152 0
128 148 0
129 149 0
136 157 0
134 155 0
134 154 0
135 154 0
131 152 0
135 156 0
139 160 0
132 151 0
136 156 0
136 156 0
141 163 0
137 157 0
146 167 0
133 154 0
136 157 0
130 152 0
137 158 0
126 148 0
132 153 0
131 151 0
144 164 0
142 164 0
138 159 0
136 157 0
138 158 0
141 161 0
139 159 0
136 158 0
133 153 0
150 171 0
147 167 0
142 163 0
146 166 0
151 171 0
145 167 0
146 168 0
147 167 0
139 160 0
139 160 0
134 155 0
147 168 0
144 165 0
140 161 0
142 162 0
141 162 0
145 166 0
148 169 0
148 170 0
152 174 0
144 165 0
153 175 0
151 172 0
155 178 0
147 169 0
147 170 0
154 177 0
147 168 0
147 168 0
147 168 0
151 173 0
155 177 0
147 168 0
152 174 0
147 168 0
149 171 0
142 162 0
153 174 0
153 176 0
152 173 0
149 171 0
151 172 0
150 172 0
145 165 0
152 174 0
152 172 0
148 169 0
155 177 0
152 173 0
152 174 0
152 173 0
156 177 0
159 181 0
152 175 0
150 171 0
155 176 0
155 175 0
153 175 0
153 175 0
155 178 0
157 178 0
153 173 0
154 175 0
160 182 0
155 177 0
153 176 0
156 176 0
155 176 0
156 178 0
155 176 0
153 174 0
161 182 0
159 180 0
157 178 0
158 179 0
155 177 0
157 179 0
158 179 0
151 172 0
160 182 0
160 182 0
156 177 0
158 180 0
160 181 0
161 183 0
161 183 0
162 183 0
160 181 0
161 182 0
164 185 0
159 181 0
160 181 0
160 181 0
164 184 0
161 182 0
157 178 0
162 185 0
161 182 0
157 179 0
156 178 0
159 180 0
163 186 0
155 177 0
162 183 0
156 178 0
165 186 0
160 182 0
158 179 0
159 178 0
167 188 0
165 187 0
157 179 0
160 182 0
163 186 0
159 180 0
163 184 0
166 186 0
161 182 0
163 185 0
161 181 0
157 179 0
162 184 0
158 178 0
162 183 0
163 185 0
170 193 0
160 182 0
163 185 0
167 188 0
168 190 0
162 183 0
165 187 0
166 188 0
161 181 0
163 185 0
165 187 0
165 187 0
168 190 0
163 184 0
165 187 0
167 190 0
165 185 0
168 191 0
161 182 0
164 186 0
168 190 0
165 186 0
166 188 0
167 187 0
171 192 0
166 188 0
165 188 0
169 191 0
170 191 0
167 189 0
168 190 0
170 191 0
168 189 0
171 192 0
162 184 0
166 187 0
167 190 0
168 189 0
170 193 0
171 193 0
164 186 0
169 191 0
164 187 0
168 190 0
169 190 0
167 190 0
165 186 0
170 193 0
166 185 0
166 186 0
169 191 0
174 197 88
173 196 88
173 195 92
173 196 95
168 190 80
168 191 80
174 196 120
174 197 108
176 199 117
167 190 80
170 193 92
174 195 99
173 196 92
172 196 102
170 193 92
174 197 114
172 195 88
167 190 80
175 198 105
168 191 84
168 191 95
175 198 114
166 189 88
170 194 105
172 195 111
167 191 95
166 189 84
168 191 92
171 194 92
173 196 95
169 193 76
168 192 84
166 189 88
169 192 80
165 188 92
169 192 99
169 192 92
164 188 92
172 195 105
167 190 92
164 186 84
165 189 99
168 190 80
165 187 88
172 193 99
167 190 92
164 186 80
159 182 102
166 190 99
162 186 92
166 189 92
168 190 95
165 187 99
164 187 80
168 191 117
166 189 108
164 186 102
163 185 76
165 188 102
160 183 92
165 187 105
169 191 95
160 182 102
169 192 102
160 183 105
163 186 95
165 187 114
159 181 95
160 183 76
164 186 84
170 192 133
162 183 108
162 185 92
169 191 84
160 181 99
161 182 111
160 182 99
152 174 88
163 184 102
166 188 102
163 184 125
167 189 120
157 178 105
152 174 95
163 184 102
156 178 76
170 190 99
164 185 102
164 185 105
151 172 84
167 187 125
153 174 95
150 170 80
159 179 108
162 182 95
162 183 88
160 181 92
153 174 105
161 181 102
148 168 88
158 178 102
153 173 76
148 169 80
156 178 57
160 181 95
157 177 95
162 182 99
161 182 92
159 180 80
155 175 105
159 179 95
155 175 84
147 167 51
152 173 72
158 177 84
156 178 44
159 180 62
149 171 25
139 159 0
140 162 0
146 167 36
147 169 0
149 170 0
143 164 0
147 168 25
155 177 36
145 166 25
146 167 0
139 160 25
149 170 25
151 173 0
160 183 0
166 187 0
158 179 0
156 177 0
150 172 0
156 178 0
151 171 0
152 175 0
153 174 0
148 171 0
150 172 0
149 170 0
141 162 0
149 170 0
132 154 0
142 163 0
138 159 0
145 166 0
139 160 0
134 155 0
145 166 0
141 162 0
143 164 0
123 143 0
143 162 0
133 153 0
133 152 0
133 153 0
135 154 0
131 151 0
140 160 0
138 159 0
139 161 0
141 161 0
141 161 0
134 155 0
136 157 0
133 153 0
140 160 0
139 160 0
141 162 0
131 151 0
128 148 0
141 161 0
125 145 0
128 148 0
143 164 0
141 161 0
132 153 0
139 159 0
137 158 0
144 164 0
133 152 0
129 149 0
129 150 0
127 147 0
133 153 0
136 157 0
137 159 0
134 154 0
135 155 0
133 154 0
142 164 0
144 165 0
124 144 0
128 149 0
140 160 0
132 153 0
142 162 0
130 150 0
138 157 0
136 157 0
134 154 0
126 146 0
135 157 0
133 154 0
143 165 0
132 151 0
144 166 0
144 164 0
135 157 0
138 158 0
144 164 0
147 169 0
140 161 0
136 157 0
143 164 0
144 165 0
135 155 0
138 158 0
140 162 0
139 160 0
145 165 0
144 163 0
137 156 0
137 159 0
145 166 0
136 157 0
144 166 0
134 155 0
140 161 0
138 159 0
150 171 0
141 163 0
142 164 0
145 166 0
155 175 0
142 162 0
142 164 0
148 168 0
141 163 0
147 168 0
144 166 0
147 168 0
149 170 0
150 171 0
150 170 0
151 172 0
152 173 0
149 171 0
144 165 0
144 165 0
147 168 0
143 163 0
157 180 0
152 174 0
157 179 0
148 171 0
140 161 0
145 165 0
154 176 0
153 174 0
148 169 0
155 175 0
153 176 0
157 179 0
148 168 0
150 173 0
150 171 0
151 172 0
153 174 0
153 174 0
151 172 0
156 178 0
162 183 0
155 178 0
145 167 0
146 166 0
153 175 0
155 177 0
153 174 0
149 171 0
158 181 0
159 180 0
155 174 0
151 172 0
153 175 0
158 180 0
156 177 0
150 170 0
160 183 0
152 174 0
158 178 0
157 178 0
158 178 0
165 187 0
157 178 0
162 182 0
160 182 0
158 180 0
159 180 0
155 176 0
153 174 0
161 184 0
159 181 0
164 186 0
161 183 0
160 182 0
160 182 0
161 182 0
159 180 0
160 181 0
163 183 0
159 180 0
161 183 0
166 187 0
161 182 0
166 187 0
160 181 0
160 182 0
157 179 0
164 185 0
160 181 0
160 181 0
164 186 0
161 183 0
157 179 0
163 185 0
163 184 0
159 180 0
158 180 0
158 180 0
161 184 0
164 186 0
161 181 0
163 185 0
165 186 0
162 183 0
162 184 0
163 186 0
162 183 0
169 192 0
164 185 0
164 186 0
163 184 0
165 187 0
169 189 0
167 188 0
165 186 0
169 189 0
161 184 0
165 186 0
164 185 0
163 185 0
163 185 0
156 177 0
159 180 0
169 191 0
165 187 0
168 190 0
164 186 0
163 184 0
164 185 0
163 185 0
161 184 0
170 192 0
163 186 0
169 190 0
168 189 0
166 187 0
163 184 0
165 185 0
165 186 0
168 191 0
161 183 0
166 188 0
162 182 0
168 190 0
165 185 0
166 186 0
165 187 0
168 189 0
168 189 0
166 188 0
165 187 0
166 188 0
166 188 0
165 187 0
167 190 0
170 191 0
169 192 0
164 184 0
167 187 0
168 190 0
170 190 0
169 191 0
168 190 0
170 192 0
165 187 0
172 196 88
169 193 102
176 198 108
171 194 80
175 198 114
178 201 117
171 195 84
176 199 117
174 196 105
174 197 108
174 197 108
172 195 102
170 193 95
175 197 105
171 193 99
170 192 92
176 199 102
171 194 95
169 193 95
165 188 95
170 193 108
166 189 88
168 192 108
171 195 95
169 193 84
171 195 102
159 181 95
166 189 80
172 194 111
169 192 92
173 195 105
166 189 88
163 186 84
163 186 67
165 189 72
173 197 108
167 190 84
164 188 108
170 194 95
166 188 76
167 191 102
166 189 92
170 194 105
168 190 88
164 186 84
164 187 92
163 187 95
169 192 108
168 190 92
171 194 111
167 190 114
165 188 88
168 191 92
164 186 95
160 182 99
165 188 105
167 190 105
167 190 105
170 193 99
164 187 95
159 181 105
160 182 72
161 184 120
158 179 92
166 188 117
164 187 95
166 188 108
161 184 92
166 189 102
155 178 84
164 185 102
166 189 99
147 169 80
163 185 92
158 179 88
159 181 88
166 186 92
160 181 102
156 178 72
160 182 108
165 186 102
152 174 88
168 190 92
157 178 76
164 185 88
159 181 99
166 188 99
166 186 114
161 182 105
155 176 92
162 182 102
165 185 117
162 183 84
156 177 114
158 179 105
158 178 92
150 171 88
165 185 92
157 177 84
154 174 99
154 173 105
162 183 114
150 170 76
160 181 80
159 179 105
152 173 72
159 179 95
167 187 102
159 179 95
166 185 120
162 182 92
157 177 88
150 170 76
151 171 76
144 165 36
153 175 36
144 166 36
148 169 25
137 158 0
146 167 0
144 166 0
141 161 51
150 171 0
145 165 44
147 169 25
144 165 36
141 161 25
147 168 0
149 171 0
148 169 0
152 176 0
159 182 0
162 184 0
157 179 0
160 181 0
150 173 0
163 185 0
152 173 0
154 176 0
144 167 0
152 174 0
153 175 0
140 162 0
152 173 0
142 163 0
141 162 0
142 162 0
136 157 0
147 167 0
135 156 0
136 157 0
135 157 0
143 164 0
137 157 0
130 150 0
145 166 0
134 155 0
133 154 0
129 149 0
139 160 0
145 166 0
136 155 0
131 149 0
127 147 0
131 151 0
131 151 0
133 153 0
137 159 0
132 152 0
141 162 0
134 155 0
128 148 0
144 165 0
133 153 0
141 162 0
137 157 0
135 155 0
139 159 0
135 155 0
134 154 0
149 170 0
134 154 0
140 161 0
141 160 0
137 159 0
138 159 0
139 158 0
127 147 0
138 159 0
128 148 0
136 156 0
139 160 0
132 152 0
140 161 0
140 160 0
134 154 0
140 161 0
135 156 0
133 153 0
135 156 0
144 165 0
137 157 0
133 153 0
144 165 0
142 164 0
147 169 0
135 155 0
139 161 0
127 148 0
133 154 0
132 152 0
133 154 0
134 156 0
140 159 0
141 161 0
146 168 0
138 159 0
133 154 0
139 159 0
139 161 0
145 166 0
147 167 0
149 169 0
145 165 0
146 168 0
136 158 0
142 162 0
146 167 0
145 166 0
132 153 0
140 160 0
140 163 0
148 168 0
142 163 0
136 156 0
147 168 0
152 174 0
149 169 0
142 163 0
140 160 0
144 165 0
143 164 0
144 164 0
138 159 0
145 167 0
145 168 0
142 163 0
146 168 0
147 171 0
145 165 0
144 165 0
150 171 0
148 168 0
155 177 0
145 166 0
154 175 0
154 177 0
150 171 0
141 162 0
146 167 0
148 170 0
150 172 0
144 165 0
156 179 0
148 169 0
152 172 0
149 170 0
151 173 0
140 162 0
156 178 0
160 182 0
153 175 0
151 173 0
152 173 0
153 175 0
158 178 0
150 172 0
149 170 0
156 174 0
149 171 0
152 173 0
162 183 0
150 170 0
151 174 0
154 175 0
154 177 0
159 182 0
154 175 0
155 176 0
157 180 0
149 172 0
154 175 0
159 179 0
155 177 0
150 172 0
158 177 0
159 181 0
158 180 0
157 178 0
158 179 0
159 181 0
162 185 0
156 179 0
159 182 0
158 180 0
162 181 0
163 186 0
158 179 0
158 179 0
161 183 0
158 179 0
152 174 0
156 177 0
164 186 0
157 178 0
161 182 0
158 178 0
158 180 0
164 186 0
166 187 0
162 184 0
161 183 0
162 184 0
164 184 0
164 187 0
162 184 0
158 180 0
158 180 0
160 182 0
163 186 0
159 181 0
162 183 0
163 183 0
161 184 0
163 184 0
163 185 0
162 184 0
164 186 0
160 183 0
165 187 0
161 184 0
161 182 0
164 185 0
156 179 0
159 180 0
158 180 0
164 185 0
169 191 0
160 183 0
161 181 0
165 187 0
167 188 0
163 185 0
163 184 0
164 186 0
166 189 0
168 191 0
166 188 0
167 189 0
169 191 0
169 193 0
166 189 0
166 186 0
169 191 0
164 186 0
165 186 0
166 189 0
166 187 0
163 184 0
167 190 0
166 188 0
172 192 0
165 186 0
161 183 0
167 189 0
166 188 0
167 188 0
168 189 0
168 190 0
164 187 0
168 190 0
169 191 0
165 187 0
167 189 0
172 195 0
167 187 0
165 187 0
162 184 0
172 193 0
166 188 0
167 190 0
167 189 0
164 186 0
169 190 0
168 192 0
167 189 0
169 192 0
168 191 0
166 186 0
167 190 0
174 197 114
174 197 102
175 198 105
169 192 108
174 197 105
169 192 80
167 188 84
175 198 108
169 192 76
172 194 95
168 190 95
169 192 92
171 194 102
173 196 95
173 196 102
169 193 84
171 195 84
167 190 99
171 193 99
169 192 111
168 192 108
173 197 108
173 196 120
174 197 88
172 194 84
169 193 117
167 191 105
172 194 108
171 195 111
166 189 80
171 194 108
162 186 92
171 194 99
171 195 99
166 189 92
173 196 92
170 192 76
168 190 88
170 192 80
170 193 102
168 191 111
169 192 84
170 193 114
167 189 88
167 190 108
172 194 99
166 189 84
164 186 80
161 184 95
166 188 92
166 189 92
165 188 108
161 183 84
161 183 80
162 186 108
164 187 117
169 192 102
165 187 95
169 191 102
163 185 99
166 189 105
168 190 92
163 184 99
162 185 92
165 186 105
163 185 108
166 187 108
161 182 99
166 189 95
162 183 92
160 181 114
167 189 99
162 183 95
157 178 84
160 182 99
157 179 95
154 177 92
164 185 108
155 176 102
154 176 99
161 184 67
161 182 92
172 193 114
160 181 84
163 185 88
159 180 114
158 179 102
156 178 88
159 180 92
169 189 120
161 182 105
159 180 99
158 178 99
163 184 92
155 176 95
159 180 99
156 177 95
158 179 92
157 179 76
150 171 84
164 185 111
160 180 80
157 178 92
157 178 80
157 177 99
155 176 72
156 177 67
158 179 88
160 179 111
154 175 72
160 179 102
154 173 92
141 161 51
151 172 51
150 171 36
146 167 36
139 159 25
153 173 25
152 175 51
147 168 0
149 171 25
145 165 36
146 168 36
149 170 25
155 177 62
144 166 25
148 170 44
149 170 25
156 177 25
161 181 25
151 173 25
163 186 0
159 181 0
160 183 0
159 180 0
157 179 0
157 180 0
144 165 0
153 174 0
149 171 0
149 172 0
143 166 0
157 178 0
150 172 0
144 166 0
146 166 0
149 170 0
148 169 0
136 158 0
138 160 0
137 158 0
148 168 0
140 162 0
142 162 0
143 164 0
135 155 0
144 164 0
137 158 0
138 158 0
138 159 0
139 161 0
135 155 0
141 162 0
124 144 0
154 175 0
137 158 0
140 160 0
136 158 0
128 149 0
132 153 0
134 154 0
134 154 0
131 152 0
131 152 0
133 153 0
130 149 0
130 149 0
145 166 0
133 154 0
125 145 0
132 153 0
133 153 0
132 154 0
140 161 0
131 151 0
129 148 0
139 160 0
145 164 0
138 159 0
140 160 0
140 160 0
140 160 0
141 161 0
139 158 0
153 174 0
142 162 0
142 163 0
139 159 0
131 152 0
137 157 0
145 166 0
132 154 0
139 160 0
141 162 0
136 157 0
140 160 0
140 160 0
136 157 0
137 158 0
142 163 0
150 171 0
150 171 0
135 155 0
140 161 0
132 153 0
134 157 0
138 159 0
144 166 0
148 169 0
148 171 0
141 162 0
145 166 0
134 154 0
138 158 0
151 172 0
146 168 0
143 164 0
148 169 0
136 157 0
139 160 0
150 171 0
144 166 0
145 166 0
151 172 0
146 168 0
135 155 0
139 160 0
155 177 0
151 171 0
145 166 0
151 171 0
142 163 0
150 171 0
145 167 0
149 170 0
146 167 0
149 169 0
160 182 0
155 176 0
157 178 0
153 174 0
143 165 0
146 166 0
150 170 0
150 172 0
156 177 0
146 169 0
148 169 0
153 176 0
153 176 0
152 173 0
158 179 0
156 178 0
150 171 0
149 170 0
159 181 0
150 171 0
149 171 0
155 177 0
148 170 0
153 175 0
156 177 0
159 179 0
148 170 0
159 181 0
159 179 0
153 175 0
164 184 0
145 164 0
146 166 0
157 178 0
152 173 0
157 178 0
157 179 0
153 176 0
155 174 0
161 183 0
161 183 0
157 179 0
156 178 0
146 169 0
154 176 0
156 179 0
150 171 0
158 180 0
155 177 0
156 178 0
148 169 0
154 176 0
154 176 0
159 179 0
160 182 0
164 186 0
161 182 0
162 183 0
160 182 0
163 183 0
159 181 0
157 177 0
159 180 0
157 179 0
160 183 0
161 181 0
158 180 0
157 178 0
165 187 0
158 179 0
161 185 0
161 182 0
162 183 0
162 184 0
163 185 0
160 182 0
157 179 0
158 180 0
161 181 0
160 181 0
166 189 0
166 188 0
160 182 0
161 185 0
164 187 0
163 185 0
164 186 0
162 184 0
157 177 0
162 183 0
165 188 0
165 187 0
163 185 0
160 181 0
164 186 0
162 182 0
164 185 0
165 187 0
157 178 0
164 186 0
166 189 0
163 185 0
164 187 0
163 185 0
168 190 0
165 188 0
166 188 0
163 184 0
162 183 0
164 187 0
160 181 0
166 186 0
167 189 0
167 187 0
168 190 0
165 185 0
165 187 0
162 183 0
167 190 0
161 183 0
169 192 0
166 188 0
167 189 0
165 187 0
163 184 0
163 185 0
165 185 0
157 179 0
169 192 0
163 185 0
163 185 0
168 190 0
170 192 0
165 186 0
163 183 0
165 186 0
168 191 0
166 189 0
167 189 0
168 190 0
168 190 0
162 185 0
168 191 0
163 185 0
163 186 0
166 188 0
166 188 0
169 190 0
163 185 0
164 185 0
166 187 0
167 190 0
171 193 0
175 197 95
172 194 92
174 196 80
176 199 102
170 193 88
172 195 102
169 192 102
175 198 102
176 199 111
169 193 88
172 194 92
173 196 88
175 199 120
175 198 117
167 190 99
170 193 105
170 193 80
171 194 67
177 199 128
169 192 105
168 192 102
169 191 95
172 194 76
169 191 84
169 192 84
166 190 92
171 194 84
170 193 95
169 192 95
169 192 92
163 187 108
178 201 122
166 189 88
172 195 95
168 191 95
167 190 95
166 188 84
168 191 108
168 191 84
168 191 102
163 186 67
166 189 95
164 187 84
166 188 76
167 190 122
167 189 84
165 188 88
166 189 95
172 194 80
167 189 102
165 188 88
169 191 102
162 184 102
168 191 111
167 190 95
170 193 108
161 182 76
163 186 99
169 191 88
162 185 99
164 186 105
168 191 102
165 188 108
161 183 92
163 184 80
160 183 105
160 182 114
163 185 88
162 184 84
162 183 105
160 181 111
153 175 84
162 183 84
158 179 99
161 182 88
154 175 51
156 177 76
162 183 117
157 178 99
156 177 76
157 179 88
158 178 76
161 182 99
165 185 102
158 180 80
168 190 108
157 178 76
158 178 108
168 189 130
162 183 80
165 185 99
167 187 117
163 183 105
165 185 128
166 186 105
159 179 88
153 174 80
165 185 102
160 180 105
151 171 72
152 172 72
154 176 25
147 168 67
153 174 62
158 178 76
162 182 80
158 178 92
166 186 92
164 185 80
154 175 76
164 184 88
156 175 88
145 166 25
150 171 57
147 168 51
153 174 51
149 170 0
148 170 25
155 176 25
151 172 0
151 172 25
152 173 36
149 170 36
145 165 51
146 169 25
146 167 36
143 164 44
143 165 44
150 171 0
145 166 25
152 173 0
161 183 0
163 186 0
153 176 0
151 174 0
153 175 0
154 177 0
157 180 0
146 168 0
153 175 0
146 168 0
144 166 0
145 167 0
147 169 0
138 160 0
144 166 0
151 172 0
144 164 0
142 164 0
143 165 0
139 159 0
138 159 0
143 164 0
140 160 0
148 169 0
139 160 0
140 161 0
134 155 0
149 169 0
135 156 0
142 163 0
137 157 0
144 165 0
131 151 0
137 158 0
132 153 0
137 158 0
134 155 0
127 147 0
137 157 0
135 155 0
140 162 0
131 151 0
135 155 0
142 163 0
123 143 0
140 160 0
137 157 0
141 162 0
135 157 0
132 152 0
139 159 0
144 164 0
136 157 0
138 159 0
136 157 0
126 146 0
147 168 0
142 163 0
144 165 0
141 161 0
143 162 0
136 156 0
121 143 0
132 154 0
135 157 0
138 158 0
133 154 0
139 161 0
142 161 0
139 159 0
139 159 0
134 154 0
141 162 0
132 153 0
136 157 0
137 157 0
147 168 0
137 158 0
145 165 0
135 156 0
151 172 0
145 166 0
141 162 0
146 168 0
140 160 0
134 154 0
134 157 0
136 156 0
136 157 0
139 159 0
137 156 0
136 156 0
135 157 0
143 166 0
150 171 0
131 150 0
148 169 0
143 164 0
136 156 0
141 161 0
150 171 0
152 172 0
146 168 0
144 164 0
150 171 0
143 164 0
145 166 0
146 167 0
151 172 0
148 168 0
143 163 0
154 174 0
154 174 0
142 164 0
143 163 0
145 165 0
145 166 0
145 165 0
141 162 0
153 175 0
152 174 0
152 174 0
142 163 0
157 179 0
152 172 0
152 173 0
159 179 0
143 165 0
150 172 0
152 175 0
148 170 0
153 174 0
153 175 0
151 172 0
150 172 0
162 184 0
153 173 0
154 176 0
147 169 0
152 174 0
151 173 0
158 179 0
157 179 0
151 173 0
153 176 0
148 169 0
151 172 0
154 177 0
153 175 0
154 176 0
156 177 0
143 165 0
160 181 0
158 179 0
157 179 0
157 180 0
149 171 0
155 178 0
156 177 0
156 178 0
159 180 0
163 184 0
157 179 0
158 179 0
157 180 0
151 174 0
159 181 0
160 182 0
158 180 0
162 183 0
160 182 0
159 179 0
160 180 0
164 187 0
165 189 0
158 181 0
155 177 0
154 175 0
160 181 0
159 181 0
159 179 0
159 181 0
161 184 0
166 187 0
161 184 0
158 179 0
162 184 0
160 183 0
162 183 0
161 181 0
161 183 0
158 180 0
159 181 0
162 184 0
157 178 0
160 182 0
163 185 0
159 180 0
158 180 0
161 182 0
164 186 0
163 184 0
163 184 0
165 187 0
159 180 0
166 188 0
166 189 0
164 186 0
161 183 0
161 184 0
164 185 0
162 183 0
158 180 0
163 185 0
163 185 0
166 187 0
169 190 0
164 185 0
168 189 0
164 186 0
166 188 0
166 188 0
166 188 0
167 188 0
161 185 0
164 186 0
163 186 0
165 187 0
164 186 0
167 190 0
165 188 0
166 188 0
159 181 0
168 189 0
167 188 0
163 184 0
169 191 0
163 185 0
164 187 0
161 183 0
166 187 0
164 187 0
165 187 0
165 187 0
166 188 0
165 187 0
166 188 0
167 189 0
165 188 0
163 186 0
166 188 0
167 190 0
165 187 0
167 189 0
160 182 0
170 192 0
172 192 0
168 190 0
167 187 0
166 188 0
166 186 0
169 191 0
166 189 0
170 192 0
168 191 0
169 190 0
165 187 0
163 187 0
166 187 0
173 196 95
169 191 62
172 195 105
174 196 95
177 200 117
168 192 80
173 196 92
168 191 105
172 195 105
167 190 92
169 192 102
173 196 102
172 195 108
169 193 80
175 197 99
169 192 102
169 192 99
172 195 114
170 193 84
170 193 88
173 195 102
170 193 95
173 196 102
166 188 95
167 190 99
167 190 102
168 191 111
166 190 76
167 190 95
174 197 111
169 191 95
170 193 95
169 191 80
171 194 111
164 188 84
170 194 120
166 190 84
172 195 108
166 188 99
169 191 102
164 187 84
165 187 99
167 190 92
166 189 105
163 186 92
167 190 67
171 194 95
171 194 95
168 189 95
168 191 105
173 195 122
168 190 80
166 189 95
166 189 84
161 183 88
160 181 72
166 189 105
165 188 108
162 184 88
159 181 95
168 190 84
161 183 80
162 185 92
165 187 84
166 188 67
168 191 105
156 178 102
169 190 84
161 183 80
158 180 102
162 184 105
157 179 95
162 184 102
167 188 92
167 188 102
157 179 88
164 186 99
157 179 84
161 181 80
162 184 92
164 186 95
172 194 120
153 175 80
159 180 114
162 183 88
167 188 111
162 183 99
166 186 95
161 183 102
164 185 114
158 179 120
164 186 111
157 178 84
159 179 102
159 179 108
155 174 84
163 183 76
155 174 117
156 178 88
165 185 84
160 181 88
160 180 84
160 180 88
156 177 62
156 178 62
154 174 72
164 184 105
163 183 102
153 174 84
159 179 80
158 178 67
158 180 62
147 168 36
153 175 62
160 181 51
156 176 57
143 163 25
146 166 25
139 161 0
153 174 25
150 172 0
142 163 25
147 170 25
147 169 0
151 173 36
155 177 25
145 168 25
152 174 25
147 168 44
148 170 0
155 178 25
161 184 0
154 176 0
160 182 0
156 178 0
158 179 0
154 177 0
153 173 0
148 171 0
146 168 0
149 170 0
159 181 0
149 171 0
149 171 0
148 169 0
139 161 0
149 170 0
141 162 0
136 156 0
139 160 0
134 156 0
142 163 0
145 166 0
144 165 0
136 156 0
131 151 0
146 167 0
140 161 0
137 159 0
137 158 0
140 162 0
138 159 0
138 160 0
133 153 0
138 159 0
144 165 0
129 148 0
138 160 0
141 162 0
133 153 0
147 167 0
140 160 0
136 157 0
136 158 0
125 145 0
137 157 0
137 158 0
141 162 0
142 164 0
137 157 0
144 165 0
132 153 0
132 152 0
135 156 0
130 150 0
142 165 0
139 160 0
146 166 0
138 159 0
143 164 0
149 171 0
131 151 0
142 163 0
147 169 0
148 168 0
136 157 0
129 150 0
144 165 0
146 167 0
140 161 0
139 160 0
138 158 0
134 153 0
136 157 0
152 173 0
137 157 0
146 167 0
141 161 0
141 162 0
141 162 0
148 170 0
140 161 0
144 164 0
144 165 0
144 164 0
142 163 0
149 170 0
147 167 0
139 158 0
146 167 0
137 157 0
143 163 0
144 165 0
144 165 0
145 167 0
141 163 0
148 168 0
152 173 0
148 169 0
149 171 0
147 168 0
145 166 0
150 172 0
149 170 0
150 171 0
154 177 0
147 169 0
146 168 0
149 170 0
148 168 0
152 174 0
158 178 0
146 168 0
148 168 0
144 167 0
150 170 0
156 178 0
136 158 0
154 176 0
148 167 0
151 171 0
152 174 0
148 169 0
152 173 0
154 176 0
148 170 0
150 172 0
144 165 0
152 175 0
145 167 0
155 177 0
154 178 0
148 169 0
156 177 0
154 176 0
153 174 0
147 169 0
150 172 0
154 175 0
149 172 0
153 176 0
154 177 0
151 173 0
155 176 0
154 175 0
151 172 0
153 175 0
157 179 0
152 173 0
159 181 0
156 178 0
154 176 0
152 173 0
159 180 0
154 176 0
158 180 0
153 175 0
154 176 0
159 180 0
153 176 0
160 182 0
159 181 0
152 173 0
159 181 0
160 182 0
161 182 0
158 179 0
162 184 0
155 176 0
157 180 0
155 175 0
158 180 0
158 180 0
151 173 0
157 178 0
158 179 0
160 182 0
162 185 0
158 180 0
159 180 0
163 186 0
159 181 0
162 184 0
160 182 0
157 178 0
164 186 0
165 186 0
162 185 0
162 181 0
156 177 0
162 184 0
160 182 0
165 189 0
158 180 0
164 186 0
165 187 0
165 186 0
158 179 0
158 180 0
164 185 0
157 178 0
161 183 0
163 186 0
160 182 0
157 178 0
158 180 0
158 180 0
162 185 0
165 188 0
166 188 0
160 182 0
159 182 0
165 187 0
167 188 0
159 180 0
159 181 0
167 189 0
166 188 0
161 182 0
159 180 0
164 186 0
162 183 0
159 181 0
164 186 0
162 184 0
164 187 0
163 186 0
168 191 0
162 183 0
166 188 0
167 190 0
162 184 0
163 185 0
163 185 0
163 185 0
165 187 0
164 187 0
167 189 0
168 189 0
168 190 0
169 190 0
166 189 0
168 191 0
167 188 0
167 188 0
167 189 0
168 190 0
164 186 0
165 188 0
166 187 0
167 189 0
168 190 0
167 190 0
164 186 0
166 188 0
165 187 0
166 187 0
170 192 0
170 193 0
166 187 0
164 187 0
170 193 0
166 189 0
163 185 0
168 191 0
167 189 0
168 190 0
171 193 0
168 189 0
166 188 0
171 193 92
174 196 92
168 191 88
170 192 95
172 195 84
173 195 105
172 195 88
171 193 95
177 200 125
170 193 99
172 194 80
172 195 99
172 195 88
168 191 92
174 197 120
169 191 108
174 198 99
172 195 92
172 195 117
168 191 102
172 194 84
165 188 102
171 193 115
169 191 105
171 195 117
174 196 125
168 190 95
172 195 111
172 195 111
172 196 99
169 190 99
166 189 105
171 194 108
167 190 76
172 196 122
167 190 117
167 190 88
166 189 84
165 187 76
167 189 62
165 188 95
166 189 84
168 191 125
165 188 117
164 187 92
165 187 105
156 179 80
169 191 117
170 193 99
169 191 95
165 188 99
166 188 88
162 184 80
165 187 88
164 185 102
168 190 105
166 189 117
164 187 92
164 185 76
162 185 84
159 182 95
168 190 102
161 182 105
161 183 84
163 186 99
159 181 80
160 181 72
162 184 67
156 178 80
163 186 95
165 187 102
155 176 72
166 187 84
167 189 120
163 184 99
157 178 102
158 180 105
165 187 108
161 183 99
163 184 84
155 176 80
160 181 92
154 175 80
164 185 114
161 182 102
155 177 84
162 183 102
169 191 99
161 182 88
153 174 120
160 181 95
163 184 108
161 182 92
163 183 102
156 176 95
159 179 95
164 185 99
161 181 122
162 183 92
161 181 102
157 178 76
157 178 80
167 188 92
152 173 67
145 165 67
161 181 80
151 173 72
152 173 84
155 174 102
159 180 95
157 179 84
161 182 67
150 172 51
157 178 51
157 178 84
142 163 44
154 175 44
158 180 25
147 169 25
150 172 25
150 170 36
146 167 36
151 172 25
161 184 36
149 171 36
151 173 36
148 170 25
158 179 36
150 171 36
153 175 0
156 179 0
156 178 0
153 175 0
157 180 0
152 174 0
150 173 0
154 177 0
155 177 0
144 165 0
144 165 0
155 177 0
146 168 0
151 173 0
144 166 0
143 165 0
141 162 0
145 166 0
140 161 0
152 173 0
149 170 0
147 167 0
154 175 0
140 161 0
135 156 0
139 160 0
132 153 0
134 154 0
140 161 0
137 158 0
141 161 0
131 152 0
139 160 0
142 164 0
133 153 0
146 167 0
150 171 0
149 170 0
142 162 0
140 159 0
125 146 0
147 168 0
138 158 0
137 158 0
131 152 0
139 160 0
133 154 0
134 154 0
136 158 0
135 156 0
138 159 0
143 164 0
143 164 0
129 151 0
141 161 0
144 165 0
140 162 0
136 157 0
134 155 0
139 160 0
141 163 0
138 158 0
146 169 0
139 159 0
141 161 0
140 161 0
131 152 0
141 161 0
146 169 0
136 158 0
141 161 0
136 157 0
147 168 0
140 161 0
132 153 0
137 159 0
147 168 0
143 164 0
143 166 0
134 156 0
144 165 0
138 160 0
139 161 0
140 161 0
145 165 0
144 165 0
138 160 0
149 170 0
145 166 0
144 165 0
139 160 0
140 160 0
148 171 0
142 163 0
147 167 0
145 166 0
140 159 0
145 165 0
142 162 0
145 165 0
136 157 0
147 169 0
147 169 0
139 162 0
147 166 0
149 170 0
152 173 0
141 162 0
148 170 0
153 173 0
151 173 0
149 171 0
150 171 0
151 172 0
155 177 0
146 168 0
150 172 0
150 171 0
151 172 0
146 167 0
147 168 0
145 168 0
159 181 0
150 170 0
148 168 0
151 173 0
147 168 0
152 174 0
153 175 0
148 170 0
161 183 0
151 173 0
154 175 0
147 169 0
153 176 0
159 181 0
154 176 0
154 175 0
158 179 0
152 172 0
156 177 0
152 174 0
153 175 0
157 178 0
146 167 0
157 178 0
156 178 0
158 181 0
159 181 0
152 173 0
152 174 0
157 178 0
159 181 0
157 180 0
159 181 0
148 169 0
157 179 0
160 182 0
161 183 0
150 171 0
156 178 0
154 175 0
154 175 0
167 188 0
160 181 0
162 183 0
162 183 0
154 176 0
158 180 0
167 187 0
158 179 0
161 184 0
163 185 0
161 183 0
161 183 0
156 176 0
160 181 0
161 183 0
157 180 0
160 182 0
158 179 0
163 185 0
159 181 0
161 183 0
161 184 0
157 179 0
158 180 0
160 182 0
157 179 0
161 183 0
160 181 0
161 182 0
161 182 0
158 180 0
160 182 0
164 186 0
158 178 0
165 186 0
166 187 0
165 187 0
163 183 0
161 182 0
162 183 0
165 187 0
166 188 0
168 189 0
164 187 0
168 189 0
163 186 0
162 183 0
158 181 0
161 183 0
166 188 0
167 189 0
169 192 0
160 182 0
165 187 0
162 183 0
163 185 0
164 186 0
167 189 0
168 190 0
163 184 0
165 188 0
166 188 0
162 183 0
166 188 0
165 188 0
167 189 0
164 185 0
168 191 0
168 190 0
163 183 0
166 189 0
165 186 0
168 189 0
166 188 0
166 189 0
168 191 0
165 186 0
167 190 0
170 193 0
168 190 0
167 189 0
166 187 0
165 187 0
166 187 0
165 187 0
170 191 0
169 191 0
163 185 0
162 184 0
162 185 0
170 192 0
170 193 0
168 190 0
168 190 0
165 187 0
169 190 0
167 190 0
167 189 0
166 188 0
165 185 0
164 188 0
172 195 0
166 188 0
165 188 0
166 189 0
166 186 0
171 193 0
168 190 0
174 197 92
171 193 99
173 195 80
173 196 105
177 199 80
176 199 102
175 196 105
169 192 88
170 193 108
172 195 72
172 194 99
177 199 111
173 195 92
177 199 128
172 194 105
172 195 95
168 191 102
173 196 84
167 190 88
169 193 84
168 190 95
170 193 80
168 191 76
168 190 95
170 194 99
169 191 99
168 191 111
170 193 102
170 192 99
169 192 102
160 182 72
169 193 102
170 193 108
168 191 80
162 185 84
169 191 95
173 196 105
164 187 84
162 185 92
167 189 95
167 189 92
171 193 102
163 186 92
162 186 102
165 188 108
169 193 102
167 190 102
172 195 99
164 187 92
166 188 67
165 188 80
170 193 108
171 193 92
168 191 111
161 182 92
164 187 105
165 187 95
164 187 95
166 190 92
165 188 99
164 186 76
163 185 76
170 191 102
170 192 95
160 181 72
166 188 84
162 183 88
164 187 105
163 185 88
167 189 88
155 177 72
163 185 108
162 184 92
166 188 120
164 185 84
163 184 80
163 185 95
163 184 105
163 184 120
167 189 122
159 180 95
161 181 105
159 180 99
170 191 92
159 179 105
161 181 105
158 179 95
162 183 95
161 182 102
165 185 108
161 182 92
160 181 92
161 182 114
153 174 95
155 176 84
162 183 102
164 184 76
162 183 84
158 178 80
159 180 88
155 176 84
147 167 67
159 179 84
155 176 76
159 179 76
159 179 99
160 180 72
158 178 76
159 179 88
168 189 95
161 183 67
153 175 57
159 180 36
151 173 36
151 171 57
148 169 36
158 179 36
147 169 36
144 165 0
144 166 25
149 170 0
156 177 0
142 164 25
157 179 44
153 175 44
151 172 51
156 178 0
153 176 25
152 173 0
155 177 0
161 183 0
158 181 0
158 180 0
163 186 0
164 187 0
163 183 0
159 180 0
159 181 0
155 176 0
152 173 0
155 176 0
152 174 0
141 163 0
151 173 0
142 163 0
146 167 0
136 157 0
146 167 0
135 157 0
135 157 0
150 171 0
144 164 0
143 164 0
140 160 0
149 171 0
142 164 0
144 165 0
140 161 0
133 154 0
138 160 0
136 157 0
144 165 0
145 167 0
142 162 0
141 162 0
142 163 0
146 167 0
144 165 0
139 160 0
139 160 0
131 151 0
137 158 0
144 165 0
144 166 0
125 145 0
139 160 0
142 163 0
141 161 0
141 162 0
139 160 0
132 153 0
135 157 0
142 163 0
146 167 0
138 159 0
145 167 0
135 155 0
145 166 0
149 171 0
141 163 0
147 168 0
130 151 0
138 159 0
148 169 0
134 155 0
138 158 0
134 154 0
146 167 0
142 163 0
148 170 0
149 171 0
143 164 0
149 171 0
142 163 0
141 162 0
143 164 0
140 161 0
143 163 0
135 157 0
139 160 0
147 169 0
140 163 0
146 168 0
146 166 0
146 168 0
137 158 0
141 161 0
149 171 0
145 165 0
141 163 0
140 162 0
148 170 0
143 166 0
147 169 0
145 166 0
149 171 0
149 171 0
149 171 0
150 170 0
145 167 0
148 169 0
136 156 0
142 162 0
150 173 0
145 166 0
150 171 0
142 163 0
144 165 0
155 177 0
151 170 0
150 173 0
146 167 0
153 175 0
147 169 0
139 161 0
153 176 0
157 179 0
155 176 0
145 165 0
146 167 0
148 170 0
151 173 0
149 169 0
149 169 0
152 173 0
155 177 0
153 174 0
160 182 0
153 173 0
154 177 0
151 175 0
151 173 0
152 173 0
156 178 0
151 174 0
155 177 0
153 175 0
154 175 0
152 173 0
150 171 0
162 185 0
156 178 0
153 174 0
161 183 0
157 179 0
151 172 0
152 174 0
157 180 0
155 176 0
156 176 0
151 173 0
147 168 0
156 176 0
154 177 0
153 176 0
160 182 0
161 183 0
157 179 0
158 180 0
159 179 0
156 177 0
159 181 0
156 178 0
154 175 0
156 176 0
158 180 0
157 178 0
155 177 0
156 179 0
160 181 0
159 182 0
157 179 0
162 184 0
161 184 0
156 179 0
165 186 0
159 182 0
162 184 0
160 182 0
157 179 0
160 180 0
154 176 0
165 186 0
158 180 0
160 182 0
156 177 0
163 186 0
155 176 0
156 178 0
162 184 0
160 182 0
161 182 0
166 188 0
161 183 0
164 186 0
156 177 0
162 182 0
165 187 0
160 182 0
163 184 0
158 179 0
154 175 0
162 183 0
159 180 0
165 187 0
161 185 0
162 184 0
168 190 0
158 179 0
162 184 0
163 184 0
165 186 0
162 183 0
163 184 0
162 183 0
162 184 0
163 183 0
162 185 0
164 187 0
167 190 0
164 185 0
167 189 0
164 186 0
165 187 0
163 187 0
164 187 0
165 187 0
163 185 0
167 188 0
166 188 0
166 188 0
163 186 0
164 185 0
168 189 0
167 190 0
165 187 0
163 184 0
169 191 0
163 185 0
168 190 0
165 188 0
163 186 0
165 187 0
169 191 0
162 182 0
166 189 0
166 189 0
167 190 0
162 184 0
168 190 0
169 191 0
165 187 0
167 190 0
163 183 0
170 192 0
170 192 0
163 187 0
171 193 0
165 188 0
167 188 0
167 189 0
167 189 0
166 189 0
166 188 0
165 188 0
168 189 0
164 187 0
169 191 0
168 190 0
166 187 0
173 196 114
178 200 95
176 199 111
172 195 76
173 194 114
170 193 105
171 194 95
176 198 102
171 193 92
175 198 108
172 194 88
168 191 76
172 194 95
171 194 108
172 194 105
169 192 72
174 197 99
170 192 102
172 195 99
173 195 108
168 191 95
172 195 99
169 191 88
170 193 88
170 193 84
170 192 92
169 192 108
168 191 80
166 189 57
169 191 84
172 194 105
168 190 92
167 189 72
172 195 105
172 195 102
166 188 76
171 193 80
168 191 88
170 193 102
168 190 99
168 190 92
164 187 99
172 195 111
166 189 111
174 196 114
163 185 84
164 186 99
171 194 95
162 184 84
171 192 80
171 194 102
169 192 102
165 188 76
164 185 67
164 187 102
171 193 105
160 183 92
166 188 92
162 184 95
158 180 99
165 187 92
167 190 88
159 181 84
160 182 88
161 183 84
159 180 95
168 190 105
156 178 72
163 185 84
168 190 84
167 188 108
160 181 72
166 187 57
162 184 92
163 185 108
167 188 111
158 179 84
160 181 95
157 177 92
170 192 120
164 185 95
158 179 84
168 190 95
161 182 117
170 191 108
159 179 111
164 184 102
163 183 111
160 179 111
158 179 95
162 183 84
160 180 76
155 177 76
173 194 125
159 179 84
163 183 111
157 177 80
167 187 99
163 183 99
161 181 88
160 181 80
162 184 95
157 177 95
155 177 76
154 175 84
158 180 88
155 176 76
157 178 76
161 182 99
157 178 67
158 179 62
152 171 62
153 174 51
148 169 51
156 177 57
152 173 25
153 175 44
149 170 0
151 172 25
160 181 36
157 179 25
147 169 0
151 174 44
157 179 36
152 173 0
147 168 25
151 173 0
144 167 25
151 174 25
149 170 25
158 182 0
153 176 0
166 189 0
159 182 0
163 185 0
156 178 0
155 178 0
156 178 0
159 181 0
156 177 0
148 170 0
156 178 0
144 165 0
143 165 0
154 176 0
146 169 0
143 166 0
140 161 0
150 171 0
142 163 0
143 164 0
145 166 0
142 164 0
139 160 0
138 159 0
144 165 0
137 158 0
142 163 0
133 155 0
137 158 0
141 161 0
140 161 0
137 159 0
142 164 0
141 162 0
138 158 0
142 163 0
137 157 0
145 166 0
145 167 0
148 168 0
147 167 0
145 166 0
140 161 0
136 157 0
142 164 0
142 165 0
149 171 0
133 154 0
137 157 0
142 163 0
148 168 0
142 163 0
141 162 0
141 162 0
151 172 0
136 157 0
141 161 0
146 168 0
148 169 0
143 165 0
144 165 0
142 164 0
143 164 0
139 160 0
145 165 0
145 165 0
141 160 0
148 169 0
140 161 0
146 168 0
142 164 0
142 164 0
150 172 0
144 164 0
143 163 0
140 160 0
153 174 0
148 170 0
137 157 0
142 164 0
137 156 0
153 174 0
140 160 0
133 154 0
146 168 0
146 168 0
138 160 0
145 166 0
143 164 0
144 165 0
142 165 0
148 168 0
155 176 0
144 164 0
142 163 0
138 159 0
141 162 0
141 162 0
136 158 0
147 169 0
135 157 0
153 175 0
147 169 0
147 168 0
151 173 0
152 174 0
152 171 0
152 173 0
154 175 0
153 174 0
150 172 0
155 176 0
148 169 0
150 170 0
151 171 0
153 174 0
149 171 0
156 177 0
149 170 0
144 166 0
154 175 0
151 172 0
153 176 0
155 176 0
153 175 0
148 170 0
155 177 0
150 171 0
150 172 0
153 176 0
153 174 0
149 171 0
153 173 0
153 173 0
154 176 0
148 168 0
155 176 0
154 175 0
152 172 0
156 179 0
161 182 0
154 175 0
160 182 0
155 176 0
157 179 0
151 174 0
158 179 0
155 177 0
154 177 0
162 184 0
158 180 0
153 176 0
153 174 0
157 179 0
155 177 0
159 181 0
160 182 0
160 182 0
161 183 0
157 178 0
159 181 0
161 184 0
155 177 0
156 178 0
158 181 0
158 180 0
155 178 0
161 182 0
159 181 0
159 180 0
163 185 0
160 182 0
157 179 0
160 181 0
160 182 0
161 183 0
152 175 0
164 186 0
162 185 0
159 181 0
162 184 0
164 185 0
158 179 0
161 182 0
165 188 0
161 182 0
166 187 0
166 187 0
160 183 0
161 184 0
160 182 0
157 178 0
163 186 0
159 180 0
161 184 0
164 187 0
162 184 0
162 183 0
157 179 0
166 188 0
165 186 0
164 186 0
164 186 0
165 186 0
163 183 0
157 179 0
165 188 0
167 190 0
164 185 0
163 186 0
160 182 0
165 187 0
162 184 0
163 186 0
162 184 0
164 184 0
164 186 0
165 186 0
165 187 0
164 185 0
166 187 0
164 186 0
167 188 0
165 186 0
158 180 0
162 184 0
164 184 0
170 192 0
161 181 0
164 186 0
169 190 0
166 186 0
157 179 0
166 188 0
165 186 0
167 189 0
167 188 0
164 187 0
167 190 0
167 186 0
167 190 0
165 187 0
166 189 0
166 188 0
164 188 0
166 188 0
168 190 0
165 186 0
167 190 0
165 185 0
167 190 0
166 187 0
167 187 0
165 187 0
169 191 0
164 187 0
166 187 0
167 189 0
168 191 0
167 189 0
166 189 0
167 189 0
166 189 0
163 185 0
168 190 0
167 190 0
165 187 0
167 190 0
164 184 0
174 196 108
172 195 84
175 198 102
176 198 102
170 193 99
168 191 92
174 197 92
173 196 105
171 193 88
172 194 76
171 194 67
174 197 76
174 197 92
176 199 92
168 191 102
175 198 102
168 190 92
171 194 92
173 195 114
173 196 95
174 197 102
171 194 105
171 193 95
168 191 80
169 191 95
166 189 72
170 192 99
167 190 84
170 193 72
170 193 102
172 195 102
169 192 80
175 198 108
172 194 92
171 193 84
168 191 88
166 190 102
172 194 99
167 190 95
171 193 84
172 195 99
174 197 122
172 195 122
171 193 108
169 192 99
169 191 120
166 189 114
170 192 120
170 193 92
167 190 114
169 191 99
164 186 80
166 188 99
162 184 76
162 185 88
162 184 92
173 195 105
163 184 92
164 186 99
170 191 105
158 181 84
166 187 95
163 185 80
159 180 62
165 187 105
163 185 95
172 192 88
161 183 95
165 187 92
155 176 95
164 185 95
157 179 80
162 183 105
164 185 105
162 184 80
167 188 99
158 180 62
171 192 114
160 181 99
157 178 80
164 185 92
162 183 80
165 185 95
162 183 88
162 182 92
160 182 80
166 186 125
164 185 111
155 176 84
150 172 76
162 183 95
162 183 105
156 177 76
176 196 120
163 184 95
165 186 92
156 178 62
159 180 72
168 188 102
164 185 88
156 177 76
157 177 102
155 176 67
157 178 80
166 187 95
160 181 76
158 179 88
159 179 62
156 177 84
155 176 76
153 174 72
152 174 72
149 171 57
160 181 62
152 174 25
159 180 72
160 183 25
150 172 25
148 170 36
147 169 0
156 177 36
149 170 25
161 182 25
159 179 51
150 172 36
149 172 0
146 167 25
151 173 0
148 171 25
163 185 0
166 189 0
157 180 0
155 177 0
161 184 0
157 180 0
159 181 0
146 168 0
158 181 0
154 177 0
150 171 0
149 172 0
145 167 0
152 174 0
152 175 0
157 180 0
144 165 0
149 170 0
145 166 0
136 157 0
140 160 0
147 170 0
146 167 0
135 156 0
153 174 0
138 159 0
138 159 0
143 164 0
146 168 0
138 160 0
141 163 0
141 162 0
135 155 0
138 159 0
138 159 0
139 161 0
139 161 0
148 170 0
139 159 0
142 163 0
144 164 0
146 167 0
141 163 0
137 160 0
134 154 0
145 167 0
142 164 0
141 162 0
129 150 0
142 163 0
145 168 0
137 157 0
140 161 0
144 164 0
141 161 0
144 165 0
139 161 0
137 157 0
134 155 0
149 171 0
145 167 0
138 159 0
146 167 0
150 170 0
140 160 0
151 174 0
138 159 0
145 166 0
144 165 0
135 156 0
147 169 0
144 166 0
148 169 0
145 166 0
152 174 0
144 166 0
152 173 0
145 166 0
143 165 0
153 174 0
146 167 0
151 173 0
149 170 0
140 161 0
149 171 0
140 160 0
142 164 0
147 169 0
145 166 0
148 169 0
142 164 0
147 169 0
143 164 0
148 170 0
146 168 0
141 163 0
145 166 0
143 163 0
147 169 0
149 171 0
155 177 0
150 172 0
133 154 0
144 165 0
141 163 0
150 172 0
150 170 0
148 170 0
151 173 0
143 163 0
145 167 0
142 166 0
144 165 0
152 173 0
149 171 0
152 174 0
151 172 0
148 169 0
155 177 0
147 170 0
152 172 0
142 164 0
155 176 0
151 172 0
151 172 0
152 174 0
147 168 0
149 170 0
150 172 0
144 166 0
155 177 0
154 175 0
156 176 0
154 175 0
159 182 0
155 176 0
150 172 0
157 178 0
150 172 0
153 174 0
153 174 0
153 175 0
160 180 0
157 179 0
160 182 0
157 177 0
161 183 0
153 175 0
155 176 0
162 184 0
159 182 0
159 181 0
151 173 0
153 176 0
162 185 0
158 180 0
159 181 0
159 181 0
155 177 0
157 178 0
160 182 0
158 179 0
153 174 0
166 190 0
157 177 0
157 179 0
155 177 0
152 174 0
157 179 0
164 185 0
153 176 0
155 176 0
160 181 0
156 178 0
163 185 0
165 187 0
159 182 0
163 186 0
154 176 0
156 178 0
151 172 0
159 181 0
161 184 0
164 186 0
161 183 0
160 183 0
156 178 0
162 184 0
164 186 0
162 184 0
159 180 0
165 186 0
164 185 0
159 183 0
159 181 0
160 182 0
163 185 0
157 179 0
159 181 0
164 186 0
160 181 0
160 182 0
165 186 0
160 182 0
162 183 0
163 185 0
163 183 0
168 189 0
162 184 0
165 188 0
162 183 0
164 188 0
166 188 0
166 188 0
163 184 0
166 190 0
160 183 0
164 185 0
169 190 0
165 186 0
160 182 0
168 189 0
165 188 0
164 186 0
164 186 0
170 192 0
163 186 0
159 181 0
162 184 0
166 188 0
162 185 0
165 188 0
165 188 0
163 186 0
163 183 0
166 187 0
165 188 0
169 191 0
169 191 0
165 187 0
169 190 0
163 186 0
162 183 0
165 186 0
168 190 0
167 189 0
168 190 0
168 189 0
167 188 0
171 194 0
167 188 0
164 184 0
169 191 0
164 186 0
171 193 0
169 190 0
171 193 0
168 189 0
167 187 0
167 189 0
168 191 0
168 191 0
169 193 0
168 192 0
169 192 0
167 189 0
169 192 0
166 189 0
167 189 0
170 193 0
167 190 0
