P3
400 225
255
204 226 255
204 226 255
204 226 255
204 226 255
204 226 255
204 226 255
204 226 255
204 226 255
204 226 255
204 226 255
204 226 255
204 226 255
204 226 255
204 226 255
204 226 255
203 226 255
203 226 255
203 226 255
203 226 255
202 224 255
191 212 255
185 205 255
176 195 255
165 183 255
162 180 255
139 154 255
133 148 255
133 148 255
131 146 255
111 123 255
109 121 255
86 95 255
78 87 255
70 78 255
73 81 255
49 55 255
35 39 255
35 39 255
0 0 255
0 0 255
0 0 255
0 0 255
0 0 255
20 22 255
45 50 255
57 63 255
28 31 255
75 84 255
72 81 255
66 74 255
80 90 255
106 119 255
98 110 255
110 123 255
122 136 255
156 174 255
156 174 255
159 178 255
169 189 255
176 197 255
187 209 255
192 215 255
201 224 255
200 224 255
200 224 255
200 224 255
200 224 255
200 224 255
200 224 255
200 224 255
200 224 255
200 224 255
200 224 255
200 224 255
200 224 255
200 224 255
200 224 255
199 224 255
199 224 255
199 224 255
199 223 255
199 223 255
199 223 255
199 223 255
199 223 255
199 223 255
199 223 255
199 223 255
199 223 255
199 223 255
199 223 255
199 223 255
198 223 255
198 223 255
198 223 255
198 223 255
198 223 255
198 223 255
198 223 255
198 223 255
198 223 255
198 223 255
198 223 255
198 223 255
198 223 255
198 223 255
197 223 255
197 222 255
197 222 255
197 222 255
197 222 255
197 222 255
197 222 255
197 222 255
197 222 255
197 222 255
197 222 255
197 222 255
197 222 255
197 222 255
197 222 255
196 222 255
196 222 255
196 222 255
196 222 255
196 222 255
196 222 255
196 222 255
196 222 255
196 222 255
196 222 255
196 222 255
196 222 255
196 222 255
196 222 255
196 221 255
196 221 255
195 221 255
195 221 255
195 221 255
195 221 255
195 221 255
195 221 255
195 221 255
195 221 255
195 221 255
195 221 255
195 221 255
195 221 255
195 221 255
195 221 255
195 221 255
195 221 255
195 221 255
195 221 255
194 221 255
194 221 255
194 221 255
194 221 255
194 221 255
194 221 255
194 221 255
194 221 255
194 221 255
194 221 255
194 221 255
194 221 255
194 221 255
194 221 255
194 221 255
194 221 255
194 221 255
194 221 255
194 221 255
194 221 255
194 221 255
194 221 255
194 220 255
194 220 255
194 220 255
194 220 255
194 220 255
194 220 255
194 220 255
194 220 255
194 220 255
193 220 255
193 220 255
193 220 255
193 220 255
193 220 255
193 220 255
193 220 255
193 220 255
193 220 255
193 220 255
193 220 255
193 220 255
193 220 255
193 220 255
193 220 255
193 220 255
193 220 255
193 220 255
193 220 255
193 220 255
193 220 255
193 220 255
193 220 255
193 220 255
193 220 255
193 220 255
193 220 255
193 220 255
194 220 255
194 220 255
194 220 255
194 220 255
194 220 255
194 220 255
194 220 255
194 220 255
194 220 255
194 221 255
194 221 255
194 221 255
194 221 255
194 221 255
194 221 255
194 221 255
194 221 255
194 221 255
194 221 255
194 221 255
194 221 255
194 221 255
194 221 255
194 221 255
194 221 255
194 221 255
194 221 255
194 221 255
194 221 255
194 221 255
194 221 255
195 221 255
195 221 255
195 221 255
195 221 255
195 221 255
195 221 255
195 221 255
195 221 255
195 221 255
195 221 255
195 221 255
195 221 255
195 221 255
195 221 255
195 221 255
195 221 255
195 221 255
195 221 255
196 221 255
196 221 255
196 222 255
196 222 255
196 222 255
196 222 255
196 222 255
196 222 255
196 222 255
196 222 255
196 222 255
196 222 255
196 222 255
196 222 255
196 222 255
196 222 255
197 222 255
197 222 255
197 222 255
197 222 255
197 222 255
197 222 255
197 222 255
197 222 255
197 222 255
197 222 255
197 222 255
197 222 255
197 222 255
197 222 255
197 222 255
198 223 255
198 223 255
198 223 255
198 223 255
198 223 255
198 223 255
198 223 255
198 223 255
198 223 255
198 223 255
198 223 255
198 223 255
198 223 255
198 223 255
199 223 255
199 223 255
199 223 255
199 223 255
199 223 255
199 223 255
199 223 255
199 223 255
199 223 255
199 223 255
199 223 255
199 223 255
199 224 255
199 224 255
200 224 255
200 224 255
200 224 255
200 224 255
200 224 255
200 224 255
200 224 255
200 224 255
200 224 255
200 224 255
200 224 255
200 224 255
200 224 255
200 224 255
200 224 255
201 224 255
201 211 241
200 205 234
200 193 220
200 179 204
202 168 191
203 165 188
204 159 181
202 136 155
203 131 149
200 134 153
204 98 111
205 105 120
202 92 105
201 71 80
203 81 92
204 50 57
206 50 57
204 39 44
206 39 44
201 31 36
204 0 0
203 0 0
206 0 0
205 39 44
205 45 51
202 22 25
204 63 72
203 81 92
204 95 108
206 74 84
204 112 128
205 135 153
203 139 157
204 137 155
205 131 149
205 146 165
206 159 181
204 167 189
204 191 217
205 189 214
204 207 234
204 218 246
203 226 255
203 226 255
203 226 255
203 226 255
203 226 255
204 226 255
204 226 255
204 226 255
204 226 255
204 226 255
204 226 255
204 226 255
204 226 255
204 226 255
204 226 255
204 226 255
204 226 255
204 226 255
204 226 255
204 226 255
204 226 255
204 226 255
204 226 255
204 226 255
204 226 255
204 226 255
204 226 255
204 226 255
204 226 255
204 226 255
204 226 255
200 221 255
180 199 255
163 181 255
154 170 255
148 164 255
109 121 255
70 78 255
81 90 255
0 0 255
0 0 255
0 0 255
0 0 255
0 0 255
0 0 255
0 0 255
0 0 255
0 0 255
0 0 255
0 0 255
0 0 255
0 0 255
0 0 255
0 0 255
0 0 255
0 0 255
0 0 255
0 0 255
0 0 255
0 0 255
0 0 255
0 0 255
0 0 255
0 0 255
0 0 255
0 0 255
0 0 255
0 0 255
0 0 255
0 0 255
0 0 255
0 0 255
0 0 255
0 0 255
0 0 255
0 0 255
0 0 255
0 0 254
0 0 255
0 0 255
0 0 255
0 0 255
53 59 255
85 95 255
104 116 255
122 136 255
137 153 255
155 173 255
170 190 255
185 206 255
197 221 255
200 224 255
200 224 255
200 224 255
200 224 255
200 224 255
200 224 255
200 224 255
200 224 255
200 224 255
199 224 255
199 224 255
199 223 255
199 223 255
199 223 255
199 223 255
199 223 255
199 223 255
199 223 255
199 223 255
199 223 255
199 223 255
199 223 255
199 223 255
198 223 255
198 223 255
198 223 255
198 223 255
198 223 255
198 223 255
198 223 255
198 223 255
198 223 255
198 223 255
198 223 255
198 223 255
198 223 255
198 223 255
197 223 255
197 222 255
197 222 255
197 222 255
197 222 255
197 222 255
197 222 255
197 222 255
197 222 255
197 222 255
197 222 255
197 222 255
197 222 255
197 222 255
197 222 255
196 222 255
196 222 255
196 222 255
196 222 255
196 222 255
196 222 255
196 222 255
196 222 255
196 222 255
196 222 255
196 222 255
196 222 255
196 222 255
196 222 255
196 222 255
196 221 255
195 221 255
195 221 255
195 221 255
195 221 255
195 221 255
195 221 255
195 221 255
195 221 255
195 221 255
195 221 255
195 221 255
195 221 255
195 221 255
195 221 255
195 221 255
195 221 255
195 221 255
195 221 255
195 221 255
194 221 255
194 221 255
194 221 255
194 221 255
194 221 255
194 221 255
194 221 255
194 221 255
194 221 255
194 221 255
194 221 255
194 221 255
194 221 255
194 221 255
194 221 255
194 221 255
194 221 255
194 221 255
194 221 255
194 221 255
194 221 255
194 221 255
194 221 255
194 221 255
194 221 255
194 220 255
194 220 255
194 220 255
194 220 255
194 220 255
194 220 255
194 220 255
194 220 255
194 220 255
194 220 255
194 220 255
194 220 255
194 220 255
194 220 255
194 220 255
194 220 255
194 220 255
194 220 255
194 220 255
194 220 255
194 220 255
194 220 255
194 220 255
194 220 255
194 220 255
194 220 255
194 220 255
194 220 255
194 220 255
194 220 255
194 220 255
194 220 255
194 220 255
194 220 255
194 221 255
194 221 255
194 221 255
194 221 255
194 221 255
194 221 255
194 221 255
194 221 255
194 221 255
194 221 255
194 221 255
194 221 255
194 221 255
194 221 255
194 221 255
194 221 255
194 221 255
194 221 255
194 221 255
194 221 255
194 221 255
194 221 255
194 221 255
194 221 255
194 221 255
195 221 255
195 221 255
195 221 255
195 221 255
195 221 255
195 221 255
195 221 255
195 221 255
195 221 255
195 221 255
195 221 255
195 221 255
195 221 255
195 221 255
195 221 255
195 221 255
195 221 255
195 221 255
195 221 255
196 221 255
196 222 255
196 222 255
196 222 255
196 222 255
196 222 255
196 222 255
196 222 255
196 222 255
196 222 255
196 222 255
196 222 255
196 222 255
196 222 255
196 222 255
196 222 255
197 222 255
197 222 255
197 222 255
197 222 255
197 222 255
197 222 255
197 222 255
197 222 255
197 222 255
197 222 255
197 222 255
197 222 255
197 222 255
197 222 255
197 223 255
198 223 255
198 223 255
198 223 255
198 223 255
198 223 255
198 223 255
198 223 255
198 223 255
198 223 255
198 223 255
198 223 255
198 223 255
198 223 255
198 223 255
199 223 255
199 223 255
199 223 255
199 223 255
199 223 255
199 223 255
199 223 255
199 223 255
199 223 255
199 223 255
199 223 255
199 223 255
199 224 255
199 224 255
200 224 255
200 224 255
200 224 255
200 224 255
200 224 255
200 224 255
200 224 255
200 224 255
200 224 255
200 219 250
201 206 236
202 189 215
201 176 201
202 155 177
204 120 137
203 116 133
202 100 114
201 50 57
201 0 0
202 0 0
204 0 0
203 0 0
203 0 0
207 0 0
204 0 0
200 0 0
205 0 0
204 0 0
203 0 0
206 0 0
200 0 0
204 0 0
209 0 0
206 0 0
204 0 0
205 0 0
203 0 0
203 0 0
205 0 0
206 0 0
205 0 0
205 0 0
206 0 0
205 0 0
205 0 0
207 0 0
207 0 0
204 0 0
205 0 0
206 0 0
203 0 0
205 0 0
208 0 0
202 0 0
205 0 0
202 0 0
206 0 0
202 0 0
205 0 0
203 0 0
206 45 51
203 81 92
205 98 111
204 144 163
206 150 169
204 182 206
205 181 204
205 213 241
203 217 245
204 226 255
204 226 255
204 226 255
204 226 255
204 226 255
204 226 255
204 226 255
204 226 255
204 226 255
204 226 255
204 226 255
205 226 255
205 226 255
204 226 255
204 226 255
201 223 255
198 219 255
165 182 255
140 155 255
106 117 255
81 90 255
61 67 255
0 0 255
0 0 255
0 0 255
0 0 255
0 0 255
0 0 255
0 0 255
0 0 255
0 0 255
0 0 255
0 0 255
0 0 255
0 0 255
0 0 255
0 0 255
0 0 255
0 0 255
0 0 255
0 0 255
0 0 255
0 0 255
0 0 255
0 0 255
0 0 255
0 0 255
0 0 255
0 0 255
0 0 255
0 0 255
0 0 255
0 0 255
0 0 255
0 0 255
0 0 254
0 0 254
0 0 255
0 0 255
0 0 254
0 0 255
0 0 255
0 0 255
0 0 255
0 0 255
0 0 254
0 0 255
0 0 254
0 0 255
0 0 255
0 0 255
0 0 255
0 0 255
0 0 254
0 0 255
0 0 254
0 0 255
0 0 255
0 0 254
0 0 255
0 0 255
0 0 255
56 63 255
89 100 255
120 134 255
157 176 255
165 184 255
178 199 255
199 223 255
200 224 255
200 224 255
200 224 255
200 224 255
199 224 255
199 224 255
199 223 255
199 223 255
199 223 255
199 223 255
199 223 255
199 223 255
199 223 255
199 223 255
199 223 255
199 223 255
199 223 255
199 223 255
198 223 255
198 223 255
198 223 255
198 223 255
198 223 255
198 223 255
198 223 255
198 223 255
198 223 255
198 223 255
198 223 255
198 223 255
198 223 255
198 223 255
197 223 255
197 222 255
197 222 255
197 222 255
197 222 255
197 222 255
197 222 255
197 222 255
197 222 255
197 222 255
197 222 255
197 222 255
197 222 255
197 222 255
197 222 255
196 222 255
196 222 255
196 222 255
196 222 255
196 222 255
196 222 255
196 222 255
196 222 255
196 222 255
196 222 255
196 222 255
196 222 255
196 222 255
196 222 255
196 222 255
196 221 255
196 221 255
195 221 255
195 221 255
195 221 255
195 221 255
195 221 255
195 221 255
195 221 255
195 221 255
195 221 255
195 221 255
195 221 255
195 221 255
195 221 255
195 221 255
195 221 255
195 221 255
195 221 255
195 221 255
195 221 255
194 221 255
194 221 255
194 221 255
194 221 255
194 221 255
194 221 255
194 221 255
194 221 255
194 221 255
194 221 255
194 221 255
194 221 255
194 221 255
194 221 255
194 221 255
194 221 255
194 221 255
194 221 255
194 221 255
194 221 255
194 221 255
194 221 255
194 221 255
194 221 255
194 221 255
194 221 255
194 221 255
194 221 255
194 221 255
194 221 255
194 221 255
194 220 255
194 220 255
194 220 255
194 220 255
194 220 255
194 220 255
194 220 255
194 220 255
194 220 255
194 220 255
194 220 255
194 220 255
194 220 255
194 220 255
194 220 255
194 221 255
194 221 255
194 221 255
194 221 255
194 221 255
194 221 255
194 221 255
194 221 255
194 221 255
194 221 255
194 221 255
194 221 255
194 221 255
194 221 255
194 221 255
194 221 255
194 221 255
194 221 255
194 221 255
194 221 255
194 221 255
194 221 255
194 221 255
194 221 255
194 221 255
194 221 255
194 221 255
194 221 255
194 221 255
194 221 255
194 221 255
195 221 255
195 221 255
195 221 255
195 221 255
195 221 255
195 221 255
195 221 255
195 221 255
195 221 255
195 221 255
195 221 255
195 221 255
195 221 255
195 221 255
195 221 255
195 221 255
195 221 255
195 221 255
195 221 255
195 221 255
196 221 255
196 221 255
196 222 255
196 222 255
196 222 255
196 222 255
196 222 255
196 222 255
196 222 255
196 222 255
196 222 255
196 222 255
196 222 255
196 222 255
196 222 255
196 222 255
196 222 255
197 222 255
197 222 255
197 222 255
197 222 255
197 222 255
197 222 255
197 222 255
197 222 255
197 222 255
197 222 255
197 222 255
197 222 255
197 222 255
197 222 255
197 223 255
198 223 255
198 223 255
198 223 255
198 223 255
198 223 255
198 223 255
198 223 255
198 223 255
198 223 255
198 223 255
198 223 255
198 223 255
198 223 255
198 223 255
199 223 255
199 223 255
199 223 255
199 223 255
199 223 255
199 223 255
199 223 255
199 223 255
199 223 255
199 223 255
199 223 255
199 223 255
199 224 255
199 224 255
200 224 255
200 224 255
200 224 255
200 224 255
200 223 254
200 205 234
200 188 215
199 161 184
201 145 165
202 107 122
204 92 105
201 0 0
202 0 0
198 0 0
205 0 0
203 0 0
204 0 0
203 0 0
203 0 0
203 0 0
205 0 0
204 0 0
205 0 0
202 0 0
203 0 0
204 0 0
202 0 0
203 0 0
205 0 0
208 0 0
205 0 0
200 0 0
202 0 0
205 0 0
206 0 0
205 0 0
202 0 0
206 0 0
207 0 0
207 0 0
204 0 0
205 0 0
205 0 0
207 0 0
205 0 0
206 0 0
203 0 0
203 0 0
205 0 0
206 0 0
204 0 0
208 0 0
205 0 0
207 0 0
205 0 0
207 0 0
202 0 0
204 0 0
208 0 0
207 0 0
209 0 0
207 0 0
205 0 0
204 0 0
206 0 0
207 0 0
207 0 0
206 0 0
206 0 0
207 0 0
206 0 0
207 59 67
209 93 105
203 143 161
203 161 182
203 188 212
205 200 226
204 224 253
204 226 255
204 226 255
205 226 255
205 226 255
161 178 255
156 172 255
119 132 255
84 93 255
28 32 255
0 0 255
0 0 255
0 0 255
0 0 255
0 0 255
0 0 255
0 0 255
0 0 255
0 0 255
0 0 255
0 0 255
0 0 255
0 0 255
0 0 255
0 0 255
0 0 255
0 0 255
0 0 255
0 0 255
0 0 255
0 0 255
0 0 255
0 0 255
0 0 255
0 0 255
0 0 255
0 0 255
0 0 255
0 0 255
0 0 255
0 0 255
0 0 255
0 0 255
0 0 255
0 0 255
0 0 255
0 0 255
0 0 255
0 0 255
0 0 255
0 0 255
0 0 255
0 0 255
0 0 254
0 0 254
0 0 255
0 0 255
0 0 255
0 0 255
0 0 255
0 0 255
0 0 254
0 0 255
0 0 255
0 0 255
0 0 255
0 0 255
0 0 255
0 0 255
0 0 255
0 0 255
0 0 255
0 0 255
0 0 255
0 0 255
0 0 255
0 0 255
0 0 254
0 0 255
0 0 254
0 0 255
0 0 254
34 38 255
98 109 255
116 130 255
145 163 255
158 177 255
188 211 255
200 224 255
199 224 255
199 224 255
199 223 255
199 223 255
199 223 255
199 223 255
199 223 255
199 223 255
199 223 255
199 223 255
199 223 255
199 223 255
199 223 255
199 223 255
198 223 255
198 223 255
198 223 255
198 223 255
198 223 255
198 223 255
198 223 255
198 223 255
198 223 255
198 223 255
198 223 255
198 223 255
198 223 255
198 223 255
197 223 255
197 222 255
197 222 255
197 222 255
197 222 255
197 222 255
197 222 255
197 222 255
197 222 255
197 222 255
197 222 255
197 222 255
197 222 255
197 222 255
197 222 255
196 222 255
196 222 255
196 222 255
196 222 255
196 222 255
196 222 255
196 222 255
196 222 255
196 222 255
196 222 255
196 222 255
196 222 255
196 222 255
196 222 255
196 222 255
196 221 255
196 221 255
195 221 255
195 221 255
195 221 255
195 221 255
195 221 255
195 221 255
195 221 255
195 221 255
195 221 255
195 221 255
195 221 255
195 221 255
195 221 255
195 221 255
195 221 255
195 221 255
195 221 255
195 221 255
195 221 255
195 221 255
195 221 255
194 221 255
194 221 255
194 221 255
194 221 255
194 221 255
194 221 255
194 221 255
194 221 255
194 221 255
194 221 255
194 221 255
194 221 255
194 221 255
194 221 255
194 221 255
194 221 255
194 221 255
194 221 255
194 221 255
194 221 255
194 221 255
194 221 255
194 221 255
194 221 255
194 221 255
194 221 255
194 221 255
194 221 255
194 221 255
194 221 255
194 221 255
194 221 255
194 221 255
194 221 255
194 221 255
194 221 255
194 221 255
194 221 255
194 221 255
194 221 255
194 221 255
194 221 255
194 221 255
194 221 255
194 221 255
194 221 255
194 221 255
194 221 255
194 221 255
194 221 255
194 221 255
194 221 255
194 221 255
194 221 255
194 221 255
194 221 255
194 221 255
194 221 255
194 221 255
194 221 255
194 221 255
194 221 255
194 221 255
194 221 255
194 221 255
194 221 255
194 221 255
194 221 255
194 221 255
194 221 255
195 221 255
195 221 255
195 221 255
195 221 255
195 221 255
195 221 255
195 221 255
195 221 255
195 221 255
195 221 255
195 221 255
195 221 255
195 221 255
195 221 255
195 221 255
195 221 255
195 221 255
195 221 255
195 221 255
195 221 255
195 221 255
196 221 255
196 222 255
196 222 255
196 222 255
196 222 255
196 222 255
196 222 255
196 222 255
196 222 255
196 222 255
196 222 255
196 222 255
196 222 255
196 222 255
196 222 255
196 222 255
196 222 255
197 222 255
197 222 255
197 222 255
197 222 255
197 222 255
197 222 255
197 222 255
197 222 255
197 222 255
197 222 255
197 222 255
197 222 255
197 222 255
197 222 255
197 223 255
198 223 255
198 223 255
198 223 255
198 223 255
198 223 255
198 223 255
198 223 255
198 223 255
198 223 255
198 223 255
198 223 255
198 223 255
198 223 255
198 223 255
199 223 255
199 223 255
199 223 255
199 223 255
199 223 255
199 223 255
199 223 255
199 223 255
199 223 255
199 223 255
199 223 255
199 223 255
199 224 255
199 224 255
200 224 255
199 217 248
201 196 224
199 166 189
201 147 167
200 83 95
205 22 25
200 0 0
203 0 0
204 0 0
204 0 0
201 0 0
201 0 0
201 0 0
203 0 0
204 0 0
203 0 0
205 0 0
204 0 0
203 0 0
204 0 0
204 0 0
202 0 0
205 0 0
205 0 0
205 0 0
206 0 0
204 0 0
205 0 0
202 0 0
202 0 0
202 0 0
205 0 0
204 0 0
206 0 0
204 0 0
206 0 0
204 0 0
208 0 0
207 0 0
203 0 0
206 0 0
205 0 0
207 0 0
205 0 0
205 0 0
206 0 0
209 0 0
206 0 0
207 0 0
204 0 0
205 0 0
207 0 0
204 0 0
210 0 0
205 0 0
205 0 0
207 0 0
209 0 0
205 0 0
205 0 0
207 0 0
206 0 0
208 0 0
207 0 0
206 0 0
206 0 0
209 0 0
208 0 0
204 0 0
205 0 0
207 0 0
206 0 0
207 0 0
210 0 0
208 0 0
204 0 0
204 0 0
206 0 0
210 32 36
208 64 72
206 136 153
206 153 173
206 185 209
0 0 255
0 0 255
0 0 255
0 0 255
0 0 255
0 0 255
0 0 255
0 0 255
0 0 255
0 0 255
0 0 255
0 0 255
0 0 255
0 0 255
0 0 255
0 0 255
0 0 255
0 0 255
0 0 255
0 0 255
0 0 255
0 0 254
0 0 255
0 0 255
0 0 255
0 0 255
0 0 255
0 0 255
0 0 255
0 0 255
0 0 255
0 0 255
0 0 255
0 0 255
0 0 255
0 0 255
0 0 255
0 0 255
0 0 255
0 0 255
0 0 254
0 0 255
0 0 255
0 0 255
0 0 254
0 0 255
0 0 255
0 0 255
0 0 255
0 0 255
0 0 255
0 0 255
0 0 254
0 0 255
0 0 255
0 0 254
0 0 255
0 0 255
0 0 255
0 0 255
0 0 255
0 0 254
0 0 255
0 0 255
0 0 255
0 0 255
0 0 255
0 0 255
0 0 255
0 0 254
0 0 255
0 0 255
0 0 254
0 0 254
0 0 254
0 0 255
0 0 255
0 0 254
0 0 255
0 0 255
0 0 255
0 0 254
0 0 255
52 59 255
109 122 254
141 158 255
166 186 255
187 210 255
199 223 255
199 223 255
199 223 255
199 223 255
199 223 255
199 223 255
199 223 255
199 223 255
199 223 255
199 223 255
199 223 255
199 223 255
198 223 255
198 223 255
198 223 255
198 223 255
198 223 255
198 223 255
198 223 255
198 223 255
198 223 255
198 223 255
198 223 255
198 223 255
198 223 255
198 223 255
198 223 255
197 222 255
197 222 255
197 222 255
197 222 255
197 222 255
197 222 255
197 222 255
197 222 255
197 222 255
197 222 255
197 222 255
197 222 255
197 222 255
197 222 255
197 222 255
196 222 255
196 222 255
196 222 255
196 222 255
196 222 255
196 222 255
196 222 255
196 222 255
196 222 255
196 222 255
196 222 255
196 222 255
196 222 255
196 222 255
196 222 255
196 221 255
196 221 255
195 221 255
195 221 255
195 221 255
195 221 255
195 221 255
195 221 255
195 221 255
195 221 255
195 221 255
195 221 255
195 221 255
195 221 255
195 221 255
195 221 255
195 221 255
195 221 255
195 221 255
195 221 255
195 221 255
195 221 255
195 221 255
195 221 255
194 221 255
194 221 255
194 221 255
194 221 255
194 221 255
194 221 255
194 221 255
194 221 255
194 221 255
194 221 255
194 221 255
194 221 255
194 221 255
194 221 255
194 221 255
194 221 255
194 221 255
194 221 255
194 221 255
194 221 255
194 221 255
194 221 255
194 221 255
194 221 255
194 221 255
194 221 255
194 221 255
194 221 255
194 221 255
194 221 255
194 221 255
194 221 255
194 221 255
194 221 255
194 221 255
194 221 255
194 221 255
194 221 255
194 221 255
194 221 255
194 221 255
194 221 255
194 221 255
194 221 255
194 221 255
194 221 255
194 221 255
194 221 255
194 221 255
194 221 255
194 221 255
194 221 255
194 221 255
194 221 255
194 221 255
194 221 255
194 221 255
194 221 255
194 221 255
194 221 255
194 221 255
194 221 255
195 221 255
195 221 255
195 221 255
195 221 255
195 221 255
195 221 255
195 221 255
195 221 255
195 221 255
195 221 255
195 221 255
195 221 255
195 221 255
195 221 255
195 221 255
195 221 255
195 221 255
195 221 255
195 221 255
195 221 255
195 221 255
195 221 255
196 221 255
196 221 255
196 222 255
196 222 255
196 222 255
196 222 255
196 222 255
196 222 255
196 222 255
196 222 255
196 222 255
196 222 255
196 222 255
196 222 255
196 222 255
196 222 255
196 222 255
197 222 255
197 222 255
197 222 255
197 222 255
197 222 255
197 222 255
197 222 255
197 222 255
197 222 255
197 222 255
197 222 255
197 222 255
197 222 255
197 222 255
197 222 255
198 223 255
198 223 255
198 223 255
198 223 255
198 223 255
198 223 255
198 223 255
198 223 255
198 223 255
198 223 255
198 223 255
198 223 255
198 223 255
198 223 255
198 223 255
199 223 255
199 223 255
199 223 255
199 223 255
199 223 255
199 223 255
199 223 255
199 223 255
199 223 255
199 223 255
199 223 255
199 223 255
200 213 244
201 186 212
200 163 186
201 122 140
202 70 80
203 0 0
202 0 0
202 0 0
202 0 0
203 0 0
201 0 0
206 0 0
201 0 0
205 0 0
204 0 0
204 0 0
199 0 0
202 0 0
205 0 0
204 0 0
203 0 0
205 0 0
204 0 0
205 0 0
206 0 0
205 0 0
204 0 0
205 0 0
205 0 0
207 0 0
203 0 0
204 0 0
207 0 0
206 0 0
208 0 0
204 0 0
204 0 0
208 0 0
203 0 0
205 0 0
207 0 0
202 0 0
203 0 0
205 0 0
205 0 0
203 0 0
203 0 0
203 0 0
209 0 0
202 0 0
204 0 0
209 0 0
206 0 0
209 0 0
206 0 0
209 0 0
209 0 0
208 0 0
208 0 0
205 0 0
204 0 0
207 0 0
206 0 0
208 0 0
207 0 0
207 0 0
205 0 0
208 0 0
208 0 0
205 0 0
209 0 0
204 0 0
206 0 0
202 0 0
207 0 0
208 0 0
211 0 0
206 0 0
205 0 0
207 0 0
207 0 0
208 0 0
206 0 0
207 0 0
207 0 0
207 0 0
209 0 0
207 0 0
0 0 255
0 0 255
0 0 255
0 0 255
0 0 255
0 0 255
0 0 255
0 0 255
0 0 255
0 0 255
0 0 255
0 0 255
0 0 255
0 0 255
0 0 255
0 0 255
0 0 255
0 0 255
0 0 255
0 0 255
0 0 255
0 0 255
0 0 255
0 0 255
0 0 255
0 0 255
0 0 255
0 0 255
0 0 255
0 0 255
0 0 255
0 0 255
0 0 255
0 0 255
0 0 255
0 0 255
0 0 255
0 0 255
0 0 255
0 0 255
0 0 255
0 0 255
0 0 255
0 0 255
0 0 255
0 0 255
0 0 255
0 0 254
0 0 255
0 0 255
0 0 255
0 0 255
0 0 255
0 0 255
0 0 255
0 0 255
0 0 255
0 0 255
0 0 255
0 0 254
0 0 255
0 0 255
0 0 255
0 0 255
0 0 254
0 0 254
0 0 255
0 0 255
0 0 255
0 0 255
0 0 255
0 0 255
0 0 255
0 0 255
0 0 254
0 0 255
0 0 255
0 0 255
0 0 255
0 0 254
0 0 255
0 0 255
0 0 255
0 0 254
0 0 254
0 0 255
0 0 255
0 0 254
89 100 255
127 143 255
156 174 255
178 200 255
199 223 255
199 223 255
199 223 255
199 223 255
199 223 255
199 223 255
199 223 255
199 223 255
199 223 255
199 223 255
198 223 255
198 223 255
198 223 255
198 223 255
198 223 255
198 223 255
198 223 255
198 223 255
198 223 255
198 223 255
198 223 255
198 223 255
198 223 255
198 223 255
198 223 255
197 222 255
197 222 255
197 222 255
197 222 255
197 222 255
197 222 255
197 222 255
197 222 255
197 222 255
197 222 255
197 222 255
197 222 255
197 222 255
197 222 255
197 222 255
196 222 255
196 222 255
196 222 255
196 222 255
196 222 255
196 222 255
196 222 255
196 222 255
196 222 255
196 222 255
196 222 255
196 222 255
196 222 255
196 222 255
196 222 255
196 222 255
196 221 255
196 221 255
195 221 255
195 221 255
195 221 255
195 221 255
195 221 255
195 221 255
195 221 255
195 221 255
195 221 255
195 221 255
195 221 255
195 221 255
195 221 255
195 221 255
195 221 255
195 221 255
195 221 255
195 221 255
195 221 255
195 221 255
195 221 255
195 221 255
195 221 255
194 221 255
194 221 255
194 221 255
194 221 255
194 221 255
194 221 255
194 221 255
194 221 255
194 221 255
194 221 255
194 221 255
194 221 255
194 221 255
194 221 255
194 221 255
194 221 255
194 221 255
194 221 255
194 221 255
194 221 255
194 221 255
194 221 255
194 221 255
194 221 255
194 221 255
194 221 255
194 221 255
194 221 255
194 221 255
194 221 255
194 221 255
194 221 255
194 221 255
194 221 255
194 221 255
194 221 255
194 221 255
194 221 255
194 221 255
194 221 255
194 221 255
194 221 255
194 221 255
194 221 255
194 221 255
194 221 255
194 221 255
194 221 255
194 221 255
194 221 255
194 221 255
194 221 255
194 221 255
194 221 255
195 221 255
195 221 255
195 221 255
195 221 255
195 221 255
195 221 255
195 221 255
195 221 255
195 221 255
195 221 255
195 221 255
195 221 255
195 221 255
195 221 255
195 221 255
195 221 255
195 221 255
195 221 255
195 221 255
195 221 255
195 221 255
195 221 255
195 221 255
195 221 255
196 221 255
196 222 255
196 222 255
196 222 255
196 222 255
196 222 255
196 222 255
196 222 255
196 222 255
196 222 255
196 222 255
196 222 255
196 222 255
196 222 255
196 222 255
196 222 255
196 222 255
197 222 255
197 222 255
197 222 255
197 222 255
197 222 255
197 222 255
197 222 255
197 222 255
197 222 255
197 222 255
197 222 255
197 222 255
197 222 255
197 222 255
197 222 255
198 223 255
198 223 255
198 223 255
198 223 255
198 223 255
198 223 255
198 223 255
198 223 255
198 223 255
198 223 255
198 223 255
198 223 255
198 223 255
198 223 255
198 223 255
199 223 255
199 223 255
199 223 255
199 223 255
199 223 255
199 223 255
199 223 255
199 223 255
199 223 255
199 221 253
201 210 240
198 158 181
200 130 149
201 95 108
206 0 0
203 0 0
201 0 0
202 0 0
206 0 0
200 0 0
201 0 0
204 0 0
202 0 0
203 0 0
203 0 0
201 0 0
206 0 0
204 0 0
203 0 0
203 0 0
203 0 0
204 0 0
205 0 0
204 0 0
204 0 0
203 0 0
204 0 0
206 0 0
206 0 0
205 0 0
204 0 0
206 0 0
204 0 0
204 0 0
207 0 0
205 0 0
208 0 0
208 0 0
204 0 0
208 0 0
203 0 0
205 0 0
204 0 0
203 0 0
203 0 0
207 0 0
204 0 0
203 0 0
207 0 0
208 0 0
205 0 0
205 0 0
205 0 0
202 0 0
205 0 0
206 0 0
205 0 0
210 0 0
203 0 0
208 0 0
206 0 0
205 0 0
207 0 0
208 0 0
203 0 0
208 0 0
206 0 0
207 0 0
208 0 0
207 0 0
209 0 0
207 0 0
207 0 0
206 0 0
208 0 0
211 0 0
204 0 0
205 0 0
211 0 0
209 0 0
202 0 0
209 0 0
205 0 0
207 0 0
206 0 0
207 0 0
207 0 0
212 0 0
212 0 0
207 0 0
209 0 0
206 0 0
0 0 255
0 0 255
0 0 255
0 0 255
0 0 255
0 0 255
0 0 255
0 0 255
0 0 255
0 0 255
0 0 255
0 0 255
0 0 255
0 0 255
0 0 255
0 0 255
0 0 255
0 0 255
0 0 255
0 0 255
0 0 255
0 0 255
0 0 255
0 0 255
0 0 255
0 0 255
0 0 255
0 0 255
0 0 255
0 0 255
0 0 255
0 0 255
0 0 255
0 0 255
0 0 255
0 0 254
0 0 255
0 0 255
0 0 254
0 0 254
0 0 255
0 0 255
0 0 254
0 0 255
0 0 255
0 0 255
0 0 255
0 0 255
0 0 254
0 0 255
0 0 254
0 0 254
0 0 255
0 0 255
0 0 255
0 0 255
0 0 255
0 0 255
0 0 253
0 0 254
0 0 255
0 0 255
0 0 255
0 0 255
0 0 255
0 0 253
0 0 253
0 0 254
0 0 254
0 0 254
0 0 255
0 0 255
0 0 253
0 0 255
0 0 253
0 0 254
0 0 255
0 0 255
0 0 255
0 0 255
0 0 253
0 0 254
0 0 254
0 0 254
0 0 255
0 0 254
0 0 255
0 0 254
0 0 254
0 0 255
0 0 255
0 0 254
74 83 255
123 138 255
152 170 255
177 198 255
199 223 255
199 223 255
199 223 255
199 223 255
199 223 255
199 223 255
199 223 255
199 223 255
198 223 255
198 223 255
198 223 255
198 223 255
198 223 255
198 223 255
198 223 255
198 223 255
198 223 255
198 223 255
198 223 255
198 223 255
198 223 255
198 223 255
198 223 255
197 222 255
197 222 255
197 222 255
197 222 255
197 222 255
197 222 255
197 222 255
197 222 255
197 222 255
197 222 255
197 222 255
197 222 255
197 222 255
197 222 255
197 222 255
196 222 255
196 222 255
196 222 255
196 222 255
196 222 255
196 222 255
196 222 255
196 222 255
196 222 255
196 222 255
196 222 255
196 222 255
196 222 255
196 222 255
196 222 255
196 222 255
196 222 255
196 221 255
195 221 255
195 221 255
195 221 255
195 221 255
195 221 255
195 221 255
195 221 255
195 221 255
195 221 255
195 221 255
195 221 255
195 221 255
195 221 255
195 221 255
195 221 255
195 221 255
195 221 255
195 221 255
195 221 255
195 221 255
195 221 255
195 221 255
195 221 255
195 221 255
195 221 255
195 221 255
194 221 255
194 221 255
194 221 255
194 221 255
194 221 255
194 221 255
194 221 255
194 221 255
194 221 255
194 221 255
194 221 255
194 221 255
194 221 255
194 221 255
194 221 255
194 221 255
194 221 255
194 221 255
194 221 255
194 221 255
194 221 255
194 221 255
194 221 255
194 221 255
194 221 255
194 221 255
194 221 255
194 221 255
194 221 255
194 221 255
194 221 255
194 221 255
194 221 255
194 221 255
194 221 255
194 221 255
194 221 255
194 221 255
194 221 255
194 221 255
194 221 255
194 221 255
194 221 255
194 221 255
195 221 255
195 221 255
195 221 255
195 221 255
195 221 255
195 221 255
195 221 255
195 221 255
195 221 255
195 221 255
195 221 255
195 221 255
195 221 255
195 221 255
195 221 255
195 221 255
195 221 255
195 221 255
195 221 255
195 221 255
195 221 255
195 221 255
195 221 255
195 221 255
195 221 255
195 221 255
196 221 255
196 222 255
196 222 255
196 222 255
196 222 255
196 222 255
196 222 255
196 222 255
196 222 255
196 222 255
196 222 255
196 222 255
196 222 255
196 222 255
196 222 255
196 222 255
196 222 255
196 222 255
197 222 255
197 222 255
197 222 255
197 222 255
197 222 255
197 222 255
197 222 255
197 222 255
197 222 255
197 222 255
197 222 255
197 222 255
197 222 255
197 222 255
197 222 255
198 223 255
198 223 255
198 223 255
198 223 255
198 223 255
198 223 255
198 223 255
198 223 255
198 223 255
198 223 255
198 223 255
198 223 255
198 223 255
198 223 255
198 223 255
199 223 255
199 223 255
199 223 255
199 223 255
199 223 255
199 223 255
199 223 255
199 221 253
199 217 248
199 170 194
201 122 140
203 70 80
202 0 0
203 0 0
199 0 0
203 0 0
203 0 0
203 0 0
201 0 0
201 0 0
205 0 0
202 0 0
200 0 0
204 0 0
203 0 0
202 0 0
205 0 0
209 0 0
205 0 0
204 0 0
205 0 0
208 0 0
200 0 0
204 0 0
206 0 0
207 0 0
204 0 0
206 0 0
201 0 0
204 0 0
209 0 0
204 0 0
208 0 0
207 0 0
208 0 0
206 0 0
208 0 0
204 0 0
207 0 0
205 0 0
204 0 0
206 0 0
204 0 0
202 0 0
206 0 0
206 0 0
204 0 0
209 0 0
204 0 0
205 0 0
203 0 0
203 0 0
207 0 0
207 0 0
206 0 0
209 0 0
205 0 0
209 0 0
206 0 0
204 0 0
204 0 0
205 0 0
207 0 0
206 0 0
207 0 0
209 0 0
209 0 0
210 0 0
206 0 0
208 0 0
208 0 0
207 0 0
209 0 0
208 0 0
208 0 0
208 0 0
210 0 0
208 0 0
208 0 0
207 0 0
207 0 0
204 0 0
210 0 0
207 0 0
204 0 0
206 0 0
206 0 0
206 0 0
209 0 0
207 0 0
208 0 0
206 0 0
210 0 0
208 0 0
0 0 255
0 0 255
0 0 255
0 0 255
0 0 255
0 0 255
0 0 255
0 0 255
0 0 255
0 0 255
0 0 255
0 0 255
0 0 255
0 0 255
0 0 255
0 0 255
0 0 255
0 0 255
0 0 255
0 0 255
0 0 255
0 0 255
0 0 255
0 0 255
0 0 255
0 0 255
0 0 255
0 0 255
0 0 255
0 0 255
0 0 255
0 0 255
0 0 255
0 0 255
0 0 255
0 0 255
0 0 255
0 0 255
0 0 255
0 0 254
0 0 255
0 0 255
0 0 255
0 0 255
0 0 255
0 0 255
0 0 255
0 0 254
0 0 255
0 0 255
0 0 255
0 0 255
0 0 255
0 0 255
0 0 255
0 0 255
0 0 254
0 0 255
0 0 253
0 0 254
0 0 254
0 0 255
0 0 255
0 0 253
0 0 255
0 0 255
0 0 255
0 0 255
0 0 254
0 0 254
0 0 254
0 0 255
0 0 255
0 0 254
0 0 255
0 0 254
0 0 254
0 0 253
0 0 255
0 0 254
0 0 253
0 0 255
0 0 255
0 0 255
0 0 255
0 0 255
0 0 255
0 0 254
0 0 254
0 0 253
0 0 254
0 0 254
0 0 255
0 0 253
0 0 254
0 0 255
56 63 255
107 120 254
150 168 255
189 212 255
199 223 255
199 223 255
199 223 255
199 223 255
199 223 255
199 223 255
198 223 255
198 223 255
198 223 255
198 223 255
198 223 255
198 223 255
198 223 255
198 223 255
198 223 255
198 223 255
198 223 255
198 223 255
198 223 255
198 223 255
198 223 255
197 223 255
197 222 255
197 222 255
197 222 255
197 222 255
197 222 255
197 222 255
197 222 255
197 222 255
197 222 255
197 222 255
197 222 255
197 222 255
197 222 255
197 222 255
197 222 255
196 222 255
196 222 255
196 222 255
196 222 255
196 222 255
196 222 255
196 222 255
196 222 255
196 222 255
196 222 255
196 222 255
196 222 255
196 222 255
196 222 255
196 222 255
196 222 255
196 222 255
196 221 255
195 221 255
195 221 255
195 221 255
195 221 255
195 221 255
195 221 255
195 221 255
195 221 255
195 221 255
195 221 255
195 221 255
195 221 255
195 221 255
195 221 255
195 221 255
195 221 255
195 221 255
195 221 255
195 221 255
195 221 255
195 221 255
195 221 255
195 221 255
195 221 255
195 221 255
195 221 255
195 221 255
195 221 255
195 221 255
195 221 255
194 221 255
194 221 255
194 221 255
194 221 255
194 221 255
194 221 255
194 221 255
194 221 255
194 221 255
194 221 255
194 221 255
194 221 255
194 221 255
194 221 255
194 221 255
194 221 255
194 221 255
194 221 255
194 221 255
194 221 255
194 221 255
194 221 255
194 221 255
194 221 255
194 221 255
194 221 255
194 221 255
194 221 255
194 221 255
195 221 255
195 221 255
195 221 255
195 221 255
195 221 255
195 221 255
195 221 255
195 221 255
195 221 255
195 221 255
195 221 255
195 221 255
195 221 255
195 221 255
195 221 255
195 221 255
195 221 255
195 221 255
195 221 255
195 221 255
195 221 255
195 221 255
195 221 255
195 221 255
195 221 255
195 221 255
195 221 255
195 221 255
195 221 255
195 221 255
195 221 255
196 221 255
196 222 255
196 222 255
196 222 255
196 222 255
196 222 255
196 222 255
196 222 255
196 222 255
196 222 255
196 222 255
196 222 255
196 222 255
196 222 255
196 222 255
196 222 255
196 222 255
196 222 255
197 222 255
197 222 255
197 222 255
197 222 255
197 222 255
197 222 255
197 222 255
197 222 255
197 222 255
197 222 255
197 222 255
197 222 255
197 222 255
197 222 255
197 222 255
197 223 255
198 223 255
198 223 255
198 223 255
198 223 255
198 223 255
198 223 255
198 223 255
198 223 255
198 223 255
198 223 255
198 223 255
198 223 255
198 223 255
198 223 255
199 223 255
199 223 255
199 223 255
199 223 255
199 223 255
199 223 255
199 223 255
199 207 237
198 174 199
200 158 181
200 67 76
201 0 0
202 0 0
201 0 0
200 0 0
203 0 0
204 0 0
202 0 0
202 0 0
205 0 0
201 0 0
203 0 0
203 0 0
204 0 0
202 0 0
203 0 0
204 0 0
205 0 0
204 0 0
202 0 0
204 0 0
202 0 0
205 0 0
206 0 0
206 0 0
202 0 0
207 0 0
203 0 0
205 0 0
204 0 0
204 0 0
206 0 0
206 0 0
204 0 0
208 0 0
209 0 0
206 0 0
203 0 0
205 0 0
204 0 0
205 0 0
204 0 0
205 0 0
210 0 0
206 0 0
204 0 0
207 0 0
206 0 0
205 0 0
204 0 0
206 0 0
208 0 0
207 0 0
207 0 0
205 0 0
205 0 0
208 0 0
206 0 0
208 0 0
209 0 0
207 0 0
206 0 0
208 0 0
209 0 0
205 0 0
208 0 0
208 0 0
205 0 0
205 0 0
210 0 0
211 0 0
209 0 0
208 0 0
208 0 0
209 0 0
207 0 0
209 0 0
211 0 0
207 0 0
208 0 0
209 0 0
206 0 0
207 0 0
208 0 0
206 0 0
204 0 0
208 0 0
206 0 0
211 0 0
206 0 0
209 0 0
211 0 0
207 0 0
206 0 0
207 0 0
207 0 0
212 0 0
0 0 255
0 0 255
0 0 255
0 0 255
0 0 255
0 0 255
0 0 255
0 0 255
0 0 255
0 0 255
0 0 255
0 0 255
0 0 255
0 0 255
0 0 255
0 0 255
0 0 255
0 0 255
0 0 255
0 0 255
0 0 255
0 0 255
0 0 255
0 0 255
0 0 255
0 0 255
0 0 255
0 0 255
0 0 255
0 0 254
0 0 255
0 0 255
0 0 255
0 0 255
0 0 255
0 0 254
0 0 255
0 0 255
0 0 255
0 0 255
0 0 254
0 0 255
0 0 255
0 0 255
0 0 255
0 0 253
0 0 255
0 0 255
0 0 255
0 0 254
0 0 255
0 0 255
0 0 255
0 0 255
0 0 255
0 0 254
0 0 254
0 0 254
0 0 254
0 0 254
0 0 255
0 0 255
0 0 255
0 0 249
0 0 255
0 0 255
0 0 255
0 0 254
0 0 254
0 0 255
0 0 255
0 0 254
0 0 254
0 0 254
0 0 253
0 0 255
0 0 255
0 0 254
0 0 255
0 0 253
0 0 254
0 0 255
0 0 253
0 0 254
0 0 252
0 0 255
0 0 254
0 0 254
0 0 254
0 0 255
0 0 254
0 0 254
0 0 253
0 0 255
0 0 253
0 0 255
0 0 255
0 0 254
0 0 255
0 0 255
79 89 255
147 165 255
171 192 255
199 223 255
199 223 255
199 223 255
199 223 255
199 223 255
199 223 255
198 223 255
198 223 255
198 223 255
198 223 255
198 223 255
198 223 255
198 223 255
198 223 255
198 223 255
198 223 255
198 223 255
198 223 255
198 223 255
198 223 255
197 223 255
197 222 255
197 222 255
197 222 255
197 222 255
197 222 255
197 222 255
197 222 255
197 222 255
197 222 255
197 222 255
197 222 255
197 222 255
197 222 255
197 222 255
197 222 255
196 222 255
196 222 255
196 222 255
196 222 255
196 222 255
196 222 255
196 222 255
196 222 255
196 222 255
196 222 255
196 222 255
196 222 255
196 222 255
196 222 255
196 222 255
196 222 255
196 222 255
196 222 255
196 221 255
196 221 255
195 221 255
195 221 255
195 221 255
195 221 255
195 221 255
195 221 255
195 221 255
195 221 255
195 221 255
195 221 255
195 221 255
195 221 255
195 221 255
195 221 255
195 221 255
195 221 255
195 221 255
195 221 255
195 221 255
195 221 255
195 221 255
195 221 255
195 221 255
195 221 255
195 221 255
195 221 255
195 221 255
195 221 255
195 221 255
195 221 255
195 221 255
195 221 255
195 221 255
195 221 255
195 221 255
195 221 255
195 221 255
195 221 255
195 221 255
195 221 255
195 221 255
195 221 255
195 221 255
195 221 255
195 221 255
195 221 255
195 221 255
195 221 255
195 221 255
195 221 255
195 221 255
195 221 255
195 221 255
195 221 255
195 221 255
195 221 255
195 221 255
195 221 255
195 221 255
195 221 255
195 221 255
195 221 255
195 221 255
195 221 255
195 221 255
195 221 255
195 221 255
195 221 255
195 221 255
195 221 255
195 221 255
195 221 255
195 221 255
195 221 255
195 221 255
195 221 255
195 221 255
195 221 255
195 221 255
195 221 255
195 221 255
195 221 255
196 221 255
196 221 255
196 222 255
196 222 255
196 222 255
196 222 255
196 222 255
196 222 255
196 222 255
196 222 255
196 222 255
196 222 255
196 222 255
196 222 255
196 222 255
196 222 255
196 222 255
196 222 255
196 222 255
196 222 255
197 222 255
197 222 255
197 222 255
197 222 255
197 222 255
197 222 255
197 222 255
197 222 255
197 222 255
197 222 255
197 222 255
197 222 255
197 222 255
197 222 255
197 222 255
197 223 255
198 223 255
198 223 255
198 223 255
198 223 255
198 223 255
198 223 255
198 223 255
198 223 255
198 223 255
198 223 255
198 223 255
198 223 255
198 223 255
198 223 255
199 223 255
199 223 255
199 223 255
199 223 255
199 223 255
199 221 253
197 200 228
199 153 175
200 124 142
200 22 25
201 0 0
202 0 0
200 0 0
203 0 0
201 0 0
204 0 0
204 0 0
206 0 0
203 0 0
202 0 0
201 0 0
202 0 0
204 0 0
200 0 0
207 0 0
204 0 0
203 0 0
205 0 0
203 0 0
205 0 0
205 0 0
203 0 0
207 0 0
208 0 0
205 0 0
206 0 0
206 0 0
207 0 0
202 0 0
206 0 0
204 0 0
203 0 0
209 0 0
208 0 0
206 0 0
206 0 0
204 0 0
208 0 0
206 0 0
206 0 0
206 0 0
206 0 0
209 0 0
206 0 0
210 0 0
209 0 0
205 0 0
206 0 0
208 0 0
208 0 0
206 0 0
206 0 0
203 0 0
207 0 0
210 0 0
209 0 0
205 0 0
205 0 0
207 0 0
211 0 0
208 0 0
205 0 0
206 0 0
206 0 0
208 0 0
204 0 0
206 0 0
208 0 0
207 0 0
207 0 0
207 0 0
210 0 0
205 0 0
206 0 0
207 0 0
205 0 0
209 0 0
208 0 0
206 0 0
207 0 0
208 0 0
206 0 0
205 0 0
208 0 0
207 0 0
206 0 0
205 0 0
210 0 0
209 0 0
208 0 0
210 0 0
209 0 0
209 0 0
206 0 0
211 0 0
208 0 0
206 0 0
209 0 0
207 0 0
0 0 255
0 0 255
0 0 255
0 0 255
0 0 255
0 0 255
0 0 255
0 0 255
0 0 255
0 0 255
0 0 255
0 0 255
0 0 255
0 0 255
0 0 255
0 0 255
0 0 255
0 0 255
0 0 255
0 0 254
0 0 255
0 0 255
0 0 255
0 0 255
0 0 255
0 0 254
0 0 255
0 0 255
0 0 255
0 0 255
0 0 255
0 0 254
0 0 255
0 0 255
0 0 254
0 0 255
0 0 255
0 0 255
0 0 255
0 0 255
0 0 255
0 0 255
0 0 255
0 0 255
0 0 255
0 0 255
0 0 255
0 0 255
0 0 255
0 0 254
0 0 254
0 0 255
0 0 253
0 0 255
0 0 255
0 0 254
0 0 254
0 0 254
0 0 255
0 0 255
0 0 254
0 0 254
0 0 254
0 0 254
0 0 255
0 0 252
0 0 255
0 0 254
0 0 253
0 0 255
0 0 254
0 0 255
0 0 255
0 0 255
0 0 255
0 0 255
0 0 254
0 0 254
0 0 253
0 0 252
0 0 254
0 0 250
0 0 254
0 0 254
0 0 254
0 0 255
0 0 255
0 0 253
0 0 254
0 0 254
0 0 255
0 0 253
0 0 254
0 0 255
0 0 255
0 0 255
0 0 254
0 0 253
0 0 253
0 0 255
0 0 254
0 0 255
0 0 253
56 63 255
132 148 253
165 185 255
197 221 255
199 223 255
199 223 255
199 223 255
199 223 255
198 223 255
198 223 255
198 223 255
198 223 255
198 223 255
198 223 255
198 223 255
198 223 255
198 223 255
198 223 255
198 223 255
198 223 255
198 223 255
198 223 255
198 223 255
197 222 255
197 222 255
197 222 255
197 222 255
197 222 255
197 222 255
197 222 255
197 222 255
197 222 255
197 222 255
197 222 255
197 222 255
197 222 255
197 222 255
197 222 255
197 222 255
196 222 255
196 222 255
196 222 255
196 222 255
196 222 255
196 222 255
196 222 255
196 222 255
196 222 255
196 222 255
196 222 255
196 222 255
196 222 255
196 222 255
196 222 255
196 222 255
196 222 255
196 222 255
196 221 255
196 221 255
195 221 255
195 221 255
195 221 255
195 221 255
195 221 255
195 221 255
195 221 255
195 221 255
195 221 255
195 221 255
195 221 255
195 221 255
195 221 255
195 221 255
195 221 255
195 221 255
195 221 255
195 221 255
195 221 255
195 221 255
195 221 255
195 221 255
195 221 255
195 221 255
195 221 255
195 221 255
195 221 255
195 221 255
195 221 255
195 221 255
195 221 255
195 221 255
195 221 255
195 221 255
195 221 255
195 221 255
195 221 255
195 221 255
195 221 255
195 221 255
195 221 255
195 221 255
195 221 255
195 221 255
195 221 255
195 221 255
195 221 255
195 221 255
195 221 255
195 221 255
195 221 255
195 221 255
195 221 255
195 221 255
195 221 255
195 221 255
195 221 255
195 221 255
195 221 255
195 221 255
195 221 255
195 221 255
195 221 255
195 221 255
195 221 255
195 221 255
195 221 255
195 221 255
195 221 255
195 221 255
195 221 255
195 221 255
195 221 255
195 221 255
195 221 255
195 221 255
196 221 255
196 221 255
196 222 255
196 222 255
196 222 255
196 222 255
196 222 255
196 222 255
196 222 255
196 222 255
196 222 255
196 222 255
196 222 255
196 222 255
196 222 255
196 222 255
196 222 255
196 222 255
196 222 255
196 222 255
197 222 255
197 222 255
197 222 255
197 222 255
197 222 255
197 222 255
197 222 255
197 222 255
197 222 255
197 222 255
197 222 255
197 222 255
197 222 255
197 222 255
197 222 255
197 222 255
198 223 255
198 223 255
198 223 255
198 223 255
198 223 255
198 223 255
198 223 255
198 223 255
198 223 255
198 223 255
198 223 255
198 223 255
198 223 255
198 223 255
198 223 255
199 223 255
199 223 255
199 223 255
199 223 255
199 215 246
200 177 203
200 137 157
201 44 51
202 0 0
204 0 0
198 0 0
202 0 0
200 0 0
203 0 0
200 0 0
201 0 0
200 0 0
203 0 0
205 0 0
206 0 0
204 0 0
205 0 0
203 0 0
205 0 0
204 0 0
205 0 0
203 0 0
202 0 0
205 0 0
203 0 0
205 0 0
205 0 0
202 0 0
206 0 0
208 0 0
206 0 0
207 0 0
205 0 0
204 0 0
203 0 0
207 0 0
203 0 0
204 0 0
201 0 0
207 0 0
206 0 0
205 0 0
205 0 0
203 0 0
205 0 0
205 0 0
206 0 0
208 0 0
204 0 0
203 0 0
206 0 0
205 0 0
205 0 0
208 0 0
203 0 0
205 0 0
208 0 0
204 0 0
203 0 0
206 0 0
205 0 0
207 0 0
204 0 0
204 0 0
206 0 0
206 0 0
206 0 0
208 0 0
207 0 0
209 0 0
209 0 0
211 0 0
205 0 0
208 0 0
208 0 0
207 0 0
207 0 0
207 0 0
206 0 0
208 0 0
210 0 0
207 0 0
206 0 0
211 0 0
210 0 0
207 0 0
207 0 0
205 0 0
205 0 0
211 0 0
208 0 0
211 0 0
206 0 0
206 0 0
207 0 0
210 0 0
211 0 0
209 0 0
210 0 0
207 0 0
212 0 0
210 0 0
210 0 0
210 0 0
210 0 0
207 0 0
0 0 255
0 0 255
0 0 255
0 0 255
0 0 255
0 0 255
0 0 255
0 0 255
0 0 255
0 0 255
0 0 255
0 0 255
0 0 255
0 0 255
0 0 255
0 0 255
0 0 255
0 0 255
0 0 255
0 0 254
0 0 255
0 0 255
0 0 255
0 0 255
0 0 255
0 0 255
0 0 255
0 0 255
0 0 255
0 0 255
0 0 255
0 0 255
0 0 255
0 0 255
0 0 255
0 0 255
0 0 255
0 0 255
0 0 255
0 0 255
0 0 254
0 0 255
0 0 255
0 0 255
0 0 255
0 0 255
0 0 255
0 0 255
0 0 255
0 0 254
0 0 255
0 0 253
0 0 254
0 0 255
0 0 254
0 0 254
0 0 254
0 0 254
0 0 255
0 0 254
0 0 255
0 0 255
0 0 255
0 0 255
0 0 254
0 0 255
0 0 254
0 0 255
0 0 255
0 0 254
0 0 255
0 0 255
0 0 253
0 0 255
0 0 254
0 0 255
0 0 254
0 0 255
0 0 253
0 0 255
0 0 254
0 0 254
0 0 249
0 0 255
0 0 255
0 0 252
0 0 254
0 0 254
0 0 254
0 0 254
0 0 254
0 0 254
0 0 253
0 0 255
0 0 255
0 0 255
0 0 253
0 0 254
0 0 254
0 0 254
0 0 250
0 0 253
0 0 255
0 0 255
0 0 255
0 0 253
44 50 254
105 118 255
169 189 255
196 220 255
199 223 255
199 223 255
199 223 255
198 223 255
198 223 255
198 223 255
198 223 255
198 223 255
198 223 255
198 223 255
198 223 255
198 223 255
198 223 255
198 223 255
198 223 255
198 223 255
198 223 255
198 223 255
197 223 255
197 222 255
197 222 255
197 222 255
197 222 255
197 222 255
197 222 255
197 222 255
197 222 255
197 222 255
197 222 255
197 222 255
197 222 255
197 222 255
197 222 255
197 222 255
197 222 255
196 222 255
196 222 255
196 222 255
196 222 255
196 222 255
196 222 255
196 222 255
196 222 255
196 222 255
196 222 255
196 222 255
196 222 255
196 222 255
196 222 255
196 222 255
196 222 255
196 222 255
196 222 255
196 222 255
196 221 255
196 221 255
195 221 255
195 221 255
195 221 255
195 221 255
195 221 255
195 221 255
195 221 255
195 221 255
195 221 255
195 221 255
195 221 255
195 221 255
195 221 255
195 221 255
195 221 255
195 221 255
195 221 255
195 221 255
195 221 255
195 221 255
195 221 255
195 221 255
195 221 255
195 221 255
195 221 255
195 221 255
195 221 255
195 221 255
195 221 255
195 221 255
195 221 255
195 221 255
195 221 255
195 221 255
195 221 255
195 221 255
195 221 255
195 221 255
195 221 255
195 221 255
195 221 255
195 221 255
195 221 255
195 221 255
195 221 255
195 221 255
195 221 255
195 221 255
195 221 255
195 221 255
195 221 255
195 221 255
195 221 255
195 221 255
195 221 255
195 221 255
195 221 255
195 221 255
195 221 255
195 221 255
195 221 255
195 221 255
195 221 255
195 221 255
195 221 255
195 221 255
195 221 255
195 221 255
196 221 255
196 221 255
196 222 255
196 222 255
196 222 255
196 222 255
196 222 255
196 222 255
196 222 255
196 222 255
196 222 255
196 222 255
196 222 255
196 222 255
196 222 255
196 222 255
196 222 255
196 222 255
196 222 255
196 222 255
196 222 255
197 222 255
197 222 255
197 222 255
197 222 255
197 222 255
197 222 255
197 222 255
197 222 255
197 222 255
197 222 255
197 222 255
197 222 255
197 222 255
197 222 255
197 222 255
197 222 255
197 223 255
198 223 255
198 223 255
198 223 255
198 223 255
198 223 255
198 223 255
198 223 255
198 223 255
198 223 255
198 223 255
198 223 255
198 223 255
198 223 255
198 223 255
198 223 255
199 223 255
199 223 255
199 223 255
200 213 244
199 185 212
199 132 151
200 54 62
199 0 0
204 0 0
201 0 0
199 0 0
201 0 0
205 0 0
201 0 0
203 0 0
198 0 0
201 0 0
201 0 0
203 0 0
204 0 0
199 0 0
206 0 0
203 0 0
202 0 0
201 0 0
204 0 0
206 0 0
204 0 0
203 0 0
208 0 0
206 0 0
208 0 0
204 0 0
205 0 0
204 0 0
203 0 0
205 0 0
205 0 0
202 0 0
210 0 0
206 0 0
203 0 0
206 0 0
209 0 0
209 0 0
207 0 0
211 0 0
207 0 0
209 0 0
207 0 0
207 0 0
206 0 0
206 0 0
208 0 0
206 0 0
210 0 0
204 0 0
206 0 0
207 0 0
205 0 0
206 0 0
206 0 0
205 0 0
211 0 0
205 0 0
209 0 0
208 0 0
208 0 0
208 0 0
210 0 0
208 0 0
206 0 0
211 0 0
206 0 0
210 0 0
205 0 0
210 0 0
211 0 0
209 0 0
207 0 0
207 0 0
207 0 0
209 0 0
206 0 0
209 0 0
210 0 0
209 0 0
207 0 0
207 0 0
209 0 0
207 0 0
206 0 0
208 0 0
207 0 0
209 0 0
209 0 0
208 0 0
212 0 0
209 0 0
208 0 0
206 0 0
211 0 0
208 0 0
210 0 0
209 0 0
209 0 0
207 0 0
209 0 0
210 0 0
208 0 0
206 0 0
210 0 0
210 0 0
0 0 255
0 0 255
0 0 255
0 0 255
0 0 255
0 0 255
0 0 255
0 0 255
0 0 255
0 0 255
0 0 255
0 0 255
0 0 255
0 0 255
0 0 255
0 0 255
0 0 255
0 0 255
0 0 253
0 0 255
0 0 255
0 0 255
0 0 255
0 0 255
0 0 255
0 0 255
0 0 255
0 0 255
0 0 255
0 0 255
0 0 255
0 0 255
0 0 255
0 0 255
0 0 255
0 0 255
0 0 255
0 0 254
0 0 255
0 0 255
0 0 255
0 0 255
0 0 255
0 0 255
0 0 254
0 0 255
0 0 255
0 0 255
0 0 255
0 0 255
0 0 255
0 0 255
0 0 254
0 0 255
0 0 253
0 0 255
0 0 255
0 0 255
0 0 254
0 0 255
0 0 255
0 0 254
0 0 255
0 0 254
0 0 255
0 0 255
0 0 255
0 0 255
0 0 255
0 0 254
0 0 255
0 0 253
0 0 252
0 0 255
0 0 253
0 0 255
0 0 252
0 0 255
0 0 254
0 0 255
0 0 254
0 0 254
0 0 255
0 0 255
0 0 253
0 0 252
0 0 253
0 0 255
0 0 253
0 0 254
0 0 254
0 0 255
0 0 252
0 0 254
0 0 255
0 0 255
0 0 253
0 0 253
0 0 255
0 0 252
0 0 253
0 0 252
0 0 254
0 0 253
0 0 254
0 0 255
0 0 253
0 0 254
0 0 255
59 67 254
105 118 253
167 188 255
197 221 255
199 223 255
199 223 255
198 223 255
198 223 255
198 223 255
198 223 255
198 223 255
198 223 255
198 223 255
198 223 255
198 223 255
198 223 255
198 223 255
198 223 255
198 223 255
198 223 255
198 223 255
198 223 255
197 222 255
197 222 255
197 222 255
197 222 255
197 222 255
197 222 255
197 222 255
197 222 255
197 222 255
197 222 255
197 222 255
197 222 255
197 222 255
197 222 255
197 222 255
197 222 255
197 222 255
196 222 255
196 222 255
196 222 255
196 222 255
196 222 255
196 222 255
196 222 255
196 222 255
196 222 255
196 222 255
196 222 255
196 222 255
196 222 255
196 222 255
196 222 255
196 222 255
196 222 255
196 222 255
196 222 255
196 222 255
196 221 255
196 221 255
195 221 255
195 221 255
195 221 255
195 221 255
195 221 255
195 221 255
195 221 255
195 221 255
195 221 255
195 221 255
195 221 255
195 221 255
195 221 255
195 221 255
195 221 255
195 221 255
195 221 255
195 221 255
195 221 255
195 221 255
195 221 255
195 221 255
195 221 255
195 221 255
195 221 255
195 221 255
195 221 255
195 221 255
195 221 255
195 221 255
195 221 255
195 221 255
195 221 255
195 221 255
195 221 255
195 221 255
195 221 255
195 221 255
195 221 255
195 221 255
195 221 255
195 221 255
195 221 255
195 221 255
195 221 255
195 221 255
195 221 255
195 221 255
195 221 255
195 221 255
195 221 255
195 221 255
195 221 255
195 221 255
195 221 255
195 221 255
195 221 255
195 221 255
195 221 255
195 221 255
196 221 255
196 221 255
196 221 255
196 222 255
196 222 255
196 222 255
196 222 255
196 222 255
196 222 255
196 222 255
196 222 255
196 222 255
196 222 255
196 222 255
196 222 255
196 222 255
196 222 255
196 222 255
196 222 255
196 222 255
196 222 255
196 222 255
197 222 255
197 222 255
197 222 255
197 222 255
197 222 255
197 222 255
197 222 255
197 222 255
197 222 255
197 222 255
197 222 255
197 222 255
197 222 255
197 222 255
197 222 255
197 222 255
197 222 255
198 223 255
198 223 255
198 223 255
198 223 255
198 223 255
198 223 255
198 223 255
198 223 255
198 223 255
198 223 255
198 223 255
198 223 255
198 223 255
198 223 255
198 223 255
198 223 255
199 223 255
199 223 255
199 217 249
198 181 207
200 118 135
199 44 51
198 0 0
202 0 0
202 0 0
205 0 0
197 0 0
199 0 0
204 0 0
202 0 0
203 0 0
202 0 0
203 0 0
204 0 0
201 0 0
204 0 0
202 0 0
202 0 0
207 0 0
202 0 0
202 0 0
203 0 0
200 0 0
204 0 0
203 0 0
206 0 0
205 0 0
206 0 0
208 0 0
204 0 0
204 0 0
202 0 0
206 0 0
206 0 0
204 0 0
203 0 0
205 0 0
204 0 0
206 0 0
204 0 0
204 0 0
206 0 0
208 0 0
207 0 0
206 0 0
207 0 0
204 0 0
204 0 0
209 0 0
207 0 0
205 0 0
204 0 0
209 0 0
204 0 0
207 0 0
209 0 0
201 0 0
204 0 0
210 0 0
208 0 0
208 0 0
207 0 0
205 0 0
208 0 0
211 0 0
206 0 0
206 0 0
207 0 0
210 0 0
208 0 0
208 0 0
207 0 0
204 0 0
207 0 0
208 0 0
206 0 0
208 0 0
205 0 0
210 0 0
207 0 0
208 0 0
205 0 0
208 0 0
211 0 0
208 0 0
209 0 0
210 0 0
209 0 0
207 0 0
210 0 0
205 0 0
207 0 0
208 0 0
206 0 0
211 0 0
210 0 0
207 0 0
208 0 0
206 0 0
206 0 0
210 0 0
208 0 0
208 0 0
210 0 0
209 0 0
209 0 0
208 0 0
212 0 0
211 0 0
207 0 0
212 0 0
0 0 255
0 0 255
0 0 255
0 0 255
0 0 255
0 0 255
0 0 255
0 0 255
0 0 255
0 0 255
0 0 255
0 0 255
0 0 255
0 0 255
0 0 255
0 0 255
0 0 255
0 0 255
0 0 255
0 0 255
0 0 254
0 0 255
0 0 255
0 0 255
0 0 255
0 0 255
0 0 255
0 0 254
0 0 255
0 0 255
0 0 255
0 0 254
0 0 255
0 0 254
0 0 255
0 0 254
0 0 254
0 0 255
0 0 255
0 0 254
0 0 255
0 0 255
0 0 255
0 0 254
0 0 254
0 0 254
0 0 254
0 0 255
0 0 255
0 0 255
0 0 254
0 0 254
0 0 255
0 0 255
0 0 254
0 0 255
0 0 255
0 0 253
0 0 255
0 0 254
0 0 255
0 0 253
0 0 254
0 0 254
0 0 254
0 0 254
0 0 252
0 0 254
0 0 254
0 0 255
0 0 255
0 0 254
0 0 253
0 0 255
0 0 255
0 0 255
0 0 252
0 0 255
0 0 253
0 0 254
0 0 255
0 0 254
0 0 254
0 0 254
0 0 255
0 0 254
0 0 250
0 0 254
0 0 255
0 0 255
0 0 255
0 0 252
0 0 254
0 0 254
0 0 254
0 0 254
0 0 255
0 0 255
0 0 254
0 0 250
0 0 255
0 0 253
0 0 254
0 0 249
0 0 253
0 0 254
0 0 255
0 0 253
0 0 254
0 0 255
0 0 252
0 0 254
39 44 253
129 144 253
179 201 255
199 223 255
199 223 255
199 223 255
198 223 255
198 223 255
198 223 255
198 223 255
198 223 255
198 223 255
198 223 255
198 223 255
198 223 255
198 223 255
198 223 255
198 223 255
198 223 255
198 223 255
198 223 255
197 223 255
197 222 255
197 222 255
197 222 255
197 222 255
197 222 255
197 222 255
197 222 255
197 222 255
197 222 255
197 222 255
197 222 255
197 222 255
197 222 255
197 222 255
197 222 255
197 222 255
197 222 255
196 222 255
196 222 255
196 222 255
196 222 255
196 222 255
196 222 255
196 222 255
196 222 255
196 222 255
196 222 255
196 222 255
196 222 255
196 222 255
196 222 255
196 222 255
196 222 255
196 222 255
196 222 255
196 222 255
196 222 255
196 222 255
196 221 255
196 221 255
196 221 255
195 221 255
195 221 255
195 221 255
195 221 255
195 221 255
195 221 255
195 221 255
195 221 255
195 221 255
195 221 255
195 221 255
195 221 255
195 221 255
195 221 255
195 221 255
195 221 255
195 221 255
195 221 255
195 221 255
195 221 255
195 221 255
195 221 255
195 221 255
195 221 255
195 221 255
195 221 255
195 221 255
195 221 255
195 221 255
195 221 255
195 221 255
195 221 255
195 221 255
195 221 255
195 221 255
195 221 255
195 221 255
195 221 255
195 221 255
195 221 255
195 221 255
195 221 255
195 221 255
195 221 255
195 221 255
195 221 255
195 221 255
195 221 255
195 221 255
195 221 255
196 221 255
196 221 255
196 221 255
196 222 255
196 222 255
196 222 255
196 222 255
196 222 255
196 222 255
196 222 255
196 222 255
196 222 255
196 222 255
196 222 255
196 222 255
196 222 255
196 222 255
196 222 255
196 222 255
196 222 255
196 222 255
196 222 255
196 222 255
196 222 255
197 222 255
197 222 255
197 222 255
197 222 255
197 222 255
197 222 255
197 222 255
197 222 255
197 222 255
197 222 255
197 222 255
197 222 255
197 222 255
197 222 255
197 222 255
197 222 255
197 222 255
197 223 255
198 223 255
198 223 255
198 223 255
198 223 255
198 223 255
198 223 255
198 223 255
198 223 255
198 223 255
198 223 255
198 223 255
198 223 255
198 223 255
198 223 255
198 223 255
199 223 255
199 223 255
199 222 254
199 185 212
200 148 169
198 67 76
200 0 0
199 0 0
200 0 0
196 0 0
201 0 0
199 0 0
203 0 0
203 0 0
201 0 0
200 0 0
200 0 0
203 0 0
205 0 0
206 0 0
199 0 0
201 0 0
204 0 0
204 0 0
208 0 0
210 0 0
204 0 0
205 0 0
204 0 0
204 0 0
205 0 0
206 0 0
206 0 0
206 0 0
203 0 0
205 0 0
205 0 0
206 0 0
207 0 0
204 0 0
204 0 0
208 0 0
207 0 0
206 0 0
207 0 0
208 0 0
203 0 0
205 0 0
206 0 0
202 0 0
206 0 0
202 0 0
206 0 0
208 0 0
206 0 0
206 0 0
206 0 0
207 0 0
209 0 0
205 0 0
204 0 0
207 0 0
208 0 0
209 0 0
207 0 0
203 0 0
205 0 0
205 0 0
209 0 0
208 0 0
211 0 0
209 0 0
207 0 0
208 0 0
206 0 0
207 0 0
205 0 0
209 0 0
207 0 0
208 0 0
208 0 0
207 0 0
209 0 0
210 0 0
210 0 0
209 0 0
210 0 0
211 0 0
211 0 0
207 0 0
210 0 0
210 0 0
208 0 0
208 0 0
208 0 0
207 0 0
210 0 0
207 0 0
209 0 0
207 0 0
209 0 0
213 0 0
207 0 0
209 0 0
206 0 0
210 0 0
208 0 0
210 0 0
207 0 0
210 0 0
209 0 0
210 0 0
205 0 0
209 0 0
210 0 0
209 0 0
209 0 0
213 0 0
0 0 255
0 0 255
0 0 255
0 0 255
0 0 255
0 0 255
0 0 255
0 0 255
0 0 255
0 0 255
0 0 255
0 0 255
0 0 255
0 0 255
0 0 255
0 0 255
0 0 255
0 0 255
0 0 255
0 0 255
0 0 255
0 0 255
0 0 255
0 0 255
0 0 255
0 0 255
0 0 255
0 0 254
0 0 255
0 0 254
0 0 254
0 0 255
0 0 255
0 0 255
0 0 255
0 0 255
0 0 255
0 0 255
0 0 255
0 0 255
0 0 254
0 0 255
0 0 255
0 0 254
0 0 255
0 0 254
0 0 255
0 0 254
0 0 254
0 0 255
0 0 254
0 0 253
0 0 255
0 0 254
0 0 254
0 0 254
0 0 254
0 0 255
0 0 255
0 0 255
0 0 254
0 0 254
0 0 255
0 0 254
0 0 253
0 0 254
0 0 255
0 0 253
0 0 255
0 0 255
0 0 254
0 0 255
0 0 254
0 0 254
0 0 250
0 0 254
0 0 255
0 0 255
0 0 254
0 0 253
0 0 254
0 0 254
0 0 255
0 0 254
0 0 253
0 0 254
0 0 250
0 0 254
0 0 255
0 0 254
0 0 250
0 0 255
0 0 254
0 0 255
0 0 255
0 0 249
0 0 255
0 0 252
0 0 254
0 0 255
0 0 255
0 0 254
0 0 255
0 0 254
0 0 253
0 0 252
0 0 253
0 0 255
0 0 253
0 0 252
0 0 254
0 0 253
0 0 255
0 0 255
0 0 252
69 77 252
149 167 254
184 207 254
199 223 255
199 223 255
198 223 255
198 223 255
198 223 255
198 223 255
198 223 255
198 223 255
198 223 255
198 223 255
198 223 255
198 223 255
198 223 255
198 223 255
198 223 255
198 223 255
198 223 255
198 223 255
197 222 255
197 222 255
197 222 255
197 222 255
197 222 255
197 222 255
197 222 255
197 222 255
197 222 255
197 222 255
197 222 255
197 222 255
197 222 255
197 222 255
197 222 255
197 222 255
197 222 255
197 222 255
196 222 255
196 222 255
196 222 255
196 222 255
196 222 255
196 222 255
196 222 255
196 222 255
196 222 255
196 222 255
196 222 255
196 222 255
196 222 255
196 222 255
196 222 255
196 222 255
196 222 255
196 222 255
196 222 255
196 222 255
196 222 255
196 222 255
196 222 255
196 221 255
196 221 255
196 221 255
196 221 255
195 221 255
195 221 255
195 221 255
195 221 255
195 221 255
195 221 255
195 221 255
195 221 255
195 221 255
195 221 255
195 221 255
195 221 255
195 221 255
195 221 255
195 221 255
195 221 255
195 221 255
195 221 255
195 221 255
195 221 255
195 221 255
195 221 255
195 221 255
195 221 255
195 221 255
195 221 255
195 221 255
195 221 255
195 221 255
195 221 255
195 221 255
195 221 255
195 221 255
195 221 255
195 221 255
195 221 255
195 221 255
195 221 255
196 221 255
196 221 255
196 221 255
196 222 255
196 222 255
196 222 255
196 222 255
196 222 255
196 222 255
196 222 255
196 222 255
196 222 255
196 222 255
196 222 255
196 222 255
196 222 255
196 222 255
196 222 255
196 222 255
196 222 255
196 222 255
196 222 255
196 222 255
196 222 255
196 222 255
196 222 255
196 222 255
197 222 255
197 222 255
197 222 255
197 222 255
197 222 255
197 222 255
197 222 255
197 222 255
197 222 255
197 222 255
197 222 255
197 222 255
197 222 255
197 222 255
197 222 255
197 222 255
197 222 255
197 222 255
198 223 255
198 223 255
198 223 255
198 223 255
198 223 255
198 223 255
198 223 255
198 223 255
198 223 255
198 223 255
198 223 255
198 223 255
198 223 255
198 223 255
198 223 255
198 223 255
199 223 255
199 223 255
199 208 238
197 146 167
197 74 84
198 0 0
201 0 0
202 0 0
205 0 0
200 0 0
200 0 0
201 0 0
202 0 0
200 0 0
203 0 0
200 0 0
203 0 0
201 0 0
205 0 0
204 0 0
196 0 0
203 0 0
202 0 0
202 0 0
201 0 0
200 0 0
203 0 0
207 0 0
204 0 0
207 0 0
207 0 0
206 0 0
207 0 0
203 0 0
202 0 0
207 0 0
206 0 0
205 0 0
208 0 0
206 0 0
206 0 0
207 0 0
208 0 0
207 0 0
209 0 0
203 0 0
207 0 0
207 0 0
209 0 0
205 0 0
208 0 0
207 0 0
206 0 0
206 0 0
208 0 0
209 0 0
207 0 0
205 0 0
207 0 0
206 0 0
207 0 0
206 0 0
207 0 0
206 0 0
208 0 0
208 0 0
207 0 0
211 0 0
207 0 0
209 0 0
207 0 0
211 0 0
205 0 0
209 0 0
207 0 0
207 0 0
210 0 0
206 0 0
209 0 0
209 0 0
208 0 0
210 0 0
206 0 0
209 0 0
210 0 0
207 0 0
206 0 0
210 0 0
209 0 0
208 0 0
208 0 0
207 0 0
208 0 0
210 0 0
208 0 0
208 0 0
209 0 0
208 0 0
207 0 0
209 0 0
210 0 0
209 0 0
210 0 0
209 0 0
212 0 0
211 0 0
211 0 0
212 0 0
208 0 0
204 0 0
210 0 0
210 0 0
210 0 0
211 0 0
207 0 0
211 0 0
207 0 0
209 0 0
210 0 0
212 0 0
0 0 255
0 0 255
0 0 255
0 0 255
0 0 255
0 0 255
0 0 255
0 0 255
0 0 255
0 0 255
0 0 255
0 0 255
0 0 255
0 0 255
0 0 255
0 0 255
0 0 255
0 0 255
0 0 253
0 0 255
0 0 255
0 0 255
0 0 255
0 0 254
0 0 255
0 0 255
0 0 255
0 0 255
0 0 255
0 0 255
0 0 254
0 0 255
0 0 254
0 0 255
0 0 255
0 0 255
0 0 255
0 0 255
0 0 255
0 0 254
0 0 254
0 0 255
0 0 255
0 0 253
0 0 255
0 0 255
0 0 255
0 0 253
0 0 255
0 0 255
0 0 253
0 0 255
0 0 255
0 0 255
0 0 252
0 0 255
0 0 255
0 0 254
0 0 255
0 0 255
0 0 255
0 0 255
0 0 255
0 0 254
0 0 254
0 0 255
0 0 255
0 0 254
0 0 255
0 0 255
0 0 255
0 0 255
0 0 254
0 0 254
0 0 253
0 0 254
0 0 253
0 0 255
0 0 253
0 0 254
0 0 254
0 0 254
0 0 253
0 0 255
0 0 254
0 0 255
0 0 255
0 0 254
0 0 255
0 0 255
0 0 253
0 0 253
0 0 255
0 0 254
0 0 253
0 0 255
0 0 255
0 0 253
0 0 253
0 0 254
0 0 253
0 0 255
0 0 248
0 0 252
0 0 254
0 0 253
0 0 254
0 0 253
0 0 254
0 0 254
0 0 253
0 0 253
0 0 254
0 0 252
0 0 252
0 0 255
0 0 252
19 22 254
109 122 253
174 196 254
198 222 255
199 223 255
199 223 255
198 223 255
198 223 255
198 223 255
198 223 255
198 223 255
198 223 255
198 223 255
198 223 255
198 223 255
198 223 255
198 223 255
198 223 255
198 223 255
198 223 255
198 223 255
197 223 255
197 222 255
197 222 255
197 222 255
197 222 255
197 222 255
197 222 255
197 222 255
197 222 255
197 222 255
197 222 255
197 222 255
197 222 255
197 222 255
197 222 255
197 222 255
197 222 255
197 222 255
197 222 255
196 222 255
196 222 255
196 222 255
196 222 255
196 222 255
196 222 255
196 222 255
196 222 255
196 222 255
196 222 255
196 222 255
196 222 255
196 222 255
196 222 255
196 222 255
196 222 255
196 222 255
196 222 255
196 222 255
196 222 255
196 222 255
196 222 255
196 222 255
196 222 255
196 222 255
196 222 255
196 222 255
196 221 255
196 221 255
196 221 255
196 221 255
196 221 255
195 221 255
195 221 255
195 221 255
195 221 255
195 221 255
195 221 255
195 221 255
195 221 255
195 221 255
195 221 255
195 221 255
195 221 255
195 221 255
195 221 255
195 221 255
195 221 255
195 221 255
195 221 255
195 221 255
195 221 255
195 221 255
195 221 255
196 221 255
196 221 255
196 221 255
196 221 255
196 222 255
196 222 255
196 222 255
196 222 255
196 222 255
196 222 255
196 222 255
196 222 255
196 222 255
196 222 255
196 222 255
196 222 255
196 222 255
196 222 255
196 222 255
196 222 255
196 222 255
196 222 255
196 222 255
196 222 255
196 222 255
196 222 255
196 222 255
196 222 255
196 222 255
196 222 255
196 222 255
196 222 255
197 222 255
197 222 255
197 222 255
197 222 255
197 222 255
197 222 255
197 222 255
197 222 255
197 222 255
197 222 255
197 222 255
197 222 255
197 222 255
197 222 255
197 222 255
197 222 255
197 222 255
197 222 255
197 223 255
198 223 255
198 223 255
198 223 255
198 223 255
198 223 255
198 223 255
198 223 255
198 223 255
198 223 255
198 223 255
198 223 255
198 223 255
198 223 255
198 223 255
198 223 255
199 223 255
199 223 255
199 222 254
200 185 212
198 114 130
197 22 25
199 0 0
201 0 0
199 0 0
196 0 0
204 0 0
201 0 0
202 0 0
203 0 0
205 0 0
203 0 0
204 0 0
203 0 0
201 0 0
202 0 0
202 0 0
204 0 0
205 0 0
201 0 0
201 0 0
203 0 0
203 0 0
202 0 0
205 0 0
205 0 0
204 0 0
204 0 0
204 0 0
202 0 0
202 0 0
202 0 0
200 0 0
206 0 0
206 0 0
205 0 0
205 0 0
206 0 0
206 0 0
205 0 0
206 0 0
206 0 0
204 0 0
206 0 0
205 0 0
207 0 0
207 0 0
206 0 0
207 0 0
206 0 0
209 0 0
205 0 0
206 0 0
205 0 0
205 0 0
208 0 0
203 0 0
209 0 0
206 0 0
209 0 0
210 0 0
207 0 0
204 0 0
206 0 0
209 0 0
209 0 0
212 0 0
208 0 0
209 0 0
205 0 0
205 0 0
205 0 0
209 0 0
208 0 0
203 0 0
209 0 0
206 0 0
209 0 0
209 0 0
210 0 0
207 0 0
207 0 0
204 0 0
212 0 0
211 0 0
211 0 0
208 0 0
209 0 0
208 0 0
210 0 0
207 0 0
207 0 0
213 0 0
211 0 0
211 0 0
211 0 0
211 0 0
207 0 0
208 0 0
207 0 0
205 0 0
209 0 0
209 0 0
210 0 0
211 0 0
211 0 0
209 0 0
209 0 0
211 0 0
208 0 0
208 0 0
208 0 0
208 0 0
209 0 0
207 0 0
211 0 0
206 0 0
210 0 0
210 0 0
0 0 254
0 0 255
0 0 255
0 0 255
0 0 255
0 0 255
0 0 255
0 0 254
0 0 255
0 0 255
0 0 255
0 0 255
0 0 255
0 0 255
0 0 254
0 0 255
0 0 255
0 0 254
0 0 255
0 0 255
0 0 255
0 0 255
0 0 255
0 0 255
0 0 254
0 0 255
0 0 255
0 0 255
0 0 255
0 0 255
0 0 255
0 0 255
0 0 255
0 0 255
0 0 254
0 0 255
0 0 255
0 0 254
0 0 255
0 0 255
0 0 255
0 0 255
0 0 255
0 0 255
0 0 255
0 0 253
0 0 255
0 0 255
0 0 255
0 0 255
0 0 254
0 0 255
0 0 255
0 0 255
0 0 255
0 0 252
0 0 254
0 0 255
0 0 254
0 0 255
0 0 255
0 0 253
0 0 255
0 0 255
0 0 254
0 0 254
0 0 253
0 0 254
0 0 254
0 0 255
0 0 249
0 0 255
0 0 254
0 0 253
0 0 253
0 0 254
0 0 253
0 0 254
0 0 253
0 0 252
0 0 255
0 0 254
0 0 253
0 0 254
0 0 253
0 0 254
0 0 254
0 0 253
0 0 254
0 0 253
0 0 255
0 0 254
0 0 253
0 0 255
0 0 254
0 0 254
0 0 253
0 0 252
0 0 255
0 0 253
0 0 254
0 0 254
0 0 254
0 0 255
0 0 250
0 0 254
0 0 254
0 0 252
0 0 254
0 0 253
0 0 253
0 0 254
0 0 255
0 0 250
0 0 253
0 0 250
0 0 253
0 0 250
0 0 254
0 0 253
74 83 252
135 151 253
189 213 254
199 223 255
199 223 255
198 223 255
198 223 255
198 223 255
198 223 255
198 223 255
198 223 255
198 223 255
198 223 255
198 223 255
198 223 255
198 223 255
198 223 255
198 223 255
198 223 255
198 223 255
198 223 255
197 223 255
197 222 255
197 222 255
197 222 255
197 222 255
197 222 255
197 222 255
197 222 255
197 222 255
197 222 255
197 222 255
197 222 255
197 222 255
197 222 255
197 222 255
197 222 255
197 222 255
197 222 255
197 222 255
197 222 255
196 222 255
196 222 255
196 222 255
196 222 255
196 222 255
196 222 255
196 222 255
196 222 255
196 222 255
196 222 255
196 222 255
196 222 255
196 222 255
196 222 255
196 222 255
196 222 255
196 222 255
196 222 255
196 222 255
196 222 255
196 222 255
196 222 255
196 222 255
196 222 255
196 222 255
196 222 255
196 222 255
196 222 255
196 222 255
196 222 255
196 222 255
196 222 255
196 222 255
196 222 255
196 222 255
196 222 255
196 222 255
196 222 255
196 222 255
196 222 255
196 222 255
196 222 255
196 222 255
196 222 255
196 222 255
196 222 255
196 222 255
196 222 255
196 222 255
196 222 255
196 222 255
196 222 255
196 222 255
196 222 255
196 222 255
196 222 255
196 222 255
196 222 255
196 222 255
196 222 255
196 222 255
196 222 255
196 222 255
196 222 255
196 222 255
196 222 255
196 222 255
196 222 255
196 222 255
196 222 255
196 222 255
196 222 255
196 222 255
196 222 255
196 222 255
196 222 255
196 222 255
196 222 255
197 222 255
197 222 255
197 222 255
197 222 255
197 222 255
197 222 255
197 222 255
197 222 255
197 222 255
197 222 255
197 222 255
197 222 255
197 222 255
197 222 255
197 222 255
197 222 255
197 222 255
197 222 255
197 222 255
197 223 255
198 223 255
198 223 255
198 223 255
198 223 255
198 223 255
198 223 255
198 223 255
198 223 255
198 223 255
198 223 255
198 223 255
198 223 255
198 223 255
198 223 255
198 223 255
198 223 255
199 223 255
199 223 255
198 212 242
196 170 194
197 54 62
197 0 0
196 0 0
197 0 0
199 0 0
200 0 0
200 0 0
201 0 0
200 0 0
200 0 0
201 0 0
203 0 0
202 0 0
201 0 0
203 0 0
203 0 0
204 0 0
202 0 0
205 0 0
204 0 0
202 0 0
204 0 0
205 0 0
199 0 0
205 0 0
205 0 0
203 0 0
205 0 0
206 0 0
200 0 0
202 0 0
201 0 0
204 0 0
203 0 0
203 0 0
207 0 0
204 0 0
205 0 0
203 0 0
207 0 0
206 0 0
209 0 0
207 0 0
206 0 0
205 0 0
210 0 0
208 0 0
207 0 0
205 0 0
209 0 0
207 0 0
209 0 0
209 0 0
205 0 0
208 0 0
208 0 0
209 0 0
208 0 0
203 0 0
206 0 0
207 0 0
204 0 0
208 0 0
205 0 0
208 0 0
205 0 0
207 0 0
209 0 0
210 0 0
207 0 0
208 0 0
209 0 0
210 0 0
207 0 0
208 0 0
208 0 0
209 0 0
209 0 0
206 0 0
211 0 0
207 0 0
207 0 0
211 0 0
209 0 0
206 0 0
206 0 0
208 0 0
208 0 0
211 0 0
210 0 0
210 0 0
209 0 0
206 0 0
209 0 0
208 0 0
214 0 0
207 0 0
209 0 0
210 0 0
210 0 0
207 0 0
211 0 0
209 0 0
212 0 0
210 0 0
212 0 0
208 0 0
208 0 0
212 0 0
210 0 0
205 0 0
210 0 0
209 0 0
208 0 0
209 0 0
208 0 0
210 0 0
214 0 0
211 0 0
211 0 0
207 0 0
0 0 255
0 0 255
0 0 254
0 0 255
0 0 255
0 0 255
0 0 255
0 0 255
0 0 255
0 0 255
0 0 255
0 0 254
0 0 255
0 0 255
0 0 255
0 0 255
0 0 255
0 0 255
0 0 255
0 0 255
0 0 255
0 0 255
0 0 255
0 0 255
0 0 255
0 0 255
0 0 254
0 0 255
0 0 254
0 0 255
0 0 255
0 0 255
0 0 255
0 0 255
0 0 254
0 0 255
0 0 254
0 0 255
0 0 255
0 0 255
0 0 253
0 0 255
0 0 255
0 0 255
0 0 254
0 0 255
0 0 255
0 0 254
0 0 255
0 0 254
0 0 255
0 0 255
0 0 255
0 0 255
0 0 255
0 0 254
0 0 255
0 0 255
0 0 253
0 0 253
0 0 255
0 0 255
0 0 254
0 0 253
0 0 255
0 0 253
0 0 254
0 0 254
0 0 253
0 0 255
0 0 254
0 0 253
0 0 254
0 0 253
0 0 254
0 0 254
0 0 254
0 0 255
0 0 255
0 0 253
0 0 254
0 0 253
0 0 254
0 0 255
0 0 252
0 0 254
0 0 253
0 0 253
0 0 254
0 0 253
0 0 254
0 0 253
0 0 253
0 0 254
0 0 255
0 0 255
0 0 254
0 0 255
0 0 249
0 0 253
0 0 255
0 0 255
0 0 253
0 0 254
0 0 252
0 0 253
0 0 253
0 0 253
0 0 254
0 0 250
0 0 252
0 0 250
0 0 253
0 0 253
0 0 253
0 0 250
0 0 250
0 0 255
0 0 253
0 0 254
0 0 252
0 0 250
34 38 250
119 134 254
173 194 254
199 223 255
199 223 255
199 223 255
198 223 255
198 223 255
198 223 255
198 223 255
198 223 255
198 223 255
198 223 255
198 223 255
198 223 255
198 223 255
198 223 255
198 223 255
198 223 255
198 223 255
198 223 255
198 223 255
197 223 255
197 222 255
197 222 255
197 222 255
197 222 255
197 222 255
197 222 255
197 222 255
197 222 255
197 222 255
197 222 255
197 222 255
197 222 255
197 222 255
197 222 255
197 222 255
197 222 255
197 222 255
197 222 255
197 222 255
197 222 255
196 222 255
196 222 255
196 222 255
196 222 255
196 222 255
196 222 255
196 222 255
196 222 255
196 222 255
196 222 255
196 222 255
196 222 255
196 222 255
196 222 255
196 222 255
196 222 255
196 222 255
196 222 255
196 222 255
196 222 255
196 222 255
196 222 255
196 222 255
196 222 255
196 222 255
196 222 255
196 222 255
196 222 255
196 222 255
196 222 255
196 222 255
196 222 255
196 222 255
196 222 255
196 222 255
196 222 255
196 222 255
196 222 255
196 222 255
196 222 255
196 222 255
196 222 255
196 222 255
196 222 255
196 222 255
196 222 255
196 222 255
196 222 255
196 222 255
196 222 255
196 222 255
196 222 255
196 222 255
196 222 255
196 222 255
196 222 255
196 222 255
196 222 255
196 222 255
196 222 255
196 222 255
196 222 255
196 222 255
196 222 255
196 222 255
196 222 255
196 222 255
196 222 255
196 222 255
196 222 255
197 222 255
197 222 255
197 222 255
197 222 255
197 222 255
197 222 255
197 222 255
197 222 255
197 222 255
197 222 255
197 222 255
197 222 255
197 222 255
197 222 255
197 222 255
197 222 255
197 222 255
197 222 255
197 222 255
197 222 255
197 223 255
198 223 255
198 223 255
198 223 255
198 223 255
198 223 255
198 223 255
198 223 255
198 223 255
198 223 255
198 223 255
198 223 255
198 223 255
198 223 255
198 223 255
198 223 255
198 223 255
199 223 255
199 223 255
199 223 255
199 194 223
200 124 142
201 22 25
200 0 0
202 0 0
201 0 0
204 0 0
203 0 0
207 0 0
201 0 0
203 0 0
202 0 0
198 0 0
202 0 0
204 0 0
200 0 0
198 0 0
199 0 0
203 0 0
206 0 0
203 0 0
204 0 0
208 0 0
204 0 0
206 0 0
204 0 0
204 0 0
204 0 0
207 0 0
202 0 0
204 0 0
207 0 0
204 0 0
198 0 0
199 0 0
207 0 0
203 0 0
206 0 0
207 0 0
205 0 0
206 0 0
207 0 0
208 0 0
206 0 0
203 0 0
206 0 0
206 0 0
205 0 0
204 0 0
208 0 0
204 0 0
204 0 0
206 0 0
206 0 0
206 0 0
205 0 0
204 0 0
206 0 0
206 0 0
208 0 0
207 0 0
207 0 0
205 0 0
204 0 0
204 0 0
210 0 0
211 0 0
208 0 0
208 0 0
208 0 0
206 0 0
208 0 0
205 0 0
208 0 0
207 0 0
209 0 0
207 0 0
211 0 0
209 0 0
211 0 0
206 0 0
205 0 0
209 0 0
207 0 0
210 0 0
213 0 0
208 0 0
211 0 0
211 0 0
209 0 0
209 0 0
208 0 0
211 0 0
208 0 0
214 0 0
212 0 0
208 0 0
211 0 0
212 0 0
209 0 0
209 0 0
207 0 0
210 0 0
212 0 0
209 0 0
206 0 0
210 0 0
212 0 0
211 0 0
214 0 0
211 0 0
213 0 0
211 0 0
210 0 0
208 0 0
208 0 0
208 0 0
212 0 0
207 0 0
210 0 0
210 0 0
207 0 0
212 0 0
211 0 0
208 0 0
0 0 255
0 0 255
0 0 255
0 0 255
0 0 255
0 0 255
0 0 255
0 0 255
0 0 255
0 0 255
0 0 254
0 0 255
0 0 255
0 0 255
0 0 255
0 0 255
0 0 255
0 0 254
0 0 255
0 0 255
0 0 255
0 0 255
0 0 255
0 0 255
0 0 255
0 0 255
0 0 255
0 0 254
0 0 254
0 0 255
0 0 255
0 0 255
0 0 255
0 0 255
0 0 255
0 0 254
0 0 253
0 0 253
0 0 254
0 0 255
0 0 255
0 0 255
0 0 253
0 0 255
0 0 254
0 0 254
0 0 255
0 0 255
0 0 255
0 0 255
0 0 255
0 0 254
0 0 253
0 0 253
0 0 255
0 0 255
0 0 255
0 0 253
0 0 254
0 0 255
0 0 255
0 0 254
0 0 254
0 0 254
0 0 250
0 0 255
0 0 254
0 0 255
0 0 255
0 0 254
0 0 255
0 0 252
0 0 254
0 0 255
0 0 255
0 0 253
0 0 254
0 0 253
0 0 253
0 0 254
0 0 252
0 0 252
0 0 253
0 0 255
0 0 252
0 0 254
0 0 255
0 0 253
0 0 254
0 0 253
0 0 249
0 0 253
0 0 254
0 0 253
0 0 252
0 0 253
0 0 255
0 0 252
0 0 254
0 0 252
0 0 252
0 0 253
0 0 254
0 0 254
0 0 255
0 0 253
0 0 252
0 0 253
0 0 252
0 0 253
0 0 252
0 0 252
0 0 250
0 0 252
0 0 254
0 0 252
0 0 253
0 0 255
0 0 253
0 0 255
0 0 254
0 0 249
0 0 254
0 0 252
0 0 252
105 118 250
158 177 254
196 220 255
199 223 255
199 223 255
198 223 255
198 223 255
198 223 255
198 223 255
198 223 255
198 223 255
198 223 255
198 223 255
198 223 255
198 223 255
198 223 255
198 223 255
198 223 255
198 223 255
198 223 255
198 223 255
198 223 255
197 223 255
197 222 255
197 222 255
197 222 255
197 222 255
197 222 255
197 222 255
197 222 255
197 222 255
197 222 255
197 222 255
197 222 255
197 222 255
197 222 255
197 222 255
197 222 255
197 222 255
197 222 255
197 222 255
197 222 255
197 222 255
197 222 255
196 222 255
196 222 255
196 222 255
196 222 255
196 222 255
196 222 255
196 222 255
196 222 255
196 222 255
196 222 255
196 222 255
196 222 255
196 222 255
196 222 255
196 222 255
196 222 255
196 222 255
196 222 255
196 222 255
196 222 255
196 222 255
196 222 255
196 222 255
196 222 255
196 222 255
196 222 255
196 222 255
196 222 255
196 222 255
196 222 255
196 222 255
196 222 255
196 222 255
196 222 255
196 222 255
196 222 255
196 222 255
196 222 255
196 222 255
196 222 255
196 222 255
196 222 255
196 222 255
196 222 255
196 222 255
196 222 255
196 222 255
196 222 255
196 222 255
196 222 255
196 222 255
196 222 255
196 222 255
196 222 255
196 222 255
196 222 255
196 222 255
196 222 255
196 222 255
196 222 255
196 222 255
196 222 255
197 222 255
197 222 255
197 222 255
197 222 255
197 222 255
197 222 255
197 222 255
197 222 255
197 222 255
197 222 255
197 222 255
197 222 255
197 222 255
197 222 255
197 222 255
197 222 255
197 222 255
197 222 255
197 222 255
197 222 255
197 222 255
197 223 255
198 223 255
198 223 255
198 223 255
198 223 255
198 223 255
198 223 255
198 223 255
198 223 255
198 223 255
198 223 255
198 223 255
198 223 255
198 223 255
198 223 255
198 223 255
198 223 255
198 223 255
199 223 255
199 223 255
199 223 255
198 183 209
198 107 122
197 0 0
200 0 0
197 0 0
198 0 0
204 0 0
204 0 0
201 0 0
196 0 0
205 0 0
201 0 0
203 0 0
204 0 0
200 0 0
198 0 0
202 0 0
198 0 0
204 0 0
203 0 0
204 0 0
206 0 0
201 0 0
201 0 0
205 0 0
204 0 0
201 0 0
204 0 0
207 0 0
200 0 0
208 0 0
201 0 0
204 0 0
204 0 0
205 0 0
205 0 0
205 0 0
207 0 0
208 0 0
204 0 0
204 0 0
207 0 0
203 0 0
207 0 0
206 0 0
208 0 0
207 0 0
207 0 0
206 0 0
205 0 0
208 0 0
204 0 0
205 0 0
209 0 0
206 0 0
205 0 0
208 0 0
210 0 0
206 0 0
205 0 0
206 0 0
209 0 0
204 0 0
209 0 0
210 0 0
206 0 0
203 0 0
205 0 0
207 0 0
209 0 0
206 0 0
208 0 0
209 0 0
209 0 0
211 0 0
210 0 0
209 0 0
211 0 0
209 0 0
209 0 0
210 0 0
209 0 0
210 0 0
205 0 0
212 0 0
210 0 0
205 0 0
207 0 0
208 0 0
208 0 0
201 0 0
213 0 0
208 0 0
209 0 0
208 0 0
208 0 0
210 0 0
209 0 0
213 0 0
211 0 0
211 0 0
209 0 0
207 0 0
212 0 0
208 0 0
206 0 0
210 0 0
210 0 0
207 0 0
208 0 0
209 0 0
213 0 0
212 0 0
210 0 0
208 0 0
207 0 0
210 0 0
213 0 0
213 0 0
212 0 0
210 0 0
208 0 0
212 0 0
213 0 0
213 0 0
208 0 0
213 0 0
0 0 255
0 0 255
0 0 255
0 0 255
0 0 255
0 0 255
0 0 255
0 0 255
0 0 255
0 0 255
0 0 255
0 0 255
0 0 255
0 0 255
0 0 255
0 0 255
0 0 254
0 0 255
0 0 255
0 0 255
0 0 255
0 0 255
0 0 255
0 0 255
0 0 254
0 0 255
0 0 255
0 0 255
0 0 254
0 0 255
0 0 255
0 0 255
0 0 255
0 0 254
0 0 255
0 0 254
0 0 255
0 0 254
0 0 254
0 0 255
0 0 254
0 0 255
0 0 255
0 0 254
0 0 255
0 0 253
0 0 253
0 0 253
0 0 255
0 0 254
0 0 253
0 0 255
0 0 254
0 0 255
0 0 252
0 0 254
0 0 255
0 0 254
0 0 254
0 0 254
0 0 255
0 0 255
0 0 253
0 0 255
0 0 254
0 0 255
0 0 254
0 0 255
0 0 255
0 0 254
0 0 253
0 0 255
0 0 254
0 0 254
0 0 255
0 0 254
0 0 254
0 0 255
0 0 252
0 0 254
0 0 255
0 0 254
0 0 255
0 0 252
0 0 253
0 0 252
0 0 255
0 0 254
0 0 252
0 0 250
0 0 252
0 0 254
0 0 254
0 0 253
0 0 252
0 0 255
0 0 250
0 0 253
0 0 253
0 0 250
0 0 254
0 0 253
0 0 252
0 0 253
0 0 253
0 0 255
0 0 250
0 0 252
0 0 253
0 0 253
0 0 249
0 0 249
0 0 250
0 0 250
0 0 254
0 0 252
0 0 253
0 0 250
0 0 250
0 0 249
0 0 253
0 0 250
0 0 249
0 0 255
0 0 254
0 0 252
0 0 252
86 97 255
151 170 254
196 220 255
199 223 255
199 223 255
199 223 255
198 223 255
198 223 255
198 223 255
198 223 255
198 223 255
198 223 255
198 223 255
198 223 255
198 223 255
198 223 255
198 223 255
198 223 255
198 223 255
198 223 255
198 223 255
198 223 255
198 223 255
197 223 255
197 222 255
197 222 255
197 222 255
197 222 255
197 222 255
197 222 255
197 222 255
197 222 255
197 222 255
197 222 255
197 222 255
197 222 255
197 222 255
197 222 255
197 222 255
197 222 255
197 222 255
197 222 255
197 222 255
197 222 255
197 222 255
197 222 255
197 222 255
196 222 255
196 222 255
196 222 255
196 222 255
196 222 255
196 222 255
196 222 255
196 222 255
196 222 255
196 222 255
196 222 255
196 222 255
196 222 255
196 222 255
196 222 255
196 222 255
196 222 255
196 222 255
196 222 255
196 222 255
196 222 255
196 222 255
196 222 255
196 222 255
196 222 255
196 222 255
196 222 255
196 222 255
196 222 255
196 222 255
196 222 255
196 222 255
196 222 255
196 222 255
196 222 255
196 222 255
196 222 255
196 222 255
196 222 255
196 222 255
196 222 255
196 222 255
196 222 255
196 222 255
196 222 255
196 222 255
196 222 255
196 222 255
196 222 255
196 222 255
196 222 255
196 222 255
197 222 255
197 222 255
197 222 255
197 222 255
197 222 255
197 222 255
197 222 255
197 222 255
197 222 255
197 222 255
197 222 255
197 222 255
197 222 255
197 222 255
197 222 255
197 222 255
197 222 255
197 222 255
197 222 255
197 222 255
197 222 255
197 222 255
197 222 255
197 223 255
198 223 255
198 223 255
198 223 255
198 223 255
198 223 255
198 223 255
198 223 255
198 223 255
198 223 255
198 223 255
198 223 255
198 223 255
198 223 255
198 223 255
198 223 255
198 223 255
198 223 255
199 223 255
199 223 255
199 223 255
199 217 249
197 173 198
198 86 99
195 0 0
199 0 0
199 0 0
204 0 0
196 0 0
196 0 0
201 0 0
194 0 0
196 0 0
198 0 0
201 0 0
203 0 0
206 0 0
201 0 0
201 0 0
198 0 0
202 0 0
202 0 0
201 0 0
203 0 0
203 0 0
200 0 0
205 0 0
204 0 0
207 0 0
204 0 0
201 0 0
202 0 0
205 0 0
203 0 0
205 0 0
207 0 0
203 0 0
203 0 0
203 0 0
203 0 0
202 0 0
208 0 0
206 0 0
205 0 0
205 0 0
207 0 0
206 0 0
202 0 0
202 0 0
206 0 0
209 0 0
203 0 0
206 0 0
207 0 0
208 0 0
207 0 0
207 0 0
208 0 0
208 0 0
204 0 0
208 0 0
207 0 0
209 0 0
208 0 0
207 0 0
204 0 0
208 0 0
208 0 0
208 0 0
203 0 0
207 0 0
205 0 0
208 0 0
206 0 0
203 0 0
206 0 0
205 0 0
209 0 0
210 0 0
210 0 0
208 0 0
212 0 0
205 0 0
209 0 0
212 0 0
209 0 0
211 0 0
210 0 0
209 0 0
210 0 0
211 0 0
207 0 0
210 0 0
206 0 0
209 0 0
209 0 0
208 0 0
207 0 0
209 0 0
211 0 0
210 0 0
209 0 0
207 0 0
210 0 0
214 0 0
208 0 0
208 0 0
208 0 0
209 0 0
207 0 0
209 0 0
209 0 0
209 0 0
211 0 0
210 0 0
210 0 0
210 0 0
208 0 0
209 0 0
213 0 0
209 0 0
209 0 0
211 0 0
206 0 0
210 0 0
207 0 0
207 0 0
209 0 0
212 0 0
210 0 0
208 0 0
0 0 255
0 0 255
0 0 255
0 0 254
0 0 255
0 0 255
0 0 255
0 0 255
0 0 255
0 0 255
0 0 255
0 0 255
0 0 255
0 0 255
0 0 255
0 0 255
0 0 255
0 0 254
0 0 254
0 0 255
0 0 255
0 0 255
0 0 255
0 0 255
0 0 255
0 0 254
0 0 253
0 0 255
0 0 255
0 0 255
0 0 255
0 0 255
0 0 254
0 0 255
0 0 254
0 0 255
0 0 255
0 0 255
0 0 253
0 0 254
0 0 255
0 0 254
0 0 255
0 0 255
0 0 255
0 0 254
0 0 255
0 0 255
0 0 254
0 0 254
0 0 255
0 0 254
0 0 255
0 0 255
0 0 255
0 0 253
0 0 255
0 0 255
0 0 254
0 0 253
0 0 253
0 0 254
0 0 252
0 0 255
0 0 254
0 0 255
0 0 255
0 0 255
0 0 252
0 0 255
0 0 252
0 0 255
0 0 255
0 0 253
0 0 254
0 0 254
0 0 255
0 0 254
0 0 254
0 0 254
0 0 254
0 0 254
0 0 253
0 0 254
0 0 253
0 0 253
0 0 255
0 0 253
0 0 253
0 0 249
0 0 255
0 0 254
0 0 254
0 0 254
0 0 250
0 0 253
0 0 255
0 0 253
0 0 254
0 0 250
0 0 250
0 0 250
0 0 254
0 0 254
0 0 253
0 0 253
0 0 255
0 0 252
0 0 252
0 0 253
0 0 252
0 0 253
0 0 254
0 0 252
0 0 253
0 0 253
0 0 254
0 0 250
0 0 253
0 0 252
0 0 249
0 0 246
0 0 253
0 0 250
0 0 255
0 0 249
0 0 250
0 0 252
0 0 254
44 50 254
142 159 254
196 220 255
199 223 255
199 223 255
199 223 255
199 223 255
198 223 255
198 223 255
198 223 255
198 223 255
198 223 255
198 223 255
198 223 255
198 223 255
198 223 255
198 223 255
198 223 255
198 223 255
198 223 255
198 223 255
198 223 255
198 223 255
198 223 255
198 223 255
197 222 255
197 222 255
197 222 255
197 222 255
197 222 255
197 222 255
197 222 255
197 222 255
197 222 255
197 222 255
197 222 255
197 222 255
197 222 255
197 222 255
197 222 255
197 222 255
197 222 255
197 222 255
197 222 255
197 222 255
197 222 255
197 222 255
197 222 255
197 222 255
197 222 255
197 222 255
196 222 255
196 222 255
196 222 255
196 222 255
196 222 255
196 222 255
196 222 255
196 222 255
196 222 255
196 222 255
196 222 255
196 222 255
196 222 255
196 222 255
196 222 255
196 222 255
196 222 255
196 222 255
196 222 255
196 222 255
196 222 255
196 222 255
196 222 255
196 222 255
196 222 255
196 222 255
196 222 255
196 222 255
196 222 255
196 222 255
196 222 255
196 222 255
196 222 255
196 222 255
196 222 255
196 222 255
196 222 255
196 222 255
196 222 255
196 222 255
197 222 255
197 222 255
197 222 255
197 222 255
197 222 255
197 222 255
197 222 255
197 222 255
197 222 255
197 222 255
197 222 255
197 222 255
197 222 255
197 222 255
197 222 255
197 222 255
197 222 255
197 222 255
197 222 255
197 222 255
197 222 255
197 222 255
197 222 255
197 222 255
197 222 255
197 223 255
198 223 255
198 223 255
198 223 255
198 223 255
198 223 255
198 223 255
198 223 255
198 223 255
198 223 255
198 223 255
198 223 255
198 223 255
198 223 255
198 223 255
198 223 255
198 223 255
198 223 255
198 223 255
199 223 255
199 223 255
199 223 255
199 223 255
198 213 244
199 164 188
200 74 84
197 0 0
198 0 0
203 0 0
199 0 0
199 0 0
196 0 0
199 0 0
203 0 0
196 0 0
202 0 0
200 0 0
202 0 0
202 0 0
200 0 0
204 0 0
204 0 0
201 0 0
202 0 0
204 0 0
198 0 0
199 0 0
204 0 0
203 0 0
201 0 0
202 0 0
201 0 0
201 0 0
204 0 0
204 0 0
207 0 0
205 0 0
207 0 0
205 0 0
201 0 0
204 0 0
206 0 0
205 0 0
206 0 0
202 0 0
205 0 0
204 0 0
201 0 0
203 0 0
202 0 0
205 0 0
206 0 0
206 0 0
205 0 0
205 0 0
205 0 0
208 0 0
210 0 0
209 0 0
207 0 0
204 0 0
207 0 0
209 0 0
207 0 0
209 0 0
212 0 0
206 0 0
210 0 0
207 0 0
208 0 0
208 0 0
208 0 0
207 0 0
210 0 0
207 0 0
209 0 0
209 0 0
209 0 0
202 0 0
211 0 0
210 0 0
208 0 0
208 0 0
209 0 0
210 0 0
209 0 0
207 0 0
209 0 0
209 0 0
206 0 0
210 0 0
210 0 0
210 0 0
207 0 0
212 0 0
211 0 0
206 0 0
212 0 0
208 0 0
209 0 0
205 0 0
208 0 0
210 0 0
211 0 0
210 0 0
209 0 0
210 0 0
209 0 0
210 0 0
210 0 0
207 0 0
210 0 0
212 0 0
209 0 0
209 0 0
210 0 0
210 0 0
209 0 0
208 0 0
212 0 0
207 0 0
206 0 0
209 0 0
209 0 0
211 0 0
210 0 0
212 0 0
205 0 0
212 0 0
212 0 0
211 0 0
211 0 0
210 0 0
214 0 0
210 0 0
0 0 255
0 0 255
0 0 255
0 0 255
0 0 255
0 0 255
0 0 255
0 0 255
0 0 255
0 0 255
0 0 255
0 0 254
0 0 255
0 0 255
0 0 255
0 0 255
0 0 255
0 0 255
0 0 255
0 0 255
0 0 255
0 0 253
0 0 255
0 0 255
0 0 254
0 0 254
0 0 255
0 0 254
0 0 254
0 0 255
0 0 255
0 0 255
0 0 253
0 0 255
0 0 255
0 0 255
0 0 254
0 0 255
0 0 255
0 0 255
0 0 255
0 0 255
0 0 255
0 0 255
0 0 255
0 0 253
0 0 254
0 0 253
0 0 254
0 0 255
0 0 254
0 0 254
0 0 255
0 0 253
0 0 255
0 0 255
0 0 254
0 0 253
0 0 254
0 0 255
0 0 254
0 0 253
0 0 254
0 0 255
0 0 255
0 0 255
0 0 255
0 0 255
0 0 253
0 0 254
0 0 254
0 0 254
0 0 255
0 0 254
0 0 254
0 0 253
0 0 254
0 0 254
0 0 254
0 0 249
0 0 253
0 0 252
0 0 253
0 0 255
0 0 254
0 0 252
0 0 255
0 0 254
0 0 253
0 0 253
0 0 253
0 0 250
0 0 254
0 0 255
0 0 255
0 0 252
0 0 253
0 0 254
0 0 254
0 0 252
0 0 254
0 0 254
0 0 252
0 0 254
0 0 254
0 0 249
0 0 250
0 0 254
0 0 253
0 0 255
0 0 248
0 0 254
0 0 252
0 0 252
0 0 249
0 0 248
0 0 252
0 0 248
0 0 248
0 0 252
0 0 252
0 0 252
0 0 246
0 0 254
0 0 254
0 0 252
0 0 253
0 0 252
0 0 253
0 0 249
0 0 246
63 70 249
139 156 255
193 216 255
199 223 255
199 223 255
199 223 255
199 223 255
198 223 255
198 223 255
198 223 255
198 223 255
198 223 255
198 223 255
198 223 255
198 223 255
198 223 255
198 223 255
198 223 255
198 223 255
198 223 255
198 223 255
198 223 255
198 223 255
198 223 255
198 223 255
198 223 255
197 223 255
197 222 255
197 222 255
197 222 255
197 222 255
197 222 255
197 222 255
197 222 255
197 222 255
197 222 255
197 222 255
197 222 255
197 222 255
197 222 255
197 222 255
197 222 255
197 222 255
197 222 255
197 222 255
197 222 255
197 222 255
197 222 255
197 222 255
197 222 255
197 222 255
197 222 255
197 222 255
197 222 255
197 222 255
197 222 255
197 222 255
197 222 255
196 222 255
196 222 255
196 222 255
196 222 255
196 222 255
196 222 255
196 222 255
196 222 255
196 222 255
196 222 255
196 222 255
196 222 255
196 222 255
196 222 255
196 222 255
196 222 255
196 222 255
196 222 255
196 222 255
196 222 255
196 222 255
197 222 255
197 222 255
197 222 255
197 222 255
197 222 255
197 222 255
197 222 255
197 222 255
197 222 255
197 222 255
197 222 255
197 222 255
197 222 255
197 222 255
197 222 255
197 222 255
197 222 255
197 222 255
197 222 255
197 222 255
197 222 255
197 222 255
197 222 255
197 222 255
197 222 255
197 222 255
197 222 255
197 222 255
197 222 255
197 222 255
197 222 255
197 222 255
197 223 255
198 223 255
198 223 255
198 223 255
198 223 255
198 223 255
198 223 255
198 223 255
198 223 255
198 223 255
198 223 255
198 223 255
198 223 255
198 223 255
198 223 255
198 223 255
198 223 255
198 223 255
198 223 255
198 223 255
199 223 255
199 223 255
199 223 255
199 223 255
199 212 242
197 167 191
198 67 76
197 0 0
197 0 0
199 0 0
196 0 0
197 0 0
200 0 0
198 0 0
204 0 0
201 0 0
199 0 0
201 0 0
202 0 0
205 0 0
200 0 0
201 0 0
202 0 0
204 0 0
203 0 0
204 0 0
201 0 0
204 0 0
205 0 0
206 0 0
203 0 0
201 0 0
205 0 0
206 0 0
202 0 0
202 0 0
199 0 0
208 0 0
203 0 0
205 0 0
203 0 0
207 0 0
205 0 0
206 0 0
205 0 0
204 0 0
205 0 0
207 0 0
204 0 0
206 0 0
207 0 0
206 0 0
208 0 0
202 0 0
209 0 0
208 0 0
204 0 0
205 0 0
210 0 0
211 0 0
209 0 0
201 0 0
210 0 0
207 0 0
208 0 0
204 0 0
209 0 0
212 0 0
207 0 0
208 0 0
207 0 0
208 0 0
205 0 0
209 0 0
210 0 0
209 0 0
207 0 0
207 0 0
209 0 0
206 0 0
210 0 0
209 0 0
210 0 0
207 0 0
208 0 0
209 0 0
210 0 0
210 0 0
209 0 0
210 0 0
209 0 0
210 0 0
208 0 0
209 0 0
211 0 0
208 0 0
211 0 0
207 0 0
211 0 0
207 0 0
211 0 0
207 0 0
209 0 0
210 0 0
208 0 0
208 0 0
208 0 0
211 0 0
210 0 0
212 0 0
209 0 0
211 0 0
210 0 0
212 0 0
211 0 0
210 0 0
211 0 0
209 0 0
208 0 0
210 0 0
211 0 0
212 0 0
204 0 0
212 0 0
211 0 0
210 0 0
210 0 0
212 0 0
214 0 0
209 0 0
208 0 0
212 0 0
211 0 0
210 0 0
210 0 0
212 0 0
212 0 0
210 0 0
0 0 255
0 0 255
0 0 255
0 0 254
0 0 255
0 0 255
0 0 255
0 0 255
0 0 255
0 0 255
0 0 255
0 0 255
0 0 255
0 0 255
0 0 255
0 0 254
0 0 255
0 0 255
0 0 255
0 0 254
0 0 255
0 0 254
0 0 255
0 0 255
0 0 255
0 0 255
0 0 254
0 0 254
0 0 255
0 0 255
0 0 255
0 0 255
0 0 255
0 0 255
0 0 255
0 0 255
0 0 255
0 0 255
0 0 255
0 0 255
0 0 255
0 0 255
0 0 255
0 0 255
0 0 255
0 0 255
0 0 255
0 0 255
0 0 255
0 0 255
0 0 254
0 0 255
0 0 255
0 0 255
0 0 254
0 0 253
0 0 254
0 0 254
0 0 252
0 0 255
0 0 255
0 0 255
0 0 253
0 0 253
0 0 254
0 0 255
0 0 254
0 0 255
0 0 252
0 0 254
0 0 255
0 0 254
0 0 254
0 0 252
0 0 254
0 0 249
0 0 254
0 0 254
0 0 255
0 0 255
0 0 252
0 0 255
0 0 249
0 0 252
0 0 254
0 0 253
0 0 254
0 0 255
0 0 254
0 0 252
0 0 254
0 0 254
0 0 254
0 0 254
0 0 252
0 0 249
0 0 254
0 0 254
0 0 252
0 0 254
0 0 252
0 0 249
0 0 254
0 0 250
0 0 254
0 0 252
0 0 254
0 0 254
0 0 254
0 0 250
0 0 253
0 0 253
0 0 250
0 0 254
0 0 253
0 0 252
0 0 253
0 0 252
0 0 252
0 0 253
0 0 255
0 0 254
0 0 253
0 0 254
0 0 249
0 0 252
0 0 250
0 0 245
0 0 246
0 0 252
0 0 252
0 0 253
0 0 252
39 44 254
138 155 254
192 215 255
199 223 255
199 223 255
199 223 255
199 223 255
199 223 255
198 223 255
198 223 255
198 223 255
198 223 255
198 223 255
198 223 255
198 223 255
198 223 255
198 223 255
198 223 255
198 223 255
198 223 255
198 223 255
198 223 255
198 223 255
198 223 255
198 223 255
198 223 255
198 223 255
198 223 255
197 223 255
197 222 255
197 222 255
197 222 255
197 222 255
197 222 255
197 222 255
197 222 255
197 222 255
197 222 255
197 222 255
197 222 255
197 222 255
197 222 255
197 222 255
197 222 255
197 222 255
197 222 255
197 222 255
197 222 255
197 222 255
197 222 255
197 222 255
197 222 255
197 222 255
197 222 255
197 222 255
197 222 255
197 222 255
197 222 255
197 222 255
197 222 255
197 222 255
197 222 255
197 222 255
197 222 255
197 222 255
197 222 255
197 222 255
197 222 255
197 222 255
197 222 255
197 222 255
197 222 255
197 222 255
197 222 255
197 222 255
197 222 255
197 222 255
197 222 255
197 222 255
197 222 255
197 222 255
197 222 255
197 222 255
197 222 255
197 222 255
197 222 255
197 222 255
197 222 255
197 222 255
197 222 255
197 222 255
197 222 255
197 222 255
197 222 255
197 222 255
197 222 255
197 222 255
197 222 255
197 222 255
197 222 255
197 222 255
197 222 255
197 222 255
197 222 255
197 222 255
197 223 255
198 223 255
198 223 255
198 223 255
198 223 255
198 223 255
198 223 255
198 223 255
198 223 255
198 223 255
198 223 255
198 223 255
198 223 255
198 223 255
198 223 255
198 223 255
198 223 255
198 223 255
198 223 255
198 223 255
198 223 255
199 223 255
199 223 255
199 223 255
199 223 255
199 223 255
199 214 245
195 155 177
194 44 51
199 0 0
198 0 0
197 0 0
201 0 0
198 0 0
199 0 0
198 0 0
203 0 0
201 0 0
202 0 0
203 0 0
200 0 0
204 0 0
207 0 0
202 0 0
200 0 0
205 0 0
203 0 0
202 0 0
204 0 0
207 0 0
203 0 0
205 0 0
202 0 0
203 0 0
204 0 0
201 0 0
208 0 0
206 0 0
207 0 0
203 0 0
205 0 0
202 0 0
203 0 0
205 0 0
209 0 0
206 0 0
204 0 0
205 0 0
205 0 0
206 0 0
210 0 0
209 0 0
205 0 0
207 0 0
203 0 0
203 0 0
206 0 0
208 0 0
208 0 0
206 0 0
207 0 0
201 0 0
206 0 0
209 0 0
210 0 0
205 0 0
207 0 0
204 0 0
209 0 0
205 0 0
207 0 0
207 0 0
207 0 0
201 0 0
207 0 0
209 0 0
209 0 0
206 0 0
211 0 0
207 0 0
211 0 0
206 0 0
212 0 0
212 0 0
207 0 0
209 0 0
208 0 0
210 0 0
212 0 0
209 0 0
212 0 0
209 0 0
212 0 0
207 0 0
207 0 0
209 0 0
210 0 0
209 0 0
210 0 0
210 0 0
212 0 0
209 0 0
212 0 0
210 0 0
208 0 0
212 0 0
209 0 0
210 0 0
211 0 0
211 0 0
207 0 0
212 0 0
214 0 0
208 0 0
208 0 0
210 0 0
213 0 0
211 0 0
211 0 0
211 0 0
208 0 0
212 0 0
211 0 0
213 0 0
211 0 0
206 0 0
213 0 0
210 0 0
208 0 0
211 0 0
213 0 0
212 0 0
212 0 0
213 0 0
211 0 0
212 0 0
210 0 0
211 0 0
213 0 0
209 0 0
212 0 0
209 0 0
0 0 254
0 0 255
0 0 255
0 0 255
0 0 255
0 0 255
0 0 255
0 0 255
0 0 255
0 0 255
0 0 255
0 0 255
0 0 255
0 0 255
0 0 255
0 0 255
0 0 255
0 0 255
0 0 255
0 0 255
0 0 255
0 0 255
0 0 255
0 0 255
0 0 254
0 0 255
0 0 255
0 0 253
0 0 255
0 0 255
0 0 254
0 0 255
0 0 254
0 0 255
0 0 255
0 0 255
0 0 255
0 0 255
0 0 255
0 0 255
0 0 253
0 0 255
0 0 254
0 0 254
0 0 255
0 0 254
0 0 255
0 0 255
0 0 254
0 0 254
0 0 253
0 0 254
0 0 255
0 0 255
0 0 254
0 0 254
0 0 254
0 0 255
0 0 254
0 0 255
0 0 253
0 0 252
0 0 254
0 0 255
0 0 253
0 0 254
0 0 255
0 0 255
0 0 254
0 0 255
0 0 253
0 0 254
0 0 254
0 0 255
0 0 255
0 0 253
0 0 253
0 0 254
0 0 253
0 0 255
0 0 253
0 0 254
0 0 254
0 0 253
0 0 254
0 0 253
0 0 253
0 0 252
0 0 253
0 0 254
0 0 253
0 0 254
0 0 252
0 0 253
0 0 255
0 0 255
0 0 252
0 0 253
0 0 253
0 0 252
0 0 254
0 0 253
0 0 253
0 0 253
0 0 253
0 0 249
0 0 254
0 0 249
0 0 249
0 0 249
0 0 250
0 0 254
0 0 252
0 0 255
0 0 246
0 0 254
0 0 253
0 0 249
0 0 253
0 0 254
0 0 252
0 0 250
0 0 250
0 0 253
0 0 245
0 0 250
0 0 250
0 0 249
0 0 252
0 0 249
0 0 253
0 0 248
0 0 248
0 0 250
0 0 248
69 77 253
154 173 255
197 221 255
199 223 255
199 223 255
199 223 255
199 223 255
199 223 255
199 223 255
199 223 255
198 223 255
198 223 255
198 223 255
198 223 255
198 223 255
198 223 255
198 223 255
198 223 255
198 223 255
198 223 255
198 223 255
198 223 255
198 223 255
198 223 255
198 223 255
198 223 255
198 223 255
198 223 255
198 223 255
198 223 255
197 223 255
197 222 255
197 222 255
197 222 255
197 222 255
197 222 255
197 222 255
197 222 255
197 222 255
197 222 255
197 222 255
197 222 255
197 222 255
197 222 255
197 222 255
197 222 255
197 222 255
197 222 255
197 222 255
197 222 255
197 222 255
197 222 255
197 222 255
197 222 255
197 222 255
197 222 255
197 222 255
197 222 255
197 222 255
197 222 255
197 222 255
197 222 255
197 222 255
197 222 255
197 222 255
197 222 255
197 222 255
197 222 255
197 222 255
197 222 255
197 222 255
197 222 255
197 222 255
197 222 255
197 222 255
197 222 255
197 222 255
197 222 255
197 222 255
197 222 255
197 222 255
197 222 255
197 222 255
197 222 255
197 222 255
197 222 255
197 222 255
197 222 255
197 222 255
197 222 255
197 222 255
197 222 255
197 222 255
197 222 255
197 222 255
197 222 255
197 222 255
197 222 255
197 222 255
197 223 255
198 223 255
198 223 255
198 223 255
198 223 255
198 223 255
198 223 255
198 223 255
198 223 255
198 223 255
198 223 255
198 223 255
198 223 255
198 223 255
198 223 255
198 223 255
198 223 255
198 223 255
198 223 255
198 223 255
198 223 255
199 223 255
199 223 255
199 223 255
199 223 255
199 223 255
199 223 255
199 223 255
199 222 254
196 165 189
197 70 80
198 0 0
200 0 0
203 0 0
203 0 0
199 0 0
199 0 0
205 0 0
199 0 0
194 0 0
202 0 0
203 0 0
203 0 0
204 0 0
200 0 0
202 0 0
193 0 0
201 0 0
197 0 0
206 0 0
201 0 0
204 0 0
202 0 0
200 0 0
203 0 0
202 0 0
200 0 0
204 0 0
208 0 0
206 0 0
204 0 0
206 0 0
208 0 0
210 0 0
208 0 0
203 0 0
203 0 0
204 0 0
207 0 0
206 0 0
206 0 0
204 0 0
205 0 0
209 0 0
202 0 0
207 0 0
204 0 0
210 0 0
211 0 0
204 0 0
207 0 0
207 0 0
212 0 0
208 0 0
207 0 0
207 0 0
205 0 0
210 0 0
204 0 0
206 0 0
206 0 0
208 0 0
209 0 0
209 0 0
211 0 0
210 0 0
209 0 0
210 0 0
209 0 0
208 0 0
209 0 0
211 0 0
209 0 0
204 0 0
209 0 0
208 0 0
203 0 0
204 0 0
210 0 0
209 0 0
207 0 0
212 0 0
206 0 0
208 0 0
213 0 0
210 0 0
206 0 0
207 0 0
209 0 0
209 0 0
206 0 0
211 0 0
210 0 0
210 0 0
209 0 0
206 0 0
210 0 0
210 0 0
212 0 0
208 0 0
211 0 0
211 0 0
210 0 0
207 0 0
205 0 0
211 0 0
210 0 0
210 0 0
213 0 0
209 0 0
207 0 0
210 0 0
210 0 0
208 0 0
207 0 0
210 0 0
212 0 0
209 0 0
204 0 0
208 0 0
210 0 0
213 0 0
210 0 0
209 0 0
209 0 0
207 0 0
210 0 0
212 0 0
210 0 0
210 0 0
208 0 0
210 0 0
207 0 0
209 0 0
211 0 0
213 0 0
0 0 255
0 0 255
0 0 255
0 0 255
0 0 255
0 0 255
0 0 255
0 0 255
0 0 255
0 0 254
0 0 255
0 0 255
0 0 255
0 0 254
0 0 255
0 0 255
0 0 255
0 0 254
0 0 255
0 0 255
0 0 255
0 0 254
0 0 255
0 0 255
0 0 255
0 0 255
0 0 255
0 0 255
0 0 255
0 0 255
0 0 255
0 0 255
0 0 254
0 0 255
0 0 255
0 0 255
0 0 255
0 0 254
0 0 253
0 0 253
0 0 254
0 0 255
0 0 255
0 0 255
0 0 254
0 0 254
0 0 255
0 0 252
0 0 255
0 0 254
0 0 254
0 0 254
0 0 254
0 0 254
0 0 254
0 0 254
0 0 254
0 0 255
0 0 253
0 0 254
0 0 255
0 0 254
0 0 253
0 0 254
0 0 255
0 0 255
0 0 253
0 0 255
0 0 255
0 0 253
0 0 253
0 0 254
0 0 254
0 0 254
0 0 254
0 0 254
0 0 254
0 0 254
0 0 252
0 0 255
0 0 255
0 0 252
0 0 255
0 0 253
0 0 253
0 0 252
0 0 254
0 0 255
0 0 252
0 0 254
0 0 254
0 0 253
0 0 252
0 0 253
0 0 254
0 0 254
0 0 249
0 0 253
0 0 253
0 0 254
0 0 253
0 0 255
0 0 253
0 0 255
0 0 248
0 0 254
0 0 254
0 0 253
0 0 254
0 0 253
0 0 255
0 0 250
0 0 252
0 0 252
0 0 250
0 0 248
0 0 253
0 0 253
0 0 252
0 0 249
0 0 253
0 0 254
0 0 252
0 0 253
0 0 254
0 0 248
0 0 248
0 0 250
0 0 249
0 0 249
0 0 253
0 0 249
0 0 253
0 0 250
0 0 250
0 0 249
0 0 253
71 80 250
160 180 254
198 222 255
199 223 255
199 223 255
199 223 255
199 223 255
199 223 255
199 223 255
199 223 255
199 223 255
198 223 255
198 223 255
198 223 255
198 223 255
198 223 255
198 223 255
198 223 255
198 223 255
198 223 255
198 223 255
198 223 255
198 223 255
198 223 255
198 223 255
198 223 255
198 223 255
198 223 255
198 223 255
198 223 255
198 223 255
198 223 255
198 223 255
197 223 255
197 222 255
197 222 255
197 222 255
197 222 255
197 222 255
197 222 255
197 222 255
197 222 255
197 222 255
197 222 255
197 222 255
197 222 255
197 222 255
197 222 255
197 222 255
197 222 255
197 222 255
197 222 255
197 222 255
197 222 255
197 222 255
197 222 255
197 222 255
197 222 255
197 222 255
197 222 255
197 222 255
197 222 255
197 222 255
197 222 255
197 222 255
197 222 255
197 222 255
197 222 255
197 222 255
197 222 255
197 222 255
197 222 255
197 222 255
197 222 255
197 222 255
197 222 255
197 222 255
197 222 255
197 222 255
197 222 255
197 222 255
197 222 255
197 222 255
197 222 255
197 222 255
197 222 255
197 222 255
197 222 255
197 222 255
197 222 255
197 222 255
197 222 255
197 223 255
198 223 255
198 223 255
198 223 255
198 223 255
198 223 255
198 223 255
198 223 255
198 223 255
198 223 255
198 223 255
198 223 255
198 223 255
198 223 255
198 223 255
198 223 255
198 223 255
198 223 255
198 223 255
198 223 255
198 223 255
198 223 255
198 223 255
199 223 255
199 223 255
199 223 255
199 223 255
199 223 255
199 223 255
199 223 255
199 223 255
199 223 255
197 191 218
200 86 99
197 0 0
193 0 0
194 0 0
196 0 0
192 0 0
200 0 0
202 0 0
200 0 0
201 0 0
198 0 0
195 0 0
196 0 0
201 0 0
200 0 0
202 0 0
201 0 0
198 0 0
206 0 0
201 0 0
204 0 0
204 0 0
199 0 0
206 0 0
205 0 0
207 0 0
203 0 0
206 0 0
203 0 0
207 0 0
203 0 0
205 0 0
205 0 0
203 0 0
206 0 0
204 0 0
204 0 0
205 0 0
200 0 0
203 0 0
205 0 0
205 0 0
206 0 0
206 0 0
211 0 0
207 0 0
204 0 0
207 0 0
204 0 0
206 0 0
206 0 0
205 0 0
204 0 0
207 0 0
205 0 0
206 0 0
206 0 0
202 0 0
207 0 0
209 0 0
209 0 0
208 0 0
208 0 0
204 0 0
207 0 0
204 0 0
202 0 0
211 0 0
211 0 0
204 0 0
206 0 0
205 0 0
212 0 0
212 0 0
207 0 0
206 0 0
210 0 0
210 0 0
208 0 0
210 0 0
209 0 0
209 0 0
208 0 0
208 0 0
208 0 0
212 0 0
207 0 0
211 0 0
208 0 0
210 0 0
212 0 0
210 0 0
210 0 0
209 0 0
208 0 0
213 0 0
209 0 0
212 0 0
209 0 0
213 0 0
210 0 0
210 0 0
209 0 0
209 0 0
212 0 0
211 0 0
208 0 0
212 0 0
211 0 0
209 0 0
209 0 0
212 0 0
210 0 0
208 0 0
210 0 0
210 0 0
209 0 0
212 0 0
212 0 0
212 0 0
208 0 0
210 0 0
208 0 0
210 0 0
215 0 0
210 0 0
210 0 0
210 0 0
211 0 0
211 0 0
211 0 0
213 0 0
211 0 0
210 0 0
208 0 0
212 0 0
209 0 0
211 0 0
0 0 255
0 0 255
0 0 255
0 0 255
0 0 254
0 0 255
0 0 255
0 0 255
0 0 255
0 0 254
0 0 254
0 0 255
0 0 255
0 0 255
0 0 255
0 0 255
0 0 255
0 0 255
0 0 255
0 0 255
0 0 255
0 0 255
0 0 255
0 0 255
0 0 255
0 0 255
0 0 255
0 0 255
0 0 254
0 0 255
0 0 254
0 0 255
0 0 255
0 0 255
0 0 255
0 0 254
0 0 254
0 0 253
0 0 254
0 0 254
0 0 254
0 0 255
0 0 255
0 0 254
0 0 255
0 0 254
0 0 255
0 0 255
0 0 253
0 0 255
0 0 255
0 0 255
0 0 254
0 0 254
0 0 255
0 0 255
0 0 254
0 0 253
0 0 255
0 0 250
0 0 255
0 0 253
0 0 254
0 0 252
0 0 254
0 0 254
0 0 252
0 0 255
0 0 253
0 0 255
0 0 254
0 0 254
0 0 252
0 0 253
0 0 255
0 0 253
0 0 252
0 0 254
0 0 253
0 0 254
0 0 255
0 0 250
0 0 254
0 0 253
0 0 253
0 0 254
0 0 254
0 0 250
0 0 252
0 0 254
0 0 253
0 0 254
0 0 253
0 0 250
0 0 254
0 0 250
0 0 252
0 0 254
0 0 253
0 0 254
0 0 255
0 0 249
0 0 253
0 0 246
0 0 255
0 0 253
0 0 250
0 0 255
0 0 253
0 0 249
0 0 253
0 0 254
0 0 253
0 0 252
0 0 253
0 0 249
0 0 249
0 0 252
0 0 252
0 0 249
0 0 253
0 0 253
0 0 250
0 0 245
0 0 250
0 0 253
0 0 249
0 0 253
0 0 248
0 0 246
0 0 244
0 0 248
0 0 248
0 0 246
0 0 250
0 0 250
0 0 249
0 0 250
0 0 248
79 89 249
176 197 255
199 223 255
199 223 255
199 223 255
199 223 255
199 223 255
199 223 255
199 223 255
199 223 255
199 223 255
199 223 255
198 223 255
198 223 255
198 223 255
198 223 255
198 223 255
198 223 255
198 223 255
198 223 255
198 223 255
198 223 255
198 223 255
198 223 255
198 223 255
198 223 255
198 223 255
198 223 255
198 223 255
198 223 255
198 223 255
198 223 255
198 223 255
198 223 255
198 223 255
198 223 255
197 223 255
197 223 255
197 222 255
197 222 255
197 222 255
197 222 255
197 222 255
197 222 255
197 222 255
197 222 255
197 222 255
197 222 255
197 222 255
197 222 255
197 222 255
197 222 255
197 222 255
197 222 255
197 222 255
197 222 255
197 222 255
197 222 255
197 222 255
197 222 255
197 222 255
197 222 255
197 222 255
197 222 255
197 222 255
197 222 255
197 222 255
197 222 255
197 222 255
197 222 255
197 222 255
197 222 255
197 222 255
197 222 255
197 222 255
197 222 255
197 222 255
197 222 255
197 222 255
197 222 255
197 222 255
197 222 255
197 222 255
197 222 255
197 222 255
197 223 255
198 223 255
198 223 255
198 223 255
198 223 255
198 223 255
198 223 255
198 223 255
198 223 255
198 223 255
198 223 255
198 223 255
198 223 255
198 223 255
198 223 255
198 223 255
198 223 255
198 223 255
198 223 255
198 223 255
198 223 255
198 223 255
198 223 255
198 223 255
198 223 255
199 223 255
199 223 255
199 223 255
199 223 255
199 223 255
199 223 255
199 223 255
199 223 255
199 223 255
199 223 255
196 196 224
200 104 120
195 0 0
199 0 0
195 0 0
203 0 0
198 0 0
199 0 0
202 0 0
202 0 0
196 0 0
203 0 0
199 0 0
199 0 0
198 0 0
200 0 0
200 0 0
198 0 0
202 0 0
202 0 0
201 0 0
197 0 0
202 0 0
202 0 0
203 0 0
201 0 0
206 0 0
200 0 0
200 0 0
202 0 0
200 0 0
200 0 0
204 0 0
204 0 0
204 0 0
199 0 0
206 0 0
205 0 0
207 0 0
204 0 0
203 0 0
206 0 0
204 0 0
205 0 0
199 0 0
203 0 0
203 0 0
202 0 0
205 0 0
204 0 0
208 0 0
206 0 0
207 0 0
205 0 0
210 0 0
207 0 0
206 0 0
205 0 0
204 0 0
204 0 0
204 0 0
208 0 0
207 0 0
212 0 0
205 0 0
209 0 0
206 0 0
205 0 0
210 0 0
207 0 0
206 0 0
204 0 0
205 0 0
206 0 0
211 0 0
209 0 0
210 0 0
207 0 0
207 0 0
209 0 0
205 0 0
208 0 0
211 0 0
208 0 0
211 0 0
206 0 0
207 0 0
211 0 0
207 0 0
211 0 0
208 0 0
212 0 0
209 0 0
209 0 0
208 0 0
204 0 0
210 0 0
210 0 0
212 0 0
210 0 0
209 0 0
212 0 0
209 0 0
207 0 0
213 0 0
209 0 0
211 0 0
212 0 0
211 0 0
211 0 0
211 0 0
208 0 0
211 0 0
208 0 0
212 0 0
212 0 0
210 0 0
209 0 0
211 0 0
209 0 0
211 0 0
210 0 0
214 0 0
211 0 0
213 0 0
209 0 0
216 0 0
210 0 0
211 0 0
210 0 0
212 0 0
213 0 0
213 0 0
210 0 0
212 0 0
215 0 0
211 0 0
211 0 0
213 0 0
208 0 0
209 0 0
0 0 255
0 0 255
0 0 255
0 0 255
0 0 255
0 0 255
0 0 255
0 0 255
0 0 255
0 0 254
0 0 255
0 0 255
0 0 255
0 0 255
0 0 255
0 0 254
0 0 255
0 0 254
0 0 255
0 0 255
0 0 254
0 0 255
0 0 255
0 0 254
0 0 254
0 0 255
0 0 254
0 0 254
0 0 255
0 0 255
0 0 255
0 0 255
0 0 254
0 0 254
0 0 254
0 0 255
0 0 255
0 0 255
0 0 255
0 0 255
0 0 255
0 0 255
0 0 254
0 0 252
0 0 253
0 0 253
0 0 255
0 0 255
0 0 255
0 0 255
0 0 254
0 0 253
0 0 252
0 0 255
0 0 255
0 0 255
0 0 254
0 0 255
0 0 255
0 0 252
0 0 255
0 0 254
0 0 254
0 0 253
0 0 255
0 0 253
0 0 255
0 0 254
0 0 255
0 0 255
0 0 254
0 0 255
0 0 255
0 0 253
0 0 253
0 0 255
0 0 253
0 0 252
0 0 255
0 0 253
0 0 254
0 0 253
0 0 254
0 0 253
0 0 253
0 0 253
0 0 254
0 0 250
0 0 253
0 0 254
0 0 254
0 0 253
0 0 249
0 0 253
0 0 252
0 0 253
0 0 252
0 0 253
0 0 253
0 0 255
0 0 253
0 0 255
0 0 249
0 0 250
0 0 250
0 0 254
0 0 253
0 0 250
0 0 249
0 0 253
0 0 252
0 0 253
0 0 252
0 0 253
0 0 249
0 0 248
0 0 252
0 0 248
0 0 252
0 0 249
0 0 252
0 0 254
0 0 253
0 0 248
0 0 253
0 0 244
0 0 248
0 0 248
0 0 249
0 0 252
0 0 253
0 0 253
0 0 248
0 0 246
0 0 249
0 0 248
0 0 244
0 0 250
0 0 250
0 0 252
0 0 249
109 122 248
187 210 255
199 223 255
199 223 255
199 223 255
199 223 255
199 223 255
199 223 255
199 223 255
199 223 255
199 223 255
199 223 255
199 223 255
199 223 255
198 223 255
198 223 255
198 223 255
198 223 255
198 223 255
198 223 255
198 223 255
198 223 255
198 223 255
198 223 255
198 223 255
198 223 255
198 223 255
198 223 255
198 223 255
198 223 255
198 223 255
198 223 255
198 223 255
198 223 255
198 223 255
198 223 255
198 223 255
198 223 255
198 223 255
198 223 255
198 223 255
198 223 255
197 223 255
197 222 255
197 222 255
197 222 255
197 222 255
197 222 255
197 222 255
197 222 255
197 222 255
197 222 255
197 222 255
197 222 255
197 222 255
197 222 255
197 222 255
197 222 255
197 222 255
197 222 255
197 222 255
197 222 255
197 222 255
197 222 255
197 222 255
197 222 255
197 222 255
197 222 255
197 222 255
197 222 255
197 222 255
197 222 255
197 222 255
197 222 255
197 222 255
197 223 255
197 223 255
198 223 255
198 223 255
198 223 255
198 223 255
198 223 255
198 223 255
198 223 255
198 223 255
198 223 255
198 223 255
198 223 255
198 223 255
198 223 255
198 223 255
198 223 255
198 223 255
198 223 255
198 223 255
198 223 255
198 223 255
198 223 255
198 223 255
198 223 255
198 223 255
198 223 255
198 223 255
198 223 255
199 223 255
199 223 255
199 223 255
199 223 255
199 223 255
199 223 255
199 223 255
199 223 255
199 223 255
199 223 255
199 223 255
199 223 255
199 213 244
197 139 159
194 0 0
193 0 0
198 0 0
197 0 0
191 0 0
196 0 0
199 0 0
198 0 0
198 0 0
201 0 0
197 0 0
200 0 0
202 0 0
208 0 0
200 0 0
200 0 0
203 0 0
205 0 0
198 0 0
200 0 0
201 0 0
200 0 0
204 0 0
203 0 0
201 0 0
202 0 0
197 0 0
202 0 0
204 0 0
202 0 0
202 0 0
203 0 0
202 0 0
206 0 0
207 0 0
201 0 0
206 0 0
202 0 0
206 0 0
211 0 0
208 0 0
203 0 0
204 0 0
203 0 0
205 0 0
208 0 0
208 0 0
206 0 0
206 0 0
206 0 0
206 0 0
206 0 0
207 0 0
206 0 0
207 0 0
207 0 0
206 0 0
208 0 0
209 0 0
205 0 0
208 0 0
206 0 0
209 0 0
209 0 0
206 0 0
209 0 0
211 0 0
211 0 0
209 0 0
206 0 0
208 0 0
210 0 0
211 0 0
212 0 0
207 0 0
211 0 0
211 0 0
210 0 0
208 0 0
207 0 0
204 0 0
210 0 0
211 0 0
208 0 0
208 0 0
210 0 0
209 0 0
210 0 0
211 0 0
209 0 0
211 0 0
211 0 0
210 0 0
210 0 0
210 0 0
211 0 0
211 0 0
209 0 0
213 0 0
207 0 0
206 0 0
209 0 0
212 0 0
209 0 0
207 0 0
212 0 0
210 0 0
212 0 0
210 0 0
210 0 0
212 0 0
212 0 0
212 0 0
213 0 0
214 0 0
210 0 0
213 0 0
210 0 0
208 0 0
213 0 0
212 0 0
211 0 0
211 0 0
210 0 0
212 0 0
210 0 0
215 0 0
207 0 0
214 0 0
213 0 0
213 0 0
211 0 0
212 0 0
207 0 0
210 0 0
210 0 0
210 0 0
213 0 0
211 0 0
213 0 0
210 0 0
0 0 255
0 0 255
0 0 255
0 0 255
0 0 255
0 0 255
0 0 255
0 0 255
0 0 255
0 0 255
0 0 255
0 0 255
0 0 255
0 0 255
0 0 254
0 0 255
0 0 255
0 0 255
0 0 255
0 0 255
0 0 255
0 0 255
0 0 255
0 0 255
0 0 254
0 0 255
0 0 255
0 0 255
0 0 255
0 0 253
0 0 253
0 0 255
0 0 255
0 0 254
0 0 255
0 0 254
0 0 255
0 0 255
0 0 255
0 0 255
0 0 254
0 0 254
0 0 253
0 0 252
0 0 255
0 0 255
0 0 253
0 0 254
0 0 255
0 0 254
0 0 254
0 0 254
0 0 255
0 0 255
0 0 255
0 0 255
0 0 255
0 0 255
0 0 255
0 0 255
0 0 255
0 0 254
0 0 255
0 0 254
0 0 254
0 0 254
0 0 254
0 0 253
0 0 255
0 0 250
0 0 254
0 0 255
0 0 253
0 0 254
0 0 255
0 0 254
0 0 252
0 0 255
0 0 253
0 0 254
0 0 252
0 0 253
0 0 254
0 0 252
0 0 252
0 0 253
0 0 252
0 0 254
0 0 252
0 0 253
0 0 253
0 0 253
0 0 252
0 0 253
0 0 253
0 0 246
0 0 252
0 0 254
0 0 254
0 0 250
0 0 254
0 0 255
0 0 249
0 0 252
0 0 253
0 0 253
0 0 250
0 0 250
0 0 250
0 0 253
0 0 252
0 0 250
0 0 254
0 0 252
0 0 252
0 0 250
0 0 252
0 0 249
0 0 249
0 0 242
0 0 252
0 0 250
0 0 245
0 0 255
0 0 250
0 0 249
0 0 254
0 0 254
0 0 249
0 0 252
0 0 252
0 0 253
0 0 252
0 0 248
0 0 252
0 0 249
0 0 240
0 0 246
0 0 249
0 0 253
0 0 249
0 0 255
48 54 252
149 167 245
198 222 255
199 223 255
199 223 255
199 223 255
199 223 255
199 223 255
199 223 255
199 223 255
199 223 255
199 223 255
199 223 255
199 223 255
199 223 255
199 223 255
199 223 255
198 223 255
198 223 255
198 223 255
198 223 255
198 223 255
198 223 255
198 223 255
198 223 255
198 223 255
198 223 255
198 223 255
198 223 255
198 223 255
198 223 255
198 223 255
198 223 255
198 223 255
198 223 255
198 223 255
198 223 255
198 223 255
198 223 255
198 223 255
198 223 255
198 223 255
198 223 255
198 223 255
198 223 255
198 223 255
198 223 255
198 223 255
198 223 255
198 223 255
198 223 255
198 223 255
198 223 255
197 223 255
197 223 255
198 223 255
197 223 255
197 223 255
197 223 255
198 223 255
197 223 255
198 223 255
198 223 255
198 223 255
198 223 255
198 223 255
198 223 255
198 223 255
198 223 255
198 223 255
198 223 255
198 223 255
198 223 255
198 223 255
198 223 255
198 223 255
198 223 255
198 223 255
198 223 255
198 223 255
198 223 255
198 223 255
198 223 255
198 223 255
198 223 255
198 223 255
198 223 255
198 223 255
198 223 255
198 223 255
198 223 255
198 223 255
198 223 255
198 223 255
198 223 255
198 223 255
198 223 255
198 223 255
198 223 255
199 223 255
199 223 255
199 223 255
199 223 255
199 223 255
199 223 255
199 223 255
199 223 255
199 223 255
199 223 255
199 223 255
199 223 255
199 223 255
199 223 255
198 219 250
196 153 175
195 59 67
192 0 0
195 0 0
200 0 0
195 0 0
196 0 0
197 0 0
195 0 0
195 0 0
200 0 0
200 0 0
200 0 0
198 0 0
204 0 0
199 0 0
195 0 0
201 0 0
197 0 0
199 0 0
195 0 0
203 0 0
200 0 0
200 0 0
200 0 0
202 0 0
202 0 0
199 0 0
201 0 0
201 0 0
202 0 0
204 0 0
201 0 0
204 0 0
205 0 0
201 0 0
205 0 0
206 0 0
202 0 0
205 0 0
204 0 0
205 0 0
208 0 0
204 0 0
204 0 0
208 0 0
207 0 0
206 0 0
206 0 0
208 0 0
205 0 0
208 0 0
207 0 0
204 0 0
207 0 0
204 0 0
212 0 0
204 0 0
205 0 0
204 0 0
207 0 0
206 0 0
208 0 0
208 0 0
208 0 0
206 0 0
206 0 0
208 0 0
207 0 0
207 0 0
204 0 0
212 0 0
209 0 0
208 0 0
207 0 0
211 0 0
210 0 0
207 0 0
210 0 0
211 0 0
208 0 0
212 0 0
208 0 0
210 0 0
211 0 0
214 0 0
209 0 0
208 0 0
210 0 0
210 0 0
208 0 0
209 0 0
207 0 0
209 0 0
209 0 0
210 0 0
210 0 0
206 0 0
212 0 0
210 0 0
215 0 0
209 0 0
209 0 0
212 0 0
211 0 0
208 0 0
214 0 0
210 0 0
209 0 0
212 0 0
207 0 0
214 0 0
213 0 0
211 0 0
207 0 0
208 0 0
209 0 0
211 0 0
209 0 0
211 0 0
210 0 0
211 0 0
211 0 0
208 0 0
210 0 0
212 0 0
209 0 0
211 0 0
214 0 0
210 0 0
214 0 0
214 0 0
212 0 0
214 0 0
213 0 0
212 0 0
211 0 0
210 0 0
209 0 0
212 0 0
213 0 0
207 0 0
211 0 0
213 0 0
0 0 255
0 0 255
0 0 255
0 0 255
0 0 255
0 0 255
0 0 255
0 0 255
0 0 255
0 0 255
0 0 255
0 0 255
0 0 255
0 0 255
0 0 255
0 0 255
0 0 254
0 0 255
0 0 255
0 0 255
0 0 255
0 0 254
0 0 255
0 0 254
0 0 255
0 0 255
0 0 255
0 0 255
0 0 254
0 0 254
0 0 252
0 0 255
0 0 254
0 0 255
0 0 254
0 0 255
0 0 255
0 0 255
0 0 254
0 0 255
0 0 254
0 0 255
0 0 253
0 0 255
0 0 255
0 0 255
0 0 254
0 0 254
0 0 255
0 0 253
0 0 255
0 0 255
0 0 255
0 0 255
0 0 254
0 0 252
0 0 254
0 0 255
0 0 253
0 0 255
0 0 254
0 0 254
0 0 254
0 0 252
0 0 255
0 0 253
0 0 255
0 0 255
0 0 253
0 0 254
0 0 255
0 0 253
0 0 253
0 0 250
0 0 254
0 0 254
0 0 253
0 0 255
0 0 254
0 0 250
0 0 254
0 0 254
0 0 255
0 0 254
0 0 252
0 0 253
0 0 254
0 0 253
0 0 250
0 0 252
0 0 250
0 0 249
0 0 252
0 0 255
0 0 252
0 0 253
0 0 250
0 0 253
0 0 255
0 0 252
0 0 250
0 0 252
0 0 254
0 0 253
0 0 252
0 0 254
0 0 250
0 0 253
0 0 255
0 0 254
0 0 252
0 0 250
0 0 254
0 0 252
0 0 248
0 0 249
0 0 249
0 0 252
0 0 252
0 0 255
0 0 252
0 0 248
0 0 246
0 0 254
0 0 245
0 0 248
0 0 248
0 0 248
0 0 249
0 0 248
0 0 252
0 0 248
0 0 253
0 0 252
0 0 249
0 0 245
0 0 245
0 0 250
0 0 254
0 0 253
0 0 245
0 0 250
0 0 248
0 0 252
77 86 254
171 192 254
199 223 255
199 223 255
199 223 255
199 223 255
199 223 255
199 223 255
199 223 255
199 223 255
199 223 255
199 223 255
199 223 255
199 223 255
199 223 255
199 223 255
199 223 255
199 223 255
199 223 255
198 223 255
198 223 255
198 223 255
198 223 255
198 223 255
198 223 255
198 223 255
198 223 255
198 223 255
198 223 255
198 223 255
198 223 255
198 223 255
198 223 255
198 223 255
198 223 255
198 223 255
198 223 255
198 223 255
198 223 255
198 223 255
198 223 255
198 223 255
198 223 255
198 223 255
198 223 255
198 223 255
198 223 255
198 223 255
198 223 255
198 223 255
198 223 255
198 223 255
198 223 255
198 223 255
198 223 255
198 223 255
198 223 255
198 223 255
198 223 255
198 223 255
198 223 255
198 223 255
198 223 255
198 223 255
198 223 255
198 223 255
198 223 255
198 223 255
198 223 255
198 223 255
198 223 255
198 223 255
198 223 255
198 223 255
198 223 255
198 223 255
198 223 255
198 223 255
198 223 255
198 223 255
198 223 255
198 223 255
198 223 255
198 223 255
198 223 255
198 223 255
198 223 255
198 223 255
198 223 255
198 223 255
198 223 255
198 223 255
198 223 255
199 223 255
199 223 255
199 223 255
199 223 255
199 223 255
199 223 255
199 223 255
199 223 255
199 223 255
199 223 255
199 223 255
199 223 255
199 223 255
199 223 255
199 223 255
199 223 255
199 223 255
198 193 221
197 100 114
198 0 0
199 0 0
197 0 0
195 0 0
196 0 0
195 0 0
200 0 0
200 0 0
196 0 0
201 0 0
199 0 0
199 0 0
204 0 0
201 0 0
199 0 0
203 0 0
198 0 0
200 0 0
203 0 0
202 0 0
203 0 0
204 0 0
204 0 0
205 0 0
206 0 0
201 0 0
196 0 0
205 0 0
203 0 0
203 0 0
202 0 0
209 0 0
205 0 0
205 0 0
202 0 0
203 0 0
203 0 0
205 0 0
201 0 0
200 0 0
209 0 0
206 0 0
206 0 0
206 0 0
207 0 0
206 0 0
205 0 0
207 0 0
206 0 0
207 0 0
208 0 0
213 0 0
203 0 0
206 0 0
206 0 0
209 0 0
209 0 0
208 0 0
206 0 0
206 0 0
209 0 0
203 0 0
209 0 0
209 0 0
209 0 0
209 0 0
207 0 0
209 0 0
206 0 0
205 0 0
209 0 0
206 0 0
210 0 0
208 0 0
207 0 0
210 0 0
205 0 0
208 0 0
209 0 0
212 0 0
206 0 0
209 0 0
209 0 0
209 0 0
206 0 0
210 0 0
206 0 0
208 0 0
210 0 0
210 0 0
208 0 0
211 0 0
208 0 0
210 0 0
206 0 0
212 0 0
208 0 0
209 0 0
212 0 0
210 0 0
211 0 0
213 0 0
211 0 0
213 0 0
210 0 0
206 0 0
211 0 0
212 0 0
211 0 0
211 0 0
210 0 0
208 0 0
212 0 0
208 0 0
213 0 0
213 0 0
209 0 0
208 0 0
215 0 0
210 0 0
208 0 0
210 0 0
212 0 0
210 0 0
213 0 0
212 0 0
211 0 0
213 0 0
211 0 0
211 0 0
212 0 0
208 0 0
210 0 0
213 0 0
214 0 0
212 0 0
213 0 0
211 0 0
212 0 0
213 0 0
215 0 0
214 0 0
213 0 0
212 0 0
0 0 255
0 0 255
0 0 255
0 0 254
0 0 255
0 0 255
0 0 255
0 0 255
0 0 255
0 0 255
0 0 255
0 0 255
0 0 255
0 0 255
0 0 255
0 0 255
0 0 255
0 0 255
0 0 255
0 0 255
0 0 255
0 0 254
0 0 255
0 0 255
0 0 255
0 0 254
0 0 255
0 0 255
0 0 254
0 0 255
0 0 255
0 0 254
0 0 255
0 0 255
0 0 254
0 0 254
0 0 254
0 0 254
0 0 255
0 0 252
0 0 255
0 0 255
0 0 254
0 0 254
0 0 254
0 0 254
0 0 254
0 0 252
0 0 255
0 0 254
0 0 254
0 0 254
0 0 254
0 0 254
0 0 254
0 0 255
0 0 255
0 0 253
0 0 255
0 0 253
0 0 252
0 0 255
0 0 252
0 0 255
0 0 254
0 0 254
0 0 253
0 0 255
0 0 255
0 0 255
0 0 254
0 0 253
0 0 253
0 0 255
0 0 253
0 0 250
0 0 255
0 0 254
0 0 253
0 0 252
0 0 252
0 0 253
0 0 250
0 0 250
0 0 254
0 0 254
0 0 253
0 0 253
0 0 254
0 0 250
0 0 254
0 0 253
0 0 250
0 0 255
0 0 253
0 0 254
0 0 250
0 0 249
0 0 250
0 0 246
0 0 250
0 0 249
0 0 252
0 0 250
0 0 252
0 0 250
0 0 249
0 0 254
0 0 255
0 0 249
0 0 252
0 0 252
0 0 249
0 0 250
0 0 254
0 0 250
0 0 248
0 0 250
0 0 253
0 0 249
0 0 249
0 0 249
0 0 250
0 0 252
0 0 252
0 0 245
0 0 253
0 0 254
0 0 248
0 0 253
0 0 249
0 0 249
0 0 252
0 0 246
0 0 250
0 0 250
0 0 242
0 0 250
0 0 248
0 0 244
0 0 248
0 0 245
0 0 253
0 0 245
0 0 244
19 22 248
124 139 249
192 216 255
199 224 255
199 223 255
199 223 255
199 223 255
199 223 255
199 223 255
199 223 255
199 223 255
199 223 255
199 223 255
199 223 255
199 223 255
199 223 255
199 223 255
199 223 255
199 223 255
199 223 255
199 223 255
199 223 255
198 223 255
198 223 255
198 223 255
198 223 255
198 223 255
198 223 255
198 223 255
198 223 255
198 223 255
198 223 255
198 223 255
198 223 255
198 223 255
198 223 255
198 223 255
198 223 255
198 223 255
198 223 255
198 223 255
198 223 255
198 223 255
198 223 255
198 223 255
198 223 255
198 223 255
198 223 255
198 223 255
198 223 255
198 223 255
198 223 255
198 223 255
198 223 255
198 223 255
198 223 255
198 223 255
198 223 255
198 223 255
198 223 255
198 223 255
198 223 255
198 223 255
198 223 255
198 223 255
198 223 255
198 223 255
198 223 255
198 223 255
198 223 255
198 223 255
198 223 255
198 223 255
198 223 255
198 223 255
198 223 255
198 223 255
198 223 255
198 223 255
198 223 255
198 223 255
198 223 255
198 223 255
198 223 255
198 223 255
198 223 255
198 223 255
198 223 255
199 223 255
199 223 255
199 223 255
199 223 255
199 223 255
199 223 255
199 223 255
199 223 255
199 223 255
199 223 255
199 223 255
199 223 255
199 223 255
199 223 255
199 223 255
199 223 255
199 223 255
199 223 255
199 224 255
200 210 240
194 132 151
191 0 0
195 0 0
196 0 0
196 0 0
193 0 0
197 0 0
202 0 0
198 0 0
203 0 0
201 0 0
200 0 0
201 0 0
199 0 0
201 0 0
199 0 0
201 0 0
201 0 0
201 0 0
199 0 0
205 0 0
199 0 0
201 0 0
203 0 0
201 0 0
204 0 0
202 0 0
201 0 0
204 0 0
199 0 0
197 0 0
201 0 0
206 0 0
200 0 0
202 0 0
203 0 0
204 0 0
208 0 0
202 0 0
204 0 0
206 0 0
207 0 0
205 0 0
204 0 0
203 0 0
206 0 0
207 0 0
203 0 0
207 0 0
209 0 0
205 0 0
206 0 0
205 0 0
209 0 0
206 0 0
205 0 0
204 0 0
207 0 0
208 0 0
206 0 0
208 0 0
209 0 0
209 0 0
206 0 0
209 0 0
207 0 0
209 0 0
210 0 0
211 0 0
208 0 0
214 0 0
206 0 0
211 0 0
210 0 0
202 0 0
209 0 0
209 0 0
207 0 0
209 0 0
212 0 0
213 0 0
207 0 0
206 0 0
207 0 0
207 0 0
210 0 0
207 0 0
211 0 0
209 0 0
206 0 0
211 0 0
210 0 0
209 0 0
210 0 0
208 0 0
211 0 0
212 0 0
212 0 0
208 0 0
212 0 0
206 0 0
209 0 0
209 0 0
209 0 0
210 0 0
210 0 0
209 0 0
211 0 0
212 0 0
211 0 0
210 0 0
207 0 0
211 0 0
212 0 0
213 0 0
211 0 0
213 0 0
212 0 0
211 0 0
211 0 0
213 0 0
211 0 0
208 0 0
211 0 0
211 0 0
213 0 0
212 0 0
214 0 0
214 0 0
212 0 0
216 0 0
210 0 0
212 0 0
212 0 0
212 0 0
212 0 0
211 0 0
216 0 0
209 0 0
210 0 0
212 0 0
211 0 0
209 0 0
214 0 0
214 0 0
209 0 0
213 0 0
0 0 255
0 0 255
0 0 255
0 0 255
0 0 255
0 0 254
0 0 255
0 0 255
0 0 255
0 0 255
0 0 255
0 0 255
0 0 255
0 0 255
0 0 255
0 0 254
0 0 255
0 0 255
0 0 255
0 0 255
0 0 255
0 0 255
0 0 255
0 0 255
0 0 255
0 0 255
0 0 255
0 0 255
0 0 255
0 0 255
0 0 255
0 0 255
0 0 255
0 0 255
0 0 255
0 0 255
0 0 254
0 0 255
0 0 255
0 0 254
0 0 254
0 0 255
0 0 253
0 0 254
0 0 255
0 0 255
0 0 253
0 0 253
0 0 255
0 0 254
0 0 253
0 0 254
0 0 253
0 0 253
0 0 254
0 0 255
0 0 252
0 0 255
0 0 253
0 0 253
0 0 253
0 0 253
0 0 250
0 0 254
0 0 252
0 0 255
0 0 254
0 0 254
0 0 253
0 0 254
0 0 254
0 0 253
0 0 254
0 0 254
0 0 252
0 0 254
0 0 254
0 0 253
0 0 250
0 0 253
0 0 253
0 0 255
0 0 250
0 0 253
0 0 253
0 0 252
0 0 253
0 0 254
0 0 250
0 0 253
0 0 253
0 0 255
0 0 255
0 0 250
0 0 249
0 0 255
0 0 250
0 0 250
0 0 254
0 0 250
0 0 254
0 0 253
0 0 252
0 0 252
0 0 252
0 0 252
0 0 254
0 0 252
0 0 250
0 0 252
0 0 255
0 0 248
0 0 250
0 0 250
0 0 250
0 0 250
0 0 248
0 0 248
0 0 249
0 0 242
0 0 252
0 0 248
0 0 249
0 0 246
0 0 253
0 0 252
0 0 253
0 0 244
0 0 250
0 0 250
0 0 245
0 0 246
0 0 248
0 0 253
0 0 245
0 0 250
0 0 248
0 0 248
0 0 249
0 0 248
0 0 241
0 0 252
0 0 246
0 0 250
0 0 246
0 0 250
0 0 246
63 70 248
163 183 254
199 222 255
199 224 255
199 224 255
199 224 255
199 223 255
199 223 255
199 223 255
199 223 255
199 223 255
199 223 255
199 223 255
199 223 255
199 223 255
199 223 255
199 223 255
199 223 255
199 223 255
199 223 255
199 223 255
199 223 255
199 223 255
199 223 255
199 223 255
199 223 255
198 223 255
198 223 255
198 223 255
198 223 255
198 223 255
198 223 255
198 223 255
198 223 255
198 223 255
198 223 255
198 223 255
198 223 255
198 223 255
198 223 255
198 223 255
198 223 255
198 223 255
198 223 255
198 223 255
198 223 255
198 223 255
198 223 255
198 223 255
198 223 255
198 223 255
198 223 255
198 223 255
198 223 255
198 223 255
198 223 255
198 223 255
198 223 255
198 223 255
198 223 255
198 223 255
198 223 255
198 223 255
198 223 255
198 223 255
198 223 255
198 223 255
198 223 255
198 223 255
198 223 255
198 223 255
198 223 255
198 223 255
198 223 255
198 223 255
198 223 255
198 223 255
198 223 255
198 223 255
198 223 255
199 223 255
199 223 255
199 223 255
199 223 255
199 223 255
199 223 255
199 223 255
199 223 255
199 223 255
199 223 255
199 223 255
199 223 255
199 223 255
199 223 255
199 223 255
199 223 255
199 223 255
199 223 255
199 223 255
199 223 255
199 224 255
199 224 255
199 224 255
200 224 255
195 182 207
197 77 88
196 0 0
200 0 0
185 0 0
195 0 0
198 0 0
198 0 0
195 0 0
202 0 0
205 0 0
203 0 0
197 0 0
204 0 0
196 0 0
199 0 0
195 0 0
201 0 0
195 0 0
195 0 0
198 0 0
196 0 0
199 0 0
201 0 0
204 0 0
205 0 0
198 0 0
204 0 0
201 0 0
206 0 0
202 0 0
202 0 0
202 0 0
204 0 0
203 0 0
204 0 0
210 0 0
205 0 0
206 0 0
203 0 0
207 0 0
203 0 0
206 0 0
204 0 0
205 0 0
207 0 0
205 0 0
206 0 0
206 0 0
206 0 0
211 0 0
210 0 0
205 0 0
206 0 0
208 0 0
208 0 0
208 0 0
205 0 0
209 0 0
209 0 0
206 0 0
210 0 0
206 0 0
207 0 0
212 0 0
205 0 0
206 0 0
206 0 0
208 0 0
209 0 0
207 0 0
207 0 0
206 0 0
207 0 0
208 0 0
209 0 0
213 0 0
209 0 0
204 0 0
212 0 0
206 0 0
206 0 0
212 0 0
210 0 0
207 0 0
209 0 0
210 0 0
207 0 0
210 0 0
209 0 0
208 0 0
209 0 0
213 0 0
214 0 0
209 0 0
213 0 0
212 0 0
208 0 0
213 0 0
208 0 0
212 0 0
206 0 0
212 0 0
210 0 0
211 0 0
212 0 0
210 0 0
209 0 0
211 0 0
214 0 0
211 0 0
208 0 0
209 0 0
209 0 0
211 0 0
212 0 0
211 0 0
210 0 0
209 0 0
211 0 0
209 0 0
214 0 0
211 0 0
211 0 0
213 0 0
213 0 0
207 0 0
213 0 0
215 0 0
211 0 0
213 0 0
213 0 0
213 0 0
211 0 0
211 0 0
212 0 0
212 0 0
211 0 0
208 0 0
214 0 0
212 0 0
211 0 0
210 0 0
210 0 0
211 0 0
210 0 0
210 0 0
213 0 0
214 0 0
0 0 255
0 0 255
0 0 255
0 0 255
0 0 255
0 0 255
0 0 255
0 0 255
0 0 255
0 0 255
0 0 255
0 0 255
0 0 255
0 0 255
0 0 254
0 0 255
0 0 254
0 0 255
0 0 255
0 0 254
0 0 254
0 0 255
0 0 255
0 0 255
0 0 254
0 0 255
0 0 255
0 0 255
0 0 254
0 0 255
0 0 254
0 0 255
0 0 255
0 0 254
0 0 255
0 0 255
0 0 254
0 0 254
0 0 254
0 0 254
0 0 255
0 0 255
0 0 253
0 0 255
0 0 255
0 0 255
0 0 254
0 0 255
0 0 255
0 0 254
0 0 254
0 0 255
0 0 253
0 0 255
0 0 255
0 0 255
0 0 254
0 0 255
0 0 250
0 0 255
0 0 249
0 0 250
0 0 252
0 0 254
0 0 255
0 0 255
0 0 253
0 0 255
0 0 254
0 0 254
0 0 254
0 0 255
0 0 254
0 0 253
0 0 255
0 0 254
0 0 254
0 0 254
0 0 254
0 0 252
0 0 254
0 0 254
0 0 254
0 0 248
0 0 250
0 0 250
0 0 254
0 0 252
0 0 255
0 0 255
0 0 250
0 0 253
0 0 252
0 0 249
0 0 254
0 0 253
0 0 252
0 0 253
0 0 249
0 0 254
0 0 252
0 0 253
0 0 252
0 0 250
0 0 252
0 0 253
0 0 250
0 0 254
0 0 252
0 0 252
0 0 253
0 0 250
0 0 253
0 0 253
0 0 253
0 0 248
0 0 246
0 0 254
0 0 248
0 0 248
0 0 246
0 0 252
0 0 252
0 0 252
0 0 250
0 0 249
0 0 250
0 0 248
0 0 253
0 0 246
0 0 255
0 0 245
0 0 249
0 0 249
0 0 248
0 0 250
0 0 244
0 0 252
0 0 248
0 0 250
0 0 245
0 0 245
0 0 250
0 0 242
0 0 245
0 0 248
0 0 246
0 0 250
0 0 249
98 109 249
191 215 254
200 224 255
200 224 255
199 224 255
199 224 255
199 224 255
199 224 255
199 223 255
199 223 255
199 223 255
199 223 255
199 223 255
199 223 255
199 223 255
199 223 255
199 223 255
199 223 255
199 223 255
199 223 255
199 223 255
199 223 255
199 223 255
199 223 255
199 223 255
199 223 255
199 223 255
199 223 255
199 223 255
199 223 255
199 223 255
198 223 255
198 223 255
198 223 255
198 223 255
198 223 255
198 223 255
198 223 255
198 223 255
198 223 255
198 223 255
198 223 255
198 223 255
198 223 255
198 223 255
198 223 255
198 223 255
198 223 255
198 223 255
198 223 255
198 223 255
198 223 255
198 223 255
198 223 255
198 223 255
198 223 255
198 223 255
198 223 255
198 223 255
198 223 255
198 223 255
198 223 255
198 223 255
198 223 255
198 223 255
198 223 255
198 223 255
198 223 255
198 223 255
198 223 255
198 223 255
199 223 255
199 223 255
199 223 255
199 223 255
199 223 255
199 223 255
199 223 255
199 223 255
199 223 255
199 223 255
199 223 255
199 223 255
199 223 255
199 223 255
199 223 255
199 223 255
199 223 255
199 223 255
199 223 255
199 223 255
199 223 255
199 223 255
199 223 255
199 224 255
199 224 255
199 224 255
200 224 255
200 224 255
200 224 255
200 217 248
191 118 135
196 0 0
193 0 0
197 0 0
198 0 0
196 0 0
194 0 0
194 0 0
193 0 0
197 0 0
198 0 0
195 0 0
198 0 0
201 0 0
195 0 0
202 0 0
202 0 0
198 0 0
197 0 0
200 0 0
203 0 0
207 0 0
198 0 0
204 0 0
205 0 0
200 0 0
205 0 0
206 0 0
203 0 0
206 0 0
204 0 0
199 0 0
198 0 0
200 0 0
203 0 0
206 0 0
205 0 0
205 0 0
206 0 0
201 0 0
206 0 0
207 0 0
201 0 0
204 0 0
208 0 0
206 0 0
202 0 0
203 0 0
204 0 0
206 0 0
208 0 0
207 0 0
206 0 0
208 0 0
203 0 0
206 0 0
208 0 0
207 0 0
211 0 0
208 0 0
207 0 0
211 0 0
207 0 0
208 0 0
210 0 0
207 0 0
206 0 0
210 0 0
210 0 0
213 0 0
206 0 0
206 0 0
208 0 0
213 0 0
210 0 0
211 0 0
211 0 0
209 0 0
213 0 0
208 0 0
209 0 0
208 0 0
213 0 0
212 0 0
208 0 0
211 0 0
210 0 0
208 0 0
210 0 0
211 0 0
209 0 0
211 0 0
211 0 0
208 0 0
209 0 0
212 0 0
212 0 0
214 0 0
213 0 0
211 0 0
216 0 0
207 0 0
210 0 0
208 0 0
210 0 0
212 0 0
213 0 0
208 0 0
211 0 0
207 0 0
211 0 0
210 0 0
212 0 0
208 0 0
211 0 0
213 0 0
213 0 0
215 0 0
214 0 0
209 0 0
212 0 0
210 0 0
210 0 0
212 0 0
211 0 0
211 0 0
213 0 0
213 0 0
212 0 0
212 0 0
209 0 0
211 0 0
213 0 0
211 0 0
212 0 0
213 0 0
213 0 0
210 0 0
212 0 0
210 0 0
209 0 0
210 0 0
212 0 0
213 0 0
214 0 0
210 0 0
212 0 0
210 0 0
215 0 0
212 0 0
0 0 255
0 0 255
0 0 254
0 0 255
0 0 255
0 0 255
0 0 255
0 0 255
0 0 255
0 0 255
0 0 255
0 0 254
0 0 255
0 0 255
0 0 255
0 0 254
0 0 255
0 0 255
0 0 255
0 0 255
0 0 254
0 0 254
0 0 255
0 0 254
0 0 254
0 0 255
0 0 255
0 0 254
0 0 253
0 0 253
0 0 255
0 0 255
0 0 254
0 0 254
0 0 255
0 0 255
0 0 255
0 0 255
0 0 253
0 0 255
0 0 254
0 0 255
0 0 253
0 0 254
0 0 254
0 0 254
0 0 255
0 0 254
0 0 255
0 0 255
0 0 254
0 0 255
0 0 254
0 0 255
0 0 253
0 0 255
0 0 253
0 0 252
0 0 255
0 0 254
0 0 249
0 0 248
0 0 255
0 0 250
0 0 254
0 0 254
0 0 254
0 0 252
0 0 254
0 0 254
0 0 252
0 0 253
0 0 254
0 0 254
0 0 253
0 0 253
0 0 255
0 0 255
0 0 253
0 0 255
0 0 252
0 0 253
0 0 253
0 0 255
0 0 253
0 0 250
0 0 252
0 0 250
0 0 250
0 0 249
0 0 250
0 0 250
0 0 254
0 0 255
0 0 252
0 0 248
0 0 249
0 0 248
0 0 254
0 0 250
0 0 254
0 0 252
0 0 250
0 0 252
0 0 252
0 0 255
0 0 250
0 0 249
0 0 253
0 0 254
0 0 249
0 0 253
0 0 252
0 0 250
0 0 248
0 0 249
0 0 252
0 0 246
0 0 248
0 0 250
0 0 254
0 0 253
0 0 253
0 0 250
0 0 248
0 0 246
0 0 246
0 0 246
0 0 253
0 0 252
0 0 249
0 0 250
0 0 244
0 0 242
0 0 248
0 0 242
0 0 250
0 0 248
0 0 252
0 0 249
0 0 249
0 0 248
0 0 240
0 0 244
0 0 244
0 0 242
0 0 249
0 0 252
0 0 240
0 0 249
49 54 246
163 183 253
200 224 255
200 224 255
200 224 255
200 224 255
200 224 255
199 224 255
199 224 255
199 224 255
199 224 255
199 223 255
199 223 255
199 223 255
199 223 255
199 223 255
199 223 255
199 223 255
199 223 255
199 223 255
199 223 255
199 223 255
199 223 255
199 223 255
199 223 255
199 223 255
199 223 255
199 223 255
199 223 255
199 223 255
199 223 255
199 223 255
199 223 255
199 223 255
199 223 255
199 223 255
199 223 255
199 223 255
199 223 255
199 223 255
199 223 255
198 223 255
198 223 255
198 223 255
198 223 255
198 223 255
198 223 255
198 223 255
198 223 255
198 223 255
198 223 255
198 223 255
198 223 255
198 223 255
198 223 255
198 223 255
198 223 255
198 223 255
198 223 255
198 223 255
199 223 255
199 223 255
199 223 255
199 223 255
199 223 255
199 223 255
199 223 255
199 223 255
199 223 255
199 223 255
199 223 255
199 223 255
199 223 255
199 223 255
199 223 255
199 223 255
199 223 255
199 223 255
199 223 255
199 223 255
199 223 255
199 223 255
199 223 255
199 223 255
199 223 255
199 223 255
199 223 255
199 223 255
199 223 255
199 224 255
199 224 255
199 224 255
199 224 255
200 224 255
200 224 255
200 224 255
200 224 255
200 224 255
195 179 204
195 67 76
195 0 0
197 0 0
193 0 0
194 0 0
191 0 0
200 0 0
189 0 0
198 0 0
201 0 0
198 0 0
196 0 0
201 0 0
199 0 0
199 0 0
200 0 0
198 0 0
197 0 0
200 0 0
198 0 0
203 0 0
201 0 0
197 0 0
198 0 0
195 0 0
199 0 0
196 0 0
204 0 0
207 0 0
204 0 0
203 0 0
206 0 0
200 0 0
203 0 0
205 0 0
203 0 0
205 0 0
202 0 0
203 0 0
200 0 0
206 0 0
206 0 0
204 0 0
201 0 0
204 0 0
208 0 0
212 0 0
206 0 0
207 0 0
207 0 0
209 0 0
201 0 0
209 0 0
208 0 0
204 0 0
209 0 0
207 0 0
205 0 0
206 0 0
209 0 0
211 0 0
208 0 0
208 0 0
210 0 0
213 0 0
207 0 0
205 0 0
210 0 0
208 0 0
209 0 0
210 0 0
209 0 0
206 0 0
207 0 0
209 0 0
210 0 0
210 0 0
208 0 0
210 0 0
210 0 0
210 0 0
211 0 0
208 0 0
211 0 0
209 0 0
211 0 0
207 0 0
210 0 0
201 0 0
211 0 0
211 0 0
209 0 0
211 0 0
207 0 0
209 0 0
209 0 0
209 0 0
211 0 0
213 0 0
209 0 0
204 0 0
210 0 0
209 0 0
212 0 0
208 0 0
211 0 0
211 0 0
210 0 0
208 0 0
212 0 0
214 0 0
212 0 0
212 0 0
208 0 0
212 0 0
208 0 0
211 0 0
212 0 0
211 0 0
211 0 0
210 0 0
212 0 0
212 0 0
209 0 0
211 0 0
213 0 0
212 0 0
208 0 0
210 0 0
209 0 0
213 0 0
212 0 0
209 0 0
213 0 0
213 0 0
212 0 0
212 0 0
211 0 0
213 0 0
208 0 0
212 0 0
213 0 0
213 0 0
211 0 0
211 0 0
216 0 0
213 0 0
211 0 0
213 0 0
212 0 0
213 0 0
0 0 255
0 0 255
0 0 255
0 0 255
0 0 255
0 0 255
0 0 254
0 0 255
0 0 255
0 0 255
0 0 255
0 0 255
0 0 254
0 0 254
0 0 255
0 0 255
0 0 255
0 0 255
0 0 255
0 0 255
0 0 255
0 0 255
0 0 255
0 0 254
0 0 253
0 0 255
0 0 254
0 0 254
0 0 255
0 0 255
0 0 254
0 0 255
0 0 255
0 0 255
0 0 254
0 0 255
0 0 255
0 0 254
0 0 254
0 0 255
0 0 254
0 0 255
0 0 255
0 0 255
0 0 255
0 0 255
0 0 253
0 0 255
0 0 253
0 0 255
0 0 254
0 0 255
0 0 252
0 0 254
0 0 253
0 0 255
0 0 255
0 0 255
0 0 255
0 0 254
0 0 255
0 0 253
0 0 255
0 0 254
0 0 254
0 0 253
0 0 254
0 0 254
0 0 254
0 0 255
0 0 254
0 0 255
0 0 250
0 0 254
0 0 252
0 0 252
0 0 253
0 0 245
0 0 255
0 0 254
0 0 254
0 0 253
0 0 254
0 0 252
0 0 253
0 0 249
0 0 249
0 0 252
0 0 252
0 0 253
0 0 250
0 0 254
0 0 250
0 0 253
0 0 253
0 0 254
0 0 253
0 0 253
0 0 248
0 0 252
0 0 253
0 0 248
0 0 249
0 0 249
0 0 255
0 0 252
0 0 253
0 0 252
0 0 250
0 0 252
0 0 252
0 0 250
0 0 252
0 0 249
0 0 253
0 0 252
0 0 253
0 0 245
0 0 252
0 0 252
0 0 246
0 0 249
0 0 255
0 0 252
0 0 248
0 0 250
0 0 249
0 0 245
0 0 248
0 0 246
0 0 246
0 0 245
0 0 244
0 0 250
0 0 248
0 0 248
0 0 246
0 0 252
0 0 246
0 0 250
0 0 250
0 0 238
0 0 245
0 0 252
0 0 246
0 0 246
0 0 249
0 0 242
0 0 246
0 0 252
0 0 248
0 0 252
118 132 249
191 213 255
200 224 255
200 224 255
200 224 255
200 224 255
200 224 255
200 224 255
200 224 255
200 224 255
199 224 255
199 224 255
199 224 255
199 224 255
199 223 255
199 223 255
199 223 255
199 223 255
199 223 255
199 223 255
199 223 255
199 223 255
199 223 255
199 223 255
199 223 255
199 223 255
199 223 255
199 223 255
199 223 255
199 223 255
199 223 255
199 223 255
199 223 255
199 223 255
199 223 255
199 223 255
199 223 255
199 223 255
199 223 255
199 223 255
199 223 255
199 223 255
199 223 255
199 223 255
199 223 255
199 223 255
199 223 255
199 223 255
199 223 255
199 223 255
199 223 255
199 223 255
199 223 255
199 223 255
199 223 255
199 223 255
199 223 255
199 223 255
199 223 255
199 223 255
199 223 255
199 223 255
199 223 255
199 223 255
199 223 255
199 223 255
199 223 255
199 223 255
199 223 255
199 223 255
199 223 255
199 223 255
199 223 255
199 223 255
199 223 255
199 223 255
199 223 255
199 223 255
199 223 255
199 223 255
199 223 255
199 223 255
199 224 255
199 224 255
199 224 255
199 224 255
200 224 255
200 224 255
200 224 255
200 224 255
200 224 255
200 224 255
200 224 255
200 224 255
199 218 249
197 109 125
192 0 0
193 0 0
202 0 0
197 0 0
193 0 0
201 0 0
199 0 0
194 0 0
191 0 0
199 0 0
194 0 0
202 0 0
201 0 0
197 0 0
194 0 0
199 0 0
193 0 0
200 0 0
198 0 0
198 0 0
201 0 0
201 0 0
201 0 0
202 0 0
206 0 0
201 0 0
201 0 0
203 0 0
203 0 0
201 0 0
206 0 0
206 0 0
203 0 0
201 0 0
208 0 0
203 0 0
203 0 0
205 0 0
207 0 0
205 0 0
204 0 0
201 0 0
209 0 0
203 0 0
207 0 0
203 0 0
201 0 0
206 0 0
205 0 0
201 0 0
205 0 0
209 0 0
207 0 0
207 0 0
207 0 0
206 0 0
206 0 0
206 0 0
212 0 0
208 0 0
208 0 0
208 0 0
207 0 0
207 0 0
208 0 0
209 0 0
208 0 0
207 0 0
208 0 0
204 0 0
212 0 0
209 0 0
206 0 0
207 0 0
210 0 0
211 0 0
208 0 0
209 0 0
206 0 0
210 0 0
204 0 0
209 0 0
212 0 0
209 0 0
207 0 0
205 0 0
209 0 0
212 0 0
211 0 0
209 0 0
209 0 0
211 0 0
210 0 0
209 0 0
215 0 0
206 0 0
212 0 0
211 0 0
209 0 0
210 0 0
211 0 0
212 0 0
210 0 0
212 0 0
208 0 0
212 0 0
213 0 0
214 0 0
210 0 0
214 0 0
213 0 0
206 0 0
210 0 0
209 0 0
212 0 0
209 0 0
211 0 0
206 0 0
212 0 0
213 0 0
208 0 0
211 0 0
212 0 0
210 0 0
214 0 0
212 0 0
211 0 0
210 0 0
212 0 0
210 0 0
212 0 0
214 0 0
208 0 0
213 0 0
214 0 0
212 0 0
213 0 0
212 0 0
214 0 0
212 0 0
208 0 0
215 0 0
210 0 0
209 0 0
212 0 0
215 0 0
210 0 0
212 0 0
213 0 0
216 0 0
212 0 0
213 0 0
0 0 254
0 0 255
0 0 254
0 0 255
0 0 255
0 0 255
0 0 255
0 0 255
0 0 255
0 0 255
0 0 254
0 0 255
0 0 255
0 0 255
0 0 255
0 0 255
0 0 254
0 0 254
0 0 255
0 0 255
0 0 255
0 0 255
0 0 255
0 0 255
0 0 255
0 0 254
0 0 253
0 0 254
0 0 254
0 0 254
0 0 255
0 0 253
0 0 255
0 0 255
0 0 254
0 0 254
0 0 254
0 0 255
0 0 254
0 0 253
0 0 254
0 0 254
0 0 255
0 0 255
0 0 254
0 0 255
0 0 253
0 0 252
0 0 254
0 0 254
0 0 254
0 0 255
0 0 253
0 0 253
0 0 253
0 0 255
0 0 254
0 0 253
0 0 250
0 0 253
0 0 254
0 0 253
0 0 254
0 0 254
0 0 255
0 0 255
0 0 253
0 0 253
0 0 252
0 0 254
0 0 254
0 0 254
0 0 253
0 0 253
0 0 253
0 0 255
0 0 255
0 0 252
0 0 252
0 0 255
0 0 253
0 0 253
0 0 252
0 0 253
0 0 254
0 0 253
0 0 250
0 0 253
0 0 253
0 0 252
0 0 253
0 0 249
0 0 252
0 0 252
0 0 254
0 0 250
0 0 250
0 0 252
0 0 248
0 0 253
0 0 254
0 0 252
0 0 253
0 0 248
0 0 252
0 0 252
0 0 252
0 0 252
0 0 252
0 0 249
0 0 254
0 0 254
0 0 250
0 0 252
0 0 253
0 0 252
0 0 249
0 0 250
0 0 249
0 0 253
0 0 252
0 0 246
0 0 249
0 0 248
0 0 245
0 0 250
0 0 250
0 0 250
0 0 252
0 0 242
0 0 248
0 0 250
0 0 249
0 0 253
0 0 250
0 0 246
0 0 244
0 0 242
0 0 255
0 0 246
0 0 248
0 0 248
0 0 248
0 0 241
0 0 245
0 0 245
0 0 245
0 0 242
0 0 249
0 0 248
0 0 242
0 0 242
0 0 244
75 83 250
166 186 252
200 224 255
200 224 255
200 224 255
200 224 255
200 224 255
200 224 255
200 224 255
200 224 255
200 224 255
200 224 255
200 224 255
200 224 255
199 224 255
199 224 255
199 224 255
199 224 255
199 223 255
199 223 255
199 223 255
199 223 255
199 223 255
199 223 255
199 223 255
199 223 255
199 223 255
199 223 255
199 223 255
199 223 255
199 223 255
199 223 255
199 223 255
199 223 255
199 223 255
199 223 255
199 223 255
199 223 255
199 223 255
199 223 255
199 223 255
199 223 255
199 223 255
199 223 255
199 223 255
199 223 255
199 223 255
199 223 255
199 223 255
199 223 255
199 223 255
199 223 255
199 223 255
199 223 255
199 223 255
199 223 255
199 223 255
199 223 255
199 223 255
199 223 255
199 223 255
199 223 255
199 223 255
199 223 255
199 223 255
199 223 255
199 223 255
199 223 255
199 223 255
199 223 255
199 223 255
199 223 255
199 223 255
199 223 255
199 223 255
199 223 255
199 224 255
199 224 255
199 224 255
199 224 255
200 224 255
200 224 255
200 224 255
200 224 255
200 224 255
200 224 255
200 224 255
200 224 255
200 224 255
200 224 255
200 224 255
200 224 255
196 186 212
196 67 76
202 0 0
196 0 0
189 0 0
196 0 0
197 0 0
196 0 0
198 0 0
189 0 0
201 0 0
202 0 0
204 0 0
201 0 0
204 0 0
195 0 0
199 0 0
198 0 0
204 0 0
204 0 0
199 0 0
200 0 0
201 0 0
204 0 0
201 0 0
202 0 0
201 0 0
201 0 0
206 0 0
208 0 0
201 0 0
198 0 0
203 0 0
198 0 0
204 0 0
206 0 0
202 0 0
205 0 0
204 0 0
202 0 0
198 0 0
203 0 0
204 0 0
202 0 0
205 0 0
207 0 0
212 0 0
203 0 0
209 0 0
206 0 0
208 0 0
204 0 0
204 0 0
207 0 0
200 0 0
204 0 0
210 0 0
202 0 0
208 0 0
207 0 0
211 0 0
207 0 0
207 0 0
208 0 0
206 0 0
206 0 0
207 0 0
207 0 0
209 0 0
205 0 0
208 0 0
209 0 0
209 0 0
205 0 0
205 0 0
208 0 0
209 0 0
210 0 0
206 0 0
209 0 0
207 0 0
208 0 0
206 0 0
212 0 0
209 0 0
209 0 0
208 0 0
207 0 0
208 0 0
210 0 0
211 0 0
211 0 0
212 0 0
209 0 0
206 0 0
212 0 0
211 0 0
213 0 0
208 0 0
211 0 0
208 0 0
212 0 0
211 0 0
211 0 0
210 0 0
213 0 0
212 0 0
213 0 0
214 0 0
214 0 0
211 0 0
208 0 0
215 0 0
212 0 0
215 0 0
214 0 0
212 0 0
208 0 0
207 0 0
211 0 0
213 0 0
205 0 0
214 0 0
212 0 0
205 0 0
211 0 0
213 0 0
209 0 0
208 0 0
212 0 0
209 0 0
211 0 0
210 0 0
209 0 0
213 0 0
213 0 0
210 0 0
211 0 0
211 0 0
209 0 0
209 0 0
215 0 0
213 0 0
215 0 0
209 0 0
214 0 0
210 0 0
214 0 0
212 0 0
211 0 0
213 0 0
216 0 0
210 0 0
214 0 0
210 0 0
0 0 255
0 0 255
0 0 255
0 0 255
0 0 255
0 0 255
0 0 254
0 0 255
0 0 255
0 0 254
0 0 255
0 0 254
0 0 255
0 0 254
0 0 255
0 0 255
0 0 255
0 0 254
0 0 255
0 0 255
0 0 255
0 0 254
0 0 255
0 0 253
0 0 254
0 0 254
0 0 255
0 0 254
0 0 255
0 0 252
0 0 255
0 0 255
0 0 255
0 0 255
0 0 255
0 0 255
0 0 254
0 0 254
0 0 253
0 0 255
0 0 255
0 0 255
0 0 255
0 0 254
0 0 254
0 0 255
0 0 255
0 0 254
0 0 255
0 0 255
0 0 254
0 0 255
0 0 255
0 0 255
0 0 254
0 0 253
0 0 252
0 0 253
0 0 254
0 0 253
0 0 254
0 0 254
0 0 254
0 0 253
0 0 253
0 0 250
0 0 253
0 0 254
0 0 253
0 0 255
0 0 254
0 0 252
0 0 252
0 0 254
0 0 252
0 0 255
0 0 255
0 0 253
0 0 253
0 0 254
0 0 253
0 0 252
0 0 253
0 0 255
0 0 254
0 0 249
0 0 250
0 0 253
0 0 254
0 0 253
0 0 252
0 0 254
0 0 254
0 0 249
0 0 252
0 0 253
0 0 254
0 0 250
0 0 253
0 0 249
0 0 254
0 0 253
0 0 252
0 0 246
0 0 253
0 0 252
0 0 248
0 0 253
0 0 249
0 0 250
0 0 253
0 0 250
0 0 250
0 0 250
0 0 253
0 0 248
0 0 252
0 0 249
0 0 249
0 0 252
0 0 253
0 0 250
0 0 248
0 0 245
0 0 250
0 0 253
0 0 249
0 0 250
0 0 252
0 0 245
0 0 252
0 0 248
0 0 249
0 0 250
0 0 246
0 0 249
0 0 250
0 0 244
0 0 246
0 0 246
0 0 241
0 0 245
0 0 245
0 0 246
0 0 252
0 0 248
0 0 246
0 0 244
0 0 244
0 0 237
0 0 246
0 0 244
0 0 238
0 0 244
20 22 245
137 153 245
198 222 255
200 224 255
200 224 255
200 224 255
200 224 255
200 224 255
200 224 255
200 224 255
200 224 255
200 224 255
200 224 255
200 224 255
200 224 255
200 224 255
200 224 255
200 224 255
199 224 255
199 224 255
199 224 255
199 224 255
199 224 255
199 224 255
199 223 255
199 223 255
199 223 255
199 223 255
199 223 255
199 223 255
199 223 255
199 223 255
199 223 255
199 223 255
199 223 255
199 223 255
199 223 255
199 223 255
199 223 255
199 223 255
199 223 255
199 223 255
199 223 255
199 223 255
199 223 255
199 223 255
199 223 255
199 223 255
199 223 255
199 223 255
199 223 255
199 223 255
199 223 255
199 223 255
199 223 255
199 223 255
199 223 255
199 223 255
199 223 255
199 223 255
199 223 255
199 223 255
199 223 255
199 223 255
199 223 255
199 223 255
199 223 255
199 223 255
199 224 255
199 224 255
199 224 255
199 224 255
199 224 255
200 224 255
200 224 255
200 224 255
200 224 255
200 224 255
200 224 255
200 224 255
200 224 255
200 224 255
200 224 255
200 224 255
200 224 255
200 224 255
200 224 255
200 224 255
200 224 255
200 222 253
196 147 167
195 0 0
193 0 0
198 0 0
195 0 0
198 0 0
195 0 0
197 0 0
191 0 0
198 0 0
194 0 0
197 0 0
189 0 0
197 0 0
196 0 0
199 0 0
204 0 0
189 0 0
195 0 0
199 0 0
204 0 0
199 0 0
193 0 0
195 0 0
201 0 0
203 0 0
201 0 0
202 0 0
202 0 0
202 0 0
202 0 0
200 0 0
196 0 0
206 0 0
209 0 0
199 0 0
208 0 0
208 0 0
201 0 0
202 0 0
201 0 0
198 0 0
205 0 0
204 0 0
207 0 0
204 0 0
205 0 0
203 0 0
210 0 0
209 0 0
208 0 0
203 0 0
206 0 0
205 0 0
207 0 0
209 0 0
207 0 0
212 0 0
208 0 0
204 0 0
209 0 0
205 0 0
205 0 0
210 0 0
210 0 0
210 0 0
210 0 0
206 0 0
203 0 0
209 0 0
208 0 0
210 0 0
208 0 0
211 0 0
207 0 0
206 0 0
213 0 0
210 0 0
210 0 0
206 0 0
208 0 0
207 0 0
211 0 0
210 0 0
211 0 0
209 0 0
209 0 0
208 0 0
208 0 0
208 0 0
211 0 0
212 0 0
204 0 0
209 0 0
210 0 0
213 0 0
209 0 0
213 0 0
208 0 0
206 0 0
212 0 0
207 0 0
212 0 0
209 0 0
214 0 0
211 0 0
210 0 0
211 0 0
207 0 0
214 0 0
205 0 0
209 0 0
210 0 0
213 0 0
211 0 0
205 0 0
211 0 0
211 0 0
214 0 0
215 0 0
212 0 0
211 0 0
212 0 0
214 0 0
212 0 0
213 0 0
215 0 0
211 0 0
210 0 0
212 0 0
211 0 0
211 0 0
212 0 0
209 0 0
216 0 0
212 0 0
213 0 0
210 0 0
211 0 0
215 0 0
213 0 0
214 0 0
211 0 0
212 0 0
212 0 0
212 0 0
210 0 0
211 0 0
213 0 0
216 0 0
211 0 0
210 0 0
213 0 0
216 0 0
210 0 0
210 0 0
0 0 255
0 0 255
0 0 253
0 0 255
0 0 255
0 0 255
0 0 255
0 0 255
0 0 255
0 0 255
0 0 255
0 0 255
0 0 255
0 0 254
0 0 255
0 0 255
0 0 255
0 0 254
0 0 254
0 0 254
0 0 255
0 0 254
0 0 255
0 0 255
0 0 255
0 0 253
0 0 255
0 0 254
0 0 254
0 0 255
0 0 255
0 0 254
0 0 255
0 0 255
0 0 255
0 0 255
0 0 254
0 0 253
0 0 255
0 0 255
0 0 253
0 0 255
0 0 255
0 0 255
0 0 253
0 0 255
0 0 254
0 0 254
0 0 254
0 0 254
0 0 253
0 0 254
0 0 253
0 0 255
0 0 254
0 0 250
0 0 254
0 0 255
0 0 254
0 0 255
0 0 252
0 0 254
0 0 254
0 0 254
0 0 252
0 0 253
0 0 254
0 0 255
0 0 255
0 0 252
0 0 253
0 0 253
0 0 254
0 0 255
0 0 250
0 0 250
0 0 255
0 0 254
0 0 253
0 0 249
0 0 255
0 0 254
0 0 254
0 0 250
0 0 255
0 0 255
0 0 253
0 0 252
0 0 248
0 0 254
0 0 250
0 0 250
0 0 249
0 0 253
0 0 250
0 0 255
0 0 252
0 0 250
0 0 252
0 0 255
0 0 250
0 0 244
0 0 250
0 0 252
0 0 248
0 0 248
0 0 254
0 0 252
0 0 250
0 0 250
0 0 250
0 0 252
0 0 252
0 0 250
0 0 250
0 0 249
0 0 254
0 0 252
0 0 249
0 0 250
0 0 252
0 0 250
0 0 248
0 0 250
0 0 246
0 0 248
0 0 249
0 0 249
0 0 244
0 0 252
0 0 253
0 0 246
0 0 250
0 0 246
0 0 244
0 0 241
0 0 246
0 0 252
0 0 244
0 0 248
0 0 246
0 0 245
0 0 245
0 0 250
0 0 249
0 0 244
0 0 244
0 0 242
0 0 249
0 0 237
0 0 240
0 0 238
0 0 244
0 0 248
0 0 248
0 0 245
94 105 245
184 205 254
200 224 255
200 224 255
200 224 255
200 224 255
200 224 255
200 224 255
200 224 255
200 224 255
200 224 255
200 224 255
200 224 255
200 224 255
200 224 255
200 224 255
200 224 255
200 224 255
200 224 255
200 224 255
200 224 255
200 224 255
200 224 255
200 224 255
199 224 255
199 224 255
199 224 255
199 224 255
199 224 255
199 224 255
199 224 255
199 224 255
199 223 255
199 223 255
199 223 255
199 223 255
199 223 255
199 223 255
199 223 255
199 223 255
199 223 255
199 223 255
199 223 255
199 223 255
199 223 255
199 223 255
199 223 255
199 223 255
199 223 255
199 223 255
199 223 255
199 223 255
199 223 255
199 223 255
199 223 255
199 223 255
199 223 255
199 224 255
199 224 255
199 224 255
199 224 255
199 224 255
199 224 255
199 224 255
200 224 255
200 224 255
200 224 255
200 224 255
200 224 255
200 224 255
200 224 255
200 224 255
200 224 255
200 224 255
200 224 255
200 224 255
200 224 255
200 224 255
200 224 255
200 224 255
200 224 255
200 224 255
200 224 255
200 224 255
200 224 255
200 224 255
198 209 238
193 116 133
196 0 0
197 0 0
194 0 0
188 0 0
195 0 0
191 0 0
196 0 0
192 0 0
198 0 0
195 0 0
201 0 0
199 0 0
193 0 0
198 0 0
201 0 0
200 0 0
195 0 0
193 0 0
198 0 0
203 0 0
204 0 0
199 0 0
206 0 0
203 0 0
197 0 0
201 0 0
200 0 0
207 0 0
201 0 0
205 0 0
205 0 0
198 0 0
205 0 0
200 0 0
202 0 0
203 0 0
203 0 0
198 0 0
203 0 0
199 0 0
203 0 0
203 0 0
204 0 0
206 0 0
206 0 0
204 0 0
205 0 0
204 0 0
200 0 0
205 0 0
205 0 0
211 0 0
210 0 0
204 0 0
203 0 0
209 0 0
210 0 0
211 0 0
210 0 0
208 0 0
203 0 0
207 0 0
209 0 0
213 0 0
209 0 0
208 0 0
214 0 0
208 0 0
213 0 0
207 0 0
208 0 0
207 0 0
206 0 0
211 0 0
209 0 0
209 0 0
210 0 0
209 0 0
208 0 0
209 0 0
208 0 0
208 0 0
208 0 0
206 0 0
209 0 0
211 0 0
206 0 0
212 0 0
213 0 0
208 0 0
207 0 0
208 0 0
207 0 0
210 0 0
209 0 0
211 0 0
211 0 0
209 0 0
213 0 0
212 0 0
212 0 0
211 0 0
212 0 0
209 0 0
208 0 0
216 0 0
215 0 0
208 0 0
210 0 0
215 0 0
210 0 0
210 0 0
211 0 0
210 0 0
209 0 0
212 0 0
209 0 0
214 0 0
211 0 0
208 0 0
213 0 0
212 0 0
212 0 0
216 0 0
213 0 0
212 0 0
212 0 0
213 0 0
216 0 0
214 0 0
214 0 0
212 0 0
213 0 0
213 0 0
214 0 0
210 0 0
210 0 0
213 0 0
212 0 0
215 0 0
212 0 0
212 0 0
211 0 0
214 0 0
210 0 0
211 0 0
213 0 0
211 0 0
212 0 0
215 0 0
213 0 0
213 0 0
211 0 0
215 0 0
210 0 0
214 0 0
0 0 255
0 0 255
0 0 255
0 0 255
0 0 255
0 0 255
0 0 255
0 0 255
0 0 255
0 0 255
0 0 255
0 0 255
0 0 255
0 0 253
0 0 255
0 0 253
0 0 255
0 0 255
0 0 255
0 0 255
0 0 255
0 0 255
0 0 255
0 0 255
0 0 255
0 0 253
0 0 255
0 0 254
0 0 255
0 0 255
0 0 255
0 0 254
0 0 254
0 0 255
0 0 255
0 0 255
0 0 255
0 0 255
0 0 253
0 0 252
0 0 255
0 0 255
0 0 253
0 0 254
0 0 254
0 0 253
0 0 253
0 0 253
0 0 252
0 0 254
0 0 254
0 0 255
0 0 253
0 0 253
0 0 255
0 0 254
0 0 254
0 0 254
0 0 254
0 0 253
0 0 252
0 0 253
0 0 253
0 0 254
0 0 254
0 0 252
0 0 249
0 0 250
0 0 254
0 0 254
0 0 250
0 0 254
0 0 255
0 0 252
0 0 254
0 0 253
0 0 253
0 0 250
0 0 255
0 0 252
0 0 253
0 0 254
0 0 253
0 0 252
0 0 253
0 0 250
0 0 250
0 0 250
0 0 252
0 0 253
0 0 249
0 0 254
0 0 250
0 0 253
0 0 252
0 0 250
0 0 255
0 0 250
0 0 252
0 0 250
0 0 249
0 0 253
0 0 254
0 0 252
0 0 253
0 0 252
0 0 252
0 0 250
0 0 253
0 0 250
0 0 249
0 0 250
0 0 252
0 0 250
0 0 253
0 0 252
0 0 249
0 0 250
0 0 246
0 0 252
0 0 249
0 0 253
0 0 252
0 0 245
0 0 252
0 0 250
0 0 244
0 0 254
0 0 246
0 0 252
0 0 248
0 0 246
0 0 248
0 0 248
0 0 249
0 0 246
0 0 249
0 0 244
0 0 249
0 0 242
0 0 248
0 0 244
0 0 240
0 0 250
0 0 244
0 0 244
0 0 246
0 0 246
0 0 246
0 0 244
0 0 242
0 0 227
0 0 248
0 0 240
0 0 238
0 0 248
0 0 244
63 71 241
175 195 253
200 224 255
200 224 255
200 224 255
200 224 255
200 224 255
200 224 255
200 224 255
200 224 255
200 224 255
200 224 255
200 224 255
200 224 255
200 224 255
200 224 255
200 224 255
200 224 255
200 224 255
200 224 255
200 224 255
200 224 255
200 224 255
200 224 255
200 224 255
200 224 255
200 224 255
200 224 255
200 224 255
200 224 255
200 224 255
200 224 255
200 224 255
200 224 255
199 224 255
199 224 255
199 224 255
199 224 255
199 224 255
199 224 255
199 224 255
199 224 255
199 224 255
199 224 255
199 224 255
199 224 255
199 224 255
199 224 255
199 224 255
199 224 255
199 224 255
200 224 255
200 224 255
200 224 255
200 224 255
200 224 255
200 224 255
200 224 255
200 224 255
200 224 255
200 224 255
200 224 255
200 224 255
200 224 255
200 224 255
200 224 255
200 224 255
200 224 255
200 224 255
200 224 255
200 224 255
200 224 255
200 224 255
200 224 255
200 224 255
200 224 255
200 224 255
200 224 255
200 224 255
200 224 255
200 224 255
200 224 255
200 224 255
200 224 255
197 193 220
193 67 76
191 0 0
189 0 0
194 0 0
194 0 0
200 0 0
197 0 0
196 0 0
199 0 0
194 0 0
196 0 0
196 0 0
197 0 0
191 0 0
200 0 0
198 0 0
201 0 0
198 0 0
195 0 0
201 0 0
199 0 0
194 0 0
198 0 0
198 0 0
205 0 0
196 0 0
201 0 0
196 0 0
203 0 0
201 0 0
203 0 0
201 0 0
202 0 0
203 0 0
207 0 0
208 0 0
203 0 0
203 0 0
205 0 0
202 0 0
204 0 0
206 0 0
202 0 0
205 0 0
206 0 0
206 0 0
204 0 0
210 0 0
205 0 0
201 0 0
206 0 0
209 0 0
203 0 0
210 0 0
210 0 0
204 0 0
205 0 0
209 0 0
207 0 0
209 0 0
205 0 0
208 0 0
206 0 0
206 0 0
209 0 0
211 0 0
210 0 0
207 0 0
206 0 0
212 0 0
209 0 0
209 0 0
207 0 0
208 0 0
205 0 0
205 0 0
209 0 0
209 0 0
210 0 0
208 0 0
211 0 0
215 0 0
210 0 0
209 0 0
210 0 0
210 0 0
211 0 0
207 0 0
213 0 0
212 0 0
210 0 0
210 0 0
208 0 0
210 0 0
208 0 0
213 0 0
207 0 0
213 0 0
211 0 0
211 0 0
213 0 0
214 0 0
208 0 0
210 0 0
211 0 0
206 0 0
210 0 0
209 0 0
212 0 0
211 0 0
214 0 0
210 0 0
211 0 0
213 0 0
211 0 0
218 0 0
216 0 0
216 0 0
210 0 0
207 0 0
211 0 0
214 0 0
212 0 0
212 0 0
210 0 0
213 0 0
213 0 0
212 0 0
212 0 0
210 0 0
211 0 0
214 0 0
210 0 0
212 0 0
213 0 0
207 0 0
214 0 0
212 0 0
211 0 0
213 0 0
211 0 0
212 0 0
213 0 0
211 0 0
215 0 0
212 0 0
212 0 0
215 0 0
217 0 0
212 0 0
215 0 0
215 0 0
210 0 0
211 0 0
215 0 0
212 0 0
213 0 0
215 0 0
0 0 255
0 0 255
0 0 255
0 0 255
0 0 255
0 0 255
0 0 255
0 0 254
0 0 255
0 0 254
0 0 255
0 0 255
0 0 254
0 0 255
0 0 254
0 0 254
0 0 254
0 0 254
0 0 254
0 0 254
0 0 254
0 0 255
0 0 255
0 0 253
0 0 255
0 0 255
0 0 254
0 0 255
0 0 255
0 0 254
0 0 254
0 0 255
0 0 255
0 0 255
0 0 255
0 0 253
0 0 253
0 0 254
0 0 255
0 0 255
0 0 255
0 0 255
0 0 254
0 0 253
0 0 255
0 0 253
0 0 255
0 0 253
0 0 254
0 0 253
0 0 253
0 0 254
0 0 254
0 0 254
0 0 255
0 0 250
0 0 255
0 0 252
0 0 253
0 0 252
0 0 255
0 0 254
0 0 255
0 0 253
0 0 255
0 0 252
0 0 253
0 0 250
0 0 252
0 0 249
0 0 255
0 0 255
0 0 253
0 0 253
0 0 253
0 0 249
0 0 255
0 0 253
0 0 255
0 0 252
0 0 253
0 0 253
0 0 253
0 0 254
0 0 246
0 0 255
0 0 253
0 0 253
0 0 252
0 0 252
0 0 253
0 0 254
0 0 253
0 0 250
0 0 253
0 0 255
0 0 249
0 0 252
0 0 250
0 0 255
0 0 248
0 0 252
0 0 252
0 0 250
0 0 249
0 0 252
0 0 249
0 0 246
0 0 252
0 0 250
0 0 249
0 0 253
0 0 248
0 0 253
0 0 246
0 0 244
0 0 252
0 0 245
0 0 249
0 0 248
0 0 248
0 0 248
0 0 252
0 0 245
0 0 252
0 0 253
0 0 249
0 0 249
0 0 246
0 0 246
0 0 242
0 0 250
0 0 250
0 0 240
0 0 250
0 0 245
0 0 244
0 0 238
0 0 248
0 0 246
0 0 248
0 0 245
0 0 241
0 0 241
0 0 238
0 0 242
0 0 245
0 0 250
0 0 253
0 0 248
0 0 246
0 0 238
0 0 236
0 0 245
0 0 249
0 0 245
0 0 246
0 0 231
0 0 245
131 147 248
201 224 255
201 224 255
200 224 255
200 224 255
200 224 255
200 224 255
200 224 255
200 224 255
200 224 255
200 224 255
200 224 255
200 224 255
200 224 255
200 224 255
200 224 255
200 224 255
200 224 255
200 224 255
200 224 255
200 224 255
200 224 255
200 224 255
200 224 255
200 224 255
200 224 255
200 224 255
200 224 255
200 224 255
200 224 255
200 224 255
200 224 255
200 224 255
200 224 255
200 224 255
200 224 255
200 224 255
200 224 255
200 224 255
200 224 255
200 224 255
200 224 255
200 224 255
200 224 255
200 224 255
200 224 255
200 224 255
200 224 255
200 224 255
200 224 255
200 224 255
200 224 255
200 224 255
200 224 255
200 224 255
200 224 255
200 224 255
200 224 255
200 224 255
200 224 255
200 224 255
200 224 255
200 224 255
200 224 255
200 224 255
200 224 255
200 224 255
200 224 255
200 224 255
200 224 255
200 224 255
200 224 255
200 224 255
200 224 255
200 224 255
200 224 255
200 224 255
200 224 255
200 224 255
201 224 255
201 224 255
196 174 198
189 31 36
194 0 0
191 0 0
194 0 0
194 0 0
190 0 0
192 0 0
197 0 0
186 0 0
192 0 0
195 0 0
194 0 0
200 0 0
194 0 0
196 0 0
193 0 0
194 0 0
200 0 0
195 0 0
194 0 0
196 0 0
187 0 0
196 0 0
203 0 0
195 0 0
198 0 0
200 0 0
200 0 0
199 0 0
202 0 0
200 0 0
202 0 0
205 0 0
204 0 0
205 0 0
206 0 0
207 0 0
199 0 0
201 0 0
205 0 0
203 0 0
203 0 0
204 0 0
208 0 0
204 0 0
203 0 0
211 0 0
206 0 0
202 0 0
206 0 0
206 0 0
209 0 0
201 0 0
206 0 0
207 0 0
208 0 0
202 0 0
204 0 0
204 0 0
206 0 0
207 0 0
208 0 0
210 0 0
210 0 0
210 0 0
209 0 0
206 0 0
204 0 0
203 0 0
207 0 0
210 0 0
213 0 0
211 0 0
209 0 0
211 0 0
208 0 0
210 0 0
215 0 0
210 0 0
206 0 0
211 0 0
210 0 0
217 0 0
211 0 0
209 0 0
211 0 0
211 0 0
209 0 0
210 0 0
209 0 0
207 0 0
210 0 0
210 0 0
208 0 0
207 0 0
210 0 0
210 0 0
206 0 0
210 0 0
210 0 0
211 0 0
213 0 0
211 0 0
212 0 0
212 0 0
211 0 0
210 0 0
214 0 0
213 0 0
211 0 0
211 0 0
213 0 0
210 0 0
213 0 0
214 0 0
210 0 0
212 0 0
212 0 0
213 0 0
210 0 0
209 0 0
209 0 0
209 0 0
211 0 0
212 0 0
213 0 0
213 0 0
212 0 0
213 0 0
211 0 0
212 0 0
214 0 0
209 0 0
211 0 0
213 0 0
212 0 0
211 0 0
214 0 0
212 0 0
216 0 0
211 0 0
216 0 0
215 0 0
214 0 0
211 0 0
213 0 0
212 0 0
215 0 0
213 0 0
212 0 0
213 0 0
214 0 0
212 0 0
211 0 0
212 0 0
213 0 0
211 0 0
214 0 0
212 0 0
0 0 255
0 0 255
0 0 255
0 0 255
0 0 255
0 0 255
0 0 255
0 0 255
0 0 254
0 0 255
0 0 255
0 0 254
0 0 255
0 0 255
0 0 254
0 0 255
0 0 255
0 0 255
0 0 254
0 0 254
0 0 254
0 0 255
0 0 255
0 0 255
0 0 255
0 0 255
0 0 255
0 0 255
0 0 255
0 0 255
0 0 254
0 0 255
0 0 254
0 0 255
0 0 255
0 0 254
0 0 255
0 0 254
0 0 255
0 0 253
0 0 255
0 0 254
0 0 253
0 0 255
0 0 255
0 0 253
0 0 253
0 0 252
0 0 254
0 0 254
0 0 255
0 0 255
0 0 254
0 0 254
0 0 254
0 0 253
0 0 255
0 0 253
0 0 253
0 0 252
0 0 255
0 0 254
0 0 255
0 0 254
0 0 253
0 0 254
0 0 254
0 0 255
0 0 253
0 0 255
0 0 254
0 0 255
0 0 253
0 0 252
0 0 250
0 0 254
0 0 254
0 0 254
0 0 255
0 0 252
0 0 250
0 0 250
0 0 252
0 0 254
0 0 252
0 0 248
0 0 255
0 0 253
0 0 250
0 0 255
0 0 254
0 0 252
0 0 250
0 0 254
0 0 250
0 0 250
0 0 248
0 0 254
0 0 255
0 0 253
0 0 249
0 0 249
0 0 250
0 0 252
0 0 252
0 0 248
0 0 255
0 0 246
0 0 249
0 0 250
0 0 249
0 0 253
0 0 250
0 0 252
0 0 252
0 0 250
0 0 250
0 0 248
0 0 252
0 0 246
0 0 248
0 0 244
0 0 249
0 0 248
0 0 248
0 0 242
0 0 249
0 0 249
0 0 249
0 0 249
0 0 246
0 0 250
0 0 244
0 0 253
0 0 246
0 0 242
0 0 242
0 0 244
0 0 242
0 0 244
0 0 242
0 0 250
0 0 245
0 0 250
0 0 236
0 0 246
0 0 248
0 0 245
0 0 248
0 0 249
0 0 245
0 0 244
0 0 238
0 0 242
0 0 245
0 0 244
0 0 238
0 0 245
0 0 244
0 0 240
134 150 248
198 221 254
201 224 255
201 224 255
201 224 255
201 224 255
201 224 255
200 224 255
200 224 255
200 224 255
200 224 255
200 224 255
200 224 255
200 224 255
200 224 255
200 224 255
200 224 255
200 224 255
200 224 255
200 224 255
200 224 255
200 224 255
200 224 255
200 224 255
200 224 255
200 224 255
200 224 255
200 224 255
200 224 255
200 224 255
200 224 255
200 224 255
200 224 255
200 224 255
200 224 255
200 224 255
200 224 255
200 224 255
200 224 255
200 224 255
200 224 255
200 224 255
200 224 255
200 224 255
200 224 255
200 224 255
200 224 255
200 224 255
200 224 255
200 224 255
200 224 255
200 224 255
200 224 255
200 224 255
200 224 255
200 224 255
200 224 255
200 224 255
200 224 255
200 224 255
200 224 255
200 224 255
200 224 255
200 224 255
200 224 255
200 224 255
200 224 255
200 224 255
200 224 255
200 224 255
200 224 255
200 224 255
200 224 255
201 224 255
201 224 255
201 224 255
201 224 255
201 224 255
200 220 250
197 127 144
186 0 0
191 0 0
186 0 0
194 0 0
197 0 0
197 0 0
190 0 0
190 0 0
197 0 0
195 0 0
188 0 0
198 0 0
199 0 0
198 0 0
203 0 0
198 0 0
189 0 0
194 0 0
194 0 0
194 0 0
200 0 0
194 0 0
195 0 0
199 0 0
196 0 0
198 0 0
204 0 0
197 0 0
198 0 0
204 0 0
206 0 0
200 0 0
202 0 0
194 0 0
203 0 0
200 0 0
203 0 0
202 0 0
204 0 0
205 0 0
207 0 0
200 0 0
205 0 0
203 0 0
205 0 0
203 0 0
204 0 0
207 0 0
207 0 0
207 0 0
203 0 0
201 0 0
207 0 0
207 0 0
210 0 0
205 0 0
210 0 0
207 0 0
204 0 0
209 0 0
210 0 0
211 0 0
207 0 0
209 0 0
211 0 0
210 0 0
207 0 0
208 0 0
208 0 0
209 0 0
212 0 0
211 0 0
209 0 0
213 0 0
207 0 0
211 0 0
213 0 0
204 0 0
204 0 0
207 0 0
208 0 0
209 0 0
210 0 0
211 0 0
210 0 0
207 0 0
206 0 0
210 0 0
211 0 0
213 0 0
207 0 0
208 0 0
214 0 0
208 0 0
214 0 0
209 0 0
212 0 0
213 0 0
209 0 0
212 0 0
214 0 0
213 0 0
209 0 0
211 0 0
214 0 0
211 0 0
211 0 0
210 0 0
212 0 0
216 0 0
211 0 0
209 0 0
211 0 0
210 0 0
210 0 0
212 0 0
209 0 0
213 0 0
209 0 0
212 0 0
207 0 0
213 0 0
211 0 0
213 0 0
208 0 0
213 0 0
214 0 0
211 0 0
213 0 0
212 0 0
214 0 0
213 0 0
209 0 0
213 0 0
210 0 0
216 0 0
214 0 0
213 0 0
213 0 0
210 0 0
217 0 0
212 0 0
212 0 0
210 0 0
215 0 0
211 0 0
212 0 0
216 0 0
213 0 0
214 0 0
216 0 0
210 0 0
208 0 0
214 0 0
213 0 0
218 0 0
216 0 0
210 0 0
212 0 0
207 0 0
0 0 255
0 0 255
0 0 255
0 0 255
0 0 255
0 0 255
0 0 255
0 0 255
0 0 254
0 0 254
0 0 255
0 0 254
0 0 253
0 0 255
0 0 255
0 0 254
0 0 254
0 0 254
0 0 254
0 0 254
0 0 255
0 0 255
0 0 255
0 0 255
0 0 255
0 0 255
0 0 255
0 0 254
0 0 254
0 0 254
0 0 255
0 0 254
0 0 255
0 0 255
0 0 253
0 0 254
0 0 255
0 0 253
0 0 253
0 0 255
0 0 252
0 0 255
0 0 254
0 0 254
0 0 252
0 0 255
0 0 254
0 0 254
0 0 254
0 0 255
0 0 254
0 0 252
0 0 254
0 0 255
0 0 254
0 0 255
0 0 255
0 0 252
0 0 255
0 0 254
0 0 254
0 0 253
0 0 255
0 0 254
0 0 250
0 0 255
0 0 254
0 0 253
0 0 254
0 0 252
0 0 250
0 0 252
0 0 255
0 0 253
0 0 254
0 0 254
0 0 254
0 0 254
0 0 253
0 0 254
0 0 253
0 0 249
0 0 253
0 0 252
0 0 250
0 0 250
0 0 248
0 0 253
0 0 254
0 0 254
0 0 254
0 0 252
0 0 254
0 0 253
0 0 249
0 0 246
0 0 248
0 0 250
0 0 250
0 0 254
0 0 253
0 0 253
0 0 245
0 0 249
0 0 248
0 0 252
0 0 252
0 0 250
0 0 250
0 0 246
0 0 249
0 0 245
0 0 253
0 0 252
0 0 248
0 0 250
0 0 249
0 0 249
0 0 249
0 0 245
0 0 245
0 0 246
0 0 254
0 0 245
0 0 249
0 0 245
0 0 244
0 0 246
0 0 249
0 0 244
0 0 246
0 0 245
0 0 248
0 0 248
0 0 249
0 0 245
0 0 249
0 0 230
0 0 250
0 0 248
0 0 238
0 0 246
0 0 248
0 0 246
0 0 242
0 0 245
0 0 242
0 0 244
0 0 244
0 0 244
0 0 240
0 0 246
0 0 245
0 0 238
0 0 244
0 0 236
0 0 237
0 0 236
0 0 244
0 0 244
0 0 241
90 100 248
186 208 254
201 224 255
201 224 255
201 224 255
201 224 255
201 224 255
201 224 255
201 224 255
201 224 255
201 224 255
201 224 255
201 224 255
200 224 255
200 224 255
200 224 255
200 224 255
200 224 255
200 224 255
200 224 255
200 224 255
200 224 255
200 224 255
200 224 255
200 224 255
200 224 255
200 224 255
200 224 255
200 224 255
200 224 255
200 224 255
200 224 255
200 224 255
200 224 255
200 224 255
200 224 255
200 224 255
200 224 255
200 224 255
200 224 255
200 224 255
200 224 255
200 224 255
200 224 255
200 224 255
200 224 255
200 224 255
200 224 255
200 224 255
200 224 255
200 224 255
200 224 255
200 224 255
200 224 255
200 224 255
200 224 255
200 224 255
200 224 255
200 224 255
200 224 255
200 224 255
200 224 255
200 224 255
200 224 255
200 224 255
200 224 255
201 224 255
201 224 255
201 224 255
201 224 255
201 224 255
201 224 255
201 224 255
201 224 255
201 224 255
201 224 255
198 212 241
193 95 108
190 0 0
191 0 0
188 0 0
195 0 0
202 0 0
194 0 0
190 0 0
191 0 0
193 0 0
192 0 0
196 0 0
196 0 0
195 0 0
197 0 0
196 0 0
196 0 0
196 0 0
190 0 0
192 0 0
202 0 0
196 0 0
196 0 0
201 0 0
199 0 0
200 0 0
203 0 0
196 0 0
205 0 0
200 0 0
203 0 0
206 0 0
200 0 0
205 0 0
204 0 0
204 0 0
200 0 0
197 0 0
204 0 0
204 0 0
203 0 0
205 0 0
203 0 0
202 0 0
206 0 0
203 0 0
209 0 0
207 0 0
207 0 0
205 0 0
199 0 0
208 0 0
207 0 0
201 0 0
207 0 0
208 0 0
204 0 0
203 0 0
206 0 0
205 0 0
207 0 0
208 0 0
207 0 0
209 0 0
209 0 0
211 0 0
205 0 0
207 0 0
206 0 0
204 0 0
207 0 0
204 0 0
207 0 0
209 0 0
209 0 0
208 0 0
208 0 0
209 0 0
209 0 0
210 0 0
210 0 0
203 0 0
212 0 0
209 0 0
208 0 0
213 0 0
212 0 0
211 0 0
211 0 0
210 0 0
209 0 0
211 0 0
213 0 0
207 0 0
210 0 0
212 0 0
206 0 0
210 0 0
211 0 0
214 0 0
211 0 0
211 0 0
212 0 0
212 0 0
212 0 0
212 0 0
207 0 0
211 0 0
210 0 0
213 0 0
210 0 0
214 0 0
211 0 0
213 0 0
214 0 0
214 0 0
209 0 0
211 0 0
212 0 0
211 0 0
216 0 0
216 0 0
211 0 0
213 0 0
213 0 0
209 0 0
214 0 0
212 0 0
208 0 0
212 0 0
212 0 0
213 0 0
215 0 0
213 0 0
208 0 0
213 0 0
211 0 0
212 0 0
214 0 0
214 0 0
212 0 0
216 0 0
214 0 0
213 0 0
215 0 0
215 0 0
211 0 0
215 0 0
210 0 0
215 0 0
212 0 0
213 0 0
213 0 0
213 0 0
218 0 0
215 0 0
214 0 0
217 0 0
214 0 0
214 0 0
214 0 0
213 0 0
0 0 255
0 0 255
0 0 255
0 0 255
0 0 255
0 0 255
0 0 255
0 0 255
0 0 254
0 0 253
0 0 255
0 0 255
0 0 255
0 0 255
0 0 255
0 0 255
0 0 255
0 0 255
0 0 254
0 0 254
0 0 255
0 0 255
0 0 255
0 0 254
0 0 255
0 0 254
0 0 255
0 0 255
0 0 254
0 0 254
0 0 254
0 0 255
0 0 254
0 0 255
0 0 254
0 0 255
0 0 253
0 0 255
0 0 255
0 0 254
0 0 254
0 0 255
0 0 254
0 0 255
0 0 254
0 0 253
0 0 255
0 0 255
0 0 254
0 0 255
0 0 253
0 0 253
0 0 254
0 0 254
0 0 254
0 0 254
0 0 253
0 0 253
0 0 254
0 0 255
0 0 252
0 0 254
0 0 250
0 0 255
0 0 250
0 0 254
0 0 254
0 0 253
0 0 254
0 0 255
0 0 254
0 0 252
0 0 253
0 0 255
0 0 254
0 0 252
0 0 253
0 0 248
0 0 255
0 0 250
0 0 253
0 0 253
0 0 253
0 0 255
0 0 254
0 0 253
0 0 253
0 0 254
0 0 250
0 0 254
0 0 253
0 0 254
0 0 254
0 0 246
0 0 249
0 0 250
0 0 252
0 0 252
0 0 253
0 0 248
0 0 252
0 0 250
0 0 252
0 0 248
0 0 253
0 0 252
0 0 252
0 0 242
0 0 250
0 0 253
0 0 252
0 0 252
0 0 248
0 0 253
0 0 248
0 0 248
0 0 248
0 0 252
0 0 250
0 0 246
0 0 246
0 0 245
0 0 250
0 0 249
0 0 248
0 0 250
0 0 250
0 0 250
0 0 249
0 0 246
0 0 248
0 0 249
0 0 244
0 0 242
0 0 249
0 0 252
0 0 244
0 0 246
0 0 244
0 0 245
0 0 246
0 0 241
0 0 245
0 0 240
0 0 245
0 0 248
0 0 237
0 0 240
0 0 245
0 0 240
0 0 238
0 0 234
0 0 237
0 0 241
0 0 246
0 0 245
0 0 244
0 0 244
0 0 245
0 0 244
0 0 248
0 0 246
66 74 238
176 197 255
201 224 255
201 224 255
201 224 255
201 224 255
201 224 255
201 224 255
201 224 255
201 224 255
201 224 255
201 224 255
201 224 255
201 224 255
201 224 255
201 224 255
201 224 255
201 224 255
201 224 255
201 224 255
200 224 255
200 224 255
200 224 255
200 224 255
200 224 255
200 224 255
200 224 255
200 224 255
200 224 255
200 224 255
200 224 255
200 224 255
200 224 255
200 224 255
200 224 255
200 224 255
200 224 255
200 224 255
200 224 255
200 224 255
200 224 255
200 224 255
200 224 255
200 224 255
200 224 255
200 224 255
200 224 255
200 224 255
200 224 255
200 224 255
200 224 255
200 224 255
200 224 255
200 224 255
200 224 255
200 224 255
201 224 255
201 224 255
201 224 255
201 224 255
201 224 255
201 224 255
201 224 255
201 224 255
201 224 255
201 224 255
201 224 255
201 224 255
201 224 255
201 224 255
201 224 255
201 224 255
201 224 255
201 224 255
199 198 226
183 55 62
192 0 0
180 0 0
187 0 0
184 0 0
194 0 0
190 0 0
198 0 0
200 0 0
191 0 0
197 0 0
196 0 0
195 0 0
196 0 0
197 0 0
198 0 0
200 0 0
204 0 0
202 0 0
202 0 0
195 0 0
200 0 0
197 0 0
197 0 0
196 0 0
202 0 0
203 0 0
200 0 0
205 0 0
200 0 0
205 0 0
201 0 0
202 0 0
211 0 0
200 0 0
205 0 0
206 0 0
203 0 0
199 0 0
203 0 0
204 0 0
205 0 0
207 0 0
200 0 0
206 0 0
204 0 0
208 0 0
199 0 0
200 0 0
207 0 0
203 0 0
211 0 0
209 0 0
209 0 0
206 0 0
210 0 0
206 0 0
202 0 0
208 0 0
206 0 0
207 0 0
210 0 0
205 0 0
209 0 0
206 0 0
204 0 0
208 0 0
209 0 0
206 0 0
204 0 0
209 0 0
207 0 0
213 0 0
213 0 0
212 0 0
209 0 0
209 0 0
213 0 0
210 0 0
212 0 0
213 0 0
207 0 0
208 0 0
212 0 0
208 0 0
212 0 0
214 0 0
214 0 0
207 0 0
209 0 0
204 0 0
208 0 0
215 0 0
208 0 0
213 0 0
211 0 0
208 0 0
210 0 0
211 0 0
207 0 0
210 0 0
207 0 0
211 0 0
211 0 0
210 0 0
211 0 0
211 0 0
212 0 0
213 0 0
214 0 0
208 0 0
208 0 0
207 0 0
211 0 0
211 0 0
212 0 0
213 0 0
211 0 0
213 0 0
213 0 0
213 0 0
210 0 0
209 0 0
210 0 0
212 0 0
213 0 0
211 0 0
214 0 0
216 0 0
212 0 0
210 0 0
214 0 0
214 0 0
214 0 0
209 0 0
213 0 0
211 0 0
215 0 0
212 0 0
214 0 0
209 0 0
216 0 0
211 0 0
214 0 0
213 0 0
214 0 0
212 0 0
215 0 0
210 0 0
214 0 0
214 0 0
212 0 0
217 0 0
212 0 0
213 0 0
209 0 0
214 0 0
213 0 0
215 0 0
213 0 0
215 0 0
213 0 0
215 0 0
0 0 255
0 0 255
0 0 255
0 0 255
0 0 255
0 0 255
0 0 255
0 0 255
0 0 255
0 0 254
0 0 254
0 0 255
0 0 254
0 0 255
0 0 254
0 0 255
0 0 255
0 0 255
0 0 253
0 0 254
0 0 254
0 0 255
0 0 255
0 0 254
0 0 255
0 0 253
0 0 254
0 0 254
0 0 255
0 0 255
0 0 254
0 0 255
0 0 255
0 0 255
0 0 255
0 0 255
0 0 255
0 0 254
0 0 255
0 0 255
0 0 253
0 0 253
0 0 254
0 0 255
0 0 255
0 0 252
0 0 254
0 0 255
0 0 255
0 0 253
0 0 254
0 0 254
0 0 253
0 0 255
0 0 252
0 0 254
0 0 255
0 0 255
0 0 255
0 0 255
0 0 255
0 0 254
0 0 252
0 0 249
0 0 255
0 0 254
0 0 253
0 0 254
0 0 255
0 0 255
0 0 253
0 0 253
0 0 254
0 0 255
0 0 249
0 0 249
0 0 252
0 0 252
0 0 255
0 0 253
0 0 253
0 0 253
0 0 255
0 0 250
0 0 254
0 0 252
0 0 249
0 0 252
0 0 252
0 0 250
0 0 252
0 0 250
0 0 246
0 0 254
0 0 254
0 0 248
0 0 252
0 0 252
0 0 253
0 0 253
0 0 246
0 0 252
0 0 248
0 0 253
0 0 253
0 0 253
0 0 248
0 0 255
0 0 249
0 0 252
0 0 248
0 0 253
0 0 250
0 0 246
0 0 249
0 0 250
0 0 242
0 0 249
0 0 250
0 0 245
0 0 254
0 0 245
0 0 245
0 0 248
0 0 241
0 0 246
0 0 248
0 0 249
0 0 249
0 0 241
0 0 252
0 0 240
0 0 242
0 0 245
0 0 246
0 0 245
0 0 252
0 0 242
0 0 241
0 0 240
0 0 244
0 0 250
0 0 236
0 0 242
0 0 249
0 0 248
0 0 237
0 0 249
0 0 245
0 0 240
0 0 244
0 0 241
0 0 242
0 0 242
0 0 245
0 0 240
0 0 244
0 0 245
0 0 240
0 0 246
0 0 240
0 0 238
0 0 246
40 44 237
166 185 248
201 225 255
201 224 255
201 224 255
201 224 255
201 224 255
201 224 255
201 224 255
201 224 255
201 224 255
201 224 255
201 224 255
201 224 255
201 224 255
201 224 255
201 224 255
201 224 255
201 224 255
201 224 255
201 224 255
201 224 255
201 224 255
201 224 255
201 224 255
201 224 255
201 224 255
201 224 255
201 224 255
201 224 255
201 224 255
201 224 255
201 224 255
201 224 255
201 224 255
201 224 255
201 224 255
201 224 255
201 224 255
201 224 255
201 224 255
201 224 255
201 224 255
201 224 255
201 224 255
201 224 255
201 224 255
201 224 255
201 224 255
201 224 255
201 224 255
201 224 255
201 224 255
201 224 255
201 224 255
201 224 255
201 224 255
201 224 255
201 224 255
201 224 255
201 224 255
201 224 255
201 224 255
201 224 255
201 224 255
201 224 255
201 224 255
201 224 255
201 224 255
201 224 255
201 224 255
201 225 255
200 185 211
186 38 44
193 0 0
193 0 0
188 0 0
185 0 0
191 0 0
193 0 0
195 0 0
194 0 0
195 0 0
186 0 0
192 0 0
194 0 0
196 0 0
198 0 0
196 0 0
196 0 0
182 0 0
202 0 0
199 0 0
200 0 0
201 0 0
189 0 0
197 0 0
200 0 0
204 0 0
199 0 0
202 0 0
197 0 0
200 0 0
195 0 0
203 0 0
206 0 0
195 0 0
198 0 0
204 0 0
199 0 0
205 0 0
203 0 0
206 0 0
205 0 0
202 0 0
204 0 0
209 0 0
206 0 0
201 0 0
207 0 0
207 0 0
206 0 0
207 0 0
209 0 0
207 0 0
207 0 0
203 0 0
210 0 0
206 0 0
207 0 0
210 0 0
207 0 0
203 0 0
207 0 0
206 0 0
210 0 0
211 0 0
205 0 0
206 0 0
210 0 0
205 0 0
209 0 0
210 0 0
205 0 0
211 0 0
211 0 0
211 0 0
211 0 0
210 0 0
208 0 0
209 0 0
210 0 0
210 0 0
206 0 0
208 0 0
206 0 0
206 0 0
206 0 0
208 0 0
211 0 0
211 0 0
211 0 0
213 0 0
211 0 0
212 0 0
212 0 0
211 0 0
209 0 0
208 0 0
210 0 0
211 0 0
212 0 0
211 0 0
212 0 0
208 0 0
213 0 0
209 0 0
213 0 0
211 0 0
214 0 0
213 0 0
212 0 0
211 0 0
210 0 0
210 0 0
209 0 0
210 0 0
212 0 0
212 0 0
210 0 0
212 0 0
213 0 0
212 0 0
211 0 0
210 0 0
215 0 0
213 0 0
210 0 0
217 0 0
211 0 0
214 0 0
211 0 0
212 0 0
213 0 0
210 0 0
216 0 0
209 0 0
210 0 0
217 0 0
215 0 0
215 0 0
219 0 0
215 0 0
213 0 0
212 0 0
213 0 0
212 0 0
212 0 0
214 0 0
212 0 0
213 0 0
215 0 0
212 0 0
215 0 0
212 0 0
209 0 0
211 0 0
213 0 0
208 0 0
214 0 0
212 0 0
211 0 0
215 0 0
211 0 0
209 0 0
212 0 0
214 0 0
0 0 255
0 0 255
0 0 255
0 0 255
0 0 255
0 0 255
0 0 255
0 0 254
0 0 255
0 0 253
0 0 255
0 0 255
0 0 255
0 0 255
0 0 255
0 0 255
0 0 254
0 0 254
0 0 255
0 0 254
0 0 255
0 0 255
0 0 254
0 0 255
0 0 255
0 0 255
0 0 255
0 0 254
0 0 255
0 0 255
0 0 255
0 0 255
0 0 253
0 0 255
0 0 254
0 0 254
0 0 253
0 0 255
0 0 252
0 0 254
0 0 253
0 0 253
0 0 253
0 0 255
0 0 255
0 0 254
0 0 254
0 0 255
0 0 255
0 0 255
0 0 253
0 0 254
0 0 254
0 0 253
0 0 255
0 0 248
0 0 255
0 0 253
0 0 254
0 0 254
0 0 254
0 0 255
0 0 253
0 0 255
0 0 255
0 0 253
0 0 254
0 0 255
0 0 253
0 0 254
0 0 252
0 0 254
0 0 254
0 0 254
0 0 253
0 0 252
0 0 255
0 0 254
0 0 252
0 0 254
0 0 254
0 0 253
0 0 255
0 0 253
0 0 248
0 0 252
0 0 253
0 0 254
0 0 250
0 0 254
0 0 252
0 0 252
0 0 252
0 0 250
0 0 253
0 0 249
0 0 250
0 0 252
0 0 252
0 0 252
0 0 250
0 0 248
0 0 252
0 0 252
0 0 250
0 0 250
0 0 250
0 0 250
0 0 252
0 0 252
0 0 250
0 0 252
0 0 249
0 0 252
0 0 249
0 0 250
0 0 245
0 0 245
0 0 249
0 0 250
0 0 252
0 0 249
0 0 248
0 0 249
0 0 246
0 0 249
0 0 246
0 0 249
0 0 248
0 0 250
0 0 248
0 0 252
0 0 245
0 0 242
0 0 245
0 0 244
0 0 250
0 0 249
0 0 248
0 0 241
0 0 245
0 0 246
0 0 241
0 0 246
0 0 244
0 0 242
0 0 249
0 0 244
0 0 241
0 0 244
0 0 238
0 0 240
0 0 244
0 0 240
0 0 248
0 0 233
0 0 241
0 0 238
0 0 241
0 0 230
0 0 242
0 0 233
0 0 233
0 0 236
0 0 242
158 177 252
201 225 255
201 225 255
201 225 255
201 225 255
201 225 255
201 225 255
201 224 255
201 224 255
201 224 255
201 224 255
201 224 255
201 224 255
201 224 255
201 224 255
201 224 255
201 224 255
201 224 255
201 224 255
201 224 255
201 224 255
201 224 255
201 224 255
201 224 255
201 224 255
201 224 255
201 224 255
201 224 255
201 224 255
201 224 255
201 224 255
201 224 255
201 224 255
201 224 255
201 224 255
201 224 255
201 224 255
201 224 255
201 224 255
201 224 255
201 224 255
201 224 255
201 224 255
201 224 255
201 224 255
201 224 255
201 224 255
201 224 255
201 224 255
201 224 255
201 224 255
201 224 255
201 224 255
201 224 255
201 224 255
201 224 255
201 224 255
201 224 255
201 224 255
201 224 255
201 224 255
201 224 255
201 224 255
201 225 255
201 225 255
201 225 255
201 225 255
201 225 255
201 225 255
195 163 186
187 0 0
189 0 0
195 0 0
188 0 0
186 0 0
196 0 0
193 0 0
193 0 0
193 0 0
196 0 0
198 0 0
194 0 0
194 0 0
202 0 0
186 0 0
194 0 0
199 0 0
196 0 0
198 0 0
201 0 0
195 0 0
202 0 0
198 0 0
200 0 0
196 0 0
201 0 0
202 0 0
202 0 0
199 0 0
203 0 0
202 0 0
202 0 0
206 0 0
202 0 0
201 0 0
201 0 0
205 0 0
204 0 0
204 0 0
204 0 0
202 0 0
206 0 0
205 0 0
202 0 0
201 0 0
200 0 0
206 0 0
206 0 0
207 0 0
205 0 0
211 0 0
200 0 0
211 0 0
211 0 0
208 0 0
207 0 0
208 0 0
209 0 0
205 0 0
204 0 0
207 0 0
211 0 0
208 0 0
208 0 0
203 0 0
207 0 0
208 0 0
209 0 0
210 0 0
211 0 0
208 0 0
209 0 0
209 0 0
210 0 0
206 0 0
208 0 0
208 0 0
209 0 0
206 0 0
206 0 0
214 0 0
207 0 0
209 0 0
210 0 0
210 0 0
213 0 0
206 0 0
209 0 0
211 0 0
210 0 0
213 0 0
210 0 0
211 0 0
214 0 0
209 0 0
213 0 0
212 0 0
211 0 0
210 0 0
212 0 0
207 0 0
208 0 0
209 0 0
210 0 0
213 0 0
207 0 0
210 0 0
214 0 0
212 0 0
215 0 0
210 0 0
213 0 0
213 0 0
206 0 0
212 0 0
216 0 0
215 0 0
214 0 0
210 0 0
215 0 0
216 0 0
211 0 0
209 0 0
209 0 0
214 0 0
213 0 0
212 0 0
214 0 0
212 0 0
210 0 0
210 0 0
213 0 0
210 0 0
213 0 0
211 0 0
213 0 0
214 0 0
212 0 0
212 0 0
210 0 0
209 0 0
216 0 0
216 0 0
213 0 0
213 0 0
212 0 0
215 0 0
213 0 0
215 0 0
214 0 0
212 0 0
214 0 0
211 0 0
211 0 0
214 0 0
215 0 0
215 0 0
214 0 0
211 0 0
212 0 0
216 0 0
214 0 0
216 0 0
217 0 0
211 0 0
0 0 255
0 0 254
0 0 255
0 0 254
0 0 255
0 0 255
0 0 254
0 0 255
0 0 255
0 0 254
0 0 255
0 0 255
0 0 255
0 0 255
0 0 255
0 0 255
0 0 255
0 0 255
0 0 254
0 0 255
0 0 254
0 0 255
0 0 254
0 0 254
0 0 255
0 0 253
0 0 255
0 0 255
0 0 253
0 0 254
0 0 253
0 0 254
0 0 255
0 0 253
0 0 254
0 0 255
0 0 254
0 0 255
0 0 254
0 0 253
0 0 255
0 0 253
0 0 254
0 0 253
0 0 255
0 0 254
0 0 254
0 0 253
0 0 255
0 0 255
0 0 255
0 0 255
0 0 254
0 0 254
0 0 254
0 0 253
0 0 250
0 0 255
0 0 254
0 0 253
0 0 253
0 0 250
0 0 252
0 0 254
0 0 254
0 0 254
0 0 255
0 0 253
0 0 254
0 0 254
0 0 252
0 0 250
0 0 252
0 0 254
0 0 255
0 0 253
0 0 250
0 0 252
0 0 254
0 0 250
0 0 253
0 0 253
0 0 254
0 0 249
0 0 253
0 0 253
0 0 248
0 0 254
0 0 253
0 0 255
0 0 250
0 0 249
0 0 248
0 0 253
0 0 253
0 0 252
0 0 241
0 0 252
0 0 249
0 0 254
0 0 248
0 0 252
0 0 250
0 0 248
0 0 252
0 0 246
0 0 252
0 0 244
0 0 254
0 0 250
0 0 253
0 0 250
0 0 253
0 0 252
0 0 253
0 0 255
0 0 246
0 0 250
0 0 252
0 0 248
0 0 242
0 0 250
0 0 250
0 0 253
0 0 245
0 0 248
0 0 248
0 0 246
0 0 250
0 0 252
0 0 246
0 0 252
0 0 250
0 0 250
0 0 250
0 0 249
0 0 241
0 0 245
0 0 248
0 0 246
0 0 245
0 0 240
0 0 242
0 0 245
0 0 246
0 0 240
0 0 241
0 0 241
0 0 244
0 0 245
0 0 253
0 0 236
0 0 238
0 0 237
0 0 248
0 0 241
0 0 241
0 0 240
0 0 242
0 0 238
0 0 231
0 0 241
0 0 228
0 0 238
0 0 241
0 0 245
121 135 250
202 225 255
202 225 255
202 225 255
201 225 255
201 225 255
201 225 255
201 225 255
201 225 255
201 225 255
201 225 255
201 225 255
201 225 255
201 225 255
201 224 255
201 224 255
201 224 255
201 224 255
201 224 255
201 224 255
201 224 255
201 224 255
201 224 255
201 224 255
201 224 255
201 224 255
201 224 255
201 224 255
201 224 255
201 224 255
201 224 255
201 224 255
201 224 255
201 224 255
201 224 255
201 224 255
201 224 255
201 224 255
201 224 255
201 224 255
201 224 255
201 224 255
201 224 255
201 224 255
201 224 255
201 224 255
201 224 255
201 224 255
201 224 255
201 224 255
201 224 255
201 224 255
201 224 255
201 224 255
201 225 255
201 225 255
201 225 255
201 225 255
201 225 255
201 225 255
201 225 255
201 225 255
201 225 255
201 225 255
202 225 255
202 225 255
202 224 254
192 135 153
193 0 0
191 0 0
186 0 0
191 0 0
199 0 0
183 0 0
184 0 0
197 0 0
187 0 0
191 0 0
190 0 0
191 0 0
189 0 0
189 0 0
201 0 0
184 0 0
198 0 0
197 0 0
191 0 0
200 0 0
202 0 0
199 0 0
197 0 0
200 0 0
199 0 0
198 0 0
199 0 0
198 0 0
197 0 0
202 0 0
204 0 0
202 0 0
202 0 0
207 0 0
201 0 0
202 0 0
203 0 0
203 0 0
198 0 0
206 0 0
205 0 0
200 0 0
203 0 0
203 0 0
204 0 0
204 0 0
200 0 0
209 0 0
206 0 0
208 0 0
207 0 0
208 0 0
209 0 0
211 0 0
209 0 0
203 0 0
205 0 0
209 0 0
208 0 0
205 0 0
205 0 0
210 0 0
207 0 0
208 0 0
204 0 0
211 0 0
208 0 0
207 0 0
205 0 0
208 0 0
205 0 0
205 0 0
212 0 0
214 0 0
208 0 0
212 0 0
207 0 0
212 0 0
207 0 0
210 0 0
208 0 0
209 0 0
211 0 0
210 0 0
210 0 0
210 0 0
210 0 0
210 0 0
211 0 0
208 0 0
217 0 0
208 0 0
213 0 0
211 0 0
212 0 0
209 0 0
217 0 0
213 0 0
211 0 0
213 0 0
208 0 0
215 0 0
216 0 0
211 0 0
208 0 0
213 0 0
213 0 0
212 0 0
212 0 0
211 0 0
207 0 0
213 0 0
211 0 0
211 0 0
212 0 0
212 0 0
215 0 0
215 0 0
210 0 0
214 0 0
211 0 0
210 0 0
213 0 0
213 0 0
214 0 0
211 0 0
209 0 0
210 0 0
214 0 0
212 0 0
214 0 0
209 0 0
211 0 0
217 0 0
210 0 0
212 0 0
213 0 0
213 0 0
213 0 0
215 0 0
214 0 0
213 0 0
213 0 0
214 0 0
213 0 0
217 0 0
215 0 0
217 0 0
215 0 0
211 0 0
214 0 0
213 0 0
210 0 0
215 0 0
211 0 0
217 0 0
211 0 0
213 0 0
211 0 0
216 0 0
216 0 0
217 0 0
216 0 0
213 0 0
214 0 0
214 0 0
0 0 254
0 0 254
0 0 255
0 0 255
0 0 255
0 0 255
0 0 255
0 0 254
0 0 255
0 0 255
0 0 254
0 0 255
0 0 254
0 0 255
0 0 255
0 0 254
0 0 255
0 0 255
0 0 255
0 0 255
0 0 255
0 0 255
0 0 255
0 0 255
0 0 255
0 0 255
0 0 253
0 0 253
0 0 254
0 0 254
0 0 254
0 0 253
0 0 255
0 0 254
0 0 255
0 0 253
0 0 253
0 0 254
0 0 255
0 0 255
0 0 254
0 0 254
0 0 254
0 0 253
0 0 253
0 0 253
0 0 255
0 0 254
0 0 255
0 0 255
0 0 254
0 0 254
0 0 250
0 0 255
0 0 254
0 0 253
0 0 253
0 0 255
0 0 255
0 0 255
0 0 252
0 0 254
0 0 255
0 0 252
0 0 253
0 0 252
0 0 253
0 0 255
0 0 252
0 0 255
0 0 255
0 0 253
0 0 252
0 0 252
0 0 249
0 0 255
0 0 248
0 0 252
0 0 253
0 0 253
0 0 255
0 0 254
0 0 254
0 0 255
0 0 253
0 0 252
0 0 252
0 0 252
0 0 245
0 0 250
0 0 253
0 0 250
0 0 252
0 0 250
0 0 248
0 0 250
0 0 252
0 0 253
0 0 250
0 0 249
0 0 250
0 0 255
0 0 253
0 0 246
0 0 249
0 0 248
0 0 248
0 0 250
0 0 249
0 0 248
0 0 246
0 0 245
0 0 250
0 0 244
0 0 249
0 0 248
0 0 253
0 0 252
0 0 250
0 0 249
0 0 253
0 0 253
0 0 246
0 0 244
0 0 249
0 0 248
0 0 244
0 0 249
0 0 246
0 0 240
0 0 246
0 0 242
0 0 244
0 0 245
0 0 252
0 0 246
0 0 249
0 0 249
0 0 250
0 0 246
0 0 244
0 0 245
0 0 242
0 0 244
0 0 245
0 0 241
0 0 240
0 0 237
0 0 246
0 0 241
0 0 244
0 0 241
0 0 240
0 0 238
0 0 236
0 0 238
0 0 238
0 0 234
0 0 230
0 0 234
0 0 237
0 0 240
0 0 234
0 0 237
0 0 236
0 0 231
0 0 245
129 144 249
200 223 255
202 225 255
202 225 255
202 225 255
202 225 255
202 225 255
202 225 255
202 225 255
202 225 255
201 225 255
201 225 255
201 225 255
201 225 255
201 225 255
201 225 255
201 225 255
201 225 255
201 225 255
201 225 255
201 225 255
201 225 255
201 225 255
201 225 255
201 225 255
201 225 255
201 225 255
201 225 255
201 224 255
201 224 255
201 224 255
201 224 255
201 224 255
201 224 255
201 224 255
201 224 255
201 224 255
201 224 255
201 224 255
201 225 255
201 225 255
201 225 255
201 225 255
201 225 255
201 225 255
201 225 255
201 225 255
201 225 255
201 225 255
201 225 255
201 225 255
201 225 255
201 225 255
201 225 255
201 225 255
201 225 255
202 225 255
202 225 255
202 225 255
202 225 255
202 225 255
202 225 255
202 225 255
202 225 255
202 224 254
196 127 144
184 0 0
181 0 0
190 0 0
193 0 0
193 0 0
190 0 0
187 0 0
189 0 0
189 0 0
193 0 0
189 0 0
193 0 0
194 0 0
196 0 0
193 0 0
192 0 0
200 0 0
194 0 0
193 0 0
201 0 0
199 0 0
199 0 0
200 0 0
204 0 0
196 0 0
197 0 0
197 0 0
197 0 0
198 0 0
195 0 0
201 0 0
196 0 0
194 0 0
209 0 0
201 0 0
203 0 0
203 0 0
198 0 0
203 0 0
206 0 0
204 0 0
206 0 0
208 0 0
203 0 0
204 0 0
207 0 0
207 0 0
200 0 0
205 0 0
204 0 0
213 0 0
208 0 0
212 0 0
206 0 0
200 0 0
204 0 0
204 0 0
207 0 0
208 0 0
207 0 0
207 0 0
211 0 0
210 0 0
210 0 0
203 0 0
215 0 0
206 0 0
205 0 0
207 0 0
206 0 0
208 0 0
212 0 0
207 0 0
208 0 0
201 0 0
214 0 0
205 0 0
212 0 0
207 0 0
210 0 0
212 0 0
211 0 0
210 0 0
214 0 0
210 0 0
215 0 0
208 0 0
214 0 0
212 0 0
212 0 0
209 0 0
215 0 0
210 0 0
208 0 0
213 0 0
212 0 0
210 0 0
210 0 0
213 0 0
211 0 0
216 0 0
214 0 0
205 0 0
209 0 0
212 0 0
212 0 0
214 0 0
211 0 0
215 0 0
213 0 0
213 0 0
210 0 0
213 0 0
211 0 0
213 0 0
219 0 0
216 0 0
211 0 0
213 0 0
215 0 0
213 0 0
212 0 0
212 0 0
212 0 0
216 0 0
212 0 0
216 0 0
213 0 0
212 0 0
209 0 0
214 0 0
209 0 0
216 0 0
214 0 0
213 0 0
215 0 0
212 0 0
214 0 0
215 0 0
215 0 0
214 0 0
209 0 0
211 0 0
212 0 0
214 0 0
214 0 0
214 0 0
214 0 0
212 0 0
214 0 0
214 0 0
214 0 0
213 0 0
216 0 0
215 0 0
213 0 0
213 0 0
212 0 0
213 0 0
212 0 0
213 0 0
213 0 0
214 0 0
213 0 0
217 0 0
214 0 0
215 0 0
0 0 254
0 0 255
0 0 254
0 0 255
0 0 255
0 0 254
0 0 255
0 0 255
0 0 255
0 0 254
0 0 255
0 0 254
0 0 254
0 0 255
0 0 255
0 0 254
0 0 254
0 0 254
0 0 254
0 0 254
0 0 255
0 0 255
0 0 255
0 0 253
0 0 255
0 0 255
0 0 254
0 0 252
0 0 255
0 0 255
0 0 255
0 0 253
0 0 254
0 0 254
0 0 254
0 0 255
0 0 254
0 0 254
0 0 255
0 0 254
0 0 255
0 0 255
0 0 254
0 0 250
0 0 255
0 0 254
0 0 255
0 0 255
0 0 250
0 0 254
0 0 253
0 0 250
0 0 252
0 0 252
0 0 255
0 0 253
0 0 254
0 0 254
0 0 254
0 0 254
0 0 254
0 0 252
0 0 254
0 0 255
0 0 255
0 0 253
0 0 250
0 0 254
0 0 253
0 0 255
0 0 254
0 0 254
0 0 254
0 0 253
0 0 254
0 0 254
0 0 252
0 0 254
0 0 253
0 0 253
0 0 253
0 0 252
0 0 252
0 0 250
0 0 249
0 0 253
0 0 252
0 0 255
0 0 252
0 0 250
0 0 254
0 0 255
0 0 253
0 0 254
0 0 250
0 0 253
0 0 252
0 0 253
0 0 253
0 0 249
0 0 246
0 0 249
0 0 248
0 0 249
0 0 248
0 0 249
0 0 252
0 0 249
0 0 254
0 0 246
0 0 249
0 0 252
0 0 249
0 0 238
0 0 236
0 0 248
0 0 248
0 0 249
0 0 250
0 0 249
0 0 248
0 0 246
0 0 252
0 0 245
0 0 249
0 0 249
0 0 248
0 0 246
0 0 250
0 0 249
0 0 249
0 0 250
0 0 246
0 0 245
0 0 240
0 0 244
0 0 249
0 0 248
0 0 248
0 0 241
0 0 245
0 0 248
0 0 244
0 0 249
0 0 241
0 0 250
0 0 245
0 0 246
0 0 245
0 0 246
0 0 240
0 0 240
0 0 237
0 0 240
0 0 238
0 0 245
0 0 241
0 0 248
0 0 234
0 0 237
0 0 237
0 0 244
0 0 240
0 0 241
0 0 236
0 0 240
0 0 233
0 0 241
126 140 245
199 221 255
202 225 255
202 225 255
202 225 255
202 225 255
202 225 255
202 225 255
202 225 255
202 225 255
202 225 255
202 225 255
202 225 255
202 225 255
202 225 255
202 225 255
202 225 255
202 225 255
202 225 255
202 225 255
201 225 255
201 225 255
201 225 255
201 225 255
201 225 255
201 225 255
201 225 255
201 225 255
201 225 255
201 225 255
201 225 255
201 225 255
201 225 255
201 225 255
201 225 255
201 225 255
201 225 255
201 225 255
201 225 255
201 225 255
201 225 255
201 225 255
201 225 255
201 225 255
202 225 255
202 225 255
202 225 255
202 225 255
202 225 255
202 225 255
202 225 255
202 225 255
202 225 255
202 225 255
202 225 255
202 225 255
202 225 255
202 225 255
202 225 255
202 225 255
202 225 255
202 225 255
201 222 252
196 112 128
189 0 0
187 0 0
188 0 0
184 0 0
190 0 0
198 0 0
189 0 0
189 0 0
194 0 0
192 0 0
193 0 0
183 0 0
195 0 0
194 0 0
190 0 0
192 0 0
192 0 0
200 0 0
201 0 0
195 0 0
197 0 0
201 0 0
198 0 0
194 0 0
198 0 0
192 0 0
194 0 0
203 0 0
195 0 0
203 0 0
204 0 0
205 0 0
210 0 0
198 0 0
202 0 0
206 0 0
199 0 0
206 0 0
201 0 0
200 0 0
203 0 0
202 0 0
202 0 0
203 0 0
205 0 0
202 0 0
208 0 0
200 0 0
203 0 0
213 0 0
205 0 0
208 0 0
202 0 0
207 0 0
205 0 0
209 0 0
212 0 0
206 0 0
211 0 0
209 0 0
206 0 0
206 0 0
208 0 0
209 0 0
211 0 0
210 0 0
212 0 0
208 0 0
205 0 0
211 0 0
206 0 0
208 0 0
201 0 0
205 0 0
208 0 0
211 0 0
211 0 0
210 0 0
211 0 0
212 0 0
210 0 0
210 0 0
208 0 0
213 0 0
213 0 0
211 0 0
209 0 0
210 0 0
212 0 0
209 0 0
209 0 0
212 0 0
211 0 0
212 0 0
205 0 0
212 0 0
214 0 0
214 0 0
209 0 0
210 0 0
216 0 0
210 0 0
215 0 0
212 0 0
212 0 0
209 0 0
212 0 0
208 0 0
213 0 0
215 0 0
207 0 0
212 0 0
214 0 0
212 0 0
212 0 0
215 0 0
210 0 0
214 0 0
211 0 0
211 0 0
216 0 0
212 0 0
213 0 0
213 0 0
212 0 0
212 0 0
215 0 0
210 0 0
210 0 0
215 0 0
215 0 0
212 0 0
213 0 0
216 0 0
215 0 0
214 0 0
212 0 0
217 0 0
211 0 0
212 0 0
213 0 0
216 0 0
212 0 0
211 0 0
216 0 0
216 0 0
216 0 0
215 0 0
211 0 0
213 0 0
215 0 0
216 0 0
212 0 0
215 0 0
214 0 0
220 0 0
213 0 0
210 0 0
213 0 0
214 0 0
216 0 0
216 0 0
214 0 0
216 0 0
214 0 0
215 0 0
215 0 0
215 0 0
0 0 255
0 0 255
0 0 255
0 0 255
0 0 255
0 0 255
0 0 255
0 0 255
0 0 254
0 0 255
0 0 255
0 0 253
0 0 255
0 0 255
0 0 255
0 0 255
0 0 255
0 0 255
0 0 255
0 0 255
0 0 255
0 0 254
0 0 255
0 0 255
0 0 252
0 0 254
0 0 255
0 0 255
0 0 252
0 0 255
0 0 255
0 0 254
0 0 254
0 0 254
0 0 253
0 0 255
0 0 255
0 0 255
0 0 254
0 0 255
0 0 254
0 0 254
0 0 254
0 0 253
0 0 254
0 0 255
0 0 255
0 0 254
0 0 254
0 0 255
0 0 254
0 0 255
0 0 252
0 0 255
0 0 254
0 0 252
0 0 254
0 0 253
0 0 253
0 0 255
0 0 255
0 0 255
0 0 253
0 0 254
0 0 254
0 0 253
0 0 253
0 0 252
0 0 252
0 0 253
0 0 255
0 0 253
0 0 253
0 0 253
0 0 253
0 0 253
0 0 253
0 0 255
0 0 252
0 0 253
0 0 254
0 0 255
0 0 252
0 0 255
0 0 250
0 0 253
0 0 252
0 0 250
0 0 253
0 0 252
0 0 253
0 0 253
0 0 252
0 0 252
0 0 252
0 0 250
0 0 254
0 0 249
0 0 250
0 0 244
0 0 254
0 0 253
0 0 252
0 0 252
0 0 250
0 0 248
0 0 246
0 0 249
0 0 250
0 0 253
0 0 254
0 0 255
0 0 250
0 0 249
0 0 250
0 0 250
0 0 252
0 0 249
0 0 241
0 0 250
0 0 246
0 0 254
0 0 249
0 0 242
0 0 249
0 0 250
0 0 250
0 0 253
0 0 253
0 0 250
0 0 249
0 0 242
0 0 244
0 0 246
0 0 236
0 0 248
0 0 246
0 0 241
0 0 244
0 0 252
0 0 242
0 0 244
0 0 249
0 0 244
0 0 244
0 0 242
0 0 238
0 0 241
0 0 245
0 0 246
0 0 244
0 0 244
0 0 238
0 0 241
0 0 246
0 0 240
0 0 240
0 0 242
0 0 237
0 0 236
0 0 233
0 0 238
0 0 238
0 0 233
0 0 246
0 0 231
0 0 240
0 0 237
0 0 246
90 100 237
202 225 255
202 225 255
202 225 255
202 225 255
202 225 255
202 225 255
202 225 255
202 225 255
202 225 255
202 225 255
202 225 255
202 225 255
202 225 255
202 225 255
202 225 255
202 225 255
202 225 255
202 225 255
202 225 255
202 225 255
202 225 255
202 225 255
202 225 255
202 225 255
202 225 255
202 225 255
202 225 255
202 225 255
202 225 255
202 225 255
202 225 255
202 225 255
202 225 255
202 225 255
202 225 255
202 225 255
202 225 255
202 225 255
202 225 255
202 225 255
202 225 255
202 225 255
202 225 255
202 225 255
202 225 255
202 225 255
202 225 255
202 225 255
202 225 255
202 225 255
202 225 255
202 225 255
202 225 255
202 225 255
202 225 255
202 225 255
202 225 255
202 225 255
202 225 255
202 220 250
198 135 153
183 0 0
178 0 0
189 0 0
187 0 0
180 0 0
187 0 0
190 0 0
192 0 0
192 0 0
187 0 0
192 0 0
192 0 0
185 0 0
193 0 0
189 0 0
202 0 0
198 0 0
196 0 0
197 0 0
202 0 0
204 0 0
202 0 0
204 0 0
192 0 0
199 0 0
197 0 0
197 0 0
207 0 0
201 0 0
199 0 0
197 0 0
198 0 0
200 0 0
199 0 0
202 0 0
203 0 0
199 0 0
205 0 0
203 0 0
197 0 0
200 0 0
207 0 0
208 0 0
203 0 0
204 0 0
204 0 0
204 0 0
203 0 0
208 0 0
198 0 0
206 0 0
204 0 0
201 0 0
207 0 0
206 0 0
206 0 0
205 0 0
208 0 0
205 0 0
200 0 0
207 0 0
213 0 0
208 0 0
207 0 0
208 0 0
206 0 0
204 0 0
203 0 0
204 0 0
208 0 0
207 0 0
208 0 0
212 0 0
212 0 0
213 0 0
209 0 0
207 0 0
213 0 0
208 0 0
207 0 0
211 0 0
212 0 0
212 0 0
211 0 0
205 0 0
206 0 0
212 0 0
210 0 0
211 0 0
213 0 0
212 0 0
211 0 0
205 0 0
209 0 0
208 0 0
212 0 0
212 0 0
214 0 0
213 0 0
215 0 0
210 0 0
208 0 0
212 0 0
209 0 0
213 0 0
210 0 0
209 0 0
211 0 0
208 0 0
216 0 0
210 0 0
210 0 0
216 0 0
211 0 0
211 0 0
215 0 0
213 0 0
212 0 0
214 0 0
213 0 0
209 0 0
213 0 0
212 0 0
211 0 0
208 0 0
212 0 0
211 0 0
212 0 0
212 0 0
217 0 0
212 0 0
212 0 0
215 0 0
216 0 0
214 0 0
215 0 0
214 0 0
210 0 0
212 0 0
213 0 0
213 0 0
214 0 0
214 0 0
214 0 0
217 0 0
214 0 0
211 0 0
213 0 0
216 0 0
210 0 0
213 0 0
216 0 0
214 0 0
213 0 0
216 0 0
213 0 0
214 0 0
218 0 0
214 0 0
214 0 0
215 0 0
209 0 0
211 0 0
212 0 0
215 0 0
212 0 0
214 0 0
211 0 0
215 0 0
0 0 255
0 0 255
0 0 255
0 0 255
0 0 255
0 0 255
0 0 254
0 0 254
0 0 255
0 0 255
0 0 255
0 0 254
0 0 255
0 0 255
0 0 255
0 0 255
0 0 255
0 0 254
0 0 255
0 0 255
0 0 255
0 0 255
0 0 254
0 0 254
0 0 254
0 0 253
0 0 255
0 0 253
0 0 255
0 0 255
0 0 255
0 0 253
0 0 254
0 0 255
0 0 254
0 0 254
0 0 255
0 0 255
0 0 255
0 0 252
0 0 254
0 0 254
0 0 255
0 0 255
0 0 255
0 0 253
0 0 253
0 0 253
0 0 255
0 0 255
0 0 254
0 0 254
0 0 250
0 0 255
0 0 254
0 0 254
0 0 254
0 0 255
0 0 254
0 0 255
0 0 253
0 0 253
0 0 255
0 0 254
0 0 248
0 0 253
0 0 254
0 0 255
0 0 254
0 0 254
0 0 254
0 0 253
0 0 249
0 0 253
0 0 252
0 0 255
0 0 252
0 0 253
0 0 254
0 0 254
0 0 252
0 0 249
0 0 253
0 0 252
0 0 253
0 0 253
0 0 250
0 0 254
0 0 253
0 0 250
0 0 254
0 0 246
0 0 252
0 0 255
0 0 253
0 0 254
0 0 254
0 0 253
0 0 249
0 0 250
0 0 253
0 0 253
0 0 250
0 0 249
0 0 246
0 0 246
0 0 252
0 0 250
0 0 248
0 0 245
0 0 248
0 0 245
0 0 248
0 0 253
0 0 249
0 0 250
0 0 248
0 0 253
0 0 249
0 0 248
0 0 246
0 0 252
0 0 254
0 0 242
0 0 242
0 0 246
0 0 245
0 0 253
0 0 250
0 0 250
0 0 254
0 0 238
0 0 245
0 0 249
0 0 252
0 0 246
0 0 238
0 0 242
0 0 246
0 0 248
0 0 245
0 0 252
0 0 244
0 0 242
0 0 248
0 0 241
0 0 248
0 0 245
0 0 237
0 0 244
0 0 241
0 0 245
0 0 240
0 0 242
0 0 245
0 0 236
0 0 248
0 0 233
0 0 234
0 0 245
0 0 236
0 0 241
0 0 231
0 0 236
0 0 236
0 0 242
0 0 238
0 0 244
0 0 233
0 0 244
112 125 246
200 223 255
202 225 255
202 225 255
202 225 255
202 225 255
202 225 255
202 225 255
202 225 255
202 225 255
202 225 255
202 225 255
202 225 255
202 225 255
202 225 255
202 225 255
202 225 255
202 225 255
202 225 255
202 225 255
202 225 255
202 225 255
202 225 255
202 225 255
202 225 255
202 225 255
202 225 255
202 225 255
202 225 255
202 225 255
202 225 255
202 225 255
202 225 255
202 225 255
202 225 255
202 225 255
202 225 255
202 225 255
202 225 255
202 225 255
202 225 255
202 225 255
202 225 255
202 225 255
202 225 255
202 225 255
202 225 255
202 225 255
202 225 255
202 225 255
202 225 255
202 225 255
202 225 255
202 225 255
202 225 255
202 225 255
202 225 255
202 225 255
202 225 255
191 110 125
186 0 0
185 0 0
193 0 0
184 0 0
188 0 0
188 0 0
192 0 0
192 0 0
191 0 0
194 0 0
179 0 0
185 0 0
190 0 0
191 0 0
198 0 0
198 0 0
197 0 0
195 0 0
197 0 0
193 0 0
198 0 0
201 0 0
194 0 0
194 0 0
195 0 0
202 0 0
197 0 0
198 0 0
199 0 0
195 0 0
201 0 0
203 0 0
200 0 0
203 0 0
199 0 0
205 0 0
201 0 0
204 0 0
203 0 0
205 0 0
206 0 0
206 0 0
205 0 0
206 0 0
208 0 0
210 0 0
207 0 0
204 0 0
200 0 0
205 0 0
207 0 0
207 0 0
210 0 0
205 0 0
202 0 0
207 0 0
206 0 0
210 0 0
203 0 0
210 0 0
213 0 0
208 0 0
207 0 0
207 0 0
207 0 0
211 0 0
210 0 0
208 0 0
204 0 0
204 0 0
207 0 0
208 0 0
205 0 0
209 0 0
209 0 0
210 0 0
210 0 0
214 0 0
209 0 0
207 0 0
214 0 0
211 0 0
205 0 0
210 0 0
210 0 0
209 0 0
208 0 0
213 0 0
212 0 0
210 0 0
208 0 0
211 0 0
210 0 0
213 0 0
212 0 0
207 0 0
213 0 0
210 0 0
208 0 0
216 0 0
210 0 0
214 0 0
208 0 0
213 0 0
212 0 0
212 0 0
212 0 0
212 0 0
214 0 0
212 0 0
216 0 0
212 0 0
211 0 0
213 0 0
209 0 0
212 0 0
212 0 0
214 0 0
213 0 0
214 0 0
211 0 0
215 0 0
213 0 0
215 0 0
208 0 0
213 0 0
212 0 0
212 0 0
211 0 0
216 0 0
215 0 0
213 0 0
209 0 0
209 0 0
214 0 0
210 0 0
215 0 0
212 0 0
214 0 0
212 0 0
216 0 0
210 0 0
213 0 0
212 0 0
211 0 0
214 0 0
214 0 0
213 0 0
214 0 0
214 0 0
211 0 0
215 0 0
212 0 0
212 0 0
214 0 0
214 0 0
212 0 0
213 0 0
214 0 0
216 0 0
215 0 0
213 0 0
214 0 0
217 0 0
213 0 0
216 0 0
215 0 0
213 0 0
215 0 0
215 0 0
0 0 254
0 0 254
0 0 255
0 0 255
0 0 255
0 0 255
0 0 255
0 0 255
0 0 254
0 0 255
0 0 255
0 0 255
0 0 254
0 0 255
0 0 255
0 0 254
0 0 254
0 0 255
0 0 255
0 0 255
0 0 255
0 0 252
0 0 255
0 0 254
0 0 254
0 0 255
0 0 254
0 0 254
0 0 254
0 0 255
0 0 250
0 0 255
0 0 254
0 0 254
0 0 254
0 0 255
0 0 253
0 0 252
0 0 254
0 0 254
0 0 253
0 0 255
0 0 255
0 0 253
0 0 253
0 0 255
0 0 253
0 0 253
0 0 254
0 0 254
0 0 253
0 0 253
0 0 255
0 0 255
0 0 254
0 0 254
0 0 253
0 0 253
0 0 253
0 0 253
0 0 253
0 0 253
0 0 254
0 0 253
0 0 255
0 0 253
0 0 252
0 0 250
0 0 253
0 0 253
0 0 250
0 0 254
0 0 250
0 0 254
0 0 252
0 0 253
0 0 254
0 0 254
0 0 249
0 0 249
0 0 253
0 0 246
0 0 250
0 0 249
0 0 253
0 0 252
0 0 252
0 0 253
0 0 253
0 0 252
0 0 254
0 0 253
0 0 246
0 0 248
0 0 253
0 0 249
0 0 249
0 0 254
0 0 253
0 0 248
0 0 249
0 0 254
0 0 249
0 0 253
0 0 252
0 0 253
0 0 252
0 0 248
0 0 248
0 0 252
0 0 253
0 0 249
0 0 253
0 0 250
0 0 252
0 0 248
0 0 253
0 0 245
0 0 253
0 0 252
0 0 248
0 0 245
0 0 245
0 0 246
0 0 248
0 0 250
0 0 249
0 0 241
0 0 252
0 0 246
0 0 244
0 0 242
0 0 237
0 0 250
0 0 248
0 0 240
0 0 246
0 0 248
0 0 240
0 0 244
0 0 248
0 0 242
0 0 249
0 0 242
0 0 248
0 0 240
0 0 244
0 0 244
0 0 245
0 0 242
0 0 241
0 0 240
0 0 238
0 0 242
0 0 237
0 0 246
0 0 241
0 0 241
0 0 238
0 0 237
0 0 234
0 0 236
0 0 248
0 0 240
0 0 238
0 0 233
0 0 234
0 0 240
0 0 236
0 0 228
0 0 234
97 108 237
201 223 255
203 225 255
202 225 255
202 225 255
202 225 255
202 225 255
202 225 255
202 225 255
202 225 255
202 225 255
202 225 255
202 225 255
202 225 255
202 225 255
202 225 255
202 225 255
202 225 255
202 225 255
202 225 255
202 225 255
202 225 255
202 225 255
202 225 255
202 225 255
202 225 255
202 225 255
202 225 255
202 225 255
202 225 255
202 225 255
202 225 255
202 225 255
202 225 255
202 225 255
202 225 255
202 225 255
202 225 255
202 225 255
202 225 255
202 225 255
202 225 255
202 225 255
202 225 255
202 225 255
202 225 255
202 225 255
202 225 255
202 225 255
202 225 255
202 225 255
202 225 255
202 225 255
202 225 255
202 225 255
203 225 255
202 223 253
188 125 142
187 0 0
186 0 0
187 0 0
185 0 0
188 0 0
196 0 0
192 0 0
196 0 0
181 0 0
195 0 0
196 0 0
190 0 0
181 0 0
200 0 0
192 0 0
195 0 0
198 0 0
198 0 0
193 0 0
194 0 0
195 0 0
199 0 0
200 0 0
194 0 0
193 0 0
201 0 0
200 0 0
201 0 0
199 0 0
204 0 0
204 0 0
200 0 0
203 0 0
196 0 0
208 0 0
197 0 0
196 0 0
200 0 0
197 0 0
208 0 0
205 0 0
201 0 0
204 0 0
205 0 0
200 0 0
203 0 0
198 0 0
203 0 0
204 0 0
206 0 0
201 0 0
204 0 0
201 0 0
206 0 0
211 0 0
201 0 0
204 0 0
204 0 0
201 0 0
206 0 0
205 0 0
209 0 0
205 0 0
204 0 0
211 0 0
209 0 0
206 0 0
205 0 0
214 0 0
206 0 0
208 0 0
207 0 0
208 0 0
212 0 0
209 0 0
210 0 0
209 0 0
207 0 0
211 0 0
209 0 0
210 0 0
210 0 0
206 0 0
210 0 0
208 0 0
215 0 0
213 0 0
207 0 0
211 0 0
211 0 0
214 0 0
210 0 0
210 0 0
211 0 0
213 0 0
209 0 0
213 0 0
212 0 0
214 0 0
210 0 0
207 0 0
210 0 0
211 0 0
210 0 0
213 0 0
210 0 0
210 0 0
216 0 0
214 0 0
213 0 0
209 0 0
213 0 0
209 0 0
208 0 0
209 0 0
211 0 0
211 0 0
213 0 0
212 0 0
215 0 0
212 0 0
211 0 0
214 0 0
216 0 0
210 0 0
212 0 0
212 0 0
208 0 0
216 0 0
215 0 0
211 0 0
214 0 0
213 0 0
211 0 0
214 0 0
213 0 0
213 0 0
215 0 0
213 0 0
210 0 0
215 0 0
214 0 0
212 0 0
214 0 0
210 0 0
211 0 0
213 0 0
214 0 0
211 0 0
215 0 0
211 0 0
214 0 0
218 0 0
212 0 0
216 0 0
212 0 0
212 0 0
211 0 0
212 0 0
211 0 0
212 0 0
215 0 0
209 0 0
213 0 0
218 0 0
212 0 0
214 0 0
213 0 0
214 0 0
217 0 0
211 0 0
0 0 255
0 0 255
0 0 255
0 0 255
0 0 255
0 0 254
0 0 255
0 0 255
0 0 255
0 0 255
0 0 254
0 0 253
0 0 254
0 0 255
0 0 255
0 0 255
0 0 255
0 0 255
0 0 255
0 0 254
0 0 253
0 0 255
0 0 255
0 0 255
0 0 255
0 0 255
0 0 254
0 0 254
0 0 254
0 0 255
0 0 255
0 0 254
0 0 255
0 0 254
0 0 255
0 0 254
0 0 254
0 0 254
0 0 255
0 0 254
0 0 253
0 0 254
0 0 255
0 0 255
0 0 254
0 0 253
0 0 252
0 0 254
0 0 255
0 0 254
0 0 255
0 0 253
0 0 254
0 0 255
0 0 254
0 0 255
0 0 255
0 0 253
0 0 254
0 0 253
0 0 254
0 0 253
0 0 255
0 0 253
0 0 253
0 0 253
0 0 250
0 0 253
0 0 253
0 0 250
0 0 253
0 0 253
0 0 252
0 0 254
0 0 254
0 0 253
0 0 254
0 0 253
0 0 252
0 0 252
0 0 254
0 0 250
0 0 253
0 0 249
0 0 253
0 0 249
0 0 253
0 0 254
0 0 254
0 0 254
0 0 252
0 0 249
0 0 250
0 0 250
0 0 250
0 0 248
0 0 252
0 0 252
0 0 250
0 0 246
0 0 250
0 0 250
0 0 249
0 0 250
0 0 244
0 0 249
0 0 250
0 0 248
0 0 249
0 0 250
0 0 249
0 0 244
0 0 250
0 0 248
0 0 244
0 0 249
0 0 249
0 0 248
0 0 245
0 0 248
0 0 253
0 0 250
0 0 246
0 0 246
0 0 249
0 0 246
0 0 250
0 0 245
0 0 244
0 0 250
0 0 245
0 0 252
0 0 248
0 0 242
0 0 246
0 0 246
0 0 242
0 0 245
0 0 241
0 0 246
0 0 244
0 0 241
0 0 242
0 0 241
0 0 242
0 0 246
0 0 244
0 0 234
0 0 248
0 0 246
0 0 242
0 0 242
0 0 236
0 0 242
0 0 244
0 0 224
0 0 242
0 0 240
0 0 240
0 0 230
0 0 237
0 0 228
0 0 246
0 0 237
0 0 240
0 0 241
0 0 231
0 0 242
0 0 240
0 0 231
0 0 234
0 0 233
114 127 244
200 222 255
203 225 255
203 225 255
203 225 255
203 225 255
203 225 255
203 225 255
203 225 255
203 225 255
203 225 255
203 225 255
202 225 255
202 225 255
202 225 255
202 225 255
202 225 255
202 225 255
202 225 255
202 225 255
202 225 255
202 225 255
202 225 255
202 225 255
202 225 255
202 225 255
202 225 255
202 225 255
202 225 255
202 225 255
202 225 255
202 225 255
202 225 255
202 225 255
202 225 255
202 225 255
202 225 255
202 225 255
202 225 255
202 225 255
202 225 255
202 225 255
202 225 255
202 225 255
203 225 255
203 225 255
203 225 255
203 225 255
203 225 255
203 225 255
203 225 255
203 225 255
203 225 255
203 225 255
202 223 253
193 117 133
182 0 0
182 0 0
184 0 0
178 0 0
191 0 0
183 0 0
185 0 0
194 0 0
188 0 0
188 0 0
183 0 0
192 0 0
192 0 0
187 0 0
195 0 0
201 0 0
196 0 0
194 0 0
196 0 0
192 0 0
194 0 0
200 0 0
197 0 0
195 0 0
200 0 0
195 0 0
197 0 0
199 0 0
199 0 0
197 0 0
199 0 0
201 0 0
202 0 0
199 0 0
199 0 0
205 0 0
196 0 0
202 0 0
204 0 0
209 0 0
202 0 0
205 0 0
200 0 0
203 0 0
204 0 0
201 0 0
207 0 0
200 0 0
204 0 0
205 0 0
208 0 0
206 0 0
204 0 0
205 0 0
204 0 0
210 0 0
206 0 0
207 0 0
202 0 0
205 0 0
214 0 0
205 0 0
213 0 0
205 0 0
207 0 0
206 0 0
206 0 0
205 0 0
209 0 0
210 0 0
207 0 0
210 0 0
204 0 0
207 0 0
211 0 0
209 0 0
215 0 0
207 0 0
212 0 0
206 0 0
212 0 0
207 0 0
212 0 0
210 0 0
215 0 0
210 0 0
211 0 0
212 0 0
211 0 0
214 0 0
211 0 0
209 0 0
212 0 0
210 0 0
210 0 0
210 0 0
208 0 0
213 0 0
211 0 0
214 0 0
214 0 0
214 0 0
207 0 0
210 0 0
210 0 0
217 0 0
212 0 0
217 0 0
217 0 0
209 0 0
210 0 0
212 0 0
215 0 0
215 0 0
214 0 0
214 0 0
214 0 0
215 0 0
215 0 0
215 0 0
215 0 0
214 0 0
211 0 0
212 0 0
212 0 0
210 0 0
211 0 0
212 0 0
210 0 0
215 0 0
215 0 0
217 0 0
213 0 0
215 0 0
213 0 0
212 0 0
214 0 0
209 0 0
215 0 0
211 0 0
218 0 0
217 0 0
215 0 0
214 0 0
211 0 0
215 0 0
218 0 0
212 0 0
211 0 0
216 0 0
210 0 0
217 0 0
215 0 0
214 0 0
214 0 0
213 0 0
214 0 0
213 0 0
216 0 0
213 0 0
211 0 0
214 0 0
211 0 0
216 0 0
215 0 0
215 0 0
215 0 0
214 0 0
217 0 0
215 0 0
213 0 0
212 0 0
0 0 255
0 0 255
0 0 254
0 0 255
0 0 255
0 0 255
0 0 254
0 0 255
0 0 254
0 0 255
0 0 255
0 0 255
0 0 255
0 0 255
0 0 255
0 0 254
0 0 255
0 0 253
0 0 253
0 0 255
0 0 255
0 0 255
0 0 255
0 0 255
0 0 255
0 0 255
0 0 254
0 0 255
0 0 255
0 0 255
0 0 253
0 0 254
0 0 254
0 0 253
0 0 254
0 0 252
0 0 252
0 0 252
0 0 254
0 0 255
0 0 253
0 0 255
0 0 254
0 0 254
0 0 254
0 0 255
0 0 255
0 0 253
0 0 254
0 0 254
0 0 254
0 0 255
0 0 254
0 0 254
0 0 253
0 0 254
0 0 254
0 0 254
0 0 255
0 0 254
0 0 252
0 0 255
0 0 253
0 0 254
0 0 253
0 0 252
0 0 255
0 0 253
0 0 249
0 0 253
0 0 253
0 0 253
0 0 254
0 0 252
0 0 254
0 0 254
0 0 252
0 0 254
0 0 254
0 0 252
0 0 254
0 0 252
0 0 250
0 0 244
0 0 250
0 0 252
0 0 250
0 0 253
0 0 250
0 0 253
0 0 248
0 0 250
0 0 253
0 0 254
0 0 255
0 0 249
0 0 249
0 0 250
0 0 255
0 0 254
0 0 252
0 0 255
0 0 244
0 0 253
0 0 249
0 0 248
0 0 252
0 0 246
0 0 249
0 0 250
0 0 252
0 0 248
0 0 252
0 0 249
0 0 250
0 0 245
0 0 246
0 0 248
0 0 246
0 0 244
0 0 250
0 0 237
0 0 249
0 0 248
0 0 252
0 0 248
0 0 248
0 0 249
0 0 245
0 0 245
0 0 250
0 0 240
0 0 246
0 0 252
0 0 253
0 0 242
0 0 242
0 0 249
0 0 238
0 0 241
0 0 244
0 0 234
0 0 246
0 0 241
0 0 244
0 0 236
0 0 242
0 0 244
0 0 236
0 0 234
0 0 244
0 0 236
0 0 238
0 0 245
0 0 240
0 0 240
0 0 236
0 0 238
0 0 228
0 0 228
0 0 233
0 0 231
0 0 228
0 0 242
0 0 231
0 0 234
0 0 234
0 0 240
0 0 227
0 0 233
0 0 236
0 0 230
0 0 230
113 125 236
202 224 255
203 225 255
203 225 255
203 225 255
203 225 255
203 225 255
203 225 255
203 225 255
203 225 255
203 225 255
203 225 255
203 225 255
203 225 255
203 225 255
203 225 255
203 225 255
203 225 255
203 225 255
203 225 255
203 225 255
203 225 255
203 225 255
203 225 255
203 225 255
203 225 255
203 225 255
203 225 255
203 225 255
203 225 255
203 225 255
203 225 255
203 225 255
203 225 255
203 225 255
203 225 255
203 225 255
203 225 255
203 225 255
203 225 255
203 225 255
203 225 255
203 225 255
203 225 255
203 225 255
203 225 255
203 225 255
203 225 255
203 225 255
203 225 255
203 225 255
203 225 255
203 225 255
191 135 153
189 0 0
183 0 0
191 0 0
184 0 0
185 0 0
182 0 0
179 0 0
186 0 0
193 0 0
187 0 0
187 0 0
185 0 0
196 0 0
182 0 0
191 0 0
190 0 0
195 0 0
192 0 0
201 0 0
195 0 0
195 0 0
192 0 0
192 0 0
198 0 0
195 0 0
198 0 0
197 0 0
202 0 0
201 0 0
201 0 0
204 0 0
194 0 0
206 0 0
199 0 0
205 0 0
201 0 0
199 0 0
203 0 0
203 0 0
208 0 0
199 0 0
205 0 0
200 0 0
205 0 0
207 0 0
205 0 0
203 0 0
208 0 0
202 0 0
200 0 0
206 0 0
206 0 0
204 0 0
200 0 0
207 0 0
205 0 0
206 0 0
202 0 0
207 0 0
202 0 0
207 0 0
210 0 0
205 0 0
210 0 0
208 0 0
203 0 0
207 0 0
209 0 0
208 0 0
209 0 0
212 0 0
208 0 0
207 0 0
212 0 0
207 0 0
208 0 0
212 0 0
211 0 0
209 0 0
207 0 0
217 0 0
213 0 0
211 0 0
212 0 0
209 0 0
209 0 0
209 0 0
213 0 0
208 0 0
212 0 0
208 0 0
209 0 0
213 0 0
210 0 0
207 0 0
209 0 0
211 0 0
216 0 0
211 0 0
208 0 0
208 0 0
210 0 0
210 0 0
214 0 0
211 0 0
215 0 0
210 0 0
209 0 0
211 0 0
209 0 0
208 0 0
215 0 0
212 0 0
211 0 0
213 0 0
213 0 0
215 0 0
213 0 0
214 0 0
207 0 0
212 0 0
210 0 0
212 0 0
213 0 0
214 0 0
210 0 0
213 0 0
209 0 0
209 0 0
212 0 0
213 0 0
215 0 0
212 0 0
213 0 0
213 0 0
214 0 0
218 0 0
212 0 0
214 0 0
215 0 0
213 0 0
217 0 0
217 0 0
211 0 0
212 0 0
210 0 0
214 0 0
216 0 0
217 0 0
215 0 0
217 0 0
214 0 0
212 0 0
212 0 0
211 0 0
215 0 0
212 0 0
215 0 0
214 0 0
213 0 0
215 0 0
215 0 0
216 0 0
213 0 0
213 0 0
211 0 0
212 0 0
211 0 0
215 0 0
212 0 0
214 0 0
217 0 0
215 0 0
0 0 255
0 0 255
0 0 255
0 0 255
0 0 254
0 0 255
0 0 255
0 0 255
0 0 255
0 0 255
0 0 254
0 0 255
0 0 255
0 0 255
0 0 254
0 0 255
0 0 255
0 0 255
0 0 253
0 0 255
0 0 253
0 0 254
0 0 254
0 0 254
0 0 254
0 0 255
0 0 255
0 0 254
0 0 255
0 0 253
0 0 255
0 0 255
0 0 252
0 0 253
0 0 255
0 0 250
0 0 253
0 0 253
0 0 255
0 0 255
0 0 252
0 0 254
0 0 255
0 0 253
0 0 250
0 0 255
0 0 255
0 0 254
0 0 254
0 0 254
0 0 254
0 0 254
0 0 255
0 0 253
0 0 254
0 0 254
0 0 254
0 0 253
0 0 250
0 0 253
0 0 255
0 0 253
0 0 249
0 0 250
0 0 250
0 0 252
0 0 255
0 0 252
0 0 254
0 0 249
0 0 252
0 0 255
0 0 253
0 0 249
0 0 254
0 0 252
0 0 252
0 0 250
0 0 252
0 0 253
0 0 250
0 0 252
0 0 255
0 0 254
0 0 252
0 0 253
0 0 254
0 0 249
0 0 250
0 0 254
0 0 246
0 0 249
0 0 249
0 0 254
0 0 254
0 0 250
0 0 245
0 0 253
0 0 249
0 0 249
0 0 248
0 0 250
0 0 248
0 0 254
0 0 249
0 0 248
0 0 248
0 0 253
0 0 253
0 0 245
0 0 248
0 0 253
0 0 252
0 0 250
0 0 252
0 0 249
0 0 249
0 0 248
0 0 246
0 0 246
0 0 252
0 0 242
0 0 246
0 0 249
0 0 250
0 0 249
0 0 246
0 0 252
0 0 249
0 0 246
0 0 245
0 0 245
0 0 245
0 0 249
0 0 244
0 0 248
0 0 245
0 0 240
0 0 245
0 0 238
0 0 246
0 0 245
0 0 242
0 0 240
0 0 240
0 0 240
0 0 250
0 0 240
0 0 242
0 0 237
0 0 240
0 0 236
0 0 246
0 0 240
0 0 236
0 0 237
0 0 231
0 0 234
0 0 236
0 0 231
0 0 237
0 0 240
0 0 236
0 0 234
0 0 220
0 0 242
0 0 242
0 0 228
0 0 226
0 0 228
0 0 233
0 0 218
0 0 230
0 0 228
123 137 242
203 226 255
203 226 255
203 226 255
203 226 255
203 226 255
203 225 255
203 225 255
203 225 255
203 225 255
203 225 255
203 225 255
203 225 255
203 225 255
203 225 255
203 225 255
203 225 255
203 225 255
203 225 255
203 225 255
203 225 255
203 225 255
203 225 255
203 225 255
203 225 255
203 225 255
203 225 255
203 225 255
203 225 255
203 225 255
203 225 255
203 225 255
203 225 255
203 225 255
203 225 255
203 225 255
203 225 255
203 225 255
203 225 255
203 225 255
203 225 255
203 225 255
203 225 255
203 225 255
203 225 255
203 225 255
203 226 255
203 226 255
203 226 255
203 226 255
203 226 255
196 154 175
183 0 0
191 0 0
178 0 0
192 0 0
180 0 0
191 0 0
185 0 0
184 0 0
191 0 0
187 0 0
190 0 0
189 0 0
198 0 0
199 0 0
194 0 0
189 0 0
198 0 0
193 0 0
188 0 0
190 0 0
195 0 0
195 0 0
188 0 0
194 0 0
193 0 0
200 0 0
188 0 0
195 0 0
200 0 0
202 0 0
196 0 0
199 0 0
202 0 0
199 0 0
202 0 0
206 0 0
198 0 0
199 0 0
204 0 0
194 0 0
206 0 0
205 0 0
207 0 0
204 0 0
200 0 0
199 0 0
202 0 0
201 0 0
203 0 0
203 0 0
204 0 0
205 0 0
200 0 0
202 0 0
211 0 0
208 0 0
211 0 0
209 0 0
208 0 0
208 0 0
207 0 0
206 0 0
205 0 0
207 0 0
207 0 0
208 0 0
208 0 0
207 0 0
207 0 0
207 0 0
209 0 0
210 0 0
209 0 0
209 0 0
211 0 0
211 0 0
206 0 0
205 0 0
202 0 0
211 0 0
205 0 0
211 0 0
209 0 0
208 0 0
213 0 0
208 0 0
206 0 0
212 0 0
212 0 0
210 0 0
211 0 0
213 0 0
210 0 0
216 0 0
212 0 0
208 0 0
212 0 0
211 0 0
212 0 0
214 0 0
215 0 0
211 0 0
212 0 0
211 0 0
214 0 0
210 0 0
212 0 0
213 0 0
212 0 0
219 0 0
209 0 0
213 0 0
212 0 0
207 0 0
212 0 0
209 0 0
214 0 0
211 0 0
215 0 0
212 0 0
211 0 0
215 0 0
207 0 0
210 0 0
212 0 0
215 0 0
213 0 0
212 0 0
216 0 0
216 0 0
210 0 0
210 0 0
213 0 0
210 0 0
211 0 0
214 0 0
208 0 0
215 0 0
216 0 0
213 0 0
214 0 0
214 0 0
214 0 0
212 0 0
213 0 0
216 0 0
212 0 0
213 0 0
214 0 0
216 0 0
213 0 0
215 0 0
216 0 0
215 0 0
208 0 0
219 0 0
214 0 0
213 0 0
216 0 0
213 0 0
216 0 0
219 0 0
217 0 0
213 0 0
214 0 0
212 0 0
211 0 0
213 0 0
212 0 0
218 0 0
213 0 0
216 0 0
211 0 0
215 0 0
0 0 254
0 0 255
0 0 255
0 0 255
0 0 254
0 0 254
0 0 255
0 0 255
0 0 254
0 0 254
0 0 255
0 0 255
0 0 255
0 0 254
0 0 255
0 0 255
0 0 255
0 0 255
0 0 254
0 0 254
0 0 254
0 0 255
0 0 253
0 0 255
0 0 255
0 0 255
0 0 255
0 0 255
0 0 252
0 0 254
0 0 255
0 0 255
0 0 255
0 0 255
0 0 255
0 0 254
0 0 253
0 0 253
0 0 254
0 0 253
0 0 253
0 0 255
0 0 253
0 0 254
0 0 255
0 0 253
0 0 254
0 0 254
0 0 254
0 0 255
0 0 254
0 0 253
0 0 254
0 0 255
0 0 255
0 0 254
0 0 254
0 0 254
0 0 252
0 0 254
0 0 254
0 0 254
0 0 253
0 0 252
0 0 249
0 0 252
0 0 255
0 0 253
0 0 252
0 0 254
0 0 249
0 0 254
0 0 254
0 0 250
0 0 252
0 0 250
0 0 253
0 0 252
0 0 250
0 0 252
0 0 253
0 0 250
0 0 254
0 0 252
0 0 254
0 0 254
0 0 250
0 0 253
0 0 253
0 0 255
0 0 250
0 0 252
0 0 250
0 0 250
0 0 252
0 0 248
0 0 250
0 0 254
0 0 248
0 0 249
0 0 250
0 0 248
0 0 250
0 0 250
0 0 253
0 0 252
0 0 252
0 0 253
0 0 252
0 0 250
0 0 253
0 0 252
0 0 252
0 0 248
0 0 248
0 0 245
0 0 254
0 0 250
0 0 250
0 0 248
0 0 249
0 0 248
0 0 249
0 0 246
0 0 249
0 0 245
0 0 248
0 0 249
0 0 246
0 0 242
0 0 242
0 0 244
0 0 244
0 0 252
0 0 249
0 0 246
0 0 241
0 0 250
0 0 241
0 0 249
0 0 245
0 0 245
0 0 246
0 0 248
0 0 240
0 0 242
0 0 237
0 0 240
0 0 236
0 0 244
0 0 238
0 0 242
0 0 237
0 0 242
0 0 241
0 0 233
0 0 228
0 0 234
0 0 237
0 0 240
0 0 238
0 0 242
0 0 237
0 0 238
0 0 226
0 0 226
0 0 234
0 0 240
0 0 230
0 0 233
0 0 234
0 0 224
0 0 226
0 0 231
0 0 233
144 159 240
203 226 255
203 226 255
203 226 255
203 226 255
203 226 255
203 226 255
203 226 255
203 226 255
203 226 255
203 226 255
203 226 255
203 226 255
203 226 255
203 226 255
203 226 255
203 226 255
203 226 255
203 226 255
203 226 255
203 226 255
203 226 255
203 226 255
203 226 255
203 226 255
203 226 255
203 226 255
203 226 255
203 226 255
203 226 255
203 226 255
203 226 255
203 226 255
203 226 255
203 226 255
203 226 255
203 226 255
203 226 255
203 226 255
203 226 255
203 226 255
203 226 255
203 226 255
203 226 255
203 226 255
203 226 255
203 226 255
203 226 255
203 226 255
186 158 179
177 0 0
179 0 0
187 0 0
182 0 0
190 0 0
186 0 0
187 0 0
186 0 0
192 0 0
191 0 0
185 0 0
186 0 0
198 0 0
190 0 0
192 0 0
191 0 0
194 0 0
189 0 0
191 0 0
195 0 0
197 0 0
187 0 0
194 0 0
193 0 0
200 0 0
197 0 0
202 0 0
194 0 0
198 0 0
202 0 0
193 0 0
193 0 0
200 0 0
203 0 0
198 0 0
199 0 0
204 0 0
202 0 0
199 0 0
201 0 0
199 0 0
198 0 0
201 0 0
203 0 0
198 0 0
206 0 0
202 0 0
199 0 0
207 0 0
196 0 0
202 0 0
204 0 0
206 0 0
206 0 0
209 0 0
203 0 0
208 0 0
206 0 0
201 0 0
203 0 0
209 0 0
208 0 0
209 0 0
205 0 0
206 0 0
208 0 0
207 0 0
203 0 0
209 0 0
205 0 0
213 0 0
205 0 0
206 0 0
209 0 0
209 0 0
213 0 0
206 0 0
213 0 0
205 0 0
203 0 0
211 0 0
209 0 0
211 0 0
210 0 0
214 0 0
207 0 0
210 0 0
214 0 0
212 0 0
212 0 0
210 0 0
213 0 0
210 0 0
214 0 0
212 0 0
202 0 0
210 0 0
211 0 0
211 0 0
209 0 0
210 0 0
208 0 0
216 0 0
215 0 0
212 0 0
211 0 0
213 0 0
214 0 0
212 0 0
212 0 0
211 0 0
213 0 0
210 0 0
209 0 0
211 0 0
210 0 0
214 0 0
212 0 0
214 0 0
213 0 0
214 0 0
213 0 0
212 0 0
217 0 0
213 0 0
212 0 0
213 0 0
218 0 0
213 0 0
211 0 0
214 0 0
214 0 0
214 0 0
210 0 0
215 0 0
213 0 0
212 0 0
218 0 0
213 0 0
216 0 0
217 0 0
217 0 0
209 0 0
212 0 0
218 0 0
212 0 0
209 0 0
218 0 0
212 0 0
217 0 0
215 0 0
214 0 0
215 0 0
212 0 0
212 0 0
212 0 0
214 0 0
219 0 0
213 0 0
214 0 0
217 0 0
215 0 0
215 0 0
212 0 0
216 0 0
213 0 0
214 0 0
219 0 0
216 0 0
215 0 0
213 0 0
214 0 0
215 0 0
214 0 0
217 0 0
0 0 255
0 0 255
0 0 254
0 0 255
0 0 254
0 0 254
0 0 255
0 0 255
0 0 254
0 0 255
0 0 255
0 0 252
0 0 255
0 0 255
0 0 253
0 0 255
0 0 255
0 0 255
0 0 254
0 0 255
0 0 255
0 0 255
0 0 253
0 0 255
0 0 254
0 0 255
0 0 250
0 0 255
0 0 255
0 0 254
0 0 255
0 0 255
0 0 255
0 0 250
0 0 255
0 0 255
0 0 255
0 0 254
0 0 254
0 0 253
0 0 254
0 0 255
0 0 254
0 0 254
0 0 253
0 0 253
0 0 252
0 0 255
0 0 252
0 0 255
0 0 255
0 0 253
0 0 254
0 0 254
0 0 253
0 0 254
0 0 254
0 0 252
0 0 254
0 0 255
0 0 255
0 0 254
0 0 253
0 0 254
0 0 254
0 0 253
0 0 252
0 0 253
0 0 255
0 0 250
0 0 250
0 0 254
0 0 255
0 0 255
0 0 252
0 0 253
0 0 254
0 0 254
0 0 252
0 0 253
0 0 254
0 0 254
0 0 253
0 0 252
0 0 254
0 0 250
0 0 249
0 0 255
0 0 252
0 0 252
0 0 255
0 0 254
0 0 252
0 0 250
0 0 253
0 0 250
0 0 249
0 0 248
0 0 254
0 0 245
0 0 252
0 0 253
0 0 254
0 0 250
0 0 250
0 0 252
0 0 250
0 0 248
0 0 253
0 0 253
0 0 253
0 0 253
0 0 253
0 0 253
0 0 249
0 0 248
0 0 252
0 0 248
0 0 255
0 0 250
0 0 248
0 0 244
0 0 249
0 0 242
0 0 246
0 0 253
0 0 248
0 0 246
0 0 248
0 0 245
0 0 245
0 0 245
0 0 245
0 0 250
0 0 249
0 0 238
0 0 248
0 0 252
0 0 246
0 0 241
0 0 238
0 0 248
0 0 248
0 0 242
0 0 245
0 0 242
0 0 237
0 0 244
0 0 242
0 0 231
0 0 246
0 0 248
0 0 236
0 0 238
0 0 241
0 0 234
0 0 233
0 0 224
0 0 226
0 0 241
0 0 233
0 0 230
0 0 236
0 0 226
0 0 233
0 0 227
0 0 233
0 0 231
0 0 240
0 0 238
0 0 245
0 0 215
0 0 227
0 0 220
0 0 226
0 0 231
171 190 246
204 226 255
204 226 255
204 226 255
204 226 255
204 226 255
203 226 255
203 226 255
203 226 255
203 226 255
203 226 255
203 226 255
203 226 255
203 226 255
203 226 255
203 226 255
203 226 255
203 226 255
203 226 255
203 226 255
203 226 255
203 226 255
203 226 255
203 226 255
203 226 255
203 226 255
203 226 255
203 226 255
203 226 255
203 226 255
203 226 255
203 226 255
203 226 255
203 226 255
203 226 255
203 226 255
203 226 255
203 226 255
203 226 255
203 226 255
203 226 255
203 226 255
204 226 255
204 226 255
204 226 255
204 226 255
204 226 255
198 190 215
183 0 0
180 0 0
181 0 0
180 0 0
178 0 0
183 0 0
187 0 0
189 0 0
186 0 0
183 0 0
188 0 0
187 0 0
192 0 0
190 0 0
192 0 0
189 0 0
184 0 0
188 0 0
189 0 0
196 0 0
194 0 0
196 0 0
199 0 0
199 0 0
201 0 0
199 0 0
185 0 0
197 0 0
191 0 0
203 0 0
190 0 0
205 0 0
197 0 0
202 0 0
192 0 0
194 0 0
197 0 0
191 0 0
199 0 0
206 0 0
203 0 0
202 0 0
199 0 0
198 0 0
203 0 0
201 0 0
202 0 0
206 0 0
205 0 0
202 0 0
204 0 0
196 0 0
207 0 0
203 0 0
206 0 0
208 0 0
207 0 0
207 0 0
203 0 0
207 0 0
202 0 0
210 0 0
213 0 0
203 0 0
208 0 0
206 0 0
208 0 0
211 0 0
207 0 0
205 0 0
208 0 0
205 0 0
208 0 0
208 0 0
213 0 0
213 0 0
211 0 0
216 0 0
209 0 0
206 0 0
210 0 0
207 0 0
213 0 0
209 0 0
207 0 0
208 0 0
214 0 0
212 0 0
212 0 0
213 0 0
211 0 0
214 0 0
212 0 0
209 0 0
211 0 0
204 0 0
206 0 0
209 0 0
211 0 0
213 0 0
211 0 0
210 0 0
210 0 0
212 0 0
213 0 0
212 0 0
208 0 0
214 0 0
210 0 0
212 0 0
209 0 0
210 0 0
210 0 0
214 0 0
214 0 0
208 0 0
208 0 0
213 0 0
211 0 0
215 0 0
212 0 0
212 0 0
214 0 0
214 0 0
213 0 0
212 0 0
217 0 0
211 0 0
213 0 0
218 0 0
215 0 0
211 0 0
216 0 0
214 0 0
213 0 0
215 0 0
212 0 0
216 0 0
214 0 0
213 0 0
214 0 0
212 0 0
219 0 0
212 0 0
214 0 0
219 0 0
218 0 0
215 0 0
214 0 0
214 0 0
212 0 0
215 0 0
217 0 0
213 0 0
209 0 0
216 0 0
215 0 0
215 0 0
218 0 0
213 0 0
214 0 0
215 0 0
215 0 0
216 0 0
215 0 0
217 0 0
213 0 0
212 0 0
217 0 0
213 0 0
216 0 0
214 0 0
213 0 0
215 0 0
215 0 0
216 0 0
0 0 254
0 0 255
0 0 255
0 0 255
0 0 254
0 0 254
0 0 254
0 0 254
0 0 255
0 0 255
0 0 255
0 0 255
0 0 254
0 0 255
0 0 254
0 0 254
0 0 255
0 0 255
0 0 254
0 0 255
0 0 255
0 0 255
0 0 255
0 0 250
0 0 255
0 0 255
0 0 252
0 0 255
0 0 255
0 0 254
0 0 254
0 0 255
0 0 254
0 0 255
0 0 253
0 0 252
0 0 255
0 0 253
0 0 255
0 0 255
0 0 252
0 0 255
0 0 254
0 0 254
0 0 255
0 0 253
0 0 254
0 0 254
0 0 253
0 0 255
0 0 255
0 0 255
0 0 254
0 0 254
0 0 254
0 0 255
0 0 255
0 0 250
0 0 250
0 0 252
0 0 254
0 0 253
0 0 255
0 0 253
0 0 253
0 0 246
0 0 253
0 0 253
0 0 252
0 0 252
0 0 253
0 0 255
0 0 253
0 0 254
0 0 252
0 0 252
0 0 254
0 0 252
0 0 255
0 0 252
0 0 255
0 0 250
0 0 252
0 0 253
0 0 246
0 0 252
0 0 253
0 0 252
0 0 252
0 0 253
0 0 252
0 0 252
0 0 254
0 0 254
0 0 253
0 0 253
0 0 246
0 0 254
0 0 246
0 0 252
0 0 249
0 0 249
0 0 252
0 0 254
0 0 252
0 0 248
0 0 249
0 0 252
0 0 244
0 0 250
0 0 250
0 0 242
0 0 248
0 0 246
0 0 252
0 0 248
0 0 245
0 0 252
0 0 250
0 0 245
0 0 248
0 0 245
0 0 252
0 0 245
0 0 249
0 0 249
0 0 244
0 0 241
0 0 242
0 0 245
0 0 245
0 0 246
0 0 249
0 0 250
0 0 246
0 0 246
0 0 241
0 0 240
0 0 241
0 0 242
0 0 249
0 0 236
0 0 241
0 0 237
0 0 244
0 0 252
0 0 234
0 0 242
0 0 238
0 0 238
0 0 234
0 0 244
0 0 237
0 0 236
0 0 245
0 0 242
0 0 233
0 0 234
0 0 230
0 0 224
0 0 234
0 0 234
0 0 231
0 0 230
0 0 231
0 0 230
0 0 223
0 0 237
0 0 231
0 0 221
0 0 234
0 0 227
0 0 237
0 0 228
0 0 231
0 0 238
35 39 221
167 185 252
204 226 255
204 226 255
204 226 255
204 226 255
204 226 255
204 226 255
204 226 255
204 226 255
204 226 255
204 226 255
204 226 255
204 226 255
204 226 255
204 226 255
204 226 255
204 226 255
204 226 255
204 226 255
204 226 255
204 226 255
204 226 255
204 226 255
204 226 255
204 226 255
204 226 255
204 226 255
204 226 255
204 226 255
204 226 255
204 226 255
204 226 255
204 226 255
204 226 255
204 226 255
204 226 255
204 226 255
204 226 255
204 226 255
204 226 255
204 226 255
204 226 255
204 226 255
204 226 255
204 226 255
200 198 224
174 32 36
170 0 0
169 0 0
176 0 0
188 0 0
183 0 0
188 0 0
190 0 0
187 0 0
187 0 0
194 0 0
192 0 0
187 0 0
192 0 0
190 0 0
188 0 0
189 0 0
189 0 0
191 0 0
193 0 0
197 0 0
198 0 0
190 0 0
189 0 0
195 0 0
188 0 0
190 0 0
198 0 0
198 0 0
197 0 0
194 0 0
195 0 0
200 0 0
194 0 0
200 0 0
193 0 0
199 0 0
203 0 0
203 0 0
200 0 0
198 0 0
201 0 0
198 0 0
202 0 0
201 0 0
205 0 0
202 0 0
204 0 0
205 0 0
206 0 0
210 0 0
199 0 0
203 0 0
212 0 0
206 0 0
201 0 0
210 0 0
211 0 0
209 0 0
213 0 0
205 0 0
210 0 0
202 0 0
211 0 0
204 0 0
208 0 0
205 0 0
206 0 0
209 0 0
209 0 0
206 0 0
210 0 0
212 0 0
205 0 0
209 0 0
211 0 0
207 0 0
209 0 0
209 0 0
209 0 0
210 0 0
212 0 0
214 0 0
211 0 0
207 0 0
213 0 0
211 0 0
212 0 0
213 0 0
207 0 0
211 0 0
210 0 0
214 0 0
211 0 0
208 0 0
211 0 0
213 0 0
209 0 0
212 0 0
211 0 0
210 0 0
208 0 0
212 0 0
211 0 0
214 0 0
211 0 0
208 0 0
214 0 0
206 0 0
208 0 0
214 0 0
210 0 0
211 0 0
208 0 0
217 0 0
215 0 0
212 0 0
215 0 0
213 0 0
213 0 0
212 0 0
218 0 0
215 0 0
212 0 0
212 0 0
215 0 0
212 0 0
216 0 0
211 0 0
214 0 0
215 0 0
215 0 0
214 0 0
212 0 0
213 0 0
211 0 0
213 0 0
212 0 0
213 0 0
215 0 0
216 0 0
215 0 0
216 0 0
210 0 0
214 0 0
212 0 0
214 0 0
215 0 0
212 0 0
213 0 0
213 0 0
215 0 0
215 0 0
213 0 0
213 0 0
217 0 0
215 0 0
213 0 0
213 0 0
213 0 0
213 0 0
215 0 0
217 0 0
211 0 0
215 0 0
211 0 0
213 0 0
215 0 0
213 0 0
214 0 0
217 0 0
217 0 0
216 0 0
216 0 0
210 0 0
214 0 0
215 0 0
0 0 255
0 0 253
0 0 255
0 0 255
0 0 255
0 0 255
0 0 255
0 0 255
0 0 254
0 0 255
0 0 255
0 0 254
0 0 255
0 0 254
0 0 253
0 0 254
0 0 254
0 0 255
0 0 255
0 0 252
0 0 253
0 0 252
0 0 255
0 0 254
0 0 254
0 0 255
0 0 255
0 0 255
0 0 253
0 0 253
0 0 253
0 0 253
0 0 254
0 0 255
0 0 253
0 0 255
0 0 255
0 0 253
0 0 254
0 0 254
0 0 255
0 0 254
0 0 255
0 0 254
0 0 253
0 0 254
0 0 254
0 0 254
0 0 255
0 0 255
0 0 254
0 0 255
0 0 254
0 0 253
0 0 254
0 0 254
0 0 255
0 0 254
0 0 254
0 0 254
0 0 254
0 0 253
0 0 254
0 0 250
0 0 252
0 0 254
0 0 253
0 0 255
0 0 250
0 0 253
0 0 253
0 0 253
0 0 255
0 0 254
0 0 254
0 0 254
0 0 250
0 0 253
0 0 252
0 0 254
0 0 252
0 0 254
0 0 253
0 0 253
0 0 254
0 0 253
0 0 253
0 0 252
0 0 250
0 0 241
0 0 252
0 0 252
0 0 249
0 0 249
0 0 245
0 0 254
0 0 249
0 0 248
0 0 250
0 0 250
0 0 255
0 0 253
0 0 253
0 0 246
0 0 245
0 0 250
0 0 253
0 0 250
0 0 245
0 0 254
0 0 242
0 0 249
0 0 253
0 0 250
0 0 246
0 0 245
0 0 248
0 0 248
0 0 246
0 0 246
0 0 245
0 0 242
0 0 249
0 0 246
0 0 246
0 0 252
0 0 249
0 0 244
0 0 240
0 0 246
0 0 233
0 0 245
0 0 248
0 0 238
0 0 241
0 0 245
0 0 245
0 0 242
0 0 244
0 0 236
0 0 248
0 0 248
0 0 241
0 0 244
0 0 245
0 0 237
0 0 234
0 0 244
0 0 244
0 0 246
0 0 241
0 0 244
0 0 248
0 0 231
0 0 237
0 0 233
0 0 233
0 0 237
0 0 244
0 0 231
0 0 233
0 0 234
0 0 237
0 0 240
0 0 236
0 0 233
0 0 236
0 0 233
0 0 228
0 0 230
0 0 236
0 0 227
0 0 233
0 0 231
0 0 221
0 0 215
0 0 226
57 64 224
196 217 252
204 226 255
204 226 255
204 226 255
204 226 255
204 226 255
204 226 255
204 226 255
204 226 255
204 226 255
204 226 255
204 226 255
204 226 255
204 226 255
204 226 255
204 226 255
204 226 255
204 226 255
204 226 255
204 226 255
204 226 255
204 226 255
204 226 255
204 226 255
204 226 255
204 226 255
204 226 255
204 226 255
204 226 255
204 226 255
204 226 255
204 226 255
204 226 255
204 226 255
204 226 255
204 226 255
204 226 255
204 226 255
204 226 255
204 226 255
204 226 255
204 226 255
204 226 255
198 206 233
187 67 76
166 0 0
175 0 0
180 0 0
183 0 0
182 0 0
189 0 0
180 0 0
176 0 0
185 0 0
183 0 0
188 0 0
193 0 0
187 0 0
194 0 0
182 0 0
184 0 0
194 0 0
182 0 0
188 0 0
197 0 0
185 0 0
200 0 0
195 0 0
195 0 0
193 0 0
197 0 0
194 0 0
192 0 0
194 0 0
187 0 0
201 0 0
194 0 0
191 0 0
194 0 0
206 0 0
203 0 0
200 0 0
201 0 0
202 0 0
200 0 0
198 0 0
196 0 0
203 0 0
208 0 0
197 0 0
206 0 0
204 0 0
195 0 0
200 0 0
205 0 0
211 0 0
208 0 0
203 0 0
204 0 0
209 0 0
208 0 0
203 0 0
214 0 0
208 0 0
204 0 0
201 0 0
208 0 0
206 0 0
211 0 0
206 0 0
210 0 0
203 0 0
209 0 0
208 0 0
209 0 0
211 0 0
208 0 0
213 0 0
207 0 0
207 0 0
210 0 0
213 0 0
210 0 0
211 0 0
212 0 0
210 0 0
210 0 0
208 0 0
213 0 0
213 0 0
209 0 0
211 0 0
210 0 0
208 0 0
212 0 0
208 0 0
211 0 0
211 0 0
206 0 0
211 0 0
207 0 0
215 0 0
214 0 0
212 0 0
212 0 0
211 0 0
213 0 0
212 0 0
212 0 0
211 0 0
211 0 0
215 0 0
213 0 0
210 0 0
216 0 0
211 0 0
211 0 0
210 0 0
215 0 0
213 0 0
217 0 0
211 0 0
208 0 0
213 0 0
213 0 0
208 0 0
209 0 0
210 0 0
219 0 0
215 0 0
212 0 0
215 0 0
212 0 0
214 0 0
208 0 0
213 0 0
216 0 0
216 0 0
213 0 0
214 0 0
211 0 0
218 0 0
212 0 0
211 0 0
214 0 0
215 0 0
214 0 0
215 0 0
216 0 0
211 0 0
214 0 0
217 0 0
209 0 0
213 0 0
215 0 0
214 0 0
214 0 0
216 0 0
216 0 0
213 0 0
218 0 0
211 0 0
214 0 0
217 0 0
215 0 0
216 0 0
211 0 0
215 0 0
214 0 0
213 0 0
215 0 0
217 0 0
218 0 0
216 0 0
215 0 0
214 0 0
215 0 0
214 0 0
215 0 0
217 0 0
217 0 0
219 0 0
0 0 255
0 0 254
0 0 255
0 0 255
0 0 255
0 0 255
0 0 254
0 0 255
0 0 255
0 0 255
0 0 255
0 0 255
0 0 255
0 0 254
0 0 255
0 0 255
0 0 255
0 0 255
0 0 255
0 0 255
0 0 255
0 0 255
0 0 254
0 0 255
0 0 254
0 0 254
0 0 254
0 0 255
0 0 254
0 0 254
0 0 254
0 0 254
0 0 255
0 0 255
0 0 254
0 0 254
0 0 253
0 0 255
0 0 254
0 0 254
0 0 255
0 0 254
0 0 252
0 0 252
0 0 255
0 0 255
0 0 255
0 0 255
0 0 253
0 0 255
0 0 255
0 0 254
0 0 253
0 0 252
0 0 254
0 0 250
0 0 254
0 0 254
0 0 254
0 0 255
0 0 254
0 0 254
0 0 250
0 0 252
0 0 248
0 0 255
0 0 250
0 0 252
0 0 254
0 0 250
0 0 255
0 0 254
0 0 253
0 0 254
0 0 253
0 0 254
0 0 253
0 0 253
0 0 252
0 0 250
0 0 254
0 0 249
0 0 252
0 0 250
0 0 253
0 0 253
0 0 255
0 0 255
0 0 252
0 0 250
0 0 253
0 0 250
0 0 249
0 0 245
0 0 252
0 0 249
0 0 252
0 0 254
0 0 252
0 0 254
0 0 253
0 0 250
0 0 250
0 0 246
0 0 250
0 0 248
0 0 249
0 0 250
0 0 250
0 0 248
0 0 249
0 0 249
0 0 248
0 0 255
0 0 250
0 0 250
0 0 252
0 0 250
0 0 244
0 0 250
0 0 248
0 0 253
0 0 240
0 0 246
0 0 250
0 0 245
0 0 244
0 0 236
0 0 244
0 0 245
0 0 242
0 0 248
0 0 250
0 0 248
0 0 246
0 0 248
0 0 240
0 0 244
0 0 249
0 0 240
0 0 245
0 0 241
0 0 245
0 0 245
0 0 241
0 0 246
0 0 240
0 0 248
0 0 241
0 0 234
0 0 228
0 0 233
0 0 241
0 0 240
0 0 246
0 0 237
0 0 223
0 0 240
0 0 228
0 0 226
0 0 236
0 0 228
0 0 227
0 0 233
0 0 231
0 0 236
0 0 233
0 0 231
0 0 224
0 0 230
0 0 230
0 0 231
0 0 228
0 0 233
0 0 214
0 0 220
0 0 226
0 0 218
64 71 221
201 223 254
204 226 255
204 226 255
204 226 255
204 226 255
204 226 255
204 226 255
204 226 255
204 226 255
204 226 255
204 226 255
204 226 255
204 226 255
204 226 255
204 226 255
204 226 255
204 226 255
204 226 255
204 226 255
204 226 255
204 226 255
204 226 255
204 226 255
204 226 255
204 226 255
204 226 255
204 226 255
204 226 255
204 226 255
204 226 255
204 226 255
204 226 255
204 226 255
204 226 255
204 226 255
204 226 255
204 226 255
204 226 255
204 226 255
204 226 255
204 226 255
204 217 245
178 75 84
176 0 0
188 0 0
185 0 0
179 0 0
177 0 0
188 0 0
182 0 0
178 0 0
186 0 0
182 0 0
183 0 0
188 0 0
189 0 0
176 0 0
183 0 0
195 0 0
191 0 0
190 0 0
188 0 0
189 0 0
197 0 0
189 0 0
192 0 0
194 0 0
198 0 0
200 0 0
193 0 0
199 0 0
202 0 0
198 0 0
194 0 0
200 0 0
203 0 0
193 0 0
200 0 0
194 0 0
199 0 0
201 0 0
200 0 0
202 0 0
204 0 0
203 0 0
210 0 0
203 0 0
206 0 0
200 0 0
195 0 0
202 0 0
205 0 0
202 0 0
206 0 0
208 0 0
208 0 0
212 0 0
205 0 0
203 0 0
203 0 0
206 0 0
207 0 0
206 0 0
207 0 0
204 0 0
210 0 0
210 0 0
207 0 0
204 0 0
209 0 0
204 0 0
206 0 0
207 0 0
209 0 0
214 0 0
209 0 0
207 0 0
211 0 0
211 0 0
210 0 0
214 0 0
215 0 0
209 0 0
207 0 0
211 0 0
210 0 0
209 0 0
211 0 0
212 0 0
213 0 0
213 0 0
210 0 0
212 0 0
210 0 0
212 0 0
210 0 0
210 0 0
210 0 0
207 0 0
211 0 0
212 0 0
210 0 0
208 0 0
215 0 0
212 0 0
214 0 0
208 0 0
212 0 0
210 0 0
210 0 0
210 0 0
208 0 0
217 0 0
211 0 0
211 0 0
216 0 0
209 0 0
211 0 0
214 0 0
212 0 0
213 0 0
214 0 0
216 0 0
214 0 0
215 0 0
216 0 0
209 0 0
214 0 0
210 0 0
216 0 0
211 0 0
213 0 0
215 0 0
212 0 0
215 0 0
214 0 0
214 0 0
213 0 0
214 0 0
212 0 0
214 0 0
213 0 0
218 0 0
215 0 0
215 0 0
211 0 0
213 0 0
214 0 0
214 0 0
215 0 0
216 0 0
217 0 0
212 0 0
215 0 0
216 0 0
215 0 0
213 0 0
212 0 0
217 0 0
216 0 0
219 0 0
216 0 0
214 0 0
212 0 0
214 0 0
214 0 0
211 0 0
217 0 0
216 0 0
213 0 0
214 0 0
217 0 0
216 0 0
215 0 0
219 0 0
214 0 0
219 0 0
214 0 0
220 0 0
217 0 0
216 0 0
0 0 254
0 0 255
0 0 255
0 0 255
0 0 255
0 0 254
0 0 254
0 0 255
0 0 255
0 0 254
0 0 255
0 0 255
0 0 255
0 0 255
0 0 255
0 0 254
0 0 255
0 0 254
0 0 254
0 0 255
0 0 252
0 0 255
0 0 254
0 0 255
0 0 255
0 0 255
0 0 254
0 0 255
0 0 253
0 0 254
0 0 254
0 0 255
0 0 255
0 0 254
0 0 254
0 0 255
0 0 255
0 0 250
0 0 253
0 0 255
0 0 255
0 0 254
0 0 253
0 0 255
0 0 253
0 0 255
0 0 254
0 0 254
0 0 252
0 0 253
0 0 252
0 0 253
0 0 254
0 0 252
0 0 254
0 0 253
0 0 254
0 0 255
0 0 253
0 0 252
0 0 254
0 0 254
0 0 248
0 0 254
0 0 252
0 0 253
0 0 250
0 0 254
0 0 250
0 0 254
0 0 253
0 0 252
0 0 252
0 0 254
0 0 253
0 0 250
0 0 254
0 0 253
0 0 253
0 0 254
0 0 254
0 0 253
0 0 255
0 0 254
0 0 253
0 0 250
0 0 252
0 0 254
0 0 249
0 0 255
0 0 253
0 0 253
0 0 253
0 0 252
0 0 252
0 0 250
0 0 249
0 0 255
0 0 253
0 0 249
0 0 252
0 0 250
0 0 252
0 0 249
0 0 248
0 0 242
0 0 250
0 0 252
0 0 236
0 0 249
0 0 244
0 0 249
0 0 253
0 0 249
0 0 242
0 0 254
0 0 246
0 0 253
0 0 252
0 0 253
0 0 246
0 0 249
0 0 248
0 0 249
0 0 244
0 0 246
0 0 249
0 0 250
0 0 248
0 0 246
0 0 248
0 0 246
0 0 249
0 0 242
0 0 246
0 0 242
0 0 248
0 0 241
0 0 234
0 0 245
0 0 246
0 0 245
0 0 249
0 0 236
0 0 236
0 0 240
0 0 241
0 0 242
0 0 237
0 0 241
0 0 245
0 0 238
0 0 236
0 0 234
0 0 237
0 0 241
0 0 242
0 0 240
0 0 242
0 0 236
0 0 244
0 0 237
0 0 236
0 0 236
0 0 246
0 0 237
0 0 215
0 0 221
0 0 234
0 0 221
0 0 226
0 0 226
0 0 226
0 0 220
0 0 218
0 0 236
0 0 224
0 0 201
0 0 227
124 137 230
205 226 255
205 226 255
205 226 255
204 226 255
204 226 255
204 226 255
204 226 255
204 226 255
204 226 255
204 226 255
204 226 255
204 226 255
204 226 255
204 226 255
204 226 255
204 226 255
204 226 255
204 226 255
204 226 255
204 226 255
204 226 255
204 226 255
204 226 255
204 226 255
204 226 255
204 226 255
204 226 255
204 226 255
204 226 255
204 226 255
204 226 255
204 226 255
204 226 255
204 226 255
204 226 255
204 226 255
204 226 255
204 226 255
205 226 255
205 226 255
186 132 149
179 0 0
164 0 0
184 0 0
185 0 0
183 0 0
177 0 0
180 0 0
180 0 0
186 0 0
187 0 0
186 0 0
188 0 0
185 0 0
185 0 0
185 0 0
188 0 0
200 0 0
185 0 0
200 0 0
193 0 0
191 0 0
205 0 0
192 0 0
196 0 0
196 0 0
187 0 0
198 0 0
195 0 0
194 0 0
197 0 0
199 0 0
192 0 0
204 0 0
207 0 0
201 0 0
206 0 0
206 0 0
199 0 0
200 0 0
196 0 0
204 0 0
211 0 0
199 0 0
198 0 0
205 0 0
204 0 0
202 0 0
198 0 0
202 0 0
210 0 0
204 0 0
205 0 0
200 0 0
207 0 0
202 0 0
201 0 0
207 0 0
210 0 0
203 0 0
203 0 0
206 0 0
210 0 0
203 0 0
206 0 0
204 0 0
208 0 0
208 0 0
213 0 0
210 0 0
209 0 0
209 0 0
213 0 0
206 0 0
203 0 0
207 0 0
205 0 0
204 0 0
216 0 0
206 0 0
213 0 0
210 0 0
213 0 0
213 0 0
207 0 0
213 0 0
208 0 0
204 0 0
213 0 0
209 0 0
211 0 0
214 0 0
212 0 0
217 0 0
205 0 0
215 0 0
211 0 0
212 0 0
211 0 0
209 0 0
208 0 0
208 0 0
214 0 0
214 0 0
211 0 0
214 0 0
217 0 0
215 0 0
208 0 0
213 0 0
214 0 0
211 0 0
209 0 0
214 0 0
215 0 0
212 0 0
214 0 0
213 0 0
210 0 0
210 0 0
210 0 0
215 0 0
214 0 0
214 0 0
216 0 0
212 0 0
212 0 0
214 0 0
209 0 0
213 0 0
214 0 0
212 0 0
213 0 0
214 0 0
215 0 0
212 0 0
218 0 0
215 0 0
216 0 0
218 0 0
214 0 0
216 0 0
213 0 0
218 0 0
218 0 0
216 0 0
213 0 0
216 0 0
212 0 0
212 0 0
214 0 0
213 0 0
213 0 0
215 0 0
212 0 0
211 0 0
211 0 0
212 0 0
215 0 0
213 0 0
214 0 0
217 0 0
214 0 0
218 0 0
218 0 0
217 0 0
217 0 0
210 0 0
217 0 0
217 0 0
216 0 0
216 0 0
212 0 0
217 0 0
216 0 0
217 0 0
215 0 0
219 0 0
214 0 0
214 0 0
0 0 255
0 0 255
0 0 254
0 0 255
0 0 255
0 0 254
0 0 255
0 0 255
0 0 254
0 0 255
0 0 254
0 0 255
0 0 255
0 0 255
0 0 255
0 0 255
0 0 255
0 0 255
0 0 255
0 0 255
0 0 253
0 0 253
0 0 255
0 0 255
0 0 253
0 0 254
0 0 254
0 0 254
0 0 254
0 0 254
0 0 254
0 0 255
0 0 255
0 0 254
0 0 255
0 0 255
0 0 253
0 0 255
0 0 254
0 0 253
0 0 255
0 0 253
0 0 252
0 0 254
0 0 254
0 0 255
0 0 255
0 0 252
0 0 255
0 0 253
0 0 252
0 0 253
0 0 252
0 0 255
0 0 254
0 0 253
0 0 255
0 0 254
0 0 255
0 0 253
0 0 254
0 0 254
0 0 250
0 0 253
0 0 253
0 0 254
0 0 250
0 0 254
0 0 255
0 0 254
0 0 253
0 0 255
0 0 250
0 0 253
0 0 254
0 0 254
0 0 250
0 0 252
0 0 252
0 0 254
0 0 253
0 0 253
0 0 253
0 0 252
0 0 252
0 0 252
0 0 253
0 0 250
0 0 249
0 0 249
0 0 253
0 0 249
0 0 253
0 0 246
0 0 253
0 0 245
0 0 252
0 0 253
0 0 244
0 0 255
0 0 248
0 0 246
0 0 253
0 0 248
0 0 254
0 0 249
0 0 250
0 0 249
0 0 250
0 0 250
0 0 242
0 0 255
0 0 250
0 0 242
0 0 246
0 0 249
0 0 252
0 0 246
0 0 250
0 0 248
0 0 252
0 0 241
0 0 242
0 0 246
0 0 249
0 0 249
0 0 250
0 0 244
0 0 242
0 0 250
0 0 241
0 0 241
0 0 246
0 0 249
0 0 250
0 0 238
0 0 244
0 0 246
0 0 249
0 0 240
0 0 248
0 0 248
0 0 244
0 0 244
0 0 238
0 0 242
0 0 249
0 0 237
0 0 240
0 0 242
0 0 241
0 0 233
0 0 238
0 0 238
0 0 236
0 0 228
0 0 236
0 0 245
0 0 237
0 0 227
0 0 237
0 0 241
0 0 234
0 0 236
0 0 236
0 0 242
0 0 234
0 0 237
0 0 227
0 0 227
0 0 226
0 0 218
0 0 221
0 0 215
0 0 218
0 0 227
0 0 231
0 0 223
0 0 220
0 0 227
156 172 234
205 226 255
205 226 255
205 226 255
205 226 255
205 226 255
205 226 255
205 226 255
205 226 255
205 226 255
205 226 255
205 226 255
205 226 255
205 226 255
205 226 255
205 226 255
205 226 255
205 226 255
205 226 255
205 226 255
205 226 255
205 226 255
205 226 255
205 226 255
205 226 255
205 226 255
205 226 255
205 226 255
205 226 255
205 226 255
205 226 255
205 226 255
205 226 255
205 226 255
205 226 255
205 226 255
205 226 255
205 226 255
205 226 255
193 163 184
172 0 0
183 0 0
179 0 0
180 0 0
182 0 0
171 0 0
191 0 0
178 0 0
172 0 0
183 0 0
186 0 0
191 0 0
185 0 0
187 0 0
195 0 0
191 0 0
186 0 0
195 0 0
181 0 0
192 0 0
193 0 0
189 0 0
194 0 0
184 0 0
194 0 0
181 0 0
191 0 0
193 0 0
192 0 0
196 0 0
197 0 0
198 0 0
198 0 0
208 0 0
201 0 0
202 0 0
193 0 0
200 0 0
205 0 0
197 0 0
207 0 0
197 0 0
202 0 0
202 0 0
195 0 0
204 0 0
202 0 0
197 0 0
209 0 0
203 0 0
204 0 0
208 0 0
203 0 0
202 0 0
206 0 0
206 0 0
207 0 0
213 0 0
215 0 0
200 0 0
205 0 0
211 0 0
210 0 0
203 0 0
204 0 0
206 0 0
204 0 0
207 0 0
205 0 0
211 0 0
210 0 0
207 0 0
214 0 0
204 0 0
212 0 0
210 0 0
213 0 0
207 0 0
209 0 0
205 0 0
204 0 0
211 0 0
210 0 0
216 0 0
213 0 0
212 0 0
211 0 0
213 0 0
206 0 0
216 0 0
209 0 0
212 0 0
207 0 0
212 0 0
212 0 0
215 0 0
212 0 0
207 0 0
211 0 0
209 0 0
215 0 0
209 0 0
212 0 0
212 0 0
211 0 0
216 0 0
216 0 0
212 0 0
212 0 0
211 0 0
214 0 0
214 0 0
214 0 0
212 0 0
215 0 0
211 0 0
208 0 0
213 0 0
214 0 0
213 0 0
212 0 0
213 0 0
216 0 0
212 0 0
214 0 0
215 0 0
210 0 0
217 0 0
212 0 0
217 0 0
214 0 0
215 0 0
214 0 0
212 0 0
214 0 0
215 0 0
216 0 0
217 0 0
219 0 0
218 0 0
217 0 0
217 0 0
217 0 0
217 0 0
214 0 0
214 0 0
219 0 0
216 0 0
214 0 0
213 0 0
216 0 0
212 0 0
213 0 0
216 0 0
213 0 0
213 0 0
214 0 0
215 0 0
215 0 0
211 0 0
212 0 0
215 0 0
216 0 0
215 0 0
214 0 0
213 0 0
215 0 0
215 0 0
214 0 0
213 0 0
214 0 0
217 0 0
212 0 0
216 0 0
215 0 0
218 0 0
212 0 0
214 0 0
214 0 0
214 0 0
0 0 255
0 0 255
0 0 255
0 0 255
0 0 253
0 0 254
0 0 255
0 0 255
0 0 254
0 0 254
0 0 255
0 0 254
0 0 255
0 0 255
0 0 254
0 0 254
0 0 255
0 0 255
0 0 254
0 0 253
0 0 255
0 0 255
0 0 254
0 0 254
0 0 255
0 0 255
0 0 254
0 0 255
0 0 254
0 0 254
0 0 252
0 0 254
0 0 255
0 0 254
0 0 254
0 0 255
0 0 253
0 0 254
0 0 254
0 0 255
0 0 254
0 0 255
0 0 255
0 0 253
0 0 255
0 0 254
0 0 254
0 0 254
0 0 254
0 0 252
0 0 254
0 0 253
0 0 254
0 0 252
0 0 253
0 0 254
0 0 254
0 0 253
0 0 248
0 0 255
0 0 253
0 0 254
0 0 250
0 0 253
0 0 254
0 0 255
0 0 253
0 0 252
0 0 252
0 0 252
0 0 253
0 0 254
0 0 255
0 0 252
0 0 254
0 0 254
0 0 252
0 0 255
0 0 252
0 0 254
0 0 249
0 0 250
0 0 252
0 0 253
0 0 253
0 0 254
0 0 253
0 0 253
0 0 248
0 0 252
0 0 249
0 0 254
0 0 250
0 0 252
0 0 253
0 0 252
0 0 253
0 0 254
0 0 249
0 0 250
0 0 250
0 0 245
0 0 252
0 0 246
0 0 254
0 0 244
0 0 250
0 0 249
0 0 253
0 0 254
0 0 246
0 0 250
0 0 254
0 0 245
0 0 246
0 0 249
0 0 252
0 0 241
0 0 248
0 0 245
0 0 249
0 0 244
0 0 249
0 0 248
0 0 249
0 0 245
0 0 250
0 0 246
0 0 252
0 0 242
0 0 250
0 0 249
0 0 241
0 0 249
0 0 246
0 0 242
0 0 238
0 0 250
0 0 250
0 0 242
0 0 238
0 0 234
0 0 244
0 0 240
0 0 237
0 0 244
0 0 242
0 0 245
0 0 246
0 0 246
0 0 244
0 0 234
0 0 240
0 0 236
0 0 236
0 0 240
0 0 233
0 0 234
0 0 234
0 0 237
0 0 234
0 0 234
0 0 228
0 0 237
0 0 236
0 0 233
0 0 240
0 0 228
0 0 227
0 0 227
0 0 230
0 0 238
0 0 224
0 0 241
0 0 223
0 0 223
0 0 220
0 0 228
0 0 221
0 0 233
29 32 233
170 188 242
205 227 255
205 227 255
205 227 255
205 227 255
205 227 255
205 227 255
205 227 255
205 227 255
205 226 255
205 226 255
205 226 255
205 226 255
205 226 255
205 226 255
205 226 255
205 226 255
205 226 255
205 226 255
205 226 255
205 226 255
205 226 255
205 226 255
205 226 255
205 226 255
205 226 255
205 226 255
205 226 255
205 227 255
205 227 255
205 227 255
205 227 255
205 227 255
205 227 255
205 227 255
205 227 255
205 227 255
197 196 221
179 22 25
172 0 0
171 0 0
180 0 0
170 0 0
182 0 0
172 0 0
179 0 0
189 0 0
183 0 0
188 0 0
177 0 0
189 0 0
184 0 0
192 0 0
190 0 0
192 0 0
193 0 0
178 0 0
200 0 0
195 0 0
194 0 0
195 0 0
191 0 0
188 0 0
194 0 0
199 0 0
194 0 0
196 0 0
192 0 0
204 0 0
196 0 0
203 0 0
196 0 0
198 0 0
200 0 0
204 0 0
199 0 0
206 0 0
200 0 0
205 0 0
204 0 0
204 0 0
203 0 0
208 0 0
202 0 0
201 0 0
200 0 0
197 0 0
202 0 0
209 0 0
209 0 0
201 0 0
201 0 0
207 0 0
204 0 0
209 0 0
202 0 0
208 0 0
200 0 0
208 0 0
205 0 0
207 0 0
210 0 0
210 0 0
207 0 0
207 0 0
206 0 0
208 0 0
205 0 0
210 0 0
206 0 0
209 0 0
205 0 0
207 0 0
207 0 0
208 0 0
212 0 0
211 0 0
212 0 0
202 0 0
211 0 0
211 0 0
211 0 0
215 0 0
207 0 0
208 0 0
208 0 0
205 0 0
212 0 0
210 0 0
208 0 0
211 0 0
210 0 0
216 0 0
208 0 0
215 0 0
211 0 0
212 0 0
213 0 0
214 0 0
209 0 0
211 0 0
214 0 0
215 0 0
214 0 0
207 0 0
213 0 0
211 0 0
215 0 0
216 0 0
211 0 0
214 0 0
213 0 0
213 0 0
213 0 0
213 0 0
210 0 0
215 0 0
212 0 0
214 0 0
214 0 0
216 0 0
213 0 0
211 0 0
215 0 0
212 0 0
213 0 0
215 0 0
213 0 0
214 0 0
209 0 0
213 0 0
213 0 0
212 0 0
214 0 0
217 0 0
215 0 0
212 0 0
210 0 0
213 0 0
217 0 0
211 0 0
215 0 0
215 0 0
215 0 0
216 0 0
216 0 0
213 0 0
216 0 0
215 0 0
215 0 0
214 0 0
218 0 0
211 0 0
212 0 0
212 0 0
215 0 0
218 0 0
216 0 0
215 0 0
216 0 0
217 0 0
219 0 0
216 0 0
215 0 0
218 0 0
217 0 0
216 0 0
217 0 0
216 0 0
214 0 0
216 0 0
214 0 0
215 0 0
219 0 0
216 0 0
214 0 0
217 0 0
214 0 0
217 0 0
0 0 254
0 0 255
0 0 255
0 0 255
0 0 255
0 0 255
0 0 254
0 0 255
0 0 255
0 0 255
0 0 254
0 0 254
0 0 253
0 0 253
0 0 254
0 0 254
0 0 255
0 0 255
0 0 254
0 0 254
0 0 254
0 0 254
0 0 254
0 0 255
0 0 255
0 0 254
0 0 255
0 0 253
0 0 255
0 0 255
0 0 255
0 0 255
0 0 254
0 0 255
0 0 255
0 0 255
0 0 255
0 0 255
0 0 253
0 0 253
0 0 255
0 0 254
0 0 255
0 0 255
0 0 255
0 0 253
0 0 253
0 0 255
0 0 254
0 0 254
0 0 254
0 0 253
0 0 253
0 0 254
0 0 249
0 0 252
0 0 254
0 0 254
0 0 253
0 0 255
0 0 253
0 0 253
0 0 252
0 0 254
0 0 254
0 0 252
0 0 253
0 0 253
0 0 255
0 0 252
0 0 249
0 0 253
0 0 254
0 0 252
0 0 254
0 0 250
0 0 254
0 0 254
0 0 253
0 0 249
0 0 255
0 0 250
0 0 253
0 0 254
0 0 250
0 0 250
0 0 249
0 0 254
0 0 249
0 0 250
0 0 250
0 0 249
0 0 246
0 0 254
0 0 253
0 0 249
0 0 248
0 0 252
0 0 250
0 0 252
0 0 252
0 0 248
0 0 245
0 0 249
0 0 244
0 0 252
0 0 252
0 0 252
0 0 248
0 0 248
0 0 250
0 0 250
0 0 248
0 0 248
0 0 249
0 0 248
0 0 250
0 0 248
0 0 238
0 0 245
0 0 250
0 0 248
0 0 248
0 0 244
0 0 242
0 0 241
0 0 248
0 0 248
0 0 245
0 0 248
0 0 245
0 0 245
0 0 246
0 0 233
0 0 242
0 0 246
0 0 237
0 0 248
0 0 234
0 0 240
0 0 238
0 0 241
0 0 238
0 0 238
0 0 234
0 0 242
0 0 244
0 0 241
0 0 238
0 0 244
0 0 238
0 0 242
0 0 242
0 0 245
0 0 245
0 0 237
0 0 227
0 0 242
0 0 227
0 0 237
0 0 228
0 0 227
0 0 237
0 0 226
0 0 237
0 0 236
0 0 220
0 0 237
0 0 230
0 0 230
0 0 228
0 0 234
0 0 230
0 0 227
0 0 224
0 0 226
0 0 221
0 0 226
0 0 214
0 0 218
0 0 218
54 60 218
200 221 255
205 227 255
205 227 255
205 227 255
205 227 255
205 227 255
205 227 255
205 227 255
205 227 255
205 227 255
205 227 255
205 227 255
205 227 255
205 227 255
205 227 255
205 227 255
205 227 255
205 227 255
205 227 255
205 227 255
205 227 255
205 227 255
205 227 255
205 227 255
205 227 255
205 227 255
205 227 255
205 227 255
205 227 255
205 227 255
205 227 255
205 227 255
205 227 255
205 227 255
205 227 255
204 220 248
180 68 76
180 0 0
174 0 0
171 0 0
174 0 0
174 0 0
188 0 0
176 0 0
172 0 0
186 0 0
177 0 0
191 0 0
194 0 0
182 0 0
185 0 0
188 0 0
193 0 0
185 0 0
193 0 0
188 0 0
193 0 0
198 0 0
187 0 0
193 0 0
192 0 0
200 0 0
204 0 0
198 0 0
194 0 0
198 0 0
199 0 0
195 0 0
194 0 0
197 0 0
203 0 0
202 0 0
197 0 0
206 0 0
203 0 0
197 0 0
194 0 0
198 0 0
201 0 0
196 0 0
205 0 0
201 0 0
199 0 0
200 0 0
209 0 0
205 0 0
201 0 0
212 0 0
204 0 0
197 0 0
205 0 0
205 0 0
198 0 0
207 0 0
204 0 0
208 0 0
206 0 0
207 0 0
214 0 0
209 0 0
212 0 0
210 0 0
207 0 0
208 0 0
206 0 0
211 0 0
209 0 0
207 0 0
206 0 0
213 0 0
201 0 0
209 0 0
212 0 0
209 0 0
206 0 0
209 0 0
213 0 0
212 0 0
209 0 0
210 0 0
213 0 0
206 0 0
209 0 0
212 0 0
202 0 0
212 0 0
211 0 0
212 0 0
209 0 0
213 0 0
211 0 0
211 0 0
213 0 0
213 0 0
210 0 0
211 0 0
214 0 0
217 0 0
212 0 0
211 0 0
209 0 0
210 0 0
209 0 0
214 0 0
212 0 0
212 0 0
210 0 0
217 0 0
213 0 0
217 0 0
213 0 0
214 0 0
213 0 0
216 0 0
213 0 0
214 0 0
212 0 0
212 0 0
211 0 0
216 0 0
213 0 0
213 0 0
211 0 0
214 0 0
217 0 0
216 0 0
210 0 0
213 0 0
213 0 0
207 0 0
217 0 0
215 0 0
215 0 0
214 0 0
216 0 0
217 0 0
216 0 0
213 0 0
217 0 0
212 0 0
215 0 0
217 0 0
217 0 0
217 0 0
212 0 0
216 0 0
217 0 0
213 0 0
216 0 0
216 0 0
217 0 0
214 0 0
213 0 0
218 0 0
217 0 0
218 0 0
214 0 0
215 0 0
215 0 0
214 0 0
213 0 0
214 0 0
214 0 0
215 0 0
211 0 0
216 0 0
218 0 0
218 0 0
220 0 0
216 0 0
211 0 0
212 0 0
216 0 0
213 0 0
214 0 0
217 0 0
214 0 0
219 0 0
0 0 255
0 0 255
0 0 255
0 0 255
0 0 255
0 0 255
0 0 255
0 0 255
0 0 253
0 0 255
0 0 254
0 0 255
0 0 255
0 0 254
0 0 255
0 0 255
0 0 253
0 0 255
0 0 254
0 0 255
0 0 254
0 0 255
0 0 254
0 0 254
0 0 255
0 0 255
0 0 253
0 0 255
0 0 252
0 0 255
0 0 254
0 0 254
0 0 253
0 0 255
0 0 254
0 0 254
0 0 254
0 0 253
0 0 254
0 0 255
0 0 254
0 0 253
0 0 254
0 0 253
0 0 254
0 0 255
0 0 254
0 0 253
0 0 249
0 0 252
0 0 253
0 0 255
0 0 254
0 0 255
0 0 254
0 0 249
0 0 250
0 0 254
0 0 252
0 0 252
0 0 253
0 0 252
0 0 254
0 0 255
0 0 254
0 0 253
0 0 253
0 0 252
0 0 255
0 0 253
0 0 249
0 0 254
0 0 254
0 0 254
0 0 255
0 0 252
0 0 249
0 0 254
0 0 253
0 0 250
0 0 254
0 0 249
0 0 254
0 0 249
0 0 252
0 0 250
0 0 249
0 0 254
0 0 253
0 0 253
0 0 253
0 0 253
0 0 253
0 0 249
0 0 252
0 0 250
0 0 249
0 0 250
0 0 252
0 0 246
0 0 253
0 0 246
0 0 253
0 0 245
0 0 254
0 0 254
0 0 246
0 0 252
0 0 252
0 0 250
0 0 249
0 0 246
0 0 245
0 0 246
0 0 250
0 0 244
0 0 253
0 0 250
0 0 241
0 0 238
0 0 253
0 0 252
0 0 242
0 0 250
0 0 252
0 0 244
0 0 252
0 0 248
0 0 249
0 0 250
0 0 242
0 0 250
0 0 241
0 0 244
0 0 241
0 0 242
0 0 246
0 0 242
0 0 245
0 0 236
0 0 237
0 0 241
0 0 240
0 0 242
0 0 248
0 0 249
0 0 240
0 0 234
0 0 234
0 0 240
0 0 245
0 0 238
0 0 246
0 0 237
0 0 233
0 0 246
0 0 240
0 0 242
0 0 228
0 0 228
0 0 231
0 0 233
0 0 230
0 0 227
0 0 228
0 0 228
0 0 230
0 0 234
0 0 234
0 0 231
0 0 227
0 0 221
0 0 233
0 0 224
0 0 226
0 0 227
0 0 215
0 0 217
0 0 233
0 0 201
0 0 212
0 0 209
112 124 231
206 227 255
205 227 255
205 227 255
205 227 255
205 227 255
205 227 255
205 227 255
205 227 255
205 227 255
205 227 255
205 227 255
205 227 255
205 227 255
205 227 255
205 227 255
205 227 255
205 227 255
205 227 255
205 227 255
205 227 255
205 227 255
205 227 255
205 227 255
205 227 255
205 227 255
205 227 255
205 227 255
205 227 255
205 227 255
205 227 255
205 227 255
205 227 255
206 227 255
206 227 255
184 126 142
172 0 0
167 0 0
158 0 0
180 0 0
182 0 0
186 0 0
178 0 0
179 0 0
182 0 0
181 0 0
198 0 0
187 0 0
183 0 0
182 0 0
186 0 0
187 0 0
190 0 0
192 0 0
191 0 0
197 0 0
197 0 0
196 0 0
200 0 0
194 0 0
189 0 0
199 0 0
197 0 0
191 0 0
196 0 0
202 0 0
204 0 0
190 0 0
199 0 0
201 0 0
204 0 0
200 0 0
198 0 0
199 0 0
204 0 0
203 0 0
197 0 0
200 0 0
200 0 0
206 0 0
207 0 0
204 0 0
209 0 0
202 0 0
207 0 0
198 0 0
201 0 0
207 0 0
204 0 0
204 0 0
206 0 0
205 0 0
209 0 0
201 0 0
204 0 0
207 0 0
204 0 0
205 0 0
204 0 0
205 0 0
206 0 0
204 0 0
203 0 0
209 0 0
202 0 0
208 0 0
213 0 0
212 0 0
205 0 0
209 0 0
206 0 0
207 0 0
210 0 0
207 0 0
214 0 0
214 0 0
215 0 0
212 0 0
208 0 0
208 0 0
212 0 0
210 0 0
213 0 0
214 0 0
211 0 0
209 0 0
211 0 0
208 0 0
212 0 0
213 0 0
213 0 0
208 0 0
212 0 0
211 0 0
216 0 0
213 0 0
210 0 0
212 0 0
214 0 0
211 0 0
214 0 0
213 0 0
212 0 0
212 0 0
211 0 0
214 0 0
217 0 0
211 0 0
213 0 0
210 0 0
211 0 0
214 0 0
213 0 0
210 0 0
215 0 0
217 0 0
212 0 0
213 0 0
213 0 0
216 0 0
213 0 0
214 0 0
212 0 0
215 0 0
213 0 0
214 0 0
213 0 0
216 0 0
210 0 0
215 0 0
212 0 0
213 0 0
209 0 0
211 0 0
217 0 0
214 0 0
215 0 0
218 0 0
215 0 0
213 0 0
214 0 0
216 0 0
213 0 0
214 0 0
217 0 0
213 0 0
215 0 0
212 0 0
213 0 0
217 0 0
217 0 0
217 0 0
211 0 0
216 0 0
215 0 0
216 0 0
213 0 0
216 0 0
214 0 0
217 0 0
215 0 0
214 0 0
214 0 0
216 0 0
213 0 0
217 0 0
218 0 0
215 0 0
216 0 0
216 0 0
218 0 0
215 0 0
216 0 0
218 0 0
220 0 0
217 0 0
215 0 0
215 0 0
0 0 255
0 0 255
0 0 254
0 0 255
0 0 255
0 0 255
0 0 255
0 0 255
0 0 254
0 0 254
0 0 255
0 0 255
0 0 255
0 0 255
0 0 255
0 0 255
0 0 255
0 0 255
0 0 255
0 0 254
0 0 254
0 0 254
0 0 255
0 0 255
0 0 253
0 0 254
0 0 254
0 0 254
0 0 254
0 0 255
0 0 255
0 0 255
0 0 255
0 0 254
0 0 252
0 0 254
0 0 254
0 0 254
0 0 255
0 0 255
0 0 255
0 0 254
0 0 255
0 0 255
0 0 252
0 0 255
0 0 252
0 0 255
0 0 253
0 0 254
0 0 255
0 0 254
0 0 255
0 0 254
0 0 255
0 0 254
0 0 253
0 0 254
0 0 253
0 0 254
0 0 253
0 0 254
0 0 253
0 0 254
0 0 252
0 0 254
0 0 250
0 0 253
0 0 252
0 0 250
0 0 253
0 0 249
0 0 250
0 0 253
0 0 255
0 0 246
0 0 253
0 0 253
0 0 254
0 0 252
0 0 249
0 0 252
0 0 249
0 0 253
0 0 253
0 0 253
0 0 249
0 0 252
0 0 254
0 0 254
0 0 250
0 0 249
0 0 252
0 0 250
0 0 252
0 0 250
0 0 252
0 0 249
0 0 249
0 0 250
0 0 249
0 0 250
0 0 249
0 0 252
0 0 249
0 0 253
0 0 252
0 0 252
0 0 248
0 0 253
0 0 248
0 0 248
0 0 252
0 0 252
0 0 252
0 0 244
0 0 246
0 0 250
0 0 250
0 0 249
0 0 248
0 0 249
0 0 246
0 0 250
0 0 245
0 0 244
0 0 246
0 0 248
0 0 246
0 0 249
0 0 244
0 0 248
0 0 248
0 0 249
0 0 242
0 0 244
0 0 240
0 0 245
0 0 246
0 0 242
0 0 245
0 0 242
0 0 246
0 0 240
0 0 237
0 0 241
0 0 234
0 0 236
0 0 237
0 0 238
0 0 244
0 0 238
0 0 227
0 0 240
0 0 234
0 0 227
0 0 228
0 0 233
0 0 236
0 0 234
0 0 242
0 0 237
0 0 240
0 0 234
0 0 236
0 0 231
0 0 231
0 0 221
0 0 221
0 0 224
0 0 218
0 0 223
0 0 224
0 0 224
0 0 234
0 0 212
0 0 218
0 0 221
0 0 218
0 0 203
0 0 214
0 0 209
0 0 211
163 180 233
206 227 255
206 227 255
206 227 255
206 227 255
206 227 255
206 227 255
206 227 255
206 227 255
206 227 255
206 227 255
206 227 255
206 227 255
206 227 255
206 227 255
206 227 255
206 227 255
206 227 255
206 227 255
206 227 255
206 227 255
206 227 255
206 227 255
206 227 255
206 227 255
206 227 255
206 227 255
206 227 255
206 227 255
206 227 255
206 227 255
206 227 255
206 227 255
189 176 198
167 0 0
171 0 0
164 0 0
175 0 0
182 0 0
176 0 0
187 0 0
176 0 0
184 0 0
180 0 0
181 0 0
188 0 0
188 0 0
191 0 0
186 0 0
188 0 0
184 0 0
185 0 0
187 0 0
198 0 0
190 0 0
187 0 0
191 0 0
193 0 0
193 0 0
197 0 0
186 0 0
202 0 0
192 0 0
203 0 0
200 0 0
192 0 0
201 0 0
195 0 0
199 0 0
201 0 0
198 0 0
202 0 0
198 0 0
197 0 0
204 0 0
197 0 0
204 0 0
200 0 0
208 0 0
204 0 0
203 0 0
204 0 0
197 0 0
199 0 0
202 0 0
199 0 0
204 0 0
201 0 0
199 0 0
206 0 0
206 0 0
200 0 0
200 0 0
198 0 0
202 0 0
210 0 0
209 0 0
204 0 0
203 0 0
208 0 0
203 0 0
209 0 0
204 0 0
206 0 0
214 0 0
212 0 0
210 0 0
211 0 0
206 0 0
212 0 0
209 0 0
210 0 0
211 0 0
215 0 0
211 0 0
204 0 0
212 0 0
209 0 0
212 0 0
206 0 0
209 0 0
210 0 0
214 0 0
210 0 0
213 0 0
212 0 0
213 0 0
211 0 0
210 0 0
207 0 0
210 0 0
212 0 0
212 0 0
214 0 0
212 0 0
212 0 0
210 0 0
215 0 0
214 0 0
215 0 0
206 0 0
211 0 0
214 0 0
212 0 0
210 0 0
211 0 0
215 0 0
213 0 0
212 0 0
209 0 0
211 0 0
215 0 0
214 0 0
215 0 0
212 0 0
214 0 0
214 0 0
215 0 0
214 0 0
211 0 0
217 0 0
213 0 0
215 0 0
214 0 0
216 0 0
213 0 0
215 0 0
216 0 0
213 0 0
218 0 0
215 0 0
213 0 0
217 0 0
212 0 0
215 0 0
211 0 0
216 0 0
212 0 0
215 0 0
218 0 0
214 0 0
216 0 0
216 0 0
220 0 0
216 0 0
219 0 0
213 0 0
216 0 0
214 0 0
217 0 0
216 0 0
214 0 0
217 0 0
217 0 0
213 0 0
217 0 0
217 0 0
214 0 0
217 0 0
216 0 0
212 0 0
217 0 0
219 0 0
217 0 0
216 0 0
215 0 0
212 0 0
218 0 0
216 0 0
216 0 0
214 0 0
216 0 0
216 0 0
216 0 0
219 0 0
216 0 0
219 0 0
0 0 255
0 0 254
0 0 255
0 0 255
0 0 255
0 0 254
0 0 255
0 0 255
0 0 255
0 0 255
0 0 255
0 0 255
0 0 255
0 0 255
0 0 254
0 0 250
0 0 254
0 0 255
0 0 255
0 0 254
0 0 255
0 0 254
0 0 252
0 0 253
0 0 254
0 0 255
0 0 255
0 0 254
0 0 255
0 0 252
0 0 254
0 0 255
0 0 253
0 0 255
0 0 254
0 0 255
0 0 255
0 0 254
0 0 255
0 0 254
0 0 253
0 0 254
0 0 253
0 0 254
0 0 255
0 0 253
0 0 253
0 0 253
0 0 254
0 0 254
0 0 255
0 0 254
0 0 254
0 0 254
0 0 255
0 0 253
0 0 255
0 0 253
0 0 255
0 0 252
0 0 254
0 0 253
0 0 254
0 0 253
0 0 254
0 0 253
0 0 255
0 0 253
0 0 253
0 0 246
0 0 254
0 0 250
0 0 253
0 0 248
0 0 252
0 0 254
0 0 254
0 0 254
0 0 250
0 0 254
0 0 252
0 0 253
0 0 250
0 0 253
0 0 254
0 0 252
0 0 250
0 0 246
0 0 249
0 0 253
0 0 253
0 0 249
0 0 252
0 0 253
0 0 250
0 0 249
0 0 250
0 0 252
0 0 248
0 0 252
0 0 249
0 0 250
0 0 249
0 0 250
0 0 246
0 0 250
0 0 253
0 0 248
0 0 252
0 0 250
0 0 249
0 0 252
0 0 248
0 0 244
0 0 242
0 0 248
0 0 246
0 0 250
0 0 248
0 0 248
0 0 249
0 0 248
0 0 246
0 0 242
0 0 244
0 0 246
0 0 250
0 0 244
0 0 237
0 0 244
0 0 248
0 0 244
0 0 248
0 0 242
0 0 248
0 0 246
0 0 245
0 0 242
0 0 242
0 0 237
0 0 245
0 0 245
0 0 245
0 0 238
0 0 237
0 0 238
0 0 241
0 0 244
0 0 240
0 0 246
0 0 244
0 0 234
0 0 244
0 0 231
0 0 242
0 0 240
0 0 245
0 0 238
0 0 227
0 0 238
0 0 234
0 0 228
0 0 218
0 0 230
0 0 231
0 0 231
0 0 230
0 0 230
0 0 231
0 0 226
0 0 236
0 0 217
0 0 227
0 0 230
0 0 228
0 0 221
0 0 217
0 0 223
0 0 218
0 0 223
0 0 211
0 0 215
0 0 212
41 45 223
185 204 244
206 227 255
206 227 255
206 227 255
206 227 255
206 227 255
206 227 255
206 227 255
206 227 255
206 227 255
206 227 255
206 227 255
206 227 255
206 227 255
206 227 255
206 227 255
206 227 255
206 227 255
206 227 255
206 227 255
206 227 255
206 227 255
206 227 255
206 227 255
206 227 255
206 227 255
206 227 255
206 227 255
206 227 255
206 227 255
206 227 255
200 204 230
173 60 67
163 0 0
163 0 0
168 0 0
182 0 0
179 0 0
170 0 0
172 0 0
164 0 0
184 0 0
181 0 0
181 0 0
183 0 0
183 0 0
174 0 0
182 0 0
187 0 0
181 0 0
195 0 0
188 0 0
188 0 0
192 0 0
188 0 0
197 0 0
191 0 0
195 0 0
192 0 0
191 0 0
188 0 0
198 0 0
202 0 0
198 0 0
199 0 0
196 0 0
203 0 0
195 0 0
196 0 0
201 0 0
203 0 0
197 0 0
199 0 0
205 0 0
203 0 0
206 0 0
213 0 0
204 0 0
206 0 0
192 0 0
204 0 0
201 0 0
205 0 0
211 0 0
206 0 0
202 0 0
206 0 0
205 0 0
203 0 0
207 0 0
205 0 0
212 0 0
203 0 0
207 0 0
212 0 0
205 0 0
204 0 0
205 0 0
205 0 0
208 0 0
203 0 0
206 0 0
206 0 0
207 0 0
211 0 0
209 0 0
203 0 0
201 0 0
213 0 0
208 0 0
208 0 0
211 0 0
210 0 0
206 0 0
210 0 0
206 0 0
208 0 0
214 0 0
209 0 0
211 0 0
212 0 0
205 0 0
211 0 0
211 0 0
213 0 0
212 0 0
215 0 0
215 0 0
212 0 0
216 0 0
213 0 0
212 0 0
207 0 0
212 0 0
209 0 0
215 0 0
209 0 0
210 0 0
213 0 0
211 0 0
210 0 0
212 0 0
212 0 0
210 0 0
211 0 0
214 0 0
212 0 0
213 0 0
213 0 0
209 0 0
210 0 0
216 0 0
213 0 0
212 0 0
216 0 0
214 0 0
211 0 0
211 0 0
214 0 0
212 0 0
213 0 0
218 0 0
211 0 0
215 0 0
215 0 0
218 0 0
217 0 0
214 0 0
216 0 0
214 0 0
216 0 0
216 0 0
215 0 0
219 0 0
212 0 0
218 0 0
217 0 0
220 0 0
217 0 0
216 0 0
217 0 0
219 0 0
216 0 0
211 0 0
218 0 0
217 0 0
215 0 0
214 0 0
213 0 0
217 0 0
217 0 0
214 0 0
216 0 0
218 0 0
216 0 0
216 0 0
216 0 0
215 0 0
212 0 0
214 0 0
217 0 0
214 0 0
215 0 0
216 0 0
216 0 0
217 0 0
220 0 0
216 0 0
215 0 0
215 0 0
216 0 0
214 0 0
219 0 0
219 0 0
213 0 0
217 0 0
0 0 253
0 0 255
0 0 255
0 0 255
0 0 255
0 0 254
0 0 255
0 0 255
0 0 254
0 0 255
0 0 255
0 0 255
0 0 255
0 0 255
0 0 255
0 0 255
0 0 255
0 0 255
0 0 255
0 0 255
0 0 255
0 0 254
0 0 255
0 0 254
0 0 253
0 0 254
0 0 254
0 0 254
0 0 254
0 0 255
0 0 255
0 0 255
0 0 255
0 0 254
0 0 254
0 0 254
0 0 255
0 0 253
0 0 255
0 0 253
0 0 253
0 0 253
0 0 255
0 0 255
0 0 255
0 0 255
0 0 254
0 0 255
0 0 254
0 0 254
0 0 254
0 0 252
0 0 254
0 0 254
0 0 254
0 0 255
0 0 252
0 0 252
0 0 252
0 0 253
0 0 252
0 0 255
0 0 253
0 0 253
0 0 252
0 0 254
0 0 255
0 0 253
0 0 252
0 0 252
0 0 250
0 0 253
0 0 252
0 0 250
0 0 253
0 0 249
0 0 249
0 0 249
0 0 250
0 0 252
0 0 246
0 0 250
0 0 253
0 0 253
0 0 252
0 0 249
0 0 254
0 0 246
0 0 253
0 0 253
0 0 250
0 0 254
0 0 252
0 0 249
0 0 249
0 0 250
0 0 252
0 0 249
0 0 245
0 0 242
0 0 250
0 0 253
0 0 248
0 0 248
0 0 248
0 0 250
0 0 245
0 0 254
0 0 252
0 0 244
0 0 244
0 0 250
0 0 250
0 0 249
0 0 252
0 0 250
0 0 245
0 0 244
0 0 249
0 0 249
0 0 242
0 0 245
0 0 245
0 0 246
0 0 245
0 0 241
0 0 244
0 0 244
0 0 244
0 0 242
0 0 246
0 0 250
0 0 248
0 0 246
0 0 236
0 0 246
0 0 244
0 0 249
0 0 244
0 0 244
0 0 244
0 0 248
0 0 245
0 0 246
0 0 240
0 0 228
0 0 242
0 0 238
0 0 234
0 0 242
0 0 233
0 0 241
0 0 244
0 0 241
0 0 241
0 0 236
0 0 242
0 0 234
0 0 242
0 0 238
0 0 237
0 0 228
0 0 236
0 0 236
0 0 226
0 0 228
0 0 227
0 0 217
0 0 226
0 0 223
0 0 218
0 0 227
0 0 224
0 0 223
0 0 230
0 0 218
0 0 212
0 0 212
0 0 214
0 0 217
0 0 223
0 0 207
0 0 204
0 0 217
109 120 218
206 227 255
206 227 255
206 227 255
206 227 255
206 227 255
206 227 255
206 227 255
206 227 255
206 227 255
206 227 255
206 227 255
206 227 255
206 227 255
206 227 255
206 227 255
206 227 255
206 227 255
206 227 255
206 227 255
206 227 255
206 227 255
206 227 255
206 227 255
206 227 255
206 227 255
206 227 255
206 227 255
206 227 255
206 227 255
206 227 255
179 111 125
166 0 0
173 0 0
176 0 0
165 0 0
168 0 0
179 0 0
183 0 0
173 0 0
176 0 0
179 0 0
177 0 0
172 0 0
191 0 0
182 0 0
184 0 0
187 0 0
182 0 0
190 0 0
197 0 0
180 0 0
193 0 0
188 0 0
191 0 0
194 0 0
189 0 0
195 0 0
189 0 0
187 0 0
192 0 0
196 0 0
192 0 0
202 0 0
200 0 0
203 0 0
191 0 0
202 0 0
204 0 0
203 0 0
203 0 0
202 0 0
198 0 0
201 0 0
200 0 0
198 0 0
203 0 0
204 0 0
203 0 0
205 0 0
201 0 0
207 0 0
203 0 0
204 0 0
203 0 0
209 0 0
207 0 0
205 0 0
208 0 0
208 0 0
203 0 0
209 0 0
201 0 0
205 0 0
201 0 0
206 0 0
198 0 0
213 0 0
217 0 0
203 0 0
211 0 0
209 0 0
207 0 0
211 0 0
207 0 0
205 0 0
209 0 0
208 0 0
202 0 0
208 0 0
212 0 0
207 0 0
209 0 0
207 0 0
211 0 0
211 0 0
209 0 0
206 0 0
211 0 0
207 0 0
209 0 0
214 0 0
211 0 0
210 0 0
212 0 0
215 0 0
212 0 0
212 0 0
207 0 0
210 0 0
212 0 0
213 0 0
212 0 0
214 0 0
213 0 0
214 0 0
212 0 0
210 0 0
217 0 0
211 0 0
213 0 0
215 0 0
212 0 0
212 0 0
215 0 0
214 0 0
213 0 0
211 0 0
214 0 0
213 0 0
216 0 0
212 0 0
215 0 0
213 0 0
217 0 0
214 0 0
210 0 0
211 0 0
217 0 0
211 0 0
210 0 0
216 0 0
210 0 0
216 0 0
214 0 0
216 0 0
217 0 0
217 0 0
217 0 0
212 0 0
215 0 0
212 0 0
214 0 0
216 0 0
207 0 0
216 0 0
215 0 0
214 0 0
214 0 0
218 0 0
217 0 0
212 0 0
216 0 0
211 0 0
215 0 0
217 0 0
211 0 0
219 0 0
215 0 0
214 0 0
213 0 0
216 0 0
213 0 0
215 0 0
217 0 0
214 0 0
218 0 0
217 0 0
214 0 0
215 0 0
215 0 0
214 0 0
218 0 0
218 0 0
214 0 0
215 0 0
214 0 0
215 0 0
212 0 0
216 0 0
214 0 0
213 0 0
218 0 0
214 0 0
216 0 0
217 0 0
0 0 254
0 0 255
0 0 255
0 0 253
0 0 255
0 0 255
0 0 255
0 0 255
0 0 255
0 0 255
0 0 255
0 0 253
0 0 255
0 0 255
0 0 253
0 0 254
0 0 254
0 0 254
0 0 255
0 0 255
0 0 254
0 0 254
0 0 255
0 0 254
0 0 254
0 0 255
0 0 255
0 0 255
0 0 254
0 0 254
0 0 255
0 0 253
0 0 255
0 0 250
0 0 254
0 0 254
0 0 253
0 0 254
0 0 254
0 0 254
0 0 255
0 0 254
0 0 254
0 0 253
0 0 253
0 0 253
0 0 255
0 0 253
0 0 253
0 0 254
0 0 255
0 0 255
0 0 253
0 0 254
0 0 254
0 0 253
0 0 254
0 0 255
0 0 254
0 0 254
0 0 254
0 0 255
0 0 255
0 0 254
0 0 254
0 0 253
0 0 254
0 0 248
0 0 253
0 0 252
0 0 254
0 0 254
0 0 250
0 0 253
0 0 254
0 0 249
0 0 252
0 0 252
0 0 249
0 0 250
0 0 253
0 0 254
0 0 254
0 0 250
0 0 252
0 0 253
0 0 253
0 0 246
0 0 250
0 0 250
0 0 252
0 0 248
0 0 252
0 0 253
0 0 250
0 0 248
0 0 248
0 0 249
0 0 253
0 0 248
0 0 255
0 0 245
0 0 248
0 0 252
0 0 246
0 0 249
0 0 248
0 0 248
0 0 250
0 0 250
0 0 254
0 0 249
0 0 246
0 0 249
0 0 245
0 0 248
0 0 248
0 0 249
0 0 249
0 0 245
0 0 237
0 0 250
0 0 242
0 0 242
0 0 245
0 0 246
0 0 248
0 0 245
0 0 244
0 0 244
0 0 250
0 0 241
0 0 242
0 0 242
0 0 244
0 0 237
0 0 245
0 0 249
0 0 245
0 0 245
0 0 240
0 0 242
0 0 249
0 0 238
0 0 234
0 0 244
0 0 242
0 0 237
0 0 227
0 0 242
0 0 240
0 0 238
0 0 241
0 0 231
0 0 240
0 0 237
0 0 234
0 0 233
0 0 233
0 0 236
0 0 240
0 0 227
0 0 237
0 0 233
0 0 226
0 0 234
0 0 217
0 0 234
0 0 231
0 0 214
0 0 224
0 0 228
0 0 217
0 0 221
0 0 230
0 0 228
0 0 212
0 0 223
0 0 215
0 0 215
0 0 218
0 0 226
0 0 211
0 0 207
0 0 207
154 170 233
207 227 255
207 227 255
207 227 255
207 227 255
207 227 255
207 227 255
206 227 255
206 227 255
206 227 255
206 227 255
206 227 255
206 227 255
206 227 255
206 227 255
206 227 255
206 227 255
206 227 255
206 227 255
206 227 255
206 227 255
206 227 255
207 227 255
207 227 255
207 227 255
207 227 255
207 227 255
207 227 255
207 227 255
188 161 181
165 0 0
169 0 0
173 0 0
170 0 0
170 0 0
168 0 0
173 0 0
180 0 0
179 0 0
179 0 0
173 0 0
179 0 0
185 0 0
182 0 0
183 0 0
189 0 0
185 0 0
188 0 0
192 0 0
197 0 0
191 0 0
194 0 0
194 0 0
188 0 0
193 0 0
194 0 0
195 0 0
187 0 0
195 0 0
196 0 0
198 0 0
197 0 0
200 0 0
200 0 0
199 0 0
193 0 0
203 0 0
201 0 0
204 0 0
205 0 0
196 0 0
202 0 0
203 0 0
199 0 0
204 0 0
202 0 0
199 0 0
205 0 0
208 0 0
203 0 0
208 0 0
198 0 0
208 0 0
197 0 0
204 0 0
205 0 0
204 0 0
203 0 0
209 0 0
204 0 0
207 0 0
208 0 0
207 0 0
202 0 0
210 0 0
201 0 0
209 0 0
210 0 0
209 0 0
216 0 0
210 0 0
208 0 0
206 0 0
206 0 0
212 0 0
211 0 0
206 0 0
214 0 0
201 0 0
209 0 0
211 0 0
213 0 0
214 0 0
211 0 0
209 0 0
210 0 0
212 0 0
209 0 0
211 0 0
214 0 0
213 0 0
208 0 0
212 0 0
211 0 0
207 0 0
219 0 0
214 0 0
212 0 0
207 0 0
212 0 0
211 0 0
215 0 0
215 0 0
210 0 0
209 0 0
213 0 0
213 0 0
215 0 0
213 0 0
210 0 0
211 0 0
207 0 0
216 0 0
211 0 0
216 0 0
216 0 0
212 0 0
210 0 0
213 0 0
216 0 0
213 0 0
209 0 0
214 0 0
213 0 0
217 0 0
215 0 0
217 0 0
214 0 0
213 0 0
212 0 0
214 0 0
216 0 0
211 0 0
216 0 0
213 0 0
220 0 0
214 0 0
218 0 0
215 0 0
215 0 0
218 0 0
214 0 0
218 0 0
216 0 0
213 0 0
216 0 0
215 0 0
213 0 0
209 0 0
218 0 0
216 0 0
213 0 0
213 0 0
211 0 0
214 0 0
216 0 0
216 0 0
216 0 0
216 0 0
213 0 0
213 0 0
215 0 0
215 0 0
220 0 0
218 0 0
213 0 0
214 0 0
216 0 0
214 0 0
221 0 0
219 0 0
215 0 0
216 0 0
214 0 0
216 0 0
211 0 0
217 0 0
217 0 0
214 0 0
212 0 0
215 0 0
214 0 0
215 0 0
217 0 0
213 0 0
0 0 253
0 0 252
0 0 254
0 0 255
0 0 254
0 0 255
0 0 254
0 0 255
0 0 254
0 0 254
0 0 254
0 0 255
0 0 254
0 0 254
0 0 255
0 0 253
0 0 255
0 0 254
0 0 255
0 0 254
0 0 255
0 0 255
0 0 255
0 0 255
0 0 255
0 0 255
0 0 255
0 0 255
0 0 254
0 0 255
0 0 254
0 0 255
0 0 254
0 0 254
0 0 255
0 0 255
0 0 255
0 0 255
0 0 255
0 0 255
0 0 253
0 0 254
0 0 253
0 0 253
0 0 254
0 0 253
0 0 255
0 0 254
0 0 253
0 0 254
0 0 254
0 0 252
0 0 253
0 0 255
0 0 253
0 0 255
0 0 254
0 0 253
0 0 255
0 0 254
0 0 255
0 0 253
0 0 254
0 0 252
0 0 254
0 0 254
0 0 250
0 0 253
0 0 253
0 0 254
0 0 249
0 0 252
0 0 252
0 0 248
0 0 253
0 0 252
0 0 253
0 0 253
0 0 252
0 0 250
0 0 253
0 0 253
0 0 250
0 0 250
0 0 253
0 0 253
0 0 252
0 0 249
0 0 252
0 0 246
0 0 248
0 0 252
0 0 248
0 0 252
0 0 249
0 0 249
0 0 249
0 0 250
0 0 244
0 0 252
0 0 252
0 0 253
0 0 253
0 0 250
0 0 242
0 0 250
0 0 248
0 0 248
0 0 246
0 0 253
0 0 242
0 0 254
0 0 249
0 0 252
0 0 249
0 0 248
0 0 248
0 0 249
0 0 249
0 0 245
0 0 249
0 0 250
0 0 242
0 0 244
0 0 250
0 0 248
0 0 248
0 0 249
0 0 245
0 0 252
0 0 240
0 0 245
0 0 241
0 0 248
0 0 242
0 0 241
0 0 242
0 0 242
0 0 245
0 0 246
0 0 240
0 0 241
0 0 241
0 0 241
0 0 245
0 0 240
0 0 240
0 0 227
0 0 245
0 0 237
0 0 230
0 0 238
0 0 227
0 0 237
0 0 241
0 0 233
0 0 236
0 0 236
0 0 244
0 0 237
0 0 237
0 0 236
0 0 230
0 0 214
0 0 230
0 0 230
0 0 236
0 0 230
0 0 217
0 0 214
0 0 233
0 0 223
0 0 224
0 0 215
0 0 221
0 0 227
0 0 223
0 0 218
0 0 211
0 0 211
0 0 220
0 0 207
0 0 211
0 0 215
0 0 217
35 39 207
192 211 250
207 228 255
207 228 255
207 228 255
207 228 255
207 228 255
207 228 255
207 228 255
207 228 255
207 228 255
207 228 255
207 228 255
207 228 255
207 227 255
207 228 255
207 228 255
207 228 255
207 228 255
207 228 255
207 228 255
207 228 255
207 228 255
207 228 255
207 228 255
207 228 255
207 228 255
207 228 255
204 210 236
155 50 57
160 0 0
174 0 0
168 0 0
166 0 0
171 0 0
167 0 0
168 0 0
177 0 0
175 0 0
180 0 0
184 0 0
180 0 0
171 0 0
189 0 0
183 0 0
189 0 0
181 0 0
187 0 0
186 0 0
188 0 0
178 0 0
189 0 0
189 0 0
197 0 0
196 0 0
198 0 0
193 0 0
195 0 0
188 0 0
200 0 0
193 0 0
197 0 0
200 0 0
185 0 0
190 0 0
187 0 0
202 0 0
195 0 0
198 0 0
197 0 0
204 0 0
207 0 0
208 0 0
203 0 0
200 0 0
197 0 0
204 0 0
207 0 0
199 0 0
204 0 0
199 0 0
204 0 0
206 0 0
205 0 0
199 0 0
207 0 0
209 0 0
199 0 0
209 0 0
211 0 0
208 0 0
208 0 0
214 0 0
207 0 0
209 0 0
205 0 0
204 0 0
202 0 0
209 0 0
209 0 0
205 0 0
212 0 0
210 0 0
213 0 0
205 0 0
209 0 0
215 0 0
209 0 0
208 0 0
211 0 0
211 0 0
207 0 0
209 0 0
207 0 0
209 0 0
211 0 0
210 0 0
214 0 0
212 0 0
213 0 0
210 0 0
207 0 0
208 0 0
214 0 0
208 0 0
214 0 0
207 0 0
215 0 0
215 0 0
213 0 0
211 0 0
208 0 0
210 0 0
212 0 0
210 0 0
210 0 0
215 0 0
212 0 0
213 0 0
212 0 0
211 0 0
218 0 0
210 0 0
213 0 0
209 0 0
215 0 0
212 0 0
215 0 0
214 0 0
213 0 0
211 0 0
208 0 0
216 0 0
214 0 0
212 0 0
216 0 0
216 0 0
211 0 0
212 0 0
214 0 0
219 0 0
212 0 0
212 0 0
215 0 0
217 0 0
216 0 0
212 0 0
217 0 0
216 0 0
218 0 0
213 0 0
213 0 0
215 0 0
213 0 0
217 0 0
217 0 0
217 0 0
214 0 0
215 0 0
216 0 0
214 0 0
212 0 0
216 0 0
219 0 0
218 0 0
218 0 0
213 0 0
217 0 0
216 0 0
219 0 0
217 0 0
216 0 0
217 0 0
217 0 0
216 0 0
216 0 0
218 0 0
215 0 0
219 0 0
215 0 0
217 0 0
214 0 0
220 0 0
214 0 0
218 0 0
215 0 0
212 0 0
216 0 0
214 0 0
216 0 0
213 0 0
217 0 0
216 0 0
215 0 0
218 0 0
0 0 254
0 0 254
0 0 255
0 0 255
0 0 255
0 0 255
0 0 254
0 0 255
0 0 253
0 0 254
0 0 255
0 0 254
0 0 254
0 0 255
0 0 254
0 0 254
0 0 255
0 0 253
0 0 255
0 0 254
0 0 255
0 0 254
0 0 253
0 0 254
0 0 255
0 0 255
0 0 253
0 0 254
0 0 255
0 0 252
0 0 250
0 0 253
0 0 254
0 0 254
0 0 255
0 0 254
0 0 253
0 0 255
0 0 254
0 0 254
0 0 254
0 0 252
0 0 255
0 0 254
0 0 253
0 0 255
0 0 254
0 0 255
0 0 255
0 0 254
0 0 254
0 0 255
0 0 255
0 0 255
0 0 253
0 0 254
0 0 252
0 0 250
0 0 255
0 0 255
0 0 250
0 0 255
0 0 252
0 0 254
0 0 254
0 0 255
0 0 250
0 0 255
0 0 253
0 0 254
0 0 254
0 0 250
0 0 250
0 0 253
0 0 248
0 0 250
0 0 253
0 0 254
0 0 255
0 0 252
0 0 252
0 0 250
0 0 253
0 0 254
0 0 250
0 0 254
0 0 252
0 0 253
0 0 254
0 0 252
0 0 252
0 0 245
0 0 252
0 0 249
0 0 253
0 0 253
0 0 252
0 0 250
0 0 254
0 0 253
0 0 248
0 0 249
0 0 250
0 0 248
0 0 250
0 0 252
0 0 250
0 0 242
0 0 250
0 0 248
0 0 249
0 0 252
0 0 246
0 0 250
0 0 249
0 0 245
0 0 253
0 0 252
0 0 244
0 0 249
0 0 246
0 0 248
0 0 250
0 0 241
0 0 246
0 0 242
0 0 252
0 0 248
0 0 248
0 0 236
0 0 241
0 0 242
0 0 246
0 0 240
0 0 240
0 0 246
0 0 244
0 0 248
0 0 244
0 0 242
0 0 236
0 0 237
0 0 238
0 0 244
0 0 246
0 0 242
0 0 240
0 0 240
0 0 248
0 0 233
0 0 236
0 0 233
0 0 228
0 0 234
0 0 238
0 0 234
0 0 231
0 0 234
0 0 238
0 0 240
0 0 220
0 0 231
0 0 238
0 0 244
0 0 231
0 0 236
0 0 241
0 0 223
0 0 230
0 0 236
0 0 242
0 0 227
0 0 231
0 0 231
0 0 228
0 0 221
0 0 212
0 0 230
0 0 221
0 0 212
0 0 218
0 0 204
0 0 211
0 0 204
0 0 204
0 0 214
88 96 212
207 228 255
207 228 255
207 228 255
207 228 255
207 228 255
207 228 255
207 228 255
207 228 255
207 228 255
207 228 255
207 228 255
207 228 255
207 228 255
207 228 255
207 228 255
207 228 255
207 228 255
207 228 255
207 228 255
207 228 255
207 228 255
207 228 255
207 228 255
207 228 255
207 228 255
207 228 255
166 122 137
169 0 0
162 0 0
174 0 0
169 0 0
173 0 0
164 0 0
174 0 0
175 0 0
178 0 0
183 0 0
179 0 0
179 0 0
178 0 0
187 0 0
186 0 0
185 0 0
193 0 0
193 0 0
176 0 0
200 0 0
180 0 0
189 0 0
189 0 0
193 0 0
186 0 0
184 0 0
183 0 0
198 0 0
200 0 0
202 0 0
192 0 0
196 0 0
200 0 0
197 0 0
197 0 0
195 0 0
197 0 0
204 0 0
195 0 0
199 0 0
203 0 0
204 0 0
206 0 0
199 0 0
208 0 0
203 0 0
196 0 0
196 0 0
204 0 0
202 0 0
205 0 0
205 0 0
210 0 0
206 0 0
208 0 0
205 0 0
206 0 0
204 0 0
205 0 0
204 0 0
203 0 0
204 0 0
204 0 0
204 0 0
202 0 0
205 0 0
206 0 0
209 0 0
203 0 0
201 0 0
205 0 0
206 0 0
201 0 0
202 0 0
210 0 0
206 0 0
210 0 0
209 0 0
207 0 0
210 0 0
209 0 0
210 0 0
211 0 0
212 0 0
210 0 0
208 0 0
210 0 0
210 0 0
216 0 0
207 0 0
207 0 0
209 0 0
211 0 0
209 0 0
213 0 0
211 0 0
212 0 0
211 0 0
210 0 0
209 0 0
210 0 0
210 0 0
211 0 0
208 0 0
208 0 0
205 0 0
216 0 0
214 0 0
212 0 0
217 0 0
211 0 0
209 0 0
208 0 0
212 0 0
210 0 0
215 0 0
213 0 0
215 0 0
218 0 0
218 0 0
214 0 0
215 0 0
216 0 0
208 0 0
213 0 0
215 0 0
213 0 0
219 0 0
214 0 0
217 0 0
218 0 0
216 0 0
212 0 0
215 0 0
214 0 0
217 0 0
218 0 0
216 0 0
213 0 0
221 0 0
214 0 0
216 0 0
220 0 0
213 0 0
213 0 0
215 0 0
217 0 0
213 0 0
216 0 0
214 0 0
213 0 0
213 0 0
216 0 0
216 0 0
214 0 0
215 0 0
217 0 0
214 0 0
215 0 0
216 0 0
212 0 0
218 0 0
215 0 0
218 0 0
213 0 0
219 0 0
214 0 0
217 0 0
217 0 0
216 0 0
213 0 0
220 0 0
218 0 0
216 0 0
217 0 0
219 0 0
215 0 0
218 0 0
215 0 0
215 0 0
214 0 0
219 0 0
218 0 0
216 0 0
217 0 0
217 0 0
0 0 255
0 0 255
0 0 255
0 0 255
0 0 255
0 0 254
0 0 255
0 0 255
0 0 255
0 0 255
0 0 254
0 0 255
0 0 255
0 0 254
0 0 254
0 0 254
0 0 255
0 0 254
0 0 255
0 0 255
0 0 255
0 0 255
0 0 253
0 0 255
0 0 255
0 0 254
0 0 254
0 0 255
0 0 254
0 0 254
0 0 255
0 0 255
0 0 254
0 0 252
0 0 254
0 0 252
0 0 253
0 0 253
0 0 254
0 0 253
0 0 255
0 0 255
0 0 255
0 0 253
0 0 252
0 0 254
0 0 255
0 0 255
0 0 255
0 0 255
0 0 254
0 0 254
0 0 252
0 0 255
0 0 254
0 0 246
0 0 253
0 0 253
0 0 254
0 0 254
0 0 252
0 0 248
0 0 252
0 0 253
0 0 253
0 0 252
0 0 252
0 0 250
0 0 253
0 0 254
0 0 254
0 0 254
0 0 253
0 0 248
0 0 248
0 0 253
0 0 254
0 0 250
0 0 249
0 0 252
0 0 253
0 0 248
0 0 252
0 0 253
0 0 253
0 0 252
0 0 253
0 0 246
0 0 253
0 0 252
0 0 248
0 0 242
0 0 249
0 0 248
0 0 249
0 0 250
0 0 248
0 0 252
0 0 250
0 0 244
0 0 254
0 0 253
0 0 249
0 0 250
0 0 246
0 0 248
0 0 238
0 0 244
0 0 253
0 0 250
0 0 249
0 0 249
0 0 249
0 0 242
0 0 246
0 0 249
0 0 248
0 0 250
0 0 250
0 0 246
0 0 249
0 0 248
0 0 244
0 0 244
0 0 237
0 0 248
0 0 245
0 0 244
0 0 249
0 0 242
0 0 246
0 0 241
0 0 244
0 0 238
0 0 242
0 0 237
0 0 246
0 0 250
0 0 246
0 0 246
0 0 244
0 0 240
0 0 240
0 0 241
0 0 248
0 0 250
0 0 226
0 0 238
0 0 237
0 0 237
0 0 242
0 0 228
0 0 240
0 0 238
0 0 234
0 0 245
0 0 241
0 0 228
0 0 236
0 0 231
0 0 237
0 0 238
0 0 234
0 0 234
0 0 231
0 0 221
0 0 240
0 0 233
0 0 221
0 0 217
0 0 224
0 0 218
0 0 224
0 0 217
0 0 224
0 0 215
0 0 220
0 0 226
0 0 209
0 0 214
0 0 217
0 0 211
0 0 199
0 0 201
0 0 215
0 0 201
0 0 194
175 192 238
207 228 255
207 228 255
207 228 255
207 228 255
207 228 255
207 228 255
207 228 255
207 228 255
207 228 255
207 228 255
207 228 255
207 228 255
207 228 255
207 228 255
207 228 255
207 228 255
207 228 255
207 228 255
207 228 255
207 228 255
207 228 255
207 228 255
207 228 255
207 228 255
190 186 209
160 0 0
169 0 0
159 0 0
165 0 0
184 0 0
166 0 0
173 0 0
166 0 0
169 0 0
186 0 0
162 0 0
181 0 0
178 0 0
180 0 0
176 0 0
186 0 0
189 0 0
184 0 0
191 0 0
188 0 0
190 0 0
186 0 0
201 0 0
180 0 0
182 0 0
188 0 0
191 0 0
191 0 0
190 0 0
197 0 0
197 0 0
197 0 0
198 0 0
201 0 0
197 0 0
200 0 0
197 0 0
200 0 0
201 0 0
202 0 0
197 0 0
199 0 0
204 0 0
202 0 0
205 0 0
199 0 0
201 0 0
207 0 0
198 0 0
203 0 0
202 0 0
209 0 0
206 0 0
196 0 0
203 0 0
206 0 0
208 0 0
206 0 0
205 0 0
209 0 0
206 0 0
208 0 0
208 0 0
206 0 0
205 0 0
211 0 0
205 0 0
205 0 0
206 0 0
207 0 0
210 0 0
212 0 0
209 0 0
207 0 0
210 0 0
202 0 0
213 0 0
212 0 0
206 0 0
214 0 0
210 0 0
211 0 0
209 0 0
208 0 0
210 0 0
211 0 0
212 0 0
202 0 0
204 0 0
215 0 0
210 0 0
211 0 0
212 0 0
214 0 0
215 0 0
211 0 0
210 0 0
208 0 0
214 0 0
213 0 0
211 0 0
212 0 0
208 0 0
210 0 0
215 0 0
212 0 0
215 0 0
213 0 0
214 0 0
213 0 0
211 0 0
214 0 0
208 0 0
214 0 0
215 0 0
214 0 0
213 0 0
215 0 0
218 0 0
216 0 0
214 0 0
214 0 0
213 0 0
213 0 0
213 0 0
214 0 0
216 0 0
214 0 0
217 0 0
217 0 0
216 0 0
214 0 0
214 0 0
216 0 0
211 0 0
218 0 0
216 0 0
211 0 0
212 0 0
218 0 0
214 0 0
217 0 0
213 0 0
215 0 0
217 0 0
216 0 0
214 0 0
216 0 0
214 0 0
215 0 0
212 0 0
215 0 0
215 0 0
216 0 0
219 0 0
215 0 0
218 0 0
213 0 0
218 0 0
214 0 0
215 0 0
214 0 0
217 0 0
217 0 0
216 0 0
212 0 0
212 0 0
218 0 0
217 0 0
216 0 0
214 0 0
215 0 0
218 0 0
214 0 0
213 0 0
215 0 0
219 0 0
215 0 0
216 0 0
215 0 0
219 0 0
214 0 0
216 0 0
216 0 0
216 0 0
214 0 0
217 0 0
0 0 254
0 0 254
0 0 255
0 0 255
0 0 254
0 0 255
0 0 255
0 0 254
0 0 255
0 0 254
0 0 254
0 0 255
0 0 255
0 0 255
0 0 254
0 0 255
0 0 255
0 0 254
0 0 255
0 0 255
0 0 253
0 0 254
0 0 253
0 0 254
0 0 255
0 0 254
0 0 254
0 0 253
0 0 254
0 0 255
0 0 254
0 0 253
0 0 253
0 0 254
0 0 253
0 0 254
0 0 255
0 0 253
0 0 254
0 0 255
0 0 255
0 0 254
0 0 253
0 0 252
0 0 255
0 0 255
0 0 254
0 0 252
0 0 254
0 0 253
0 0 254
0 0 254
0 0 253
0 0 254
0 0 254
0 0 254
0 0 253
0 0 255
0 0 249
0 0 253
0 0 254
0 0 249
0 0 252
0 0 253
0 0 254
0 0 254
0 0 252
0 0 250
0 0 254
0 0 248
0 0 252
0 0 255
0 0 252
0 0 254
0 0 255
0 0 255
0 0 253
0 0 249
0 0 254
0 0 248
0 0 253
0 0 252
0 0 250
0 0 249
0 0 252
0 0 249
0 0 249
0 0 252
0 0 245
0 0 254
0 0 250
0 0 253
0 0 252
0 0 249
0 0 250
0 0 249
0 0 252
0 0 250
0 0 245
0 0 253
0 0 250
0 0 249
0 0 249
0 0 246
0 0 250
0 0 249
0 0 253
0 0 253
0 0 250
0 0 246
0 0 249
0 0 245
0 0 250
0 0 249
0 0 248
0 0 249
0 0 246
0 0 249
0 0 242
0 0 250
0 0 250
0 0 248
0 0 245
0 0 240
0 0 252
0 0 244
0 0 244
0 0 244
0 0 249
0 0 246
0 0 242
0 0 252
0 0 248
0 0 246
0 0 246
0 0 242
0 0 248
0 0 246
0 0 248
0 0 237
0 0 246
0 0 246
0 0 240
0 0 240
0 0 249
0 0 244
0 0 240
0 0 245
0 0 234
0 0 227
0 0 230
0 0 227
0 0 234
0 0 238
0 0 241
0 0 240
0 0 238
0 0 233
0 0 231
0 0 234
0 0 227
0 0 228
0 0 227
0 0 236
0 0 236
0 0 226
0 0 221
0 0 230
0 0 214
0 0 227
0 0 220
0 0 234
0 0 220
0 0 220
0 0 226
0 0 224
0 0 228
0 0 206
0 0 203
0 0 198
0 0 212
0 0 214
0 0 203
0 0 207
0 0 201
0 0 193
0 0 198
75 82 223
207 227 254
208 228 255
208 228 255
208 228 255
208 228 255
208 228 255
208 228 255
208 228 255
208 228 255
208 228 255
208 228 255
208 228 255
208 228 255
208 228 255
208 228 255
208 228 255
208 228 255
208 228 255
208 228 255
208 228 255
208 228 255
208 228 255
208 228 255
207 226 253
162 94 105
147 0 0
153 0 0
172 0 0
171 0 0
178 0 0
170 0 0
169 0 0
172 0 0
170 0 0
176 0 0
169 0 0
177 0 0
175 0 0
168 0 0
185 0 0
183 0 0
183 0 0
183 0 0
187 0 0
188 0 0
191 0 0
180 0 0
189 0 0
177 0 0
186 0 0
196 0 0
197 0 0
200 0 0
196 0 0
196 0 0
188 0 0
191 0 0
193 0 0
198 0 0
207 0 0
194 0 0
200 0 0
212 0 0
200 0 0
195 0 0
207 0 0
194 0 0
203 0 0
206 0 0
196 0 0
204 0 0
207 0 0
202 0 0
203 0 0
204 0 0
212 0 0
201 0 0
208 0 0
208 0 0
209 0 0
207 0 0
207 0 0
207 0 0
200 0 0
201 0 0
209 0 0
206 0 0
202 0 0
206 0 0
202 0 0
209 0 0
206 0 0
208 0 0
209 0 0
201 0 0
205 0 0
206 0 0
210 0 0
206 0 0
206 0 0
210 0 0
207 0 0
215 0 0
211 0 0
208 0 0
208 0 0
213 0 0
207 0 0
211 0 0
207 0 0
212 0 0
213 0 0
208 0 0
209 0 0
216 0 0
211 0 0
215 0 0
211 0 0
212 0 0
218 0 0
209 0 0
213 0 0
209 0 0
216 0 0
212 0 0
209 0 0
218 0 0
213 0 0
210 0 0
209 0 0
219 0 0
212 0 0
211 0 0
215 0 0
212 0 0
215 0 0
217 0 0
215 0 0
210 0 0
210 0 0
212 0 0
213 0 0
215 0 0
218 0 0
211 0 0
216 0 0
217 0 0
216 0 0
215 0 0
211 0 0
213 0 0
216 0 0
214 0 0
215 0 0
216 0 0
217 0 0
218 0 0
217 0 0
213 0 0
215 0 0
214 0 0
218 0 0
215 0 0
211 0 0
209 0 0
216 0 0
214 0 0
214 0 0
213 0 0
212 0 0
214 0 0
215 0 0
212 0 0
216 0 0
215 0 0
217 0 0
217 0 0
212 0 0
219 0 0
219 0 0
216 0 0
216 0 0
214 0 0
216 0 0
215 0 0
217 0 0
214 0 0
213 0 0
220 0 0
216 0 0
219 0 0
218 0 0
218 0 0
215 0 0
212 0 0
215 0 0
215 0 0
215 0 0
213 0 0
216 0 0
219 0 0
216 0 0
221 0 0
216 0 0
216 0 0
217 0 0
216 0 0
219 0 0
218 0 0
217 0 0
217 0 0
216 0 0
0 0 255
0 0 255
0 0 255
0 0 255
0 0 255
0 0 255
0 0 254
0 0 255
0 0 254
0 0 255
0 0 255
0 0 255
0 0 255
0 0 255
0 0 255
0 0 255
0 0 255
0 0 255
0 0 255
0 0 255
0 0 254
0 0 253
0 0 253
0 0 253
0 0 255
0 0 254
0 0 255
0 0 254
0 0 254
0 0 255
0 0 255
0 0 255
0 0 255
0 0 254
0 0 254
0 0 254
0 0 254
0 0 254
0 0 253
0 0 255
0 0 255
0 0 252
0 0 253
0 0 253
0 0 255
0 0 255
0 0 255
0 0 252
0 0 254
0 0 253
0 0 255
0 0 255
0 0 254
0 0 255
0 0 253
0 0 253
0 0 254
0 0 255
0 0 253
0 0 252
0 0 253
0 0 254
0 0 253
0 0 255
0 0 253
0 0 253
0 0 254
0 0 248
0 0 253
0 0 252
0 0 252
0 0 254
0 0 250
0 0 250
0 0 253
0 0 253
0 0 253
0 0 253
0 0 252
0 0 250
0 0 255
0 0 254
0 0 252
0 0 254
0 0 252
0 0 254
0 0 250
0 0 253
0 0 254
0 0 252
0 0 250
0 0 249
0 0 252
0 0 249
0 0 252
0 0 250
0 0 250
0 0 254
0 0 246
0 0 254
0 0 249
0 0 253
0 0 249
0 0 245
0 0 249
0 0 244
0 0 248
0 0 249
0 0 252
0 0 245
0 0 250
0 0 245
0 0 248
0 0 249
0 0 246
0 0 250
0 0 238
0 0 248
0 0 245
0 0 249
0 0 248
0 0 252
0 0 240
0 0 246
0 0 246
0 0 238
0 0 242
0 0 248
0 0 244
0 0 240
0 0 248
0 0 248
0 0 248
0 0 238
0 0 245
0 0 234
0 0 241
0 0 246
0 0 246
0 0 242
0 0 244
0 0 234
0 0 240
0 0 242
0 0 233
0 0 228
0 0 242
0 0 228
0 0 242
0 0 245
0 0 238
0 0 237
0 0 236
0 0 242
0 0 228
0 0 237
0 0 238
0 0 236
0 0 240
0 0 223
0 0 237
0 0 240
0 0 224
0 0 234
0 0 223
0 0 221
0 0 228
0 0 227
0 0 237
0 0 217
0 0 224
0 0 220
0 0 227
0 0 223
0 0 224
0 0 215
0 0 224
0 0 223
0 0 209
0 0 214
0 0 214
0 0 212
0 0 218
0 0 201
0 0 214
0 0 211
0 0 199
0 0 211
142 156 223
208 228 255
208 228 255
208 228 255
208 228 255
208 228 255
208 228 255
208 228 255
208 228 255
208 228 255
208 228 255
208 228 255
208 228 255
208 228 255
208 228 255
208 228 255
208 228 255
208 228 255
208 228 255
208 228 255
208 228 255
208 228 255
208 228 255
191 172 193
157 0 0
144 0 0
169 0 0
164 0 0
170 0 0
166 0 0
164 0 0
176 0 0
161 0 0
174 0 0
167 0 0
179 0 0
182 0 0
175 0 0
185 0 0
178 0 0
188 0 0
173 0 0
189 0 0
193 0 0
197 0 0
195 0 0
190 0 0
183 0 0
200 0 0
198 0 0
195 0 0
201 0 0
191 0 0
197 0 0
195 0 0
193 0 0
190 0 0
199 0 0
197 0 0
200 0 0
196 0 0
199 0 0
202 0 0
201 0 0
205 0 0
202 0 0
194 0 0
197 0 0
197 0 0
197 0 0
203 0 0
207 0 0
202 0 0
202 0 0
196 0 0
202 0 0
199 0 0
204 0 0
199 0 0
202 0 0
206 0 0
210 0 0
206 0 0
209 0 0
210 0 0
203 0 0
206 0 0
205 0 0
203 0 0
203 0 0
206 0 0
209 0 0
202 0 0
214 0 0
212 0 0
204 0 0
210 0 0
212 0 0
211 0 0
211 0 0
217 0 0
207 0 0
215 0 0
214 0 0
208 0 0
209 0 0
214 0 0
212 0 0
209 0 0
213 0 0
214 0 0
207 0 0
215 0 0
205 0 0
207 0 0
210 0 0
208 0 0
212 0 0
217 0 0
210 0 0
211 0 0
209 0 0
214 0 0
215 0 0
216 0 0
211 0 0
214 0 0
208 0 0
211 0 0
215 0 0
216 0 0
211 0 0
213 0 0
214 0 0
216 0 0
218 0 0
212 0 0
215 0 0
213 0 0
217 0 0
216 0 0
211 0 0
215 0 0
212 0 0
214 0 0
216 0 0
207 0 0
210 0 0
214 0 0
211 0 0
214 0 0
213 0 0
218 0 0
212 0 0
217 0 0
215 0 0
215 0 0
214 0 0
214 0 0
216 0 0
217 0 0
220 0 0
214 0 0
215 0 0
215 0 0
218 0 0
215 0 0
217 0 0
214 0 0
215 0 0
214 0 0
214 0 0
215 0 0
216 0 0
218 0 0
215 0 0
215 0 0
213 0 0
218 0 0
213 0 0
213 0 0
217 0 0
216 0 0
217 0 0
220 0 0
213 0 0
215 0 0
217 0 0
218 0 0
218 0 0
213 0 0
216 0 0
219 0 0
215 0 0
216 0 0
218 0 0
215 0 0
218 0 0
216 0 0
216 0 0
213 0 0
219 0 0
218 0 0
218 0 0
216 0 0
217 0 0
215 0 0
216 0 0
216 0 0
215 0 0
218 0 0
218 0 0
0 0 255
0 0 255
0 0 254
0 0 255
0 0 255
0 0 255
0 0 255
0 0 255
0 0 255
0 0 255
0 0 254
0 0 254
0 0 254
0 0 255
0 0 253
0 0 255
0 0 254
0 0 254
0 0 255
0 0 254
0 0 255
0 0 255
0 0 254
0 0 255
0 0 254
0 0 255
0 0 254
0 0 254
0 0 255
0 0 253
0 0 254
0 0 254
0 0 255
0 0 255
0 0 253
0 0 254
0 0 254
0 0 252
0 0 255
0 0 253
0 0 253
0 0 253
0 0 254
0 0 255
0 0 254
0 0 253
0 0 252
0 0 255
0 0 254
0 0 253
0 0 254
0 0 253
0 0 250
0 0 253
0 0 253
0 0 255
0 0 254
0 0 253
0 0 254
0 0 253
0 0 255
0 0 252
0 0 253
0 0 253
0 0 249
0 0 253
0 0 252
0 0 253
0 0 253
0 0 255
0 0 249
0 0 249
0 0 248
0 0 253
0 0 253
0 0 253
0 0 249
0 0 252
0 0 249
0 0 250
0 0 252
0 0 252
0 0 252
0 0 253
0 0 254
0 0 252
0 0 253
0 0 252
0 0 252
0 0 254
0 0 248
0 0 250
0 0 250
0 0 250
0 0 246
0 0 254
0 0 250
0 0 252
0 0 248
0 0 246
0 0 242
0 0 249
0 0 248
0 0 253
0 0 252
0 0 249
0 0 252
0 0 252
0 0 250
0 0 249
0 0 248
0 0 245
0 0 249
0 0 248
0 0 245
0 0 245
0 0 244
0 0 248
0 0 249
0 0 242
0 0 248
0 0 250
0 0 248
0 0 250
0 0 248
0 0 248
0 0 249
0 0 246
0 0 240
0 0 242
0 0 242
0 0 245
0 0 244
0 0 244
0 0 238
0 0 242
0 0 241
0 0 238
0 0 245
0 0 238
0 0 249
0 0 237
0 0 242
0 0 238
0 0 241
0 0 234
0 0 244
0 0 242
0 0 236
0 0 227
0 0 231
0 0 238
0 0 237
0 0 238
0 0 244
0 0 236
0 0 236
0 0 231
0 0 231
0 0 231
0 0 233
0 0 233
0 0 233
0 0 224
0 0 224
0 0 237
0 0 227
0 0 227
0 0 220
0 0 227
0 0 228
0 0 224
0 0 234
0 0 215
0 0 223
0 0 231
0 0 209
0 0 206
0 0 206
0 0 212
0 0 215
0 0 209
0 0 211
0 0 206
0 0 207
0 0 181
0 0 186
0 0 203
36 39 209
199 218 250
208 228 255
208 228 255
208 228 255
208 228 255
208 228 255
208 228 255
208 228 255
208 228 255
208 228 255
208 228 255
208 228 255
208 228 255
208 228 255
208 228 255
208 228 255
208 228 255
208 228 255
208 228 255
208 228 255
208 228 255
203 215 241
158 51 57
155 0 0
159 0 0
166 0 0
174 0 0
162 0 0
154 0 0
166 0 0
168 0 0
173 0 0
176 0 0
177 0 0
168 0 0
184 0 0
173 0 0
180 0 0
187 0 0
178 0 0
183 0 0
177 0 0
185 0 0
191 0 0
188 0 0
181 0 0
184 0 0
197 0 0
192 0 0
200 0 0
195 0 0
191 0 0
187 0 0
198 0 0
204 0 0
198 0 0
186 0 0
197 0 0
202 0 0
201 0 0
194 0 0
196 0 0
203 0 0
194 0 0
197 0 0
205 0 0
204 0 0
196 0 0
197 0 0
205 0 0
206 0 0
206 0 0
206 0 0
201 0 0
202 0 0
208 0 0
204 0 0
208 0 0
207 0 0
203 0 0
204 0 0
208 0 0
206 0 0
212 0 0
199 0 0
205 0 0
207 0 0
212 0 0
206 0 0
206 0 0
212 0 0
210 0 0
212 0 0
210 0 0
207 0 0
210 0 0
216 0 0
214 0 0
211 0 0
210 0 0
208 0 0
210 0 0
204 0 0
212 0 0
205 0 0
209 0 0
209 0 0
211 0 0
210 0 0
207 0 0
213 0 0
213 0 0
211 0 0
208 0 0
217 0 0
208 0 0
211 0 0
216 0 0
211 0 0
213 0 0
213 0 0
214 0 0
212 0 0
209 0 0
212 0 0
208 0 0
215 0 0
215 0 0
214 0 0
211 0 0
210 0 0
210 0 0
214 0 0
217 0 0
214 0 0
217 0 0
215 0 0
215 0 0
214 0 0
215 0 0
216 0 0
215 0 0
213 0 0
214 0 0
211 0 0
215 0 0
215 0 0
213 0 0
214 0 0
214 0 0
210 0 0
212 0 0
216 0 0
214 0 0
216 0 0
215 0 0
209 0 0
218 0 0
214 0 0
217 0 0
215 0 0
213 0 0
213 0 0
217 0 0
215 0 0
212 0 0
217 0 0
217 0 0
214 0 0
218 0 0
213 0 0
217 0 0
212 0 0
219 0 0
215 0 0
215 0 0
216 0 0
213 0 0
220 0 0
216 0 0
218 0 0
217 0 0
218 0 0
217 0 0
217 0 0
216 0 0
217 0 0
216 0 0
219 0 0
217 0 0
216 0 0
216 0 0
214 0 0
215 0 0
216 0 0
218 0 0
219 0 0
216 0 0
219 0 0
216 0 0
215 0 0
216 0 0
216 0 0
214 0 0
217 0 0
218 0 0
215 0 0
215 0 0
218 0 0
215 0 0
217 0 0
0 0 254
0 0 255
0 0 255
0 0 254
0 0 254
0 0 255
0 0 254
0 0 255
0 0 255
0 0 255
0 0 255
0 0 253
0 0 253
0 0 255
0 0 254
0 0 255
0 0 255
0 0 255
0 0 255
0 0 255
0 0 254
0 0 255
0 0 253
0 0 254
0 0 254
0 0 255
0 0 253
0 0 253
0 0 254
0 0 255
0 0 254
0 0 255
0 0 254
0 0 253
0 0 255
0 0 254
0 0 254
0 0 250
0 0 253
0 0 255
0 0 255
0 0 255
0 0 253
0 0 255
0 0 255
0 0 254
0 0 254
0 0 255
0 0 252
0 0 254
0 0 245
0 0 255
0 0 254
0 0 252
0 0 253
0 0 254
0 0 255
0 0 254
0 0 253
0 0 250
0 0 254
0 0 254
0 0 255
0 0 252
0 0 252
0 0 253
0 0 255
0 0 254
0 0 253
0 0 248
0 0 253
0 0 252
0 0 254
0 0 252
0 0 250
0 0 248
0 0 253
0 0 253
0 0 252
0 0 254
0 0 250
0 0 252
0 0 249
0 0 253
0 0 253
0 0 253
0 0 250
0 0 253
0 0 252
0 0 250
0 0 250
0 0 253
0 0 249
0 0 249
0 0 246
0 0 250
0 0 253
0 0 250
0 0 250
0 0 250
0 0 249
0 0 253
0 0 245
0 0 252
0 0 248
0 0 245
0 0 252
0 0 253
0 0 245
0 0 248
0 0 248
0 0 252
0 0 250
0 0 245
0 0 250
0 0 245
0 0 249
0 0 244
0 0 248
0 0 248
0 0 246
0 0 240
0 0 245
0 0 245
0 0 245
0 0 242
0 0 249
0 0 244
0 0 244
0 0 248
0 0 241
0 0 237
0 0 245
0 0 244
0 0 244
0 0 240
0 0 242
0 0 241
0 0 242
0 0 244
0 0 234
0 0 231
0 0 231
0 0 241
0 0 241
0 0 237
0 0 242
0 0 236
0 0 241
0 0 233
0 0 236
0 0 242
0 0 245
0 0 224
0 0 238
0 0 233
0 0 238
0 0 234
0 0 238
0 0 237
0 0 240
0 0 234
0 0 234
0 0 231
0 0 230
0 0 231
0 0 217
0 0 220
0 0 226
0 0 224
0 0 228
0 0 233
0 0 220
0 0 223
0 0 217
0 0 217
0 0 215
0 0 209
0 0 211
0 0 211
0 0 211
0 0 196
0 0 207
0 0 199
0 0 217
0 0 201
0 0 207
0 0 179
0 0 206
137 150 224
209 228 255
208 228 255
208 228 255
208 228 255
208 228 255
208 228 255
208 228 255
208 228 255
208 228 255
208 228 255
208 228 255
208 228 255
208 228 255
208 228 255
208 228 255
208 228 255
208 228 255
208 228 255
208 228 255
208 228 255
170 148 165
148 0 0
163 0 0
157 0 0
169 0 0
148 0 0
165 0 0
164 0 0
165 0 0
170 0 0
176 0 0
167 0 0
166 0 0
183 0 0
172 0 0
192 0 0
185 0 0
180 0 0
188 0 0
179 0 0
189 0 0
183 0 0
189 0 0
180 0 0
187 0 0
193 0 0
185 0 0
191 0 0
198 0 0
196 0 0
196 0 0
196 0 0
187 0 0
199 0 0
195 0 0
197 0 0
189 0 0
194 0 0
194 0 0
206 0 0
198 0 0
200 0 0
202 0 0
191 0 0
206 0 0
199 0 0
205 0 0
200 0 0
209 0 0
205 0 0
211 0 0
207 0 0
206 0 0
199 0 0
202 0 0
209 0 0
203 0 0
202 0 0
205 0 0
212 0 0
207 0 0
207 0 0
204 0 0
209 0 0
211 0 0
208 0 0
210 0 0
210 0 0
212 0 0
207 0 0
208 0 0
205 0 0
211 0 0
207 0 0
205 0 0
208 0 0
210 0 0
210 0 0
210 0 0
213 0 0
208 0 0
209 0 0
211 0 0
213 0 0
204 0 0
207 0 0
207 0 0
204 0 0
209 0 0
211 0 0
214 0 0
214 0 0
205 0 0
210 0 0
213 0 0
211 0 0
209 0 0
207 0 0
207 0 0
210 0 0
216 0 0
214 0 0
214 0 0
209 0 0
215 0 0
215 0 0
210 0 0
211 0 0
218 0 0
212 0 0
212 0 0
212 0 0
214 0 0
216 0 0
217 0 0
214 0 0
211 0 0
214 0 0
210 0 0
216 0 0
215 0 0
219 0 0
214 0 0
215 0 0
214 0 0
216 0 0
215 0 0
217 0 0
216 0 0
214 0 0
216 0 0
214 0 0
216 0 0
215 0 0
218 0 0
216 0 0
214 0 0
212 0 0
219 0 0
214 0 0
215 0 0
216 0 0
219 0 0
216 0 0
214 0 0
214 0 0
215 0 0
214 0 0
212 0 0
215 0 0
212 0 0
210 0 0
214 0 0
219 0 0
218 0 0
215 0 0
215 0 0
215 0 0
213 0 0
216 0 0
222 0 0
217 0 0
216 0 0
218 0 0
215 0 0
217 0 0
214 0 0
216 0 0
212 0 0
218 0 0
216 0 0
217 0 0
220 0 0
218 0 0
214 0 0
214 0 0
216 0 0
215 0 0
215 0 0
215 0 0
214 0 0
220 0 0
218 0 0
220 0 0
217 0 0
220 0 0
215 0 0
216 0 0
218 0 0
215 0 0
0 0 254
0 0 255
0 0 254
0 0 255
0 0 255
0 0 255
0 0 255
0 0 255
0 0 254
0 0 255
0 0 255
0 0 252
0 0 255
0 0 255
0 0 255
0 0 255
0 0 255
0 0 254
0 0 254
0 0 254
0 0 255
0 0 254
0 0 255
0 0 254
0 0 254
0 0 254
0 0 254
0 0 254
0 0 254
0 0 254
0 0 255
0 0 253
0 0 254
0 0 255
0 0 254
0 0 255
0 0 255
0 0 254
0 0 254
0 0 252
0 0 255
0 0 253
0 0 254
0 0 252
0 0 253
0 0 255
0 0 253
0 0 253
0 0 254
0 0 254
0 0 252
0 0 254
0 0 254
0 0 253
0 0 253
0 0 254
0 0 255
0 0 248
0 0 253
0 0 255
0 0 252
0 0 253
0 0 253
0 0 254
0 0 254
0 0 254
0 0 253
0 0 252
0 0 253
0 0 253
0 0 249
0 0 252
0 0 253
0 0 249
0 0 253
0 0 254
0 0 249
0 0 252
0 0 253
0 0 255
0 0 254
0 0 252
0 0 254
0 0 250
0 0 249
0 0 248
0 0 253
0 0 244
0 0 254
0 0 253
0 0 254
0 0 252
0 0 250
0 0 245
0 0 245
0 0 248
0 0 253
0 0 244
0 0 253
0 0 250
0 0 249
0 0 249
0 0 248
0 0 252
0 0 246
0 0 248
0 0 249
0 0 249
0 0 250
0 0 248
0 0 250
0 0 248
0 0 245
0 0 249
0 0 245
0 0 249
0 0 244
0 0 249
0 0 250
0 0 248
0 0 245
0 0 244
0 0 242
0 0 242
0 0 248
0 0 246
0 0 242
0 0 244
0 0 244
0 0 246
0 0 249
0 0 244
0 0 240
0 0 241
0 0 246
0 0 248
0 0 244
0 0 245
0 0 245
0 0 242
0 0 241
0 0 248
0 0 237
0 0 242
0 0 238
0 0 238
0 0 236
0 0 238
0 0 241
0 0 245
0 0 242
0 0 240
0 0 242
0 0 238
0 0 236
0 0 237
0 0 238
0 0 238
0 0 242
0 0 226
0 0 230
0 0 236
0 0 226
0 0 237
0 0 233
0 0 228
0 0 228
0 0 228
0 0 227
0 0 234
0 0 220
0 0 214
0 0 231
0 0 228
0 0 211
0 0 217
0 0 209
0 0 224
0 0 201
0 0 199
0 0 223
0 0 204
0 0 218
0 0 215
0 0 207
0 0 201
0 0 198
0 0 206
0 0 191
41 45 191
178 195 241
209 229 255
209 229 255
209 229 255
209 229 255
209 229 255
209 229 255
209 229 255
209 229 255
209 229 255
209 229 255
209 229 255
209 229 255
209 229 255
209 229 255
209 229 255
209 229 255
209 229 255
209 229 255
201 211 236
137 39 44
153 0 0
157 0 0
162 0 0
153 0 0
153 0 0
169 0 0
170 0 0
156 0 0
177 0 0
159 0 0
177 0 0
179 0 0
182 0 0
176 0 0
183 0 0
190 0 0
175 0 0
180 0 0
189 0 0
189 0 0
186 0 0
194 0 0
187 0 0
183 0 0
190 0 0
191 0 0
199 0 0
196 0 0
187 0 0
193 0 0
204 0 0
185 0 0
191 0 0
200 0 0
196 0 0
204 0 0
196 0 0
197 0 0
200 0 0
193 0 0
200 0 0
207 0 0
204 0 0
199 0 0
196 0 0
202 0 0
201 0 0
207 0 0
207 0 0
207 0 0
201 0 0
203 0 0
209 0 0
205 0 0
199 0 0
205 0 0
205 0 0
202 0 0
212 0 0
205 0 0
202 0 0
210 0 0
208 0 0
204 0 0
210 0 0
210 0 0
214 0 0
206 0 0
208 0 0
206 0 0
208 0 0
209 0 0
209 0 0
205 0 0
207 0 0
216 0 0
208 0 0
210 0 0
209 0 0
213 0 0
211 0 0
208 0 0
206 0 0
210 0 0
216 0 0
211 0 0
208 0 0
217 0 0
215 0 0
215 0 0
209 0 0
211 0 0
212 0 0
212 0 0
214 0 0
215 0 0
213 0 0
215 0 0
209 0 0
213 0 0
211 0 0
209 0 0
208 0 0
211 0 0
216 0 0
210 0 0
216 0 0
217 0 0
211 0 0
216 0 0
215 0 0
214 0 0
217 0 0
213 0 0
213 0 0
215 0 0
216 0 0
216 0 0
216 0 0
208 0 0
212 0 0
216 0 0
216 0 0
217 0 0
219 0 0
214 0 0
214 0 0
215 0 0
217 0 0
213 0 0
215 0 0
217 0 0
214 0 0
211 0 0
214 0 0
220 0 0
215 0 0
214 0 0
218 0 0
213 0 0
215 0 0
216 0 0
215 0 0
218 0 0
215 0 0
215 0 0
219 0 0
217 0 0
214 0 0
217 0 0
220 0 0
214 0 0
217 0 0
212 0 0
218 0 0
216 0 0
219 0 0
216 0 0
214 0 0
218 0 0
214 0 0
215 0 0
216 0 0
214 0 0
217 0 0
217 0 0
216 0 0
218 0 0
216 0 0
219 0 0
217 0 0
217 0 0
216 0 0
216 0 0
215 0 0
219 0 0
220 0 0
215 0 0
216 0 0
218 0 0
219 0 0
219 0 0
219 0 0
216 0 0
216 0 0
217 0 0
217 0 0
214 0 0
216 0 0
0 0 255
0 0 255
0 0 255
0 0 255
0 0 255
0 0 254
0 0 255
0 0 254
0 0 254
0 0 255
0 0 253
0 0 254
0 0 255
0 0 253
0 0 253
0 0 254
0 0 255
0 0 255
0 0 255
0 0 254
0 0 254
0 0 255
0 0 254
0 0 254
0 0 254
0 0 254
0 0 252
0 0 253
0 0 254
0 0 254
0 0 254
0 0 253
0 0 253
0 0 255
0 0 255
0 0 252
0 0 254
0 0 255
0 0 253
0 0 254
0 0 254
0 0 253
0 0 254
0 0 254
0 0 253
0 0 254
0 0 255
0 0 255
0 0 255
0 0 254
0 0 253
0 0 253
0 0 254
0 0 254
0 0 253
0 0 255
0 0 254
0 0 255
0 0 253
0 0 253
0 0 253
0 0 252
0 0 253
0 0 255
0 0 253
0 0 253
0 0 252
0 0 250
0 0 252
0 0 254
0 0 255
0 0 254
0 0 255
0 0 253
0 0 245
0 0 255
0 0 252
0 0 249
0 0 255
0 0 252
0 0 250
0 0 250
0 0 253
0 0 255
0 0 250
0 0 252
0 0 246
0 0 249
0 0 254
0 0 249
0 0 252
0 0 253
0 0 250
0 0 253
0 0 249
0 0 248
0 0 254
0 0 253
0 0 252
0 0 253
0 0 245
0 0 252
0 0 249
0 0 252
0 0 249
0 0 252
0 0 246
0 0 240
0 0 246
0 0 244
0 0 252
0 0 249
0 0 245
0 0 245
0 0 246
0 0 248
0 0 253
0 0 248
0 0 245
0 0 246
0 0 244
0 0 249
0 0 249
0 0 248
0 0 240
0 0 250
0 0 253
0 0 242
0 0 246
0 0 246
0 0 242
0 0 248
0 0 245
0 0 246
0 0 244
0 0 233
0 0 244
0 0 246
0 0 236
0 0 238
0 0 236
0 0 245
0 0 246
0 0 238
0 0 248
0 0 233
0 0 238
0 0 241
0 0 236
0 0 245
0 0 238
0 0 244
0 0 236
0 0 231
0 0 241
0 0 221
0 0 237
0 0 249
0 0 230
0 0 230
0 0 234
0 0 231
0 0 227
0 0 234
0 0 237
0 0 230
0 0 233
0 0 223
0 0 223
0 0 223
0 0 224
0 0 218
0 0 212
0 0 217
0 0 217
0 0 215
0 0 217
0 0 221
0 0 223
0 0 223
0 0 209
0 0 209
0 0 209
0 0 191
0 0 193
0 0 204
0 0 209
0 0 198
0 0 193
0 0 203
129 141 217
209 229 255
209 229 255
209 229 255
209 229 255
209 229 255
209 229 255
209 229 255
209 229 255
209 229 255
209 229 255
209 229 255
209 229 255
209 229 255
209 229 255
209 229 255
209 229 255
209 229 255
209 229 255
172 137 153
134 0 0
141 0 0
152 0 0
147 0 0
155 0 0
179 0 0
150 0 0
172 0 0
165 0 0
167 0 0
178 0 0
176 0 0
178 0 0
186 0 0
187 0 0
185 0 0
174 0 0
186 0 0
187 0 0
184 0 0
185 0 0
183 0 0
185 0 0
197 0 0
189 0 0
183 0 0
186 0 0
186 0 0
182 0 0
194 0 0
195 0 0
191 0 0
207 0 0
192 0 0
189 0 0
195 0 0
197 0 0
195 0 0
195 0 0
193 0 0
199 0 0
199 0 0
187 0 0
202 0 0
204 0 0
197 0 0
207 0 0
197 0 0
205 0 0
201 0 0
201 0 0
205 0 0
202 0 0
210 0 0
205 0 0
205 0 0
212 0 0
209 0 0
203 0 0
210 0 0
206 0 0
205 0 0
207 0 0
204 0 0
208 0 0
206 0 0
209 0 0
211 0 0
206 0 0
207 0 0
206 0 0
212 0 0
208 0 0
209 0 0
212 0 0
212 0 0
212 0 0
210 0 0
212 0 0
211 0 0
208 0 0
213 0 0
203 0 0
210 0 0
213 0 0
210 0 0
210 0 0
211 0 0
213 0 0
213 0 0
202 0 0
213 0 0
212 0 0
213 0 0
217 0 0
212 0 0
213 0 0
212 0 0
212 0 0
214 0 0
206 0 0
210 0 0
217 0 0
212 0 0
214 0 0
217 0 0
218 0 0
212 0 0
212 0 0
214 0 0
211 0 0
212 0 0
213 0 0
213 0 0
209 0 0
212 0 0
215 0 0
218 0 0
217 0 0
216 0 0
218 0 0
212 0 0
216 0 0
216 0 0
212 0 0
211 0 0
214 0 0
215 0 0
216 0 0
215 0 0
218 0 0
215 0 0
217 0 0
213 0 0
216 0 0
215 0 0
217 0 0
213 0 0
217 0 0
217 0 0
218 0 0
217 0 0
216 0 0
217 0 0
214 0 0
215 0 0
215 0 0
217 0 0
221 0 0
217 0 0
216 0 0
217 0 0
215 0 0
215 0 0
216 0 0
216 0 0
214 0 0
216 0 0
217 0 0
215 0 0
217 0 0
214 0 0
212 0 0
215 0 0
209 0 0
216 0 0
217 0 0
221 0 0
217 0 0
216 0 0
214 0 0
215 0 0
217 0 0
219 0 0
218 0 0
214 0 0
217 0 0
219 0 0
218 0 0
217 0 0
216 0 0
219 0 0
217 0 0
215 0 0
218 0 0
219 0 0
219 0 0
217 0 0
216 0 0
220 0 0
0 0 255
0 0 255
0 0 254
0 0 255
0 0 254
0 0 255
0 0 255
0 0 255
0 0 252
0 0 253
0 0 255
0 0 255
0 0 255
0 0 253
0 0 255
0 0 254
0 0 254
0 0 254
0 0 255
0 0 255
0 0 254
0 0 255
0 0 254
0 0 253
0 0 255
0 0 253
0 0 254
0 0 255
0 0 253
0 0 255
0 0 253
0 0 255
0 0 253
0 0 253
0 0 255
0 0 253
0 0 252
0 0 253
0 0 253
0 0 253
0 0 255
0 0 254
0 0 253
0 0 253
0 0 252
0 0 253
0 0 254
0 0 255
0 0 253
0 0 255
0 0 254
0 0 255
0 0 250
0 0 254
0 0 255
0 0 254
0 0 253
0 0 253
0 0 252
0 0 255
0 0 255
0 0 250
0 0 253
0 0 252
0 0 250
0 0 255
0 0 249
0 0 254
0 0 252
0 0 252
0 0 253
0 0 254
0 0 252
0 0 250
0 0 252
0 0 255
0 0 254
0 0 249
0 0 252
0 0 253
0 0 250
0 0 254
0 0 248
0 0 249
0 0 253
0 0 252
0 0 250
0 0 250
0 0 250
0 0 254
0 0 253
0 0 250
0 0 250
0 0 253
0 0 250
0 0 253
0 0 249
0 0 249
0 0 250
0 0 249
0 0 250
0 0 246
0 0 249
0 0 250
0 0 250
0 0 248
0 0 246
0 0 248
0 0 254
0 0 252
0 0 252
0 0 248
0 0 245
0 0 246
0 0 250
0 0 245
0 0 250
0 0 244
0 0 249
0 0 245
0 0 244
0 0 245
0 0 241
0 0 248
0 0 241
0 0 245
0 0 244
0 0 241
0 0 238
0 0 238
0 0 249
0 0 237
0 0 246
0 0 237
0 0 249
0 0 246
0 0 237
0 0 236
0 0 238
0 0 241
0 0 241
0 0 241
0 0 238
0 0 236
0 0 245
0 0 241
0 0 238
0 0 242
0 0 238
0 0 236
0 0 236
0 0 240
0 0 233
0 0 234
0 0 234
0 0 221
0 0 240
0 0 223
0 0 240
0 0 231
0 0 236
0 0 224
0 0 224
0 0 233
0 0 228
0 0 224
0 0 236
0 0 215
0 0 230
0 0 207
0 0 226
0 0 223
0 0 220
0 0 220
0 0 220
0 0 214
0 0 221
0 0 203
0 0 211
0 0 206
0 0 212
0 0 201
0 0 209
0 0 198
0 0 203
0 0 189
0 0 204
0 0 188
0 0 188
0 0 184
0 0 203
181 198 240
209 229 255
209 229 255
209 229 255
209 229 255
209 229 255
209 229 255
209 229 255
209 229 255
209 229 255
209 229 255
209 229 255
209 229 255
209 229 255
209 229 255
209 229 255
209 229 255
203 209 233
136 22 25
147 0 0
155 0 0
147 0 0
151 0 0
165 0 0
147 0 0
172 0 0
172 0 0
166 0 0
174 0 0
174 0 0
178 0 0
174 0 0
183 0 0
166 0 0
181 0 0
184 0 0
187 0 0
182 0 0
187 0 0
170 0 0
181 0 0
182 0 0
200 0 0
187 0 0
187 0 0
193 0 0
187 0 0
185 0 0
197 0 0
198 0 0
200 0 0
203 0 0
194 0 0
195 0 0
198 0 0
200 0 0
198 0 0
206 0 0
202 0 0
205 0 0
200 0 0
198 0 0
197 0 0
205 0 0
210 0 0
201 0 0
202 0 0
203 0 0
199 0 0
202 0 0
206 0 0
200 0 0
206 0 0
201 0 0
201 0 0
206 0 0
205 0 0
197 0 0
208 0 0
211 0 0
207 0 0
204 0 0
203 0 0
207 0 0
208 0 0
216 0 0
205 0 0
203 0 0
217 0 0
211 0 0
208 0 0
214 0 0
206 0 0
209 0 0
212 0 0
207 0 0
210 0 0
211 0 0
208 0 0
212 0 0
212 0 0
213 0 0
210 0 0
211 0 0
212 0 0
211 0 0
211 0 0
210 0 0
216 0 0
211 0 0
205 0 0
210 0 0
214 0 0
210 0 0
207 0 0
205 0 0
216 0 0
211 0 0
206 0 0
214 0 0
213 0 0
213 0 0
212 0 0
210 0 0
216 0 0
214 0 0
219 0 0
213 0 0
213 0 0
217 0 0
217 0 0
211 0 0
210 0 0
213 0 0
217 0 0
211 0 0
218 0 0
213 0 0
212 0 0
218 0 0
218 0 0
215 0 0
211 0 0
220 0 0
213 0 0
215 0 0
214 0 0
216 0 0
214 0 0
216 0 0
215 0 0
216 0 0
215 0 0
210 0 0
217 0 0
218 0 0
216 0 0
215 0 0
215 0 0
214 0 0
211 0 0
213 0 0
220 0 0
216 0 0
216 0 0
215 0 0
218 0 0
213 0 0
218 0 0
211 0 0
214 0 0
215 0 0
216 0 0
219 0 0
215 0 0
219 0 0
217 0 0
215 0 0
214 0 0
217 0 0
217 0 0
215 0 0
216 0 0
214 0 0
216 0 0
220 0 0
218 0 0
216 0 0
220 0 0
218 0 0
220 0 0
215 0 0
216 0 0
217 0 0
216 0 0
216 0 0
216 0 0
217 0 0
217 0 0
221 0 0
217 0 0
216 0 0
217 0 0
216 0 0
219 0 0
219 0 0
215 0 0
216 0 0
215 0 0
0 0 255
0 0 255
0 0 255
0 0 254
0 0 253
0 0 255
0 0 253
0 0 254
0 0 255
0 0 254
0 0 255
0 0 255
0 0 254
0 0 253
0 0 255
0 0 255
0 0 255
0 0 255
0 0 254
0 0 253
0 0 255
0 0 254
0 0 253
0 0 255
0 0 254
0 0 254
0 0 254
0 0 254
0 0 255
0 0 254
0 0 255
0 0 253
0 0 254
0 0 255
0 0 255
0 0 255
0 0 253
0 0 254
0 0 254
0 0 255
0 0 253
0 0 253
0 0 252
0 0 255
0 0 254
0 0 253
0 0 254
0 0 255
0 0 254
0 0 252
0 0 253
0 0 253
0 0 254
0 0 252
0 0 254
0 0 252
0 0 253
0 0 252
0 0 252
0 0 254
0 0 254
0 0 254
0 0 252
0 0 255
0 0 255
0 0 250
0 0 253
0 0 254
0 0 254
0 0 253
0 0 252
0 0 252
0 0 252
0 0 253
0 0 250
0 0 254
0 0 250
0 0 253
0 0 254
0 0 252
0 0 248
0 0 250
0 0 253
0 0 252
0 0 250
0 0 252
0 0 246
0 0 252
0 0 250
0 0 254
0 0 250
0 0 252
0 0 250
0 0 253
0 0 250
0 0 249
0 0 250
0 0 246
0 0 252
0 0 248
0 0 250
0 0 250
0 0 249
0 0 253
0 0 250
0 0 248
0 0 245
0 0 246
0 0 245
0 0 250
0 0 250
0 0 250
0 0 250
0 0 252
0 0 250
0 0 241
0 0 248
0 0 245
0 0 250
0 0 248
0 0 246
0 0 242
0 0 245
0 0 246
0 0 249
0 0 253
0 0 240
0 0 240
0 0 244
0 0 245
0 0 244
0 0 242
0 0 238
0 0 246
0 0 244
0 0 246
0 0 244
0 0 238
0 0 244
0 0 242
0 0 238
0 0 238
0 0 245
0 0 238
0 0 245
0 0 238
0 0 244
0 0 249
0 0 241
0 0 236
0 0 236
0 0 238
0 0 240
0 0 237
0 0 233
0 0 238
0 0 228
0 0 234
0 0 230
0 0 234
0 0 227
0 0 238
0 0 234
0 0 234
0 0 233
0 0 217
0 0 230
0 0 224
0 0 223
0 0 218
0 0 233
0 0 221
0 0 215
0 0 220
0 0 236
0 0 209
0 0 218
0 0 217
0 0 211
0 0 215
0 0 204
0 0 212
0 0 206
0 0 211
0 0 203
0 0 196
0 0 203
0 0 201
0 0 199
0 0 179
0 0 157
131 143 218
210 229 255
210 229 255
210 229 255
210 229 255
210 229 255
210 229 255
210 229 255
210 229 255
210 229 255
210 229 255
210 229 255
210 229 255
210 229 255
210 229 255
210 229 255
210 229 255
169 137 153
130 0 0
142 0 0
154 0 0
148 0 0
165 0 0
154 0 0
158 0 0
157 0 0
149 0 0
165 0 0
166 0 0
175 0 0
180 0 0
171 0 0
176 0 0
183 0 0
176 0 0
176 0 0
191 0 0
197 0 0
190 0 0
187 0 0
177 0 0
189 0 0
184 0 0
188 0 0
195 0 0
183 0 0
200 0 0
187 0 0
196 0 0
193 0 0
194 0 0
198 0 0
199 0 0
187 0 0
202 0 0
206 0 0
205 0 0
197 0 0
197 0 0
195 0 0
198 0 0
199 0 0
199 0 0
205 0 0
200 0 0
198 0 0
199 0 0
205 0 0
199 0 0
206 0 0
205 0 0
206 0 0
205 0 0
209 0 0
209 0 0
207 0 0
208 0 0
210 0 0
210 0 0
203 0 0
207 0 0
210 0 0
204 0 0
209 0 0
207 0 0
207 0 0
205 0 0
211 0 0
202 0 0
209 0 0
211 0 0
207 0 0
210 0 0
209 0 0
208 0 0
207 0 0
216 0 0
209 0 0
211 0 0
210 0 0
206 0 0
207 0 0
203 0 0
206 0 0
214 0 0
216 0 0
210 0 0
212 0 0
215 0 0
212 0 0
207 0 0
206 0 0
211 0 0
213 0 0
216 0 0
216 0 0
217 0 0
213 0 0
211 0 0
211 0 0
214 0 0
214 0 0
214 0 0
212 0 0
212 0 0
215 0 0
211 0 0
217 0 0
213 0 0
212 0 0
212 0 0
214 0 0
209 0 0
215 0 0
212 0 0
215 0 0
211 0 0
213 0 0
216 0 0
211 0 0
214 0 0
208 0 0
215 0 0
212 0 0
215 0 0
218 0 0
215 0 0
213 0 0
214 0 0
214 0 0
218 0 0
213 0 0
213 0 0
215 0 0
216 0 0
214 0 0
217 0 0
214 0 0
216 0 0
213 0 0
216 0 0
216 0 0
213 0 0
215 0 0
217 0 0
219 0 0
214 0 0
213 0 0
214 0 0
215 0 0
220 0 0
217 0 0
219 0 0
221 0 0
216 0 0
220 0 0
215 0 0
218 0 0
218 0 0
218 0 0
218 0 0
212 0 0
217 0 0
216 0 0
212 0 0
215 0 0
218 0 0
220 0 0
218 0 0
220 0 0
220 0 0
217 0 0
217 0 0
215 0 0
215 0 0
219 0 0
219 0 0
217 0 0
215 0 0
216 0 0
217 0 0
218 0 0
219 0 0
217 0 0
217 0 0
216 0 0
217 0 0
218 0 0
219 0 0
0 0 255
0 0 254
0 0 255
0 0 255
0 0 255
0 0 255
0 0 255
0 0 255
0 0 255
0 0 255
0 0 254
0 0 255
0 0 255
0 0 255
0 0 255
0 0 255
0 0 255
0 0 255
0 0 255
0 0 252
0 0 253
0 0 255
0 0 254
0 0 254
0 0 253
0 0 252
0 0 254
0 0 253
0 0 255
0 0 254
0 0 250
0 0 250
0 0 252
0 0 255
0 0 255
0 0 253
0 0 255
0 0 253
0 0 254
0 0 254
0 0 254
0 0 253
0 0 255
0 0 253
0 0 253
0 0 254
0 0 253
0 0 255
0 0 253
0 0 254
0 0 253
0 0 254
0 0 252
0 0 253
0 0 254
0 0 252
0 0 253
0 0 255
0 0 255
0 0 252
0 0 253
0 0 254
0 0 250
0 0 254
0 0 253
0 0 254
0 0 245
0 0 255
0 0 253
0 0 254
0 0 254
0 0 252
0 0 254
0 0 248
0 0 252
0 0 253
0 0 252
0 0 250
0 0 252
0 0 253
0 0 253
0 0 249
0 0 253
0 0 253
0 0 253
0 0 250
0 0 250
0 0 253
0 0 254
0 0 248
0 0 248
0 0 249
0 0 252
0 0 254
0 0 252
0 0 250
0 0 252
0 0 248
0 0 250
0 0 249
0 0 249
0 0 252
0 0 250
0 0 254
0 0 248
0 0 249
0 0 248
0 0 254
0 0 248
0 0 248
0 0 252
0 0 253
0 0 248
0 0 244
0 0 250
0 0 249
0 0 246
0 0 246
0 0 252
0 0 245
0 0 244
0 0 252
0 0 249
0 0 245
0 0 245
0 0 248
0 0 241
0 0 241
0 0 246
0 0 244
0 0 245
0 0 245
0 0 242
0 0 244
0 0 248
0 0 248
0 0 244
0 0 253
0 0 241
0 0 234
0 0 237
0 0 246
0 0 241
0 0 233
0 0 238
0 0 241
0 0 238
0 0 244
0 0 238
0 0 240
0 0 237
0 0 238
0 0 236
0 0 241
0 0 226
0 0 237
0 0 241
0 0 240
0 0 237
0 0 236
0 0 237
0 0 238
0 0 215
0 0 230
0 0 218
0 0 241
0 0 230
0 0 237
0 0 223
0 0 231
0 0 211
0 0 221
0 0 214
0 0 217
0 0 217
0 0 223
0 0 223
0 0 214
0 0 199
0 0 203
0 0 196
0 0 203
0 0 191
0 0 209
0 0 209
0 0 201
0 0 204
0 0 206
0 0 199
0 0 188
0 0 177
21 22 171
192 210 250
210 229 255
210 229 255
210 229 255
210 229 255
210 229 255
210 229 255
210 229 255
210 229 255
210 229 255
210 229 255
210 229 255
210 229 255
210 229 255
210 229 255
209 223 249
144 22 25
140 0 0
150 0 0
149 0 0
162 0 0
163 0 0
164 0 0
161 0 0
166 0 0
164 0 0
175 0 0
169 0 0
166 0 0
177 0 0
179 0 0
179 0 0
180 0 0
183 0 0
182 0 0
182 0 0
187 0 0
190 0 0
177 0 0
178 0 0
196 0 0
190 0 0
181 0 0
192 0 0
190 0 0
191 0 0
194 0 0
183 0 0
198 0 0
201 0 0
188 0 0
198 0 0
197 0 0
199 0 0
203 0 0
197 0 0
194 0 0
197 0 0
202 0 0
205 0 0
199 0 0
205 0 0
201 0 0
208 0 0
196 0 0
202 0 0
200 0 0
207 0 0
205 0 0
205 0 0
210 0 0
210 0 0
205 0 0
204 0 0
212 0 0
198 0 0
210 0 0
207 0 0
208 0 0
209 0 0
209 0 0
205 0 0
202 0 0
203 0 0
207 0 0
208 0 0
208 0 0
209 0 0
207 0 0
210 0 0
211 0 0
210 0 0
206 0 0
209 0 0
207 0 0
210 0 0
211 0 0
213 0 0
211 0 0
212 0 0
207 0 0
203 0 0
209 0 0
219 0 0
208 0 0
212 0 0
214 0 0
214 0 0
216 0 0
214 0 0
206 0 0
213 0 0
212 0 0
210 0 0
211 0 0
212 0 0
215 0 0
216 0 0
216 0 0
212 0 0
213 0 0
211 0 0
215 0 0
214 0 0
209 0 0
212 0 0
212 0 0
215 0 0
211 0 0
213 0 0
216 0 0
216 0 0
215 0 0
214 0 0
217 0 0
215 0 0
208 0 0
214 0 0
216 0 0
212 0 0
213 0 0
216 0 0
214 0 0
213 0 0
216 0 0
217 0 0
216 0 0
217 0 0
212 0 0
216 0 0
214 0 0
216 0 0
214 0 0
216 0 0
215 0 0
210 0 0
213 0 0
213 0 0
215 0 0
220 0 0
215 0 0
217 0 0
214 0 0
218 0 0
215 0 0
216 0 0
219 0 0
217 0 0
216 0 0
215 0 0
218 0 0
217 0 0
218 0 0
214 0 0
215 0 0
215 0 0
213 0 0
217 0 0
216 0 0
218 0 0
217 0 0
218 0 0
218 0 0
220 0 0
217 0 0
216 0 0
219 0 0
218 0 0
218 0 0
214 0 0
220 0 0
218 0 0
220 0 0
218 0 0
216 0 0
220 0 0
218 0 0
219 0 0
220 0 0
220 0 0
216 0 0
220 0 0
215 0 0
217 0 0
215 0 0
215 0 0
221 0 0
219 0 0
0 0 255
0 0 254
0 0 255
0 0 255
0 0 253
0 0 255
0 0 255
0 0 255
0 0 255
0 0 255
0 0 255
0 0 255
0 0 255
0 0 253
0 0 254
0 0 255
0 0 255
0 0 254
0 0 253
0 0 254
0 0 253
0 0 254
0 0 253
0 0 255
0 0 255
0 0 254
0 0 255
0 0 254
0 0 250
0 0 253
0 0 255
0 0 254
0 0 254
0 0 255
0 0 255
0 0 255
0 0 255
0 0 254
0 0 255
0 0 255
0 0 254
0 0 252
0 0 255
0 0 255
0 0 254
0 0 252
0 0 253
0 0 254
0 0 250
0 0 255
0 0 254
0 0 254
0 0 253
0 0 253
0 0 253
0 0 254
0 0 255
0 0 252
0 0 252
0 0 254
0 0 255
0 0 248
0 0 248
0 0 253
0 0 253
0 0 252
0 0 254
0 0 252
0 0 253
0 0 255
0 0 254
0 0 254
0 0 253
0 0 252
0 0 245
0 0 252
0 0 254
0 0 250
0 0 249
0 0 250
0 0 248
0 0 246
0 0 249
0 0 250
0 0 254
0 0 249
0 0 249
0 0 253
0 0 249
0 0 250
0 0 250
0 0 254
0 0 254
0 0 250
0 0 252
0 0 253
0 0 248
0 0 250
0 0 253
0 0 246
0 0 249
0 0 250
0 0 248
0 0 252
0 0 249
0 0 252
0 0 250
0 0 248
0 0 249
0 0 252
0 0 249
0 0 248
0 0 253
0 0 253
0 0 245
0 0 246
0 0 253
0 0 248
0 0 244
0 0 248
0 0 244
0 0 249
0 0 240
0 0 248
0 0 245
0 0 244
0 0 240
0 0 245
0 0 245
0 0 241
0 0 240
0 0 249
0 0 248
0 0 245
0 0 246
0 0 244
0 0 249
0 0 240
0 0 242
0 0 249
0 0 240
0 0 234
0 0 230
0 0 241
0 0 241
0 0 237
0 0 241
0 0 245
0 0 241
0 0 246
0 0 233
0 0 231
0 0 242
0 0 242
0 0 241
0 0 242
0 0 233
0 0 244
0 0 230
0 0 227
0 0 234
0 0 233
0 0 231
0 0 220
0 0 218
0 0 227
0 0 234
0 0 220
0 0 224
0 0 220
0 0 218
0 0 221
0 0 226
0 0 231
0 0 231
0 0 226
0 0 215
0 0 227
0 0 196
0 0 218
0 0 221
0 0 212
0 0 193
0 0 204
0 0 191
0 0 204
0 0 184
0 0 188
0 0 193
0 0 206
0 0 182
0 0 175
126 137 209
210 229 255
210 229 255
210 229 255
210 229 255
210 229 255
210 229 255
210 229 255
210 229 255
210 229 255
210 229 255
210 229 255
210 229 255
210 229 255
210 229 255
178 170 189
142 0 0
153 0 0
131 0 0
143 0 0
165 0 0
168 0 0
165 0 0
170 0 0
178 0 0
166 0 0
170 0 0
171 0 0
173 0 0
175 0 0
171 0 0
189 0 0
174 0 0
193 0 0
184 0 0
166 0 0
188 0 0
182 0 0
185 0 0
188 0 0
186 0 0
191 0 0
186 0 0
191 0 0
187 0 0
187 0 0
193 0 0
191 0 0
203 0 0
200 0 0
197 0 0
197 0 0
201 0 0
196 0 0
195 0 0
197 0 0
199 0 0
201 0 0
200 0 0
203 0 0
203 0 0
195 0 0
201 0 0
200 0 0
199 0 0
208 0 0
201 0 0
207 0 0
202 0 0
206 0 0
201 0 0
205 0 0
208 0 0
209 0 0
206 0 0
207 0 0
202 0 0
202 0 0
205 0 0
206 0 0
206 0 0
206 0 0
203 0 0
210 0 0
207 0 0
204 0 0
207 0 0
209 0 0
212 0 0
208 0 0
209 0 0
202 0 0
207 0 0
214 0 0
212 0 0
214 0 0
210 0 0
211 0 0
212 0 0
210 0 0
213 0 0
214 0 0
206 0 0
209 0 0
213 0 0
211 0 0
212 0 0
208 0 0
217 0 0
213 0 0
206 0 0
214 0 0
212 0 0
210 0 0
208 0 0
210 0 0
212 0 0
208 0 0
210 0 0
210 0 0
214 0 0
215 0 0
215 0 0
213 0 0
214 0 0
209 0 0
212 0 0
214 0 0
216 0 0
212 0 0
211 0 0
210 0 0
217 0 0
216 0 0
217 0 0
214 0 0
218 0 0
216 0 0
216 0 0
214 0 0
208 0 0
216 0 0
214 0 0
214 0 0
216 0 0
216 0 0
215 0 0
217 0 0
211 0 0
215 0 0
216 0 0
216 0 0
218 0 0
219 0 0
217 0 0
215 0 0
214 0 0
215 0 0
214 0 0
211 0 0
219 0 0
213 0 0
213 0 0
213 0 0
215 0 0
216 0 0
218 0 0
215 0 0
217 0 0
216 0 0
214 0 0
214 0 0
216 0 0
214 0 0
212 0 0
215 0 0
219 0 0
221 0 0
215 0 0
214 0 0
217 0 0
219 0 0
216 0 0
218 0 0
215 0 0
216 0 0
221 0 0
216 0 0
218 0 0
216 0 0
219 0 0
220 0 0
211 0 0
216 0 0
213 0 0
218 0 0
217 0 0
219 0 0
216 0 0
217 0 0
214 0 0
219 0 0
218 0 0
220 0 0
215 0 0
214 0 0
222 0 0
216 0 0
0 0 255
0 0 255
0 0 255
0 0 255
0 0 255
0 0 254
0 0 252
0 0 255
0 0 254
0 0 254
0 0 254
0 0 255
0 0 254
0 0 255
0 0 254
0 0 254
0 0 255
0 0 255
0 0 255
0 0 255
0 0 252
0 0 254
0 0 255
0 0 253
0 0 255
0 0 255
0 0 254
0 0 254
0 0 255
0 0 253
0 0 254
0 0 253
0 0 255
0 0 254
0 0 254
0 0 253
0 0 252
0 0 253
0 0 254
0 0 255
0 0 255
0 0 254
0 0 253
0 0 255
0 0 254
0 0 255
0 0 254
0 0 250
0 0 252
0 0 255
0 0 252
0 0 255
0 0 253
0 0 255
0 0 250
0 0 253
0 0 249
0 0 253
0 0 253
0 0 254
0 0 252
0 0 253
0 0 252
0 0 252
0 0 255
0 0 254
0 0 252
0 0 252
0 0 252
0 0 250
0 0 250
0 0 249
0 0 253
0 0 254
0 0 252
0 0 250
0 0 248
0 0 253
0 0 253
0 0 252
0 0 252
0 0 253
0 0 253
0 0 252
0 0 253
0 0 252
0 0 250
0 0 244
0 0 255
0 0 252
0 0 249
0 0 245
0 0 252
0 0 248
0 0 249
0 0 250
0 0 252
0 0 250
0 0 246
0 0 250
0 0 250
0 0 249
0 0 245
0 0 248
0 0 249
0 0 246
0 0 252
0 0 248
0 0 246
0 0 248
0 0 249
0 0 245
0 0 248
0 0 249
0 0 244
0 0 249
0 0 249
0 0 246
0 0 246
0 0 249
0 0 238
0 0 254
0 0 246
0 0 246
0 0 240
0 0 237
0 0 245
0 0 241
0 0 245
0 0 248
0 0 245
0 0 245
0 0 249
0 0 244
0 0 246
0 0 241
0 0 245
0 0 240
0 0 244
0 0 240
0 0 244
0 0 241
0 0 242
0 0 242
0 0 233
0 0 236
0 0 241
0 0 245
0 0 237
0 0 240
0 0 242
0 0 228
0 0 240
0 0 238
0 0 240
0 0 231
0 0 233
0 0 230
0 0 237
0 0 233
0 0 233
0 0 230
0 0 221
0 0 215
0 0 234
0 0 228
0 0 220
0 0 228
0 0 227
0 0 217
0 0 226
0 0 214
0 0 209
0 0 217
0 0 211
0 0 212
0 0 209
0 0 212
0 0 227
0 0 221
0 0 194
0 0 206
0 0 211
0 0 194
0 0 191
0 0 194
0 0 193
0 0 194
0 0 188
0 0 182
0 0 169
0 0 181
47 51 188
207 226 254
211 230 255
211 230 255
211 230 255
211 230 255
211 230 255
211 230 255
211 230 255
211 230 255
211 230 255
211 230 255
211 230 255
211 230 255
208 225 250
125 56 62
141 0 0
162 0 0
139 0 0
154 0 0
147 0 0
149 0 0
157 0 0
156 0 0
168 0 0
156 0 0
163 0 0
168 0 0
169 0 0
177 0 0
175 0 0
180 0 0
187 0 0
176 0 0
180 0 0
178 0 0
193 0 0
191 0 0
186 0 0
182 0 0
197 0 0
186 0 0
187 0 0
204 0 0
192 0 0
199 0 0
192 0 0
202 0 0
198 0 0
199 0 0
203 0 0
193 0 0
207 0 0
195 0 0
194 0 0
198 0 0
203 0 0
199 0 0
200 0 0
199 0 0
197 0 0
202 0 0
202 0 0
204 0 0
205 0 0
200 0 0
203 0 0
199 0 0
200 0 0
208 0 0
203 0 0
200 0 0
208 0 0
204 0 0
194 0 0
210 0 0
208 0 0
208 0 0
210 0 0
206 0 0
204 0 0
203 0 0
204 0 0
212 0 0
211 0 0
211 0 0
206 0 0
208 0 0
212 0 0
210 0 0
213 0 0
215 0 0
203 0 0
207 0 0
205 0 0
212 0 0
212 0 0
207 0 0
214 0 0
207 0 0
213 0 0
213 0 0
211 0 0
213 0 0
214 0 0
207 0 0
213 0 0
216 0 0
220 0 0
214 0 0
210 0 0
215 0 0
212 0 0
217 0 0
216 0 0
213 0 0
216 0 0
214 0 0
216 0 0
217 0 0
216 0 0
208 0 0
213 0 0
213 0 0
217 0 0
212 0 0
211 0 0
209 0 0
215 0 0
216 0 0
215 0 0
218 0 0
217 0 0
215 0 0
216 0 0
215 0 0
216 0 0
215 0 0
215 0 0
210 0 0
216 0 0
217 0 0
218 0 0
219 0 0
210 0 0
219 0 0
214 0 0
213 0 0
217 0 0
215 0 0
215 0 0
214 0 0
216 0 0
213 0 0
217 0 0
219 0 0
215 0 0
214 0 0
219 0 0
223 0 0
215 0 0
216 0 0
214 0 0
219 0 0
213 0 0
213 0 0
216 0 0
218 0 0
219 0 0
218 0 0
212 0 0
216 0 0
213 0 0
214 0 0
217 0 0
215 0 0
216 0 0
213 0 0
215 0 0
217 0 0
216 0 0
217 0 0
216 0 0
219 0 0
214 0 0
221 0 0
216 0 0
216 0 0
217 0 0
216 0 0
215 0 0
217 0 0
217 0 0
219 0 0
218 0 0
215 0 0
217 0 0
220 0 0
220 0 0
218 0 0
217 0 0
216 0 0
218 0 0
216 0 0
220 0 0
216 0 0
219 0 0
218 0 0
0 0 255
0 0 255
0 0 254
0 0 254
0 0 255
0 0 255
0 0 255
0 0 255
0 0 255
0 0 254
0 0 255
0 0 255
0 0 255
0 0 255
0 0 252
0 0 254
0 0 254
0 0 254
0 0 253
0 0 255
0 0 255
0 0 255
0 0 255
0 0 255
0 0 255
0 0 255
0 0 254
0 0 255
0 0 254
0 0 255
0 0 255
0 0 253
0 0 255
0 0 254
0 0 255
0 0 253
0 0 254
0 0 255
0 0 255
0 0 252
0 0 254
0 0 255
0 0 255
0 0 253
0 0 253
0 0 254
0 0 253
0 0 253
0 0 254
0 0 253
0 0 255
0 0 253
0 0 255
0 0 254
0 0 253
0 0 253
0 0 254
0 0 253
0 0 255
0 0 254
0 0 253
0 0 252
0 0 246
0 0 253
0 0 250
0 0 252
0 0 253
0 0 252
0 0 253
0 0 254
0 0 254
0 0 253
0 0 250
0 0 250
0 0 250
0 0 252
0 0 252
0 0 254
0 0 250
0 0 253
0 0 250
0 0 249
0 0 250
0 0 253
0 0 246
0 0 250
0 0 252
0 0 252
0 0 249
0 0 250
0 0 246
0 0 250
0 0 252
0 0 252
0 0 245
0 0 245
0 0 250
0 0 253
0 0 250
0 0 249
0 0 246
0 0 246
0 0 250
0 0 253
0 0 250
0 0 246
0 0 248
0 0 248
0 0 252
0 0 249
0 0 249
0 0 246
0 0 248
0 0 245
0 0 249
0 0 240
0 0 250
0 0 246
0 0 245
0 0 246
0 0 240
0 0 249
0 0 236
0 0 253
0 0 249
0 0 245
0 0 242
0 0 242
0 0 246
0 0 248
0 0 241
0 0 245
0 0 246
0 0 237
0 0 244
0 0 240
0 0 245
0 0 237
0 0 241
0 0 242
0 0 240
0 0 241
0 0 233
0 0 236
0 0 242
0 0 240
0 0 242
0 0 241
0 0 238
0 0 230
0 0 234
0 0 240
0 0 234
0 0 227
0 0 238
0 0 237
0 0 234
0 0 237
0 0 234
0 0 236
0 0 238
0 0 220
0 0 233
0 0 223
0 0 242
0 0 226
0 0 237
0 0 228
0 0 221
0 0 227
0 0 226
0 0 220
0 0 203
0 0 220
0 0 211
0 0 215
0 0 207
0 0 221
0 0 207
0 0 212
0 0 198
0 0 209
0 0 214
0 0 199
0 0 212
0 0 211
0 0 188
0 0 203
0 0 163
0 0 181
0 0 173
0 0 163
0 0 182
167 182 231
211 230 255
211 230 255
211 230 255
211 230 255
211 230 255
211 230 255
211 230 255
211 230 255
211 230 255
211 230 255
211 230 255
211 230 255
184 175 194
135 0 0
141 0 0
136 0 0
131 0 0
140 0 0
153 0 0
165 0 0
164 0 0
159 0 0
161 0 0
164 0 0
162 0 0
170 0 0
176 0 0
166 0 0
170 0 0
172 0 0
170 0 0
179 0 0
172 0 0
176 0 0
186 0 0
194 0 0
179 0 0
195 0 0
202 0 0
181 0 0
196 0 0
187 0 0
201 0 0
191 0 0
189 0 0
193 0 0
196 0 0
192 0 0
196 0 0
197 0 0
199 0 0
203 0 0
203 0 0
199 0 0
200 0 0
200 0 0
195 0 0
202 0 0
203 0 0
202 0 0
208 0 0
205 0 0
205 0 0
199 0 0
207 0 0
205 0 0
208 0 0
198 0 0
205 0 0
202 0 0
206 0 0
215 0 0
199 0 0
215 0 0
210 0 0
200 0 0
204 0 0
205 0 0
205 0 0
207 0 0
204 0 0
209 0 0
200 0 0
211 0 0
206 0 0
203 0 0
213 0 0
213 0 0
212 0 0
213 0 0
212 0 0
206 0 0
213 0 0
208 0 0
213 0 0
213 0 0
201 0 0
212 0 0
208 0 0
209 0 0
211 0 0
211 0 0
213 0 0
214 0 0
215 0 0
214 0 0
213 0 0
213 0 0
211 0 0
209 0 0
217 0 0
218 0 0
216 0 0
217 0 0
221 0 0
215 0 0
218 0 0
210 0 0
204 0 0
212 0 0
213 0 0
211 0 0
209 0 0
211 0 0
214 0 0
214 0 0
213 0 0
215 0 0
211 0 0
213 0 0
215 0 0
209 0 0
217 0 0
211 0 0
215 0 0
212 0 0
217 0 0
213 0 0
214 0 0
215 0 0
217 0 0
217 0 0
216 0 0
218 0 0
217 0 0
215 0 0
219 0 0
219 0 0
219 0 0
213 0 0
219 0 0
211 0 0
219 0 0
215 0 0
216 0 0
215 0 0
217 0 0
215 0 0
220 0 0
217 0 0
212 0 0
215 0 0
215 0 0
217 0 0
216 0 0
213 0 0
217 0 0
215 0 0
217 0 0
217 0 0
218 0 0
218 0 0
215 0 0
215 0 0
217 0 0
216 0 0
217 0 0
217 0 0
217 0 0
215 0 0
219 0 0
216 0 0
219 0 0
215 0 0
214 0 0
220 0 0
217 0 0
218 0 0
219 0 0
221 0 0
217 0 0
220 0 0
218 0 0
215 0 0
215 0 0
219 0 0
220 0 0
217 0 0
221 0 0
218 0 0
218 0 0
213 0 0
216 0 0
218 0 0
215 0 0
219 0 0
0 0 255
0 0 255
0 0 254
0 0 254
0 0 255
0 0 255
0 0 255
0 0 255
0 0 255
0 0 253
0 0 254
0 0 255
0 0 254
0 0 255
0 0 253
0 0 253
0 0 255
0 0 255
0 0 254
0 0 255
0 0 253
0 0 254
0 0 255
0 0 255
0 0 255
0 0 255
0 0 254
0 0 254
0 0 253
0 0 255
0 0 254
0 0 252
0 0 255
0 0 255
0 0 255
0 0 254
0 0 254
0 0 255
0 0 254
0 0 255
0 0 253
0 0 253
0 0 253
0 0 254
0 0 250
0 0 252
0 0 253
0 0 255
0 0 252
0 0 254
0 0 255
0 0 255
0 0 253
0 0 254
0 0 254
0 0 253
0 0 254
0 0 253
0 0 254
0 0 253
0 0 253
0 0 249
0 0 254
0 0 254
0 0 255
0 0 254
0 0 255
0 0 253
0 0 252
0 0 255
0 0 250
0 0 252
0 0 254
0 0 252
0 0 253
0 0 249
0 0 250
0 0 253
0 0 252
0 0 248
0 0 249
0 0 252
0 0 252
0 0 255
0 0 249
0 0 250
0 0 248
0 0 252
0 0 249
0 0 248
0 0 248
0 0 254
0 0 250
0 0 249
0 0 253
0 0 249
0 0 249
0 0 254
0 0 244
0 0 252
0 0 250
0 0 248
0 0 249
0 0 242
0 0 250
0 0 248
0 0 241
0 0 252
0 0 252
0 0 252
0 0 246
0 0 250
0 0 244
0 0 252
0 0 244
0 0 250
0 0 248
0 0 253
0 0 246
0 0 249
0 0 248
0 0 245
0 0 245
0 0 242
0 0 242
0 0 249
0 0 241
0 0 245
0 0 238
0 0 244
0 0 241
0 0 248
0 0 249
0 0 246
0 0 245
0 0 246
0 0 242
0 0 240
0 0 244
0 0 246
0 0 250
0 0 242
0 0 234
0 0 230
0 0 233
0 0 237
0 0 236
0 0 244
0 0 234
0 0 242
0 0 241
0 0 238
0 0 237
0 0 238
0 0 230
0 0 234
0 0 226
0 0 236
0 0 230
0 0 233
0 0 230
0 0 228
0 0 236
0 0 223
0 0 236
0 0 241
0 0 224
0 0 221
0 0 218
0 0 230
0 0 223
0 0 226
0 0 217
0 0 218
0 0 211
0 0 217
0 0 214
0 0 199
0 0 193
0 0 218
0 0 211
0 0 212
0 0 199
0 0 196
0 0 203
0 0 204
0 0 188
0 0 194
0 0 179
0 0 182
0 0 173
0 0 177
0 0 159
96 105 184
211 230 255
211 230 255
211 230 255
211 230 255
211 230 255
211 230 255
211 230 255
211 230 255
211 230 255
211 230 255
211 230 255
211 230 255
148 76 84
138 0 0
141 0 0
154 0 0
149 0 0
157 0 0
165 0 0
155 0 0
158 0 0
149 0 0
157 0 0
165 0 0
169 0 0
170 0 0
163 0 0
174 0 0
175 0 0
170 0 0
184 0 0
181 0 0
180 0 0
189 0 0
183 0 0
184 0 0
189 0 0
189 0 0
191 0 0
197 0 0
188 0 0
195 0 0
196 0 0
189 0 0
193 0 0
194 0 0
185 0 0
191 0 0
196 0 0
192 0 0
197 0 0
196 0 0
204 0 0
202 0 0
198 0 0
192 0 0
206 0 0
200 0 0
209 0 0
205 0 0
201 0 0
196 0 0
203 0 0
200 0 0
200 0 0
203 0 0
198 0 0
196 0 0
213 0 0
202 0 0
204 0 0
198 0 0
207 0 0
211 0 0
203 0 0
209 0 0
208 0 0
211 0 0
205 0 0
196 0 0
209 0 0
214 0 0
215 0 0
215 0 0
206 0 0
211 0 0
212 0 0
204 0 0
214 0 0
211 0 0
205 0 0
212 0 0
212 0 0
210 0 0
209 0 0
211 0 0
212 0 0
204 0 0
209 0 0
218 0 0
215 0 0
215 0 0
209 0 0
217 0 0
218 0 0
212 0 0
211 0 0
217 0 0
213 0 0
208 0 0
215 0 0
206 0 0
213 0 0
211 0 0
212 0 0
212 0 0
215 0 0
211 0 0
210 0 0
204 0 0
215 0 0
216 0 0
215 0 0
216 0 0
216 0 0
217 0 0
217 0 0
216 0 0
216 0 0
216 0 0
214 0 0
211 0 0
218 0 0
216 0 0
212 0 0
217 0 0
215 0 0
214 0 0
214 0 0
213 0 0
218 0 0
214 0 0
211 0 0
216 0 0
214 0 0
213 0 0
219 0 0
213 0 0
214 0 0
215 0 0
214 0 0
217 0 0
221 0 0
216 0 0
216 0 0
217 0 0
217 0 0
218 0 0
221 0 0
219 0 0
211 0 0
216 0 0
217 0 0
217 0 0
212 0 0
218 0 0
214 0 0
218 0 0
214 0 0
215 0 0
220 0 0
214 0 0
220 0 0
222 0 0
218 0 0
214 0 0
219 0 0
218 0 0
217 0 0
222 0 0
217 0 0
214 0 0
215 0 0
218 0 0
218 0 0
217 0 0
215 0 0
217 0 0
217 0 0
219 0 0
217 0 0
216 0 0
216 0 0
219 0 0
217 0 0
217 0 0
218 0 0
220 0 0
219 0 0
218 0 0
213 0 0
217 0 0
218 0 0
217 0 0
218 0 0
217 0 0
0 0 254
0 0 255
0 0 255
0 0 254
0 0 254
0 0 255
0 0 255
0 0 254
0 0 255
0 0 254
0 0 254
0 0 254
0 0 255
0 0 254
0 0 254
0 0 253
0 0 253
0 0 255
0 0 255
0 0 253
0 0 252
0 0 254
0 0 253
0 0 255
0 0 253
0 0 254
0 0 255
0 0 254
0 0 253
0 0 254
0 0 254
0 0 253
0 0 254
0 0 254
0 0 255
0 0 255
0 0 250
0 0 253
0 0 252
0 0 254
0 0 253
0 0 255
0 0 255
0 0 254
0 0 253
0 0 254
0 0 254
0 0 252
0 0 254
0 0 252
0 0 255
0 0 253
0 0 253
0 0 253
0 0 253
0 0 254
0 0 250
0 0 255
0 0 255
0 0 252
0 0 254
0 0 252
0 0 254
0 0 253
0 0 254
0 0 249
0 0 255
0 0 254
0 0 254
0 0 254
0 0 252
0 0 254
0 0 255
0 0 255
0 0 253
0 0 252
0 0 252
0 0 253
0 0 252
0 0 250
0 0 253
0 0 252
0 0 250
0 0 250
0 0 252
0 0 249
0 0 254
0 0 253
0 0 254
0 0 250
0 0 249
0 0 248
0 0 254
0 0 253
0 0 250
0 0 252
0 0 252
0 0 249
0 0 245
0 0 246
0 0 249
0 0 252
0 0 245
0 0 246
0 0 246
0 0 250
0 0 248
0 0 245
0 0 250
0 0 245
0 0 249
0 0 246
0 0 249
0 0 248
0 0 241
0 0 249
0 0 245
0 0 250
0 0 246
0 0 250
0 0 242
0 0 249
0 0 246
0 0 245
0 0 249
0 0 238
0 0 237
0 0 249
0 0 244
0 0 240
0 0 249
0 0 249
0 0 246
0 0 244
0 0 240
0 0 244
0 0 241
0 0 244
0 0 236
0 0 242
0 0 244
0 0 244
0 0 244
0 0 241
0 0 237
0 0 238
0 0 240
0 0 231
0 0 242
0 0 236
0 0 240
0 0 237
0 0 244
0 0 233
0 0 227
0 0 228
0 0 226
0 0 238
0 0 236
0 0 237
0 0 233
0 0 236
0 0 237
0 0 231
0 0 231
0 0 230
0 0 234
0 0 217
0 0 215
0 0 228
0 0 223
0 0 233
0 0 228
0 0 221
0 0 215
0 0 214
0 0 215
0 0 224
0 0 204
0 0 206
0 0 204
0 0 214
0 0 199
0 0 204
0 0 191
0 0 196
0 0 184
0 0 189
0 0 196
0 0 175
0 0 173
0 0 169
0 0 175
0 0 149
187 203 233
211 230 255
211 230 255
211 230 255
211 230 255
211 230 255
211 230 255
211 230 255
211 230 255
211 230 255
211 230 255
185 191 212
131 0 0
126 0 0
134 0 0
142 0 0
143 0 0
161 0 0
160 0 0
141 0 0
164 0 0
178 0 0
150 0 0
173 0 0
181 0 0
170 0 0
179 0 0
173 0 0
179 0 0
177 0 0
173 0 0
176 0 0
177 0 0
173 0 0
185 0 0
187 0 0
188 0 0
186 0 0
199 0 0
187 0 0
188 0 0
194 0 0
188 0 0
188 0 0
198 0 0
192 0 0
198 0 0
200 0 0
202 0 0
197 0 0
197 0 0
196 0 0
199 0 0
200 0 0
202 0 0
203 0 0
204 0 0
201 0 0
195 0 0
211 0 0
201 0 0
196 0 0
210 0 0
199 0 0
205 0 0
204 0 0
208 0 0
206 0 0
207 0 0
208 0 0
201 0 0
204 0 0
208 0 0
209 0 0
210 0 0
210 0 0
207 0 0
211 0 0
206 0 0
209 0 0
209 0 0
208 0 0
210 0 0
205 0 0
212 0 0
204 0 0
201 0 0
208 0 0
208 0 0
208 0 0
205 0 0
209 0 0
214 0 0
210 0 0
216 0 0
212 0 0
204 0 0
212 0 0
210 0 0
213 0 0
214 0 0
211 0 0
214 0 0
216 0 0
211 0 0
213 0 0
214 0 0
206 0 0
206 0 0
207 0 0
212 0 0
215 0 0
214 0 0
211 0 0
212 0 0
210 0 0
211 0 0
214 0 0
218 0 0
209 0 0
215 0 0
210 0 0
211 0 0
213 0 0
218 0 0
211 0 0
217 0 0
213 0 0
219 0 0
218 0 0
217 0 0
213 0 0
212 0 0
219 0 0
212 0 0
215 0 0
214 0 0
214 0 0
218 0 0
219 0 0
216 0 0
213 0 0
214 0 0
215 0 0
217 0 0
214 0 0
216 0 0
216 0 0
211 0 0
214 0 0
213 0 0
217 0 0
215 0 0
216 0 0
215 0 0
216 0 0
218 0 0
218 0 0
215 0 0
218 0 0
214 0 0
215 0 0
216 0 0
217 0 0
218 0 0
215 0 0
215 0 0
218 0 0
220 0 0
214 0 0
218 0 0
219 0 0
217 0 0
217 0 0
219 0 0
217 0 0
219 0 0
219 0 0
215 0 0
215 0 0
219 0 0
220 0 0
219 0 0
218 0 0
218 0 0
218 0 0
215 0 0
217 0 0
217 0 0
216 0 0
217 0 0
216 0 0
220 0 0
218 0 0
215 0 0
217 0 0
214 0 0
215 0 0
218 0 0
219 0 0
217 0 0
218 0 0
219 0 0
218 0 0
216 0 0
220 0 0
0 0 255
0 0 254
0 0 254
0 0 255
0 0 255
0 0 255
0 0 255
0 0 254
0 0 255
0 0 255
0 0 255
0 0 254
0 0 255
0 0 255
0 0 254
0 0 254
0 0 255
0 0 254
0 0 254
0 0 254
0 0 254
0 0 254
0 0 254
0 0 255
0 0 255
0 0 255
0 0 254
0 0 253
0 0 255
0 0 255
0 0 254
0 0 254
0 0 254
0 0 253
0 0 255
0 0 255
0 0 255
0 0 254
0 0 254
0 0 255
0 0 255
0 0 253
0 0 255
0 0 255
0 0 252
0 0 254
0 0 254
0 0 254
0 0 253
0 0 255
0 0 253
0 0 252
0 0 253
0 0 248
0 0 253
0 0 253
0 0 253
0 0 249
0 0 253
0 0 252
0 0 249
0 0 252
0 0 252
0 0 253
0 0 253
0 0 254
0 0 255
0 0 254
0 0 254
0 0 254
0 0 252
0 0 254
0 0 254
0 0 252
0 0 252
0 0 250
0 0 249
0 0 249
0 0 248
0 0 252
0 0 249
0 0 253
0 0 250
0 0 245
0 0 252
0 0 248
0 0 248
0 0 249
0 0 253
0 0 249
0 0 246
0 0 253
0 0 250
0 0 249
0 0 252
0 0 252
0 0 253
0 0 249
0 0 252
0 0 254
0 0 252
0 0 249
0 0 246
0 0 249
0 0 250
0 0 248
0 0 248
0 0 249
0 0 246
0 0 248
0 0 244
0 0 246
0 0 249
0 0 242
0 0 241
0 0 253
0 0 253
0 0 250
0 0 249
0 0 248
0 0 248
0 0 246
0 0 254
0 0 237
0 0 248
0 0 245
0 0 245
0 0 249
0 0 238
0 0 241
0 0 241
0 0 245
0 0 242
0 0 242
0 0 237
0 0 244
0 0 240
0 0 246
0 0 245
0 0 241
0 0 238
0 0 241
0 0 244
0 0 237
0 0 237
0 0 234
0 0 245
0 0 244
0 0 238
0 0 238
0 0 231
0 0 241
0 0 228
0 0 241
0 0 227
0 0 238
0 0 241
0 0 233
0 0 228
0 0 234
0 0 233
0 0 230
0 0 221
0 0 226
0 0 233
0 0 226
0 0 220
0 0 227
0 0 226
0 0 231
0 0 227
0 0 217
0 0 227
0 0 223
0 0 217
0 0 211
0 0 217
0 0 207
0 0 221
0 0 211
0 0 214
0 0 188
0 0 203
0 0 215
0 0 184
0 0 199
0 0 181
0 0 193
0 0 186
0 0 181
0 0 193
0 0 171
0 0 159
0 0 175
123 134 193
212 230 255
212 230 255
212 230 255
212 230 255
212 230 255
212 230 255
212 230 255
212 230 255
212 230 255
212 230 255
164 147 163
119 0 0
124 0 0
141 0 0
146 0 0
151 0 0
145 0 0
170 0 0
159 0 0
179 0 0
172 0 0
171 0 0
173 0 0
166 0 0
168 0 0
172 0 0
184 0 0
177 0 0
184 0 0
177 0 0
170 0 0
191 0 0
183 0 0
183 0 0
188 0 0
177 0 0
190 0 0
198 0 0
189 0 0
193 0 0
197 0 0
192 0 0
190 0 0
194 0 0
195 0 0
195 0 0
197 0 0
200 0 0
202 0 0
200 0 0
194 0 0
198 0 0
202 0 0
193 0 0
206 0 0
201 0 0
204 0 0
198 0 0
208 0 0
205 0 0
207 0 0
197 0 0
197 0 0
200 0 0
203 0 0
203 0 0
202 0 0
206 0 0
203 0 0
202 0 0
209 0 0
203 0 0
201 0 0
211 0 0
202 0 0
210 0 0
207 0 0
207 0 0
209 0 0
214 0 0
209 0 0
210 0 0
212 0 0
209 0 0
213 0 0
209 0 0
209 0 0
208 0 0
206 0 0
214 0 0
211 0 0
214 0 0
210 0 0
211 0 0
212 0 0
211 0 0
210 0 0
213 0 0
212 0 0
208 0 0
211 0 0
212 0 0
214 0 0
210 0 0
211 0 0
209 0 0
214 0 0
214 0 0
207 0 0
215 0 0
213 0 0
210 0 0
214 0 0
213 0 0
217 0 0
215 0 0
212 0 0
214 0 0
215 0 0
209 0 0
212 0 0
212 0 0
218 0 0
210 0 0
214 0 0
212 0 0
210 0 0
214 0 0
218 0 0
216 0 0
213 0 0
216 0 0
214 0 0
211 0 0
211 0 0
216 0 0
219 0 0
214 0 0
218 0 0
216 0 0
215 0 0
216 0 0
215 0 0
219 0 0
213 0 0
211 0 0
216 0 0
219 0 0
214 0 0
214 0 0
212 0 0
217 0 0
216 0 0
219 0 0
216 0 0
213 0 0
218 0 0
211 0 0
215 0 0
218 0 0
217 0 0
218 0 0
216 0 0
214 0 0
213 0 0
216 0 0
218 0 0
214 0 0
214 0 0
217 0 0
221 0 0
219 0 0
218 0 0
220 0 0
216 0 0
218 0 0
214 0 0
214 0 0
217 0 0
215 0 0
219 0 0
217 0 0
219 0 0
216 0 0
216 0 0
220 0 0
216 0 0
213 0 0
217 0 0
214 0 0
222 0 0
222 0 0
215 0 0
215 0 0
217 0 0
219 0 0
221 0 0
218 0 0
217 0 0
219 0 0
217 0 0
220 0 0
218 0 0
218 0 0
217 0 0
0 0 255
0 0 253
0 0 254
0 0 253
0 0 255
0 0 255
0 0 253
0 0 254
0 0 254
0 0 254
0 0 254
0 0 255
0 0 255
0 0 253
0 0 252
0 0 255
0 0 254
0 0 255
0 0 255
0 0 254
0 0 254
0 0 254
0 0 255
0 0 253
0 0 253
0 0 255
0 0 252
0 0 253
0 0 253
0 0 254
0 0 253
0 0 255
0 0 253
0 0 255
0 0 255
0 0 255
0 0 253
0 0 255
0 0 255
0 0 252
0 0 254
0 0 253
0 0 253
0 0 253
0 0 255
0 0 252
0 0 250
0 0 252
0 0 254
0 0 253
0 0 253
0 0 253
0 0 255
0 0 253
0 0 253
0 0 253
0 0 254
0 0 255
0 0 253
0 0 253
0 0 253
0 0 252
0 0 253
0 0 253
0 0 250
0 0 254
0 0 253
0 0 252
0 0 248
0 0 254
0 0 250
0 0 250
0 0 249
0 0 249
0 0 252
0 0 250
0 0 250
0 0 253
0 0 253
0 0 246
0 0 250
0 0 253
0 0 250
0 0 250
0 0 255
0 0 252
0 0 254
0 0 249
0 0 250
0 0 255
0 0 250
0 0 255
0 0 249
0 0 249
0 0 250
0 0 249
0 0 249
0 0 253
0 0 250
0 0 249
0 0 249
0 0 249
0 0 248
0 0 249
0 0 250
0 0 253
0 0 253
0 0 252
0 0 244
0 0 249
0 0 248
0 0 246
0 0 245
0 0 252
0 0 249
0 0 244
0 0 241
0 0 249
0 0 248
0 0 242
0 0 246
0 0 245
0 0 240
0 0 241
0 0 233
0 0 244
0 0 245
0 0 245
0 0 242
0 0 250
0 0 249
0 0 242
0 0 241
0 0 242
0 0 245
0 0 240
0 0 246
0 0 242
0 0 241
0 0 242
0 0 244
0 0 245
0 0 238
0 0 237
0 0 237
0 0 240
0 0 240
0 0 233
0 0 237
0 0 240
0 0 240
0 0 238
0 0 234
0 0 228
0 0 233
0 0 242
0 0 234
0 0 240
0 0 233
0 0 244
0 0 241
0 0 233
0 0 234
0 0 224
0 0 233
0 0 215
0 0 238
0 0 234
0 0 228
0 0 212
0 0 231
0 0 237
0 0 214
0 0 218
0 0 231
0 0 220
0 0 214
0 0 206
0 0 206
0 0 211
0 0 217
0 0 204
0 0 193
0 0 198
0 0 201
0 0 193
0 0 198
0 0 191
0 0 171
0 0 181
0 0 163
0 0 157
0 0 171
0 0 167
52 56 157
209 227 252
212 230 255
212 230 255
212 230 255
212 230 255
212 230 255
212 230 255
212 230 255
212 230 255
206 223 248
121 56 62
120 0 0
139 0 0
143 0 0
140 0 0
142 0 0
143 0 0
143 0 0
154 0 0
169 0 0
163 0 0
174 0 0
159 0 0
159 0 0
170 0 0
183 0 0
170 0 0
189 0 0
181 0 0
184 0 0
188 0 0
196 0 0
184 0 0
179 0 0
185 0 0
181 0 0
176 0 0
172 0 0
191 0 0
191 0 0
187 0 0
201 0 0
183 0 0
203 0 0
202 0 0
193 0 0
192 0 0
196 0 0
193 0 0
202 0 0
198 0 0
198 0 0
197 0 0
199 0 0
193 0 0
198 0 0
208 0 0
206 0 0
203 0 0
209 0 0
205 0 0
201 0 0
210 0 0
209 0 0
196 0 0
200 0 0
205 0 0
206 0 0
212 0 0
200 0 0
207 0 0
205 0 0
200 0 0
212 0 0
210 0 0
208 0 0
217 0 0
207 0 0
209 0 0
207 0 0
205 0 0
206 0 0
211 0 0
203 0 0
205 0 0
205 0 0
210 0 0
216 0 0
209 0 0
204 0 0
213 0 0
207 0 0
212 0 0
212 0 0
209 0 0
211 0 0
216 0 0
211 0 0
212 0 0
217 0 0
208 0 0
210 0 0
214 0 0
208 0 0
219 0 0
217 0 0
213 0 0
211 0 0
215 0 0
216 0 0
216 0 0
214 0 0
217 0 0
214 0 0
213 0 0
215 0 0
213 0 0
218 0 0
213 0 0
209 0 0
213 0 0
216 0 0
216 0 0
213 0 0
213 0 0
220 0 0
217 0 0
215 0 0
215 0 0
218 0 0
216 0 0
211 0 0
212 0 0
215 0 0
210 0 0
216 0 0
218 0 0
208 0 0
215 0 0
215 0 0
212 0 0
217 0 0
213 0 0
214 0 0
215 0 0
217 0 0
219 0 0
215 0 0
216 0 0
217 0 0
221 0 0
211 0 0
221 0 0
216 0 0
215 0 0
217 0 0
217 0 0
215 0 0
216 0 0
212 0 0
217 0 0
217 0 0
219 0 0
217 0 0
214 0 0
220 0 0
220 0 0
215 0 0
217 0 0
221 0 0
214 0 0
215 0 0
217 0 0
219 0 0
216 0 0
215 0 0
216 0 0
214 0 0
217 0 0
212 0 0
218 0 0
216 0 0
216 0 0
217 0 0
215 0 0
220 0 0
219 0 0
219 0 0
214 0 0
216 0 0
221 0 0
215 0 0
218 0 0
218 0 0
218 0 0
220 0 0
220 0 0
219 0 0
223 0 0
216 0 0
219 0 0
220 0 0
217 0 0
218 0 0
217 0 0
0 0 255
0 0 253
0 0 254
0 0 255
0 0 255
0 0 255
0 0 255
0 0 255
0 0 255
0 0 255
0 0 255
0 0 255
0 0 254
0 0 255
0 0 254
0 0 253
0 0 255
0 0 255
0 0 255
0 0 255
0 0 254
0 0 255
0 0 254
0 0 255
0 0 254
0 0 253
0 0 253
0 0 254
0 0 254
0 0 254
0 0 255
0 0 253
0 0 255
0 0 255
0 0 254
0 0 254
0 0 255
0 0 253
0 0 255
0 0 253
0 0 252
0 0 254
0 0 254
0 0 254
0 0 254
0 0 255
0 0 254
0 0 250
0 0 252
0 0 254
0 0 254
0 0 255
0 0 253
0 0 254
0 0 253
0 0 255
0 0 253
0 0 248
0 0 252
0 0 253
0 0 252
0 0 252
0 0 249
0 0 255
0 0 253
0 0 249
0 0 252
0 0 249
0 0 253
0 0 252
0 0 253
0 0 254
0 0 252
0 0 249
0 0 254
0 0 252
0 0 254
0 0 252
0 0 253
0 0 253
0 0 250
0 0 249
0 0 253
0 0 250
0 0 248
0 0 245
0 0 250
0 0 252
0 0 252
0 0 252
0 0 250
0 0 248
0 0 246
0 0 250
0 0 249
0 0 242
0 0 248
0 0 253
0 0 252
0 0 249
0 0 252
0 0 252
0 0 253
0 0 249
0 0 248
0 0 244
0 0 249
0 0 252
0 0 249
0 0 248
0 0 250
0 0 246
0 0 250
0 0 244
0 0 249
0 0 249
0 0 252
0 0 241
0 0 245
0 0 246
0 0 244
0 0 241
0 0 241
0 0 248
0 0 250
0 0 242
0 0 242
0 0 240
0 0 240
0 0 245
0 0 244
0 0 252
0 0 245
0 0 244
0 0 244
0 0 245
0 0 244
0 0 245
0 0 245
0 0 240
0 0 241
0 0 244
0 0 231
0 0 244
0 0 245
0 0 237
0 0 230
0 0 230
0 0 237
0 0 240
0 0 234
0 0 237
0 0 244
0 0 238
0 0 227
0 0 237
0 0 236
0 0 241
0 0 230
0 0 231
0 0 236
0 0 233
0 0 224
0 0 234
0 0 223
0 0 230
0 0 221
0 0 228
0 0 227
0 0 214
0 0 218
0 0 231
0 0 217
0 0 209
0 0 226
0 0 211
0 0 218
0 0 224
0 0 209
0 0 191
0 0 212
0 0 204
0 0 186
0 0 204
0 0 194
0 0 184
0 0 186
0 0 171
0 0 175
0 0 188
0 0 177
0 0 181
0 0 159
0 0 157
0 0 163
170 184 231
212 231 255
212 231 255
212 231 255
212 231 255
212 231 255
212 231 255
212 231 255
212 231 255
188 187 207
116 0 0
137 0 0
125 0 0
140 0 0
163 0 0
147 0 0
152 0 0
150 0 0
154 0 0
163 0 0
167 0 0
167 0 0
169 0 0
181 0 0
173 0 0
187 0 0
184 0 0
184 0 0
171 0 0
177 0 0
184 0 0
191 0 0
186 0 0
177 0 0
183 0 0
189 0 0
194 0 0
187 0 0
187 0 0
195 0 0
196 0 0
185 0 0
191 0 0
194 0 0
191 0 0
191 0 0
199 0 0
193 0 0
195 0 0
193 0 0
198 0 0
199 0 0
194 0 0
198 0 0
193 0 0
201 0 0
200 0 0
201 0 0
198 0 0
197 0 0
200 0 0
201 0 0
205 0 0
198 0 0
205 0 0
209 0 0
209 0 0
205 0 0
206 0 0
209 0 0
209 0 0
213 0 0
209 0 0
202 0 0
206 0 0
206 0 0
206 0 0
215 0 0
212 0 0
210 0 0
210 0 0
205 0 0
209 0 0
212 0 0
206 0 0
205 0 0
209 0 0
213 0 0
211 0 0
207 0 0
205 0 0
208 0 0
208 0 0
202 0 0
209 0 0
210 0 0
211 0 0
212 0 0
217 0 0
209 0 0
216 0 0
215 0 0
216 0 0
214 0 0
209 0 0
214 0 0
210 0 0
214 0 0
214 0 0
210 0 0
214 0 0
215 0 0
214 0 0
212 0 0
214 0 0
210 0 0
215 0 0
215 0 0
216 0 0
208 0 0
216 0 0
214 0 0
217 0 0
217 0 0
219 0 0
215 0 0
214 0 0
213 0 0
216 0 0
212 0 0
213 0 0
215 0 0
217 0 0
218 0 0
215 0 0
215 0 0
214 0 0
217 0 0
218 0 0
212 0 0
212 0 0
213 0 0
215 0 0
215 0 0
216 0 0
215 0 0
214 0 0
214 0 0
215 0 0
219 0 0
212 0 0
218 0 0
217 0 0
218 0 0
218 0 0
215 0 0
216 0 0
216 0 0
217 0 0
213 0 0
216 0 0
217 0 0
222 0 0
214 0 0
216 0 0
221 0 0
216 0 0
214 0 0
217 0 0
217 0 0
219 0 0
217 0 0
219 0 0
216 0 0
222 0 0
219 0 0
218 0 0
220 0 0
219 0 0
217 0 0
220 0 0
217 0 0
220 0 0
215 0 0
215 0 0
216 0 0
218 0 0
220 0 0
218 0 0
214 0 0
217 0 0
216 0 0
221 0 0
216 0 0
215 0 0
218 0 0
217 0 0
219 0 0
216 0 0
216 0 0
216 0 0
220 0 0
217 0 0
217 0 0
216 0 0
0 0 252
0 0 255
0 0 255
0 0 255
0 0 254
0 0 255
0 0 255
0 0 253
0 0 255
0 0 255
0 0 254
0 0 255
0 0 254
0 0 253
0 0 255
0 0 254
0 0 255
0 0 254
0 0 255
0 0 255
0 0 254
0 0 255
0 0 254
0 0 255
0 0 252
0 0 254
0 0 254
0 0 254
0 0 255
0 0 255
0 0 254
0 0 253
0 0 254
0 0 255
0 0 254
0 0 255
0 0 254
0 0 255
0 0 252
0 0 255
0 0 253
0 0 253
0 0 252
0 0 253
0 0 254
0 0 252
0 0 255
0 0 252
0 0 254
0 0 254
0 0 250
0 0 254
0 0 254
0 0 254
0 0 252
0 0 255
0 0 253
0 0 250
0 0 253
0 0 250
0 0 254
0 0 254
0 0 252
0 0 252
0 0 252
0 0 252
0 0 252
0 0 253
0 0 253
0 0 253
0 0 255
0 0 252
0 0 250
0 0 253
0 0 249
0 0 253
0 0 254
0 0 252
0 0 254
0 0 252
0 0 253
0 0 246
0 0 250
0 0 250
0 0 249
0 0 253
0 0 250
0 0 253
0 0 253
0 0 252
0 0 250
0 0 252
0 0 253
0 0 252
0 0 246
0 0 249
0 0 254
0 0 253
0 0 248
0 0 253
0 0 249
0 0 245
0 0 250
0 0 249
0 0 253
0 0 248
0 0 253
0 0 244
0 0 252
0 0 245
0 0 250
0 0 252
0 0 245
0 0 241
0 0 250
0 0 252
0 0 245
0 0 253
0 0 246
0 0 246
0 0 245
0 0 244
0 0 244
0 0 250
0 0 244
0 0 241
0 0 244
0 0 241
0 0 245
0 0 244
0 0 240
0 0 246
0 0 238
0 0 244
0 0 234
0 0 244
0 0 246
0 0 237
0 0 240
0 0 238
0 0 233
0 0 237
0 0 240
0 0 236
0 0 240
0 0 236
0 0 237
0 0 238
0 0 245
0 0 240
0 0 233
0 0 236
0 0 237
0 0 236
0 0 227
0 0 231
0 0 233
0 0 237
0 0 226
0 0 238
0 0 223
0 0 233
0 0 242
0 0 221
0 0 237
0 0 224
0 0 217
0 0 218
0 0 215
0 0 221
0 0 218
0 0 233
0 0 212
0 0 226
0 0 226
0 0 218
0 0 220
0 0 211
0 0 206
0 0 198
0 0 217
0 0 207
0 0 206
0 0 209
0 0 194
0 0 201
0 0 198
0 0 198
0 0 188
0 0 182
0 0 177
0 0 175
0 0 186
0 0 140
0 0 137
118 128 184
213 231 255
213 231 255
213 231 255
213 231 255
213 231 255
213 231 255
213 231 255
213 231 255
148 117 130
120 0 0
129 0 0
141 0 0
144 0 0
124 0 0
156 0 0
151 0 0
160 0 0
159 0 0
150 0 0
159 0 0
169 0 0
172 0 0
174 0 0
168 0 0
163 0 0
178 0 0
178 0 0
184 0 0
180 0 0
190 0 0
195 0 0
194 0 0
186 0 0
187 0 0
184 0 0
188 0 0
193 0 0
190 0 0
188 0 0
193 0 0
188 0 0
196 0 0
204 0 0
194 0 0
199 0 0
198 0 0
202 0 0
202 0 0
202 0 0
207 0 0
190 0 0
197 0 0
202 0 0
200 0 0
202 0 0
199 0 0
198 0 0
198 0 0
201 0 0
199 0 0
198 0 0
206 0 0
191 0 0
206 0 0
202 0 0
207 0 0
209 0 0
211 0 0
205 0 0
205 0 0
205 0 0
205 0 0
202 0 0
204 0 0
206 0 0
209 0 0
204 0 0
205 0 0
208 0 0
212 0 0
211 0 0
214 0 0
209 0 0
210 0 0
207 0 0
209 0 0
206 0 0
212 0 0
209 0 0
213 0 0
210 0 0
212 0 0
215 0 0
210 0 0
212 0 0
214 0 0
207 0 0
209 0 0
214 0 0
212 0 0
215 0 0
208 0 0
209 0 0
211 0 0
215 0 0
213 0 0
210 0 0
216 0 0
212 0 0
213 0 0
212 0 0
213 0 0
213 0 0
214 0 0
215 0 0
213 0 0
216 0 0
214 0 0
212 0 0
213 0 0
218 0 0
214 0 0
214 0 0
215 0 0
218 0 0
216 0 0
214 0 0
217 0 0
218 0 0
215 0 0
218 0 0
221 0 0
214 0 0
212 0 0
214 0 0
216 0 0
214 0 0
219 0 0
215 0 0
218 0 0
213 0 0
213 0 0
215 0 0
217 0 0
213 0 0
216 0 0
216 0 0
217 0 0
216 0 0
215 0 0
217 0 0
211 0 0
215 0 0
216 0 0
215 0 0
220 0 0
220 0 0
217 0 0
217 0 0
219 0 0
218 0 0
212 0 0
219 0 0
215 0 0
218 0 0
219 0 0
220 0 0
218 0 0
218 0 0
214 0 0
218 0 0
219 0 0
210 0 0
218 0 0
216 0 0
216 0 0
217 0 0
217 0 0
214 0 0
221 0 0
216 0 0
221 0 0
222 0 0
219 0 0
216 0 0
218 0 0
218 0 0
218 0 0
217 0 0
223 0 0
223 0 0
221 0 0
214 0 0
219 0 0
218 0 0
218 0 0
215 0 0
219 0 0
219 0 0
218 0 0
220 0 0
216 0 0
214 0 0
221 0 0
0 0 255
0 0 254
0 0 255
0 0 254
0 0 254
0 0 255
0 0 253
0 0 255
0 0 255
0 0 255
0 0 254
0 0 255
0 0 255
0 0 255
0 0 255
0 0 254
0 0 255
0 0 254
0 0 255
0 0 254
0 0 254
0 0 255
0 0 254
0 0 255
0 0 254
0 0 254
0 0 255
0 0 252
0 0 255
0 0 255
0 0 254
0 0 254
0 0 254
0 0 253
0 0 253
0 0 253
0 0 254
0 0 255
0 0 254
0 0 255
0 0 255
0 0 254
0 0 255
0 0 255
0 0 253
0 0 255
0 0 253
0 0 255
0 0 250
0 0 254
0 0 255
0 0 253
0 0 252
0 0 253
0 0 252
0 0 253
0 0 252
0 0 255
0 0 255
0 0 252
0 0 253
0 0 254
0 0 252
0 0 253
0 0 254
0 0 252
0 0 253
0 0 248
0 0 254
0 0 252
0 0 250
0 0 255
0 0 254
0 0 252
0 0 253
0 0 254
0 0 252
0 0 254
0 0 254
0 0 253
0 0 249
0 0 252
0 0 245
0 0 246
0 0 252
0 0 246
0 0 252
0 0 249
0 0 252
0 0 253
0 0 245
0 0 252
0 0 249
0 0 242
0 0 244
0 0 253
0 0 249
0 0 246
0 0 246
0 0 249
0 0 248
0 0 245
0 0 249
0 0 249
0 0 250
0 0 246
0 0 246
0 0 249
0 0 241
0 0 248
0 0 249
0 0 244
0 0 245
0 0 244
0 0 242
0 0 248
0 0 246
0 0 245
0 0 252
0 0 246
0 0 253
0 0 245
0 0 244
0 0 249
0 0 234
0 0 249
0 0 246
0 0 241
0 0 246
0 0 245
0 0 249
0 0 244
0 0 245
0 0 244
0 0 237
0 0 245
0 0 241
0 0 240
0 0 244
0 0 244
0 0 236
0 0 245
0 0 241
0 0 233
0 0 244
0 0 244
0 0 237
0 0 237
0 0 240
0 0 234
0 0 230
0 0 233
0 0 242
0 0 231
0 0 244
0 0 238
0 0 234
0 0 227
0 0 240
0 0 231
0 0 242
0 0 231
0 0 223
0 0 227
0 0 227
0 0 231
0 0 218
0 0 230
0 0 221
0 0 221
0 0 223
0 0 221
0 0 218
0 0 220
0 0 211
0 0 206
0 0 209
0 0 223
0 0 207
0 0 186
0 0 211
0 0 196
0 0 217
0 0 209
0 0 191
0 0 186
0 0 182
0 0 186
0 0 191
0 0 194
0 0 161
0 0 181
0 0 151
0 0 161
0 0 159
36 40 151
209 226 250
213 231 255
213 231 255
213 231 255
213 231 255
213 231 255
213 231 255
210 226 250
107 40 44
120 0 0
121 0 0
143 0 0
130 0 0
148 0 0
161 0 0
155 0 0
153 0 0
155 0 0
173 0 0
152 0 0
173 0 0
171 0 0
162 0 0
173 0 0
175 0 0
182 0 0
182 0 0
184 0 0
187 0 0
182 0 0
180 0 0
186 0 0
184 0 0
192 0 0
187 0 0
179 0 0
195 0 0
187 0 0
191 0 0
194 0 0
188 0 0
187 0 0
201 0 0
201 0 0
194 0 0
200 0 0
195 0 0
201 0 0
205 0 0
211 0 0
198 0 0
204 0 0
199 0 0
198 0 0
194 0 0
198 0 0
200 0 0
202 0 0
205 0 0
205 0 0
198 0 0
206 0 0
204 0 0
215 0 0
206 0 0
207 0 0
204 0 0
208 0 0
212 0 0
204 0 0
209 0 0
205 0 0
213 0 0
211 0 0
203 0 0
205 0 0
209 0 0
214 0 0
210 0 0
212 0 0
206 0 0
207 0 0
205 0 0
208 0 0
207 0 0
209 0 0
210 0 0
214 0 0
213 0 0
213 0 0
208 0 0
218 0 0
216 0 0
214 0 0
210 0 0
213 0 0
213 0 0
213 0 0
214 0 0
216 0 0
209 0 0
212 0 0
214 0 0
212 0 0
214 0 0
215 0 0
217 0 0
215 0 0
215 0 0
205 0 0
218 0 0
215 0 0
214 0 0
217 0 0
209 0 0
214 0 0
215 0 0
212 0 0
215 0 0
210 0 0
215 0 0
213 0 0
214 0 0
215 0 0
216 0 0
215 0 0
219 0 0
212 0 0
211 0 0
219 0 0
217 0 0
212 0 0
220 0 0
217 0 0
215 0 0
220 0 0
212 0 0
215 0 0
216 0 0
218 0 0
217 0 0
217 0 0
222 0 0
212 0 0
217 0 0
215 0 0
216 0 0
216 0 0
219 0 0
218 0 0
220 0 0
216 0 0
222 0 0
216 0 0
219 0 0
218 0 0
217 0 0
215 0 0
219 0 0
219 0 0
217 0 0
220 0 0
217 0 0
214 0 0
217 0 0
217 0 0
217 0 0
217 0 0
217 0 0
218 0 0
219 0 0
217 0 0
217 0 0
216 0 0
215 0 0
220 0 0
215 0 0
219 0 0
218 0 0
216 0 0
218 0 0
221 0 0
223 0 0
219 0 0
220 0 0
222 0 0
219 0 0
213 0 0
216 0 0
216 0 0
217 0 0
220 0 0
219 0 0
219 0 0
217 0 0
222 0 0
221 0 0
221 0 0
220 0 0
217 0 0
219 0 0
216 0 0
221 0 0
218 0 0
0 0 255
0 0 255
0 0 254
0 0 255
0 0 254
0 0 254
0 0 255
0 0 255
0 0 254
0 0 255
0 0 255
0 0 255
0 0 254
0 0 254
0 0 254
0 0 255
0 0 255
0 0 255
0 0 254
0 0 254
0 0 255
0 0 255
0 0 254
0 0 253
0 0 254
0 0 255
0 0 254
0 0 255
0 0 255
0 0 255
0 0 254
0 0 255
0 0 255
0 0 255
0 0 252
0 0 255
0 0 255
0 0 254
0 0 253
0 0 254
0 0 253
0 0 253
0 0 253
0 0 255
0 0 253
0 0 254
0 0 255
0 0 255
0 0 254
0 0 255
0 0 254
0 0 254
0 0 253
0 0 252
0 0 254
0 0 252
0 0 254
0 0 254
0 0 254
0 0 253
0 0 253
0 0 252
0 0 254
0 0 253
0 0 249
0 0 253
0 0 252
0 0 252
0 0 252
0 0 254
0 0 255
0 0 254
0 0 253
0 0 253
0 0 252
0 0 253
0 0 255
0 0 252
0 0 252
0 0 252
0 0 254
0 0 252
0 0 253
0 0 250
0 0 254
0 0 254
0 0 252
0 0 254
0 0 254
0 0 252
0 0 249
0 0 253
0 0 253
0 0 249
0 0 254
0 0 254
0 0 248
0 0 248
0 0 250
0 0 252
0 0 250
0 0 248
0 0 248
0 0 245
0 0 249
0 0 245
0 0 246
0 0 249
0 0 250
0 0 246
0 0 245
0 0 252
0 0 252
0 0 245
0 0 246
0 0 249
0 0 248
0 0 245
0 0 248
0 0 244
0 0 248
0 0 242
0 0 249
0 0 245
0 0 241
0 0 244
0 0 241
0 0 242
0 0 242
0 0 250
0 0 250
0 0 244
0 0 248
0 0 241
0 0 245
0 0 230
0 0 242
0 0 241
0 0 238
0 0 244
0 0 237
0 0 233
0 0 241
0 0 238
0 0 242
0 0 237
0 0 241
0 0 230
0 0 234
0 0 244
0 0 244
0 0 233
0 0 246
0 0 241
0 0 237
0 0 241
0 0 224
0 0 218
0 0 233
0 0 238
0 0 228
0 0 221
0 0 221
0 0 226
0 0 221
0 0 234
0 0 228
0 0 223
0 0 218
0 0 224
0 0 227
0 0 204
0 0 228
0 0 226
0 0 211
0 0 221
0 0 207
0 0 211
0 0 215
0 0 218
0 0 209
0 0 204
0 0 189
0 0 196
0 0 191
0 0 188
0 0 194
0 0 191
0 0 182
0 0 181
0 0 189
0 0 167
0 0 173
0 0 165
0 0 163
0 0 155
171 185 218
213 231 255
213 231 255
213 231 255
213 231 255
213 231 255
213 231 255
183 192 212
107 0 0
124 0 0
141 0 0
138 0 0
134 0 0
148 0 0
139 0 0
154 0 0
151 0 0
160 0 0
163 0 0
166 0 0
166 0 0
171 0 0
174 0 0
169 0 0
186 0 0
180 0 0
171 0 0
181 0 0
176 0 0
184 0 0
188 0 0
190 0 0
182 0 0
194 0 0
190 0 0
183 0 0
192 0 0
195 0 0
195 0 0
186 0 0
199 0 0
196 0 0
202 0 0
196 0 0
196 0 0
184 0 0
198 0 0
199 0 0
194 0 0
194 0 0
204 0 0
195 0 0
201 0 0
206 0 0
199 0 0
203 0 0
205 0 0
202 0 0
205 0 0
204 0 0
204 0 0
206 0 0
205 0 0
206 0 0
207 0 0
204 0 0
207 0 0
211 0 0
203 0 0
204 0 0
207 0 0
205 0 0
210 0 0
210 0 0
207 0 0
207 0 0
212 0 0
205 0 0
213 0 0
210 0 0
207 0 0
210 0 0
218 0 0
207 0 0
214 0 0
216 0 0
202 0 0
207 0 0
212 0 0
213 0 0
213 0 0
210 0 0
207 0 0
214 0 0
206 0 0
213 0 0
209 0 0
212 0 0
216 0 0
208 0 0
214 0 0
210 0 0
211 0 0
211 0 0
213 0 0
210 0 0
211 0 0
209 0 0
211 0 0
216 0 0
212 0 0
217 0 0
215 0 0
218 0 0
213 0 0
216 0 0
219 0 0
214 0 0
214 0 0
218 0 0
216 0 0
212 0 0
216 0 0
213 0 0
216 0 0
215 0 0
212 0 0
219 0 0
215 0 0
216 0 0
217 0 0
215 0 0
215 0 0
216 0 0
210 0 0
214 0 0
215 0 0
216 0 0
221 0 0
220 0 0
218 0 0
214 0 0
219 0 0
217 0 0
216 0 0
214 0 0
215 0 0
216 0 0
213 0 0
213 0 0
210 0 0
215 0 0
213 0 0
217 0 0
220 0 0
214 0 0
218 0 0
218 0 0
217 0 0
219 0 0
218 0 0
217 0 0
217 0 0
217 0 0
218 0 0
215 0 0
222 0 0
212 0 0
218 0 0
219 0 0
214 0 0
218 0 0
221 0 0
222 0 0
219 0 0
216 0 0
220 0 0
220 0 0
218 0 0
221 0 0
215 0 0
218 0 0
220 0 0
221 0 0
216 0 0
219 0 0
218 0 0
221 0 0
214 0 0
221 0 0
216 0 0
222 0 0
220 0 0
218 0 0
220 0 0
220 0 0
215 0 0
216 0 0
214 0 0
221 0 0
216 0 0
217 0 0
217 0 0
216 0 0
0 0 254
0 0 255
0 0 255
0 0 255
0 0 253
0 0 255
0 0 255
0 0 255
0 0 255
0 0 255
0 0 254
0 0 254
0 0 255
0 0 255
0 0 255
0 0 255
0 0 255
0 0 255
0 0 254
0 0 255
0 0 253
0 0 254
0 0 255
0 0 253
0 0 253
0 0 255
0 0 254
0 0 255
0 0 254
0 0 253
0 0 255
0 0 254
0 0 255
0 0 254
0 0 254
0 0 255
0 0 255
0 0 252
0 0 254
0 0 254
0 0 250
0 0 253
0 0 254
0 0 254
0 0 252
0 0 255
0 0 249
0 0 254
0 0 253
0 0 253
0 0 255
0 0 253
0 0 254
0 0 250
0 0 253
0 0 253
0 0 250
0 0 254
0 0 253
0 0 254
0 0 255
0 0 252
0 0 254
0 0 254
0 0 255
0 0 253
0 0 250
0 0 254
0 0 250
0 0 253
0 0 254
0 0 253
0 0 250
0 0 253
0 0 250
0 0 248
0 0 250
0 0 254
0 0 252
0 0 253
0 0 253
0 0 250
0 0 255
0 0 254
0 0 252
0 0 254
0 0 253
0 0 250
0 0 252
0 0 252
0 0 253
0 0 250
0 0 254
0 0 250
0 0 250
0 0 249
0 0 246
0 0 250
0 0 246
0 0 253
0 0 254
0 0 249
0 0 252
0 0 253
0 0 246
0 0 250
0 0 246
0 0 250
0 0 250
0 0 250
0 0 244
0 0 249
0 0 249
0 0 246
0 0 253
0 0 242
0 0 246
0 0 245
0 0 246
0 0 242
0 0 244
0 0 245
0 0 248
0 0 244
0 0 250
0 0 248
0 0 236
0 0 248
0 0 242
0 0 249
0 0 241
0 0 244
0 0 236
0 0 234
0 0 236
0 0 244
0 0 238
0 0 237
0 0 240
0 0 234
0 0 240
0 0 238
0 0 246
0 0 244
0 0 241
0 0 241
0 0 244
0 0 238
0 0 231
0 0 233
0 0 231
0 0 233
0 0 224
0 0 237
0 0 227
0 0 238
0 0 230
0 0 236
0 0 234
0 0 227
0 0 234
0 0 224
0 0 234
0 0 217
0 0 230
0 0 220
0 0 231
0 0 220
0 0 217
0 0 227
0 0 228
0 0 226
0 0 227
0 0 224
0 0 218
0 0 221
0 0 211
0 0 228
0 0 207
0 0 207
0 0 211
0 0 201
0 0 203
0 0 209
0 0 203
0 0 199
0 0 198
0 0 194
0 0 188
0 0 177
0 0 182
0 0 171
0 0 161
0 0 151
0 0 151
0 0 167
124 135 186
214 231 255
214 231 255
214 231 255
214 231 255
214 231 255
214 231 255
159 155 171
109 0 0
122 0 0
134 0 0
119 0 0
140 0 0
136 0 0
157 0 0
145 0 0
154 0 0
170 0 0
170 0 0
155 0 0
159 0 0
165 0 0
155 0 0
177 0 0
173 0 0
167 0 0
188 0 0
175 0 0
176 0 0
176 0 0
181 0 0
185 0 0
184 0 0
193 0 0
192 0 0
187 0 0
184 0 0
190 0 0
195 0 0
195 0 0
203 0 0
191 0 0
193 0 0
203 0 0
199 0 0
184 0 0
197 0 0
193 0 0
200 0 0
205 0 0
192 0 0
201 0 0
205 0 0
195 0 0
204 0 0
203 0 0
207 0 0
204 0 0
206 0 0
198 0 0
204 0 0
208 0 0
203 0 0
198 0 0
208 0 0
211 0 0
206 0 0
202 0 0
210 0 0
210 0 0
205 0 0
205 0 0
206 0 0
205 0 0
204 0 0
208 0 0
203 0 0
203 0 0
212 0 0
210 0 0
206 0 0
211 0 0
211 0 0
203 0 0
197 0 0
211 0 0
211 0 0
211 0 0
207 0 0
218 0 0
212 0 0
210 0 0
210 0 0
213 0 0
212 0 0
214 0 0
209 0 0
220 0 0
211 0 0
208 0 0
208 0 0
216 0 0
212 0 0
208 0 0
207 0 0
218 0 0
218 0 0
214 0 0
216 0 0
213 0 0
211 0 0
218 0 0
213 0 0
210 0 0
214 0 0
213 0 0
213 0 0
212 0 0
216 0 0
214 0 0
215 0 0
216 0 0
218 0 0
215 0 0
209 0 0
212 0 0
217 0 0
217 0 0
216 0 0
214 0 0
215 0 0
212 0 0
217 0 0
213 0 0
214 0 0
217 0 0
214 0 0
214 0 0
215 0 0
213 0 0
217 0 0
220 0 0
214 0 0
217 0 0
217 0 0
217 0 0
219 0 0
222 0 0
217 0 0
215 0 0
212 0 0
218 0 0
217 0 0
218 0 0
214 0 0
217 0 0
217 0 0
215 0 0
218 0 0
217 0 0
214 0 0
214 0 0
221 0 0
220 0 0
216 0 0
217 0 0
218 0 0
219 0 0
219 0 0
218 0 0
217 0 0
215 0 0
215 0 0
219 0 0
218 0 0
214 0 0
217 0 0
218 0 0
217 0 0
221 0 0
215 0 0
216 0 0
219 0 0
217 0 0
220 0 0
221 0 0
219 0 0
216 0 0
220 0 0
220 0 0
215 0 0
218 0 0
216 0 0
216 0 0
214 0 0
214 0 0
217 0 0
220 0 0
217 0 0
216 0 0
220 0 0
218 0 0
218 0 0
220 0 0
0 0 255
0 0 255
0 0 255
0 0 254
0 0 255
0 0 255
0 0 255
0 0 255
0 0 255
0 0 255
0 0 254
0 0 253
0 0 254
0 0 255
0 0 254
0 0 255
0 0 254
0 0 255
0 0 254
0 0 254
0 0 254
0 0 255
0 0 253
0 0 254
0 0 255
0 0 254
0 0 253
0 0 254
0 0 253
0 0 254
0 0 254
0 0 254
0 0 254
0 0 254
0 0 252
0 0 253
0 0 250
0 0 253
0 0 255
0 0 255
0 0 255
0 0 255
0 0 253
0 0 254
0 0 252
0 0 252
0 0 255
0 0 254
0 0 250
0 0 250
0 0 254
0 0 253
0 0 254
0 0 255
0 0 254
0 0 255
0 0 253
0 0 253
0 0 250
0 0 252
0 0 249
0 0 253
0 0 254
0 0 255
0 0 254
0 0 252
0 0 252
0 0 252
0 0 253
0 0 255
0 0 252
0 0 253
0 0 252
0 0 254
0 0 255
0 0 250
0 0 255
0 0 252
0 0 254
0 0 248
0 0 250
0 0 250
0 0 250
0 0 252
0 0 253
0 0 255
0 0 252
0 0 246
0 0 250
0 0 253
0 0 253
0 0 252
0 0 253
0 0 252
0 0 253
0 0 246
0 0 250
0 0 249
0 0 252
0 0 244
0 0 246
0 0 252
0 0 250
0 0 254
0 0 248
0 0 246
0 0 250
0 0 250
0 0 245
0 0 250
0 0 242
0 0 244
0 0 242
0 0 254
0 0 237
0 0 250
0 0 246
0 0 249
0 0 244
0 0 248
0 0 242
0 0 250
0 0 242
0 0 245
0 0 246
0 0 244
0 0 241
0 0 246
0 0 237
0 0 238
0 0 238
0 0 244
0 0 245
0 0 238
0 0 236
0 0 245
0 0 241
0 0 246
0 0 242
0 0 244
0 0 241
0 0 237
0 0 233
0 0 246
0 0 240
0 0 241
0 0 236
0 0 240
0 0 240
0 0 241
0 0 242
0 0 234
0 0 240
0 0 230
0 0 231
0 0 231
0 0 236
0 0 227
0 0 237
0 0 224
0 0 233
0 0 237
0 0 221
0 0 233
0 0 221
0 0 227
0 0 228
0 0 233
0 0 226
0 0 220
0 0 238
0 0 220
0 0 227
0 0 221
0 0 211
0 0 226
0 0 215
0 0 215
0 0 209
0 0 215
0 0 198
0 0 214
0 0 203
0 0 207
0 0 201
0 0 191
0 0 184
0 0 182
0 0 201
0 0 188
0 0 163
0 0 153
0 0 157
0 0 159
0 0 142
0 0 147
47 51 140
213 230 255
214 231 255
214 231 255
214 231 255
214 231 255
213 230 254
111 51 57
116 0 0
114 0 0
104 0 0
137 0 0
144 0 0
155 0 0
130 0 0
145 0 0
145 0 0
162 0 0
162 0 0
172 0 0
165 0 0
156 0 0
174 0 0
174 0 0
182 0 0
173 0 0
189 0 0
191 0 0
179 0 0
177 0 0
189 0 0
179 0 0
186 0 0
192 0 0
194 0 0
184 0 0
192 0 0
191 0 0
187 0 0
186 0 0
204 0 0
192 0 0
192 0 0
206 0 0
203 0 0
200 0 0
199 0 0
204 0 0
202 0 0
196 0 0
192 0 0
201 0 0
198 0 0
205 0 0
191 0 0
189 0 0
198 0 0
202 0 0
203 0 0
199 0 0
202 0 0
204 0 0
205 0 0
205 0 0
208 0 0
208 0 0
201 0 0
203 0 0
204 0 0
211 0 0
204 0 0
208 0 0
207 0 0
199 0 0
207 0 0
211 0 0
214 0 0
205 0 0
212 0 0
209 0 0
203 0 0
213 0 0
215 0 0
205 0 0
212 0 0
211 0 0
210 0 0
213 0 0
213 0 0
206 0 0
207 0 0
218 0 0
211 0 0
206 0 0
214 0 0
212 0 0
216 0 0
211 0 0
211 0 0
205 0 0
214 0 0
217 0 0
212 0 0
208 0 0
212 0 0
219 0 0
212 0 0
214 0 0
217 0 0
217 0 0
215 0 0
216 0 0
218 0 0
213 0 0
217 0 0
212 0 0
212 0 0
214 0 0
216 0 0
212 0 0
206 0 0
214 0 0
215 0 0
217 0 0
216 0 0
220 0 0
216 0 0
216 0 0
209 0 0
216 0 0
219 0 0
211 0 0
216 0 0
216 0 0
212 0 0
217 0 0
216 0 0
216 0 0
218 0 0
219 0 0
214 0 0
217 0 0
217 0 0
215 0 0
216 0 0
215 0 0
211 0 0
212 0 0
218 0 0
216 0 0
219 0 0
215 0 0
215 0 0
217 0 0
213 0 0
215 0 0
217 0 0
215 0 0
217 0 0
215 0 0
213 0 0
216 0 0
216 0 0
216 0 0
216 0 0
214 0 0
214 0 0
217 0 0
215 0 0
215 0 0
217 0 0
217 0 0
217 0 0
220 0 0
213 0 0
219 0 0
220 0 0
220 0 0
218 0 0
220 0 0
215 0 0
218 0 0
219 0 0
220 0 0
216 0 0
220 0 0
217 0 0
221 0 0
217 0 0
219 0 0
216 0 0
218 0 0
222 0 0
216 0 0
217 0 0
220 0 0
215 0 0
220 0 0
214 0 0
216 0 0
219 0 0
217 0 0
220 0 0
222 0 0
0 0 254
0 0 254
0 0 255
0 0 255
0 0 254
0 0 255
0 0 255
0 0 254
0 0 255
0 0 253
0 0 253
0 0 254
0 0 254
0 0 254
0 0 254
0 0 254
0 0 253
0 0 254
0 0 252
0 0 255
0 0 255
0 0 254
0 0 254
0 0 255
0 0 253
0 0 254
0 0 255
0 0 252
0 0 255
0 0 254
0 0 253
0 0 255
0 0 255
0 0 253
0 0 254
0 0 254
0 0 254
0 0 255
0 0 254
0 0 254
0 0 255
0 0 254
0 0 254
0 0 255
0 0 255
0 0 254
0 0 253
0 0 254
0 0 253
0 0 249
0 0 253
0 0 254
0 0 253
0 0 254
0 0 255
0 0 255
0 0 250
0 0 252
0 0 252
0 0 254
0 0 253
0 0 254
0 0 254
0 0 249
0 0 253
0 0 252
0 0 253
0 0 252
0 0 253
0 0 249
0 0 250
0 0 252
0 0 248
0 0 253
0 0 253
0 0 249
0 0 254
0 0 255
0 0 252
0 0 252
0 0 249
0 0 248
0 0 250
0 0 252
0 0 254
0 0 254
0 0 252
0 0 254
0 0 253
0 0 250
0 0 250
0 0 253
0 0 252
0 0 252
0 0 244
0 0 246
0 0 250
0 0 244
0 0 250
0 0 245
0 0 248
0 0 252
0 0 250
0 0 249
0 0 250
0 0 254
0 0 250
0 0 254
0 0 244
0 0 252
0 0 254
0 0 253
0 0 250
0 0 245
0 0 242
0 0 249
0 0 246
0 0 240
0 0 241
0 0 253
0 0 249
0 0 245
0 0 248
0 0 249
0 0 252
0 0 241
0 0 241
0 0 245
0 0 241
0 0 245
0 0 244
0 0 250
0 0 245
0 0 246
0 0 246
0 0 244
0 0 238
0 0 244
0 0 240
0 0 245
0 0 237
0 0 237
0 0 238
0 0 241
0 0 236
0 0 242
0 0 240
0 0 241
0 0 237
0 0 236
0 0 241
0 0 240
0 0 234
0 0 240
0 0 236
0 0 240
0 0 237
0 0 236
0 0 228
0 0 238
0 0 236
0 0 218
0 0 237
0 0 230
0 0 230
0 0 223
0 0 227
0 0 218
0 0 227
0 0 221
0 0 228
0 0 226
0 0 215
0 0 214
0 0 215
0 0 209
0 0 226
0 0 201
0 0 215
0 0 215
0 0 203
0 0 209
0 0 206
0 0 207
0 0 198
0 0 199
0 0 188
0 0 194
0 0 188
0 0 173
0 0 186
0 0 169
0 0 175
0 0 149
0 0 167
0 0 142
0 0 117
188 203 237
214 232 255
214 232 255
214 232 255
214 232 255
190 194 214
81 0 0
125 0 0
121 0 0
139 0 0
129 0 0
146 0 0
160 0 0
144 0 0
163 0 0
155 0 0
156 0 0
161 0 0
145 0 0
153 0 0
178 0 0
171 0 0
178 0 0
174 0 0
159 0 0
173 0 0
177 0 0
182 0 0
179 0 0
171 0 0
194 0 0
190 0 0
185 0 0
185 0 0
194 0 0
197 0 0
195 0 0
191 0 0
197 0 0
195 0 0
195 0 0
195 0 0
203 0 0
198 0 0
198 0 0
197 0 0
200 0 0
191 0 0
204 0 0
206 0 0
203 0 0
203 0 0
200 0 0
209 0 0
206 0 0
202 0 0
202 0 0
204 0 0
203 0 0
197 0 0
204 0 0
206 0 0
206 0 0
213 0 0
208 0 0
199 0 0
207 0 0
207 0 0
204 0 0
210 0 0
207 0 0
211 0 0
210 0 0
201 0 0
211 0 0
206 0 0
212 0 0
201 0 0
215 0 0
206 0 0
202 0 0
209 0 0
211 0 0
213 0 0
211 0 0
209 0 0
214 0 0
208 0 0
209 0 0
208 0 0
209 0 0
212 0 0
214 0 0
216 0 0
215 0 0
213 0 0
214 0 0
213 0 0
213 0 0
208 0 0
214 0 0
216 0 0
212 0 0
212 0 0
215 0 0
211 0 0
212 0 0
215 0 0
217 0 0
218 0 0
207 0 0
215 0 0
213 0 0
214 0 0
217 0 0
210 0 0
211 0 0
210 0 0
215 0 0
212 0 0
216 0 0
216 0 0
218 0 0
217 0 0
216 0 0
218 0 0
215 0 0
215 0 0
219 0 0
213 0 0
219 0 0
216 0 0
213 0 0
215 0 0
212 0 0
211 0 0
215 0 0
219 0 0
214 0 0
217 0 0
219 0 0
217 0 0
218 0 0
216 0 0
216 0 0
214 0 0
215 0 0
220 0 0
216 0 0
218 0 0
219 0 0
218 0 0
216 0 0
221 0 0
219 0 0
214 0 0
215 0 0
214 0 0
218 0 0
217 0 0
217 0 0
218 0 0
216 0 0
217 0 0
221 0 0
214 0 0
222 0 0
218 0 0
219 0 0
219 0 0
221 0 0
218 0 0
218 0 0
218 0 0
216 0 0
216 0 0
220 0 0
217 0 0
217 0 0
224 0 0
219 0 0
223 0 0
216 0 0
220 0 0
220 0 0
218 0 0
219 0 0
219 0 0
220 0 0
219 0 0
216 0 0
220 0 0
220 0 0
221 0 0
217 0 0
220 0 0
219 0 0
219 0 0
218 0 0
218 0 0
220 0 0
218 0 0
217 0 0
0 0 255
0 0 254
0 0 255
0 0 255
0 0 255
0 0 255
0 0 255
0 0 255
0 0 254
0 0 255
0 0 254
0 0 255
0 0 255
0 0 255
0 0 255
0 0 254
0 0 255
0 0 255
0 0 252
0 0 253
0 0 254
0 0 253
0 0 255
0 0 255
0 0 254
0 0 254
0 0 255
0 0 254
0 0 254
0 0 254
0 0 254
0 0 254
0 0 253
0 0 254
0 0 255
0 0 255
0 0 253
0 0 254
0 0 254
0 0 254
0 0 254
0 0 252
0 0 254
0 0 254
0 0 254
0 0 253
0 0 248
0 0 254
0 0 250
0 0 255
0 0 252
0 0 255
0 0 252
0 0 254
0 0 249
0 0 252
0 0 254
0 0 254
0 0 252
0 0 254
0 0 250
0 0 252
0 0 253
0 0 252
0 0 252
0 0 250
0 0 253
0 0 254
0 0 253
0 0 253
0 0 249
0 0 253
0 0 253
0 0 252
0 0 250
0 0 252
0 0 252
0 0 253
0 0 253
0 0 253
0 0 254
0 0 253
0 0 252
0 0 249
0 0 253
0 0 254
0 0 252
0 0 253
0 0 250
0 0 254
0 0 250
0 0 249
0 0 253
0 0 249
0 0 249
0 0 252
0 0 245
0 0 252
0 0 246
0 0 252
0 0 250
0 0 250
0 0 249
0 0 253
0 0 252
0 0 253
0 0 250
0 0 244
0 0 253
0 0 248
0 0 250
0 0 244
0 0 245
0 0 248
0 0 248
0 0 245
0 0 248
0 0 250
0 0 245
0 0 244
0 0 245
0 0 244
0 0 245
0 0 252
0 0 241
0 0 245
0 0 245
0 0 246
0 0 241
0 0 241
0 0 241
0 0 236
0 0 246
0 0 240
0 0 245
0 0 246
0 0 246
0 0 242
0 0 245
0 0 244
0 0 234
0 0 241
0 0 240
0 0 241
0 0 236
0 0 238
0 0 237
0 0 238
0 0 233
0 0 237
0 0 236
0 0 237
0 0 224
0 0 231
0 0 233
0 0 221
0 0 234
0 0 230
0 0 230
0 0 234
0 0 231
0 0 228
0 0 226
0 0 227
0 0 234
0 0 230
0 0 226
0 0 224
0 0 227
0 0 221
0 0 227
0 0 226
0 0 214
0 0 211
0 0 212
0 0 218
0 0 207
0 0 209
0 0 207
0 0 217
0 0 201
0 0 203
0 0 206
0 0 201
0 0 203
0 0 194
0 0 199
0 0 198
0 0 189
0 0 206
0 0 155
0 0 165
0 0 151
0 0 161
0 0 155
0 0 149
0 0 125
155 167 198
215 232 255
215 232 255
215 232 255
215 232 255
168 165 182
105 0 0
109 0 0
117 0 0
121 0 0
134 0 0
136 0 0
159 0 0
152 0 0
161 0 0
152 0 0
159 0 0
177 0 0
167 0 0
169 0 0
168 0 0
183 0 0
166 0 0
174 0 0
181 0 0
171 0 0
173 0 0
186 0 0
187 0 0
175 0 0
181 0 0
177 0 0
182 0 0
184 0 0
190 0 0
199 0 0
190 0 0
197 0 0
192 0 0
192 0 0
197 0 0
191 0 0
203 0 0
205 0 0
197 0 0
198 0 0
200 0 0
191 0 0
195 0 0
193 0 0
193 0 0
210 0 0
199 0 0
198 0 0
200 0 0
207 0 0
203 0 0
205 0 0
202 0 0
201 0 0
203 0 0
213 0 0
202 0 0
206 0 0
211 0 0
202 0 0
207 0 0
213 0 0
211 0 0
204 0 0
200 0 0
204 0 0
205 0 0
206 0 0
216 0 0
201 0 0
205 0 0
210 0 0
214 0 0
208 0 0
203 0 0
210 0 0
216 0 0
209 0 0
208 0 0
207 0 0
211 0 0
211 0 0
207 0 0
209 0 0
207 0 0
212 0 0
214 0 0
208 0 0
207 0 0
215 0 0
219 0 0
211 0 0
210 0 0
212 0 0
214 0 0
208 0 0
208 0 0
220 0 0
212 0 0
213 0 0
214 0 0
214 0 0
214 0 0
215 0 0
213 0 0
216 0 0
218 0 0
211 0 0
220 0 0
212 0 0
216 0 0
219 0 0
214 0 0
217 0 0
214 0 0
217 0 0
219 0 0
221 0 0
216 0 0
217 0 0
214 0 0
212 0 0
217 0 0
217 0 0
211 0 0
219 0 0
207 0 0
220 0 0
215 0 0
217 0 0
218 0 0
216 0 0
214 0 0
220 0 0
215 0 0
219 0 0
218 0 0
218 0 0
214 0 0
215 0 0
217 0 0
216 0 0
211 0 0
217 0 0
213 0 0
219 0 0
219 0 0
216 0 0
216 0 0
215 0 0
219 0 0
215 0 0
218 0 0
215 0 0
216 0 0
220 0 0
223 0 0
215 0 0
219 0 0
221 0 0
217 0 0
220 0 0
219 0 0
217 0 0
218 0 0
215 0 0
223 0 0
217 0 0
217 0 0
218 0 0
215 0 0
214 0 0
221 0 0
220 0 0
220 0 0
223 0 0
215 0 0
215 0 0
218 0 0
218 0 0
218 0 0
220 0 0
218 0 0
220 0 0
219 0 0
216 0 0
220 0 0
219 0 0
218 0 0
218 0 0
217 0 0
221 0 0
219 0 0
218 0 0
217 0 0
222 0 0
217 0 0
0 0 255
0 0 255
0 0 255
0 0 255
0 0 255
0 0 253
0 0 255
0 0 255
0 0 254
0 0 255
0 0 255
0 0 255
0 0 253
0 0 253
0 0 255
0 0 255
0 0 255
0 0 254
0 0 255
0 0 254
0 0 255
0 0 254
0 0 253
0 0 253
0 0 253
0 0 253
0 0 254
0 0 254
0 0 255
0 0 254
0 0 254
0 0 255
0 0 255
0 0 255
0 0 254
0 0 253
0 0 252
0 0 252
0 0 254
0 0 253
0 0 254
0 0 255
0 0 253
0 0 254
0 0 254
0 0 253
0 0 249
0 0 254
0 0 253
0 0 254
0 0 253
0 0 252
0 0 254
0 0 254
0 0 250
0 0 250
0 0 254
0 0 254
0 0 253
0 0 252
0 0 250
0 0 249
0 0 252
0 0 252
0 0 252
0 0 253
0 0 252
0 0 253
0 0 253
0 0 252
0 0 254
0 0 253
0 0 248
0 0 254
0 0 252
0 0 252
0 0 255
0 0 249
0 0 252
0 0 254
0 0 254
0 0 253
0 0 254
0 0 252
0 0 253
0 0 254
0 0 252
0 0 253
0 0 241
0 0 250
0 0 250
0 0 249
0 0 249
0 0 245
0 0 253
0 0 254
0 0 245
0 0 249
0 0 250
0 0 253
0 0 246
0 0 254
0 0 246
0 0 245
0 0 245
0 0 252
0 0 248
0 0 245
0 0 250
0 0 246
0 0 245
0 0 248
0 0 244
0 0 249
0 0 246
0 0 246
0 0 240
0 0 249
0 0 253
0 0 248
0 0 241
0 0 246
0 0 246
0 0 248
0 0 242
0 0 241
0 0 248
0 0 249
0 0 242
0 0 238
0 0 242
0 0 244
0 0 246
0 0 242
0 0 245
0 0 238
0 0 249
0 0 242
0 0 246
0 0 237
0 0 246
0 0 237
0 0 242
0 0 238
0 0 241
0 0 241
0 0 241
0 0 230
0 0 238
0 0 237
0 0 233
0 0 224
0 0 240
0 0 236
0 0 227
0 0 236
0 0 233
0 0 238
0 0 237
0 0 231
0 0 234
0 0 236
0 0 245
0 0 230
0 0 233
0 0 223
0 0 230
0 0 228
0 0 224
0 0 230
0 0 220
0 0 223
0 0 215
0 0 215
0 0 214
0 0 201
0 0 228
0 0 211
0 0 189
0 0 209
0 0 203
0 0 191
0 0 211
0 0 209
0 0 203
0 0 184
0 0 193
0 0 184
0 0 194
0 0 189
0 0 181
0 0 167
0 0 171
0 0 151
0 0 149
0 0 137
0 0 122
105 113 151
215 232 255
215 232 255
215 232 255
215 232 255
145 131 144
116 0 0
101 0 0
105 0 0
116 0 0
148 0 0
129 0 0
150 0 0
139 0 0
149 0 0
167 0 0
158 0 0
162 0 0
154 0 0
163 0 0
160 0 0
174 0 0
171 0 0
164 0 0
174 0 0
180 0 0
179 0 0
179 0 0
188 0 0
185 0 0
182 0 0
181 0 0
186 0 0
185 0 0
195 0 0
193 0 0
192 0 0
188 0 0
190 0 0
198 0 0
187 0 0
196 0 0
199 0 0
192 0 0
193 0 0
190 0 0
199 0 0
208 0 0
195 0 0
201 0 0
205 0 0
203 0 0
197 0 0
202 0 0
211 0 0
202 0 0
208 0 0
205 0 0
211 0 0
199 0 0
202 0 0
212 0 0
208 0 0
200 0 0
208 0 0
201 0 0
211 0 0
204 0 0
209 0 0
203 0 0
212 0 0
205 0 0
210 0 0
209 0 0
199 0 0
203 0 0
211 0 0
213 0 0
206 0 0
211 0 0
213 0 0
210 0 0
211 0 0
215 0 0
213 0 0
210 0 0
215 0 0
214 0 0
214 0 0
206 0 0
208 0 0
209 0 0
206 0 0
210 0 0
213 0 0
209 0 0
211 0 0
217 0 0
215 0 0
217 0 0
218 0 0
214 0 0
208 0 0
211 0 0
213 0 0
210 0 0
218 0 0
215 0 0
214 0 0
217 0 0
217 0 0
216 0 0
213 0 0
215 0 0
210 0 0
216 0 0
214 0 0
215 0 0
212 0 0
218 0 0
210 0 0
216 0 0
214 0 0
211 0 0
217 0 0
211 0 0
214 0 0
212 0 0
213 0 0
215 0 0
215 0 0
213 0 0
215 0 0
212 0 0
213 0 0
216 0 0
218 0 0
213 0 0
218 0 0
213 0 0
216 0 0
215 0 0
216 0 0
220 0 0
215 0 0
216 0 0
217 0 0
217 0 0
215 0 0
213 0 0
220 0 0
216 0 0
216 0 0
219 0 0
218 0 0
215 0 0
215 0 0
218 0 0
219 0 0
221 0 0
220 0 0
218 0 0
220 0 0
220 0 0
218 0 0
216 0 0
218 0 0
217 0 0
219 0 0
218 0 0
221 0 0
216 0 0
217 0 0
221 0 0
215 0 0
219 0 0
216 0 0
220 0 0
219 0 0
216 0 0
220 0 0
220 0 0
219 0 0
219 0 0
220 0 0
220 0 0
216 0 0
221 0 0
221 0 0
218 0 0
222 0 0
219 0 0
218 0 0
219 0 0
221 0 0
218 0 0
217 0 0
219 0 0
220 0 0
218 0 0
219 0 0
220 0 0
220 0 0
0 0 255
0 0 255
0 0 254
0 0 253
0 0 255
0 0 255
0 0 255
0 0 255
0 0 255
0 0 255
0 0 255
0 0 254
0 0 253
0 0 252
0 0 255
0 0 253
0 0 255
0 0 253
0 0 254
0 0 255
0 0 253
0 0 253
0 0 255
0 0 254
0 0 253
0 0 255
0 0 255
0 0 253
0 0 255
0 0 255
0 0 255
0 0 254
0 0 253
0 0 252
0 0 255
0 0 254
0 0 255
0 0 254
0 0 254
0 0 254
0 0 253
0 0 254
0 0 254
0 0 254
0 0 252
0 0 253
0 0 255
0 0 253
0 0 250
0 0 254
0 0 250
0 0 253
0 0 253
0 0 255
0 0 250
0 0 254
0 0 252
0 0 254
0 0 253
0 0 250
0 0 255
0 0 253
0 0 253
0 0 252
0 0 253
0 0 250
0 0 255
0 0 252
0 0 253
0 0 255
0 0 252
0 0 252
0 0 252
0 0 248
0 0 252
0 0 252
0 0 252
0 0 254
0 0 252
0 0 252
0 0 254
0 0 253
0 0 250
0 0 250
0 0 249
0 0 250
0 0 255
0 0 253
0 0 248
0 0 252
0 0 253
0 0 253
0 0 250
0 0 253
0 0 249
0 0 248
0 0 248
0 0 250
0 0 253
0 0 245
0 0 244
0 0 248
0 0 245
0 0 246
0 0 246
0 0 249
0 0 254
0 0 249
0 0 245
0 0 254
0 0 246
0 0 245
0 0 246
0 0 250
0 0 250
0 0 242
0 0 240
0 0 248
0 0 248
0 0 241
0 0 249
0 0 248
0 0 242
0 0 250
0 0 245
0 0 246
0 0 248
0 0 244
0 0 244
0 0 241
0 0 246
0 0 246
0 0 237
0 0 245
0 0 245
0 0 244
0 0 244
0 0 237
0 0 244
0 0 249
0 0 242
0 0 241
0 0 231
0 0 237
0 0 238
0 0 241
0 0 242
0 0 238
0 0 240
0 0 240
0 0 241
0 0 234
0 0 237
0 0 237
0 0 240
0 0 240
0 0 236
0 0 234
0 0 227
0 0 233
0 0 233
0 0 238
0 0 230
0 0 227
0 0 228
0 0 218
0 0 224
0 0 223
0 0 226
0 0 214
0 0 218
0 0 215
0 0 218
0 0 209
0 0 214
0 0 209
0 0 211
0 0 211
0 0 215
0 0 198
0 0 203
0 0 207
0 0 199
0 0 194
0 0 191
0 0 194
0 0 188
0 0 184
0 0 175
0 0 177
0 0 182
0 0 165
0 0 135
0 0 155
0 0 135
0 0 130
0 0 128
37 40 135
214 231 254
215 232 255
215 232 255
215 232 255
98 61 67
109 0 0
114 0 0
126 0 0
116 0 0
140 0 0
148 0 0
137 0 0
157 0 0
147 0 0
155 0 0
151 0 0
166 0 0
158 0 0
166 0 0
156 0 0
167 0 0
180 0 0
177 0 0
174 0 0
168 0 0
189 0 0
181 0 0
183 0 0
183 0 0
186 0 0
180 0 0
195 0 0
179 0 0
190 0 0
186 0 0
181 0 0
193 0 0
185 0 0
193 0 0
194 0 0
194 0 0
202 0 0
200 0 0
198 0 0
196 0 0
196 0 0
194 0 0
211 0 0
201 0 0
204 0 0
203 0 0
196 0 0
196 0 0
202 0 0
206 0 0
200 0 0
211 0 0
193 0 0
209 0 0
200 0 0
204 0 0
203 0 0
207 0 0
205 0 0
211 0 0
208 0 0
208 0 0
205 0 0
209 0 0
214 0 0
209 0 0
205 0 0
213 0 0
208 0 0
206 0 0
214 0 0
212 0 0
216 0 0
207 0 0
210 0 0
213 0 0
209 0 0
216 0 0
212 0 0
214 0 0
214 0 0
209 0 0
213 0 0
211 0 0
209 0 0
213 0 0
212 0 0
217 0 0
220 0 0
215 0 0
214 0 0
212 0 0
217 0 0
213 0 0
214 0 0
215 0 0
216 0 0
210 0 0
213 0 0
215 0 0
220 0 0
214 0 0
219 0 0
218 0 0
219 0 0
214 0 0
212 0 0
217 0 0
217 0 0
212 0 0
214 0 0
218 0 0
211 0 0
215 0 0
217 0 0
214 0 0
216 0 0
209 0 0
213 0 0
212 0 0
216 0 0
218 0 0
214 0 0
216 0 0
216 0 0
217 0 0
216 0 0
216 0 0
217 0 0
216 0 0
213 0 0
217 0 0
218 0 0
218 0 0
215 0 0
216 0 0
219 0 0
217 0 0
220 0 0
220 0 0
213 0 0
217 0 0
218 0 0
217 0 0
216 0 0
216 0 0
214 0 0
216 0 0
217 0 0
217 0 0
214 0 0
222 0 0
217 0 0
219 0 0
218 0 0
219 0 0
220 0 0
211 0 0
221 0 0
217 0 0
222 0 0
219 0 0
218 0 0
216 0 0
216 0 0
214 0 0
220 0 0
218 0 0
216 0 0
220 0 0
215 0 0
217 0 0
219 0 0
221 0 0
221 0 0
218 0 0
220 0 0
220 0 0
218 0 0
216 0 0
215 0 0
217 0 0
220 0 0
223 0 0
219 0 0
216 0 0
220 0 0
217 0 0
218 0 0
217 0 0
219 0 0
217 0 0
219 0 0
214 0 0
218 0 0
216 0 0
218 0 0
0 0 255
0 0 253
0 0 255
0 0 255
0 0 254
0 0 254
0 0 254
0 0 255
0 0 255
0 0 255
0 0 254
0 0 255
0 0 253
0 0 255
0 0 255
0 0 254
0 0 255
0 0 254
0 0 255
0 0 255
0 0 254
0 0 254
0 0 253
0 0 255
0 0 254
0 0 255
0 0 255
0 0 253
0 0 254
0 0 254
0 0 253
0 0 254
0 0 255
0 0 254
0 0 253
0 0 253
0 0 254
0 0 255
0 0 252
0 0 255
0 0 255
0 0 249
0 0 253
0 0 254
0 0 254
0 0 255
0 0 252
0 0 255
0 0 252
0 0 254
0 0 253
0 0 254
0 0 252
0 0 250
0 0 254
0 0 252
0 0 254
0 0 254
0 0 253
0 0 253
0 0 253
0 0 252
0 0 253
0 0 255
0 0 254
0 0 254
0 0 252
0 0 250
0 0 253
0 0 252
0 0 255
0 0 253
0 0 250
0 0 252
0 0 253
0 0 253
0 0 246
0 0 250
0 0 253
0 0 254
0 0 252
0 0 253
0 0 249
0 0 250
0 0 250
0 0 252
0 0 253
0 0 249
0 0 249
0 0 253
0 0 246
0 0 253
0 0 252
0 0 253
0 0 250
0 0 250
0 0 253
0 0 246
0 0 248
0 0 250
0 0 250
0 0 242
0 0 246
0 0 248
0 0 250
0 0 248
0 0 246
0 0 248
0 0 250
0 0 249
0 0 248
0 0 249
0 0 249
0 0 246
0 0 252
0 0 253
0 0 246
0 0 246
0 0 250
0 0 245
0 0 241
0 0 250
0 0 241
0 0 241
0 0 246
0 0 246
0 0 246
0 0 246
0 0 246
0 0 246
0 0 241
0 0 241
0 0 246
0 0 246
0 0 240
0 0 242
0 0 249
0 0 236
0 0 245
0 0 241
0 0 236
0 0 248
0 0 241
0 0 238
0 0 236
0 0 240
0 0 242
0 0 234
0 0 237
0 0 237
0 0 238
0 0 238
0 0 236
0 0 236
0 0 233
0 0 233
0 0 233
0 0 241
0 0 220
0 0 228
0 0 231
0 0 218
0 0 237
0 0 234
0 0 220
0 0 220
0 0 228
0 0 227
0 0 231
0 0 227
0 0 226
0 0 228
0 0 209
0 0 228
0 0 220
0 0 214
0 0 223
0 0 204
0 0 215
0 0 215
0 0 209
0 0 203
0 0 198
0 0 211
0 0 191
0 0 189
0 0 191
0 0 186
0 0 175
0 0 191
0 0 161
0 0 184
0 0 144
0 0 153
0 0 161
0 0 120
0 0 120
0 0 111
201 217 242
216 232 255
216 232 255
195 204 224
93 0 0
96 0 0
112 0 0
121 0 0
126 0 0
127 0 0
142 0 0
146 0 0
146 0 0
138 0 0
155 0 0
169 0 0
157 0 0
171 0 0
167 0 0
167 0 0
176 0 0
178 0 0
151 0 0
193 0 0
173 0 0
174 0 0
180 0 0
179 0 0
185 0 0
188 0 0
183 0 0
181 0 0
183 0 0
181 0 0
183 0 0
188 0 0
189 0 0
189 0 0
188 0 0
191 0 0
198 0 0
200 0 0
193 0 0
196 0 0
195 0 0
199 0 0
199 0 0
197 0 0
197 0 0
198 0 0
201 0 0
199 0 0
197 0 0
203 0 0
205 0 0
200 0 0
210 0 0
204 0 0
204 0 0
198 0 0
199 0 0
198 0 0
201 0 0
207 0 0
206 0 0
209 0 0
212 0 0
206 0 0
209 0 0
211 0 0
208 0 0
211 0 0
208 0 0
203 0 0
205 0 0
206 0 0
205 0 0
213 0 0
208 0 0
209 0 0
209 0 0
214 0 0
214 0 0
206 0 0
212 0 0
213 0 0
210 0 0
211 0 0
220 0 0
211 0 0
210 0 0
214 0 0
210 0 0
215 0 0
216 0 0
214 0 0
213 0 0
213 0 0
211 0 0
217 0 0
213 0 0
211 0 0
211 0 0
214 0 0
217 0 0
216 0 0
215 0 0
216 0 0
221 0 0
215 0 0
217 0 0
222 0 0
216 0 0
222 0 0
224 0 0
217 0 0
217 0 0
214 0 0
219 0 0
216 0 0
219 0 0
218 0 0
213 0 0
211 0 0
216 0 0
216 0 0
216 0 0
216 0 0
212 0 0
215 0 0
215 0 0
217 0 0
218 0 0
214 0 0
220 0 0
214 0 0
218 0 0
214 0 0
217 0 0
218 0 0
213 0 0
221 0 0
213 0 0
216 0 0
215 0 0
215 0 0
217 0 0
220 0 0
216 0 0
219 0 0
218 0 0
217 0 0
219 0 0
220 0 0
217 0 0
216 0 0
219 0 0
218 0 0
220 0 0
219 0 0
215 0 0
220 0 0
219 0 0
217 0 0
217 0 0
217 0 0
220 0 0
220 0 0
218 0 0
221 0 0
221 0 0
219 0 0
221 0 0
214 0 0
218 0 0
217 0 0
220 0 0
218 0 0
223 0 0
217 0 0
215 0 0
219 0 0
219 0 0
219 0 0
223 0 0
219 0 0
217 0 0
216 0 0
222 0 0
222 0 0
222 0 0
219 0 0
219 0 0
218 0 0
216 0 0
221 0 0
216 0 0
221 0 0
218 0 0
217 0 0
215 0 0
223 0 0
0 0 255
0 0 255
0 0 254
0 0 254
0 0 254
0 0 254
0 0 253
0 0 253
0 0 254
0 0 255
0 0 255
0 0 255
0 0 255
0 0 255
0 0 254
0 0 255
0 0 254
0 0 254
0 0 255
0 0 254
0 0 253
0 0 254
0 0 253
0 0 253
0 0 254
0 0 253
0 0 254
0 0 254
0 0 255
0 0 254
0 0 254
0 0 252
0 0 254
0 0 254
0 0 255
0 0 254
0 0 250
0 0 253
0 0 253
0 0 255
0 0 253
0 0 254
0 0 254
0 0 254
0 0 253
0 0 254
0 0 253
0 0 255
0 0 254
0 0 253
0 0 253
0 0 255
0 0 254
0 0 254
0 0 253
0 0 252
0 0 249
0 0 254
0 0 252
0 0 250
0 0 254
0 0 254
0 0 253
0 0 255
0 0 252
0 0 252
0 0 253
0 0 254
0 0 252
0 0 252
0 0 253
0 0 253
0 0 254
0 0 249
0 0 253
0 0 252
0 0 252
0 0 249
0 0 246
0 0 248
0 0 248
0 0 248
0 0 250
0 0 254
0 0 249
0 0 254
0 0 250
0 0 249
0 0 252
0 0 254
0 0 254
0 0 248
0 0 250
0 0 252
0 0 252
0 0 249
0 0 250
0 0 248
0 0 253
0 0 248
0 0 250
0 0 245
0 0 248
0 0 248
0 0 244
0 0 250
0 0 248
0 0 253
0 0 252
0 0 238
0 0 240
0 0 250
0 0 250
0 0 248
0 0 252
0 0 250
0 0 249
0 0 249
0 0 248
0 0 244
0 0 242
0 0 248
0 0 248
0 0 252
0 0 241
0 0 245
0 0 245
0 0 250
0 0 245
0 0 248
0 0 244
0 0 245
0 0 241
0 0 245
0 0 244
0 0 241
0 0 241
0 0 242
0 0 244
0 0 241
0 0 238
0 0 237
0 0 244
0 0 234
0 0 238
0 0 242
0 0 233
0 0 236
0 0 234
0 0 241
0 0 245
0 0 240
0 0 237
0 0 234
0 0 231
0 0 238
0 0 231
0 0 228
0 0 237
0 0 233
0 0 238
0 0 228
0 0 231
0 0 228
0 0 224
0 0 224
0 0 233
0 0 221
0 0 214
0 0 220
0 0 227
0 0 224
0 0 206
0 0 224
0 0 215
0 0 211
0 0 214
0 0 209
0 0 212
0 0 204
0 0 196
0 0 204
0 0 206
0 0 201
0 0 179
0 0 188
0 0 191
0 0 188
0 0 182
0 0 199
0 0 177
0 0 161
0 0 151
0 0 140
0 0 147
0 0 125
0 0 120
0 0 120
170 183 206
216 233 255
216 233 255
169 177 194
99 0 0
101 0 0
103 0 0
117 0 0
139 0 0
136 0 0
147 0 0
160 0 0
157 0 0
157 0 0
144 0 0
172 0 0
168 0 0
157 0 0
158 0 0
180 0 0
167 0 0
188 0 0
180 0 0
180 0 0
176 0 0
173 0 0
186 0 0
179 0 0
185 0 0
184 0 0
185 0 0
188 0 0
201 0 0
185 0 0
193 0 0
195 0 0
192 0 0
202 0 0
194 0 0
195 0 0
188 0 0
203 0 0
192 0 0
195 0 0
200 0 0
208 0 0
197 0 0
192 0 0
195 0 0
203 0 0
206 0 0
207 0 0
209 0 0
200 0 0
208 0 0
200 0 0
203 0 0
208 0 0
206 0 0
214 0 0
206 0 0
212 0 0
212 0 0
216 0 0
206 0 0
208 0 0
201 0 0
207 0 0
211 0 0
205 0 0
209 0 0
210 0 0
216 0 0
207 0 0
209 0 0
211 0 0
216 0 0
212 0 0
205 0 0
212 0 0
214 0 0
213 0 0
213 0 0
209 0 0
215 0 0
210 0 0
212 0 0
213 0 0
211 0 0
209 0 0
209 0 0
209 0 0
217 0 0
214 0 0
216 0 0
209 0 0
214 0 0
215 0 0
211 0 0
211 0 0
215 0 0
212 0 0
219 0 0
213 0 0
213 0 0
213 0 0
211 0 0
216 0 0
210 0 0
211 0 0
211 0 0
206 0 0
214 0 0
213 0 0
216 0 0
216 0 0
216 0 0
216 0 0
219 0 0
214 0 0
218 0 0
214 0 0
215 0 0
214 0 0
219 0 0
215 0 0
216 0 0
216 0 0
209 0 0
218 0 0
212 0 0
218 0 0
220 0 0
215 0 0
213 0 0
217 0 0
223 0 0
219 0 0
216 0 0
212 0 0
218 0 0
220 0 0
217 0 0
217 0 0
220 0 0
221 0 0
219 0 0
217 0 0
215 0 0
216 0 0
218 0 0
220 0 0
220 0 0
215 0 0
217 0 0
218 0 0
213 0 0
216 0 0
219 0 0
218 0 0
220 0 0
219 0 0
217 0 0
218 0 0
220 0 0
219 0 0
216 0 0
220 0 0
219 0 0
216 0 0
218 0 0
220 0 0
221 0 0
215 0 0
221 0 0
220 0 0
223 0 0
221 0 0
217 0 0
216 0 0
221 0 0
215 0 0
219 0 0
219 0 0
222 0 0
218 0 0
220 0 0
215 0 0
219 0 0
216 0 0
219 0 0
219 0 0
217 0 0
215 0 0
218 0 0
221 0 0
219 0 0
217 0 0
222 0 0
221 0 0
217 0 0
220 0 0
0 0 255
0 0 254
0 0 255
0 0 255
0 0 255
0 0 255
0 0 254
0 0 254
0 0 253
0 0 255
0 0 255
0 0 254
0 0 254
0 0 253
0 0 255
0 0 254
0 0 254
0 0 254
0 0 254
0 0 255
0 0 255
0 0 253
0 0 255
0 0 255
0 0 254
0 0 255
0 0 255
0 0 255
0 0 255
0 0 255
0 0 253
0 0 253
0 0 254
0 0 254
0 0 255
0 0 254
0 0 254
0 0 252
0 0 253
0 0 255
0 0 252
0 0 254
0 0 255
0 0 254
0 0 253
0 0 255
0 0 254
0 0 254
0 0 249
0 0 253
0 0 254
0 0 252
0 0 254
0 0 253
0 0 250
0 0 253
0 0 252
0 0 253
0 0 252
0 0 252
0 0 253
0 0 250
0 0 252
0 0 253
0 0 254
0 0 253
0 0 254
0 0 254
0 0 253
0 0 250
0 0 252
0 0 252
0 0 255
0 0 255
0 0 255
0 0 249
0 0 254
0 0 249
0 0 250
0 0 253
0 0 255
0 0 252
0 0 246
0 0 253
0 0 250
0 0 253
0 0 246
0 0 253
0 0 249
0 0 248
0 0 255
0 0 253
0 0 252
0 0 255
0 0 246
0 0 253
0 0 253
0 0 246
0 0 250
0 0 250
0 0 249
0 0 249
0 0 254
0 0 252
0 0 249
0 0 254
0 0 252
0 0 240
0 0 250
0 0 248
0 0 245
0 0 249
0 0 252
0 0 249
0 0 246
0 0 248
0 0 241
0 0 246
0 0 234
0 0 248
0 0 241
0 0 236
0 0 241
0 0 245
0 0 245
0 0 250
0 0 238
0 0 241
0 0 244
0 0 245
0 0 242
0 0 240
0 0 245
0 0 236
0 0 242
0 0 242
0 0 240
0 0 249
0 0 242
0 0 242
0 0 242
0 0 238
0 0 238
0 0 237
0 0 240
0 0 242
0 0 234
0 0 250
0 0 240
0 0 237
0 0 242
0 0 240
0 0 241
0 0 240
0 0 246
0 0 240
0 0 231
0 0 228
0 0 224
0 0 230
0 0 231
0 0 233
0 0 215
0 0 236
0 0 227
0 0 228
0 0 233
0 0 231
0 0 221
0 0 226
0 0 228
0 0 221
0 0 224
0 0 223
0 0 209
0 0 215
0 0 217
0 0 212
0 0 218
0 0 204
0 0 206
0 0 204
0 0 203
0 0 201
0 0 194
0 0 194
0 0 189
0 0 188
0 0 182
0 0 182
0 0 165
0 0 159
0 0 147
0 0 153
0 0 151
0 0 142
0 0 128
0 0 111
135 145 177
216 233 255
216 233 255
154 147 161
96 0 0
89 0 0
108 0 0
121 0 0
137 0 0
132 0 0
129 0 0
145 0 0
153 0 0
151 0 0
156 0 0
166 0 0
163 0 0
181 0 0
168 0 0
170 0 0
168 0 0
177 0 0
179 0 0
188 0 0
175 0 0
183 0 0
181 0 0
190 0 0
185 0 0
181 0 0
197 0 0
190 0 0
191 0 0
190 0 0
186 0 0
194 0 0
192 0 0
190 0 0
198 0 0
188 0 0
197 0 0
200 0 0
200 0 0
204 0 0
196 0 0
205 0 0
201 0 0
197 0 0
202 0 0
206 0 0
204 0 0
201 0 0
196 0 0
203 0 0
206 0 0
189 0 0
205 0 0
208 0 0
205 0 0
211 0 0
195 0 0
213 0 0
206 0 0
206 0 0
204 0 0
200 0 0
205 0 0
206 0 0
207 0 0
210 0 0
207 0 0
211 0 0
207 0 0
204 0 0
210 0 0
204 0 0
213 0 0
210 0 0
212 0 0
205 0 0
206 0 0
206 0 0
210 0 0
220 0 0
211 0 0
204 0 0
214 0 0
206 0 0
214 0 0
209 0 0
213 0 0
210 0 0
212 0 0
216 0 0
213 0 0
214 0 0
211 0 0
208 0 0
216 0 0
214 0 0
218 0 0
212 0 0
215 0 0
212 0 0
214 0 0
211 0 0
215 0 0
216 0 0
213 0 0
217 0 0
219 0 0
214 0 0
213 0 0
216 0 0
217 0 0
211 0 0
213 0 0
212 0 0
221 0 0
216 0 0
218 0 0
212 0 0
217 0 0
215 0 0
220 0 0
216 0 0
219 0 0
215 0 0
209 0 0
220 0 0
214 0 0
218 0 0
220 0 0
212 0 0
219 0 0
215 0 0
215 0 0
219 0 0
218 0 0
216 0 0
218 0 0
216 0 0
210 0 0
217 0 0
219 0 0
220 0 0
213 0 0
216 0 0
214 0 0
220 0 0
219 0 0
219 0 0
220 0 0
215 0 0
217 0 0
217 0 0
215 0 0
218 0 0
216 0 0
219 0 0
219 0 0
218 0 0
222 0 0
217 0 0
218 0 0
218 0 0
221 0 0
217 0 0
221 0 0
219 0 0
216 0 0
218 0 0
219 0 0
219 0 0
217 0 0
221 0 0
221 0 0
217 0 0
221 0 0
221 0 0
218 0 0
219 0 0
221 0 0
221 0 0
224 0 0
223 0 0
220 0 0
223 0 0
223 0 0
218 0 0
218 0 0
219 0 0
220 0 0
220 0 0
220 0 0
217 0 0
214 0 0
216 0 0
221 0 0
217 0 0
221 0 0
219 0 0
0 0 255
0 0 255
0 0 255
0 0 253
0 0 253
0 0 255
0 0 255
0 0 254
0 0 255
0 0 254
0 0 255
0 0 254
0 0 254
0 0 255
0 0 255
0 0 254
0 0 255
0 0 254
0 0 252
0 0 254
0 0 254
0 0 255
0 0 254
0 0 253
0 0 253
0 0 254
0 0 255
0 0 254
0 0 254
0 0 254
0 0 253
0 0 252
0 0 254
0 0 254
0 0 255
0 0 255
0 0 255
0 0 252
0 0 252
0 0 252
0 0 253
0 0 252
0 0 252
0 0 254
0 0 255
0 0 254
0 0 254
0 0 254
0 0 250
0 0 254
0 0 253
0 0 253
0 0 253
0 0 253
0 0 254
0 0 253
0 0 253
0 0 252
0 0 253
0 0 253
0 0 252
0 0 254
0 0 255
0 0 254
0 0 254
0 0 249
0 0 250
0 0 254
0 0 253
0 0 253
0 0 253
0 0 253
0 0 253
0 0 253
0 0 253
0 0 250
0 0 248
0 0 253
0 0 254
0 0 253
0 0 254
0 0 250
0 0 252
0 0 253
0 0 252
0 0 253
0 0 249
0 0 249
0 0 246
0 0 252
0 0 249
0 0 249
0 0 250
0 0 252
0 0 250
0 0 252
0 0 252
0 0 250
0 0 253
0 0 249
0 0 250
0 0 248
0 0 249
0 0 250
0 0 250
0 0 246
0 0 255
0 0 246
0 0 248
0 0 250
0 0 248
0 0 250
0 0 245
0 0 245
0 0 246
0 0 248
0 0 248
0 0 248
0 0 245
0 0 252
0 0 248
0 0 245
0 0 248
0 0 246
0 0 252
0 0 245
0 0 242
0 0 245
0 0 245
0 0 248
0 0 249
0 0 245
0 0 244
0 0 246
0 0 238
0 0 237
0 0 240
0 0 236
0 0 242
0 0 237
0 0 244
0 0 241
0 0 244
0 0 244
0 0 237
0 0 245
0 0 241
0 0 241
0 0 242
0 0 231
0 0 231
0 0 244
0 0 231
0 0 244
0 0 233
0 0 237
0 0 223
0 0 230
0 0 227
0 0 233
0 0 220
0 0 242
0 0 228
0 0 231
0 0 223
0 0 218
0 0 224
0 0 233
0 0 226
0 0 218
0 0 220
0 0 211
0 0 217
0 0 211
0 0 215
0 0 209
0 0 214
0 0 217
0 0 199
0 0 209
0 0 221
0 0 193
0 0 206
0 0 194
0 0 207
0 0 199
0 0 182
0 0 194
0 0 194
0 0 171
0 0 163
0 0 171
0 0 169
0 0 157
0 0 147
0 0 125
0 0 117
0 0 99
122 132 171
217 233 255
217 233 255
118 101 111
71 0 0
108 0 0
112 0 0
115 0 0
109 0 0
137 0 0
141 0 0
145 0 0
146 0 0
147 0 0
160 0 0
154 0 0
158 0 0
173 0 0
174 0 0
176 0 0
163 0 0
182 0 0
176 0 0
175 0 0
173 0 0
176 0 0
183 0 0
189 0 0
190 0 0
179 0 0
187 0 0
185 0 0
184 0 0
203 0 0
191 0 0
192 0 0
196 0 0
190 0 0
207 0 0
194 0 0
195 0 0
182 0 0
194 0 0
191 0 0
204 0 0
199 0 0
204 0 0
204 0 0
202 0 0
207 0 0
198 0 0
202 0 0
200 0 0
203 0 0
197 0 0
206 0 0
202 0 0
202 0 0
206 0 0
200 0 0
206 0 0
202 0 0
203 0 0
205 0 0
198 0 0
205 0 0
208 0 0
205 0 0
198 0 0
210 0 0
210 0 0
213 0 0
206 0 0
204 0 0
215 0 0
206 0 0
211 0 0
202 0 0
205 0 0
212 0 0
214 0 0
212 0 0
210 0 0
212 0 0
205 0 0
216 0 0
214 0 0
210 0 0
214 0 0
212 0 0
212 0 0
218 0 0
214 0 0
206 0 0
210 0 0
214 0 0
217 0 0
217 0 0
211 0 0
209 0 0
211 0 0
209 0 0
206 0 0
211 0 0
219 0 0
212 0 0
214 0 0
212 0 0
216 0 0
219 0 0
214 0 0
217 0 0
219 0 0
215 0 0
216 0 0
215 0 0
210 0 0
216 0 0
218 0 0
224 0 0
217 0 0
216 0 0
213 0 0
219 0 0
219 0 0
214 0 0
210 0 0
217 0 0
216 0 0
213 0 0
216 0 0
215 0 0
216 0 0
217 0 0
216 0 0
217 0 0
219 0 0
220 0 0
220 0 0
217 0 0
213 0 0
218 0 0
218 0 0
221 0 0
216 0 0
222 0 0
216 0 0
216 0 0
218 0 0
220 0 0
217 0 0
217 0 0
219 0 0
216 0 0
216 0 0
215 0 0
221 0 0
219 0 0
219 0 0
219 0 0
217 0 0
218 0 0
220 0 0
216 0 0
221 0 0
220 0 0
218 0 0
220 0 0
220 0 0
215 0 0
216 0 0
218 0 0
218 0 0
217 0 0
218 0 0
218 0 0
221 0 0
217 0 0
219 0 0
220 0 0
220 0 0
219 0 0
222 0 0
219 0 0
216 0 0
220 0 0
213 0 0
220 0 0
215 0 0
221 0 0
219 0 0
221 0 0
219 0 0
218 0 0
220 0 0
222 0 0
217 0 0
221 0 0
221 0 0
224 0 0
217 0 0
222 0 0
0 0 254
0 0 255
0 0 255
0 0 252
0 0 255
0 0 253
0 0 255
0 0 255
0 0 254
0 0 255
0 0 255
0 0 254
0 0 255
0 0 253
0 0 255
0 0 254
0 0 255
0 0 254
0 0 254
0 0 254
0 0 254
0 0 255
0 0 255
0 0 252
0 0 254
0 0 254
0 0 254
0 0 255
0 0 253
0 0 255
0 0 253
0 0 254
0 0 254
0 0 254
0 0 254
0 0 254
0 0 253
0 0 255
0 0 252
0 0 254
0 0 252
0 0 255
0 0 253
0 0 253
0 0 254
0 0 249
0 0 254
0 0 253
0 0 254
0 0 253
0 0 254
0 0 253
0 0 254
0 0 253
0 0 253
0 0 253
0 0 253
0 0 254
0 0 253
0 0 252
0 0 255
0 0 253
0 0 253
0 0 255
0 0 254
0 0 250
0 0 249
0 0 253
0 0 253
0 0 253
0 0 254
0 0 253
0 0 252
0 0 253
0 0 254
0 0 252
0 0 252
0 0 250
0 0 252
0 0 252
0 0 252
0 0 252
0 0 252
0 0 249
0 0 248
0 0 245
0 0 250
0 0 248
0 0 250
0 0 250
0 0 253
0 0 252
0 0 248
0 0 252
0 0 249
0 0 250
0 0 248
0 0 249
0 0 253
0 0 242
0 0 253
0 0 250
0 0 242
0 0 249
0 0 252
0 0 249
0 0 248
0 0 253
0 0 246
0 0 249
0 0 249
0 0 245
0 0 241
0 0 244
0 0 249
0 0 241
0 0 245
0 0 249
0 0 250
0 0 248
0 0 245
0 0 244
0 0 244
0 0 249
0 0 246
0 0 246
0 0 237
0 0 248
0 0 242
0 0 237
0 0 245
0 0 238
0 0 250
0 0 236
0 0 237
0 0 238
0 0 244
0 0 246
0 0 244
0 0 245
0 0 241
0 0 238
0 0 238
0 0 238
0 0 226
0 0 234
0 0 245
0 0 242
0 0 238
0 0 227
0 0 234
0 0 231
0 0 224
0 0 227
0 0 238
0 0 241
0 0 227
0 0 234
0 0 233
0 0 241
0 0 231
0 0 231
0 0 226
0 0 227
0 0 215
0 0 215
0 0 226
0 0 221
0 0 218
0 0 218
0 0 212
0 0 211
0 0 217
0 0 217
0 0 214
0 0 206
0 0 218
0 0 207
0 0 198
0 0 206
0 0 201
0 0 204
0 0 199
0 0 207
0 0 207
0 0 193
0 0 182
0 0 181
0 0 188
0 0 186
0 0 171
0 0 171
0 0 155
0 0 142
0 0 128
0 0 135
0 0 147
0 0 99
61 66 114
217 233 255
217 233 255
93 66 72
90 0 0
97 0 0
105 0 0
116 0 0
150 0 0
142 0 0
149 0 0
140 0 0
150 0 0
156 0 0
160 0 0
154 0 0
164 0 0
154 0 0
172 0 0
184 0 0
173 0 0
170 0 0
167 0 0
174 0 0
182 0 0
176 0 0
189 0 0
179 0 0
176 0 0
185 0 0
183 0 0
193 0 0
191 0 0
194 0 0
194 0 0
189 0 0
195 0 0
200 0 0
196 0 0
198 0 0
197 0 0
204 0 0
200 0 0
198 0 0
193 0 0
195 0 0
198 0 0
205 0 0
200 0 0
205 0 0
195 0 0
204 0 0
202 0 0
203 0 0
214 0 0
202 0 0
196 0 0
199 0 0
198 0 0
207 0 0
208 0 0
204 0 0
214 0 0
208 0 0
213 0 0
206 0 0
211 0 0
208 0 0
210 0 0
206 0 0
208 0 0
206 0 0
211 0 0
209 0 0
210 0 0
208 0 0
214 0 0
210 0 0
213 0 0
213 0 0
210 0 0
208 0 0
218 0 0
212 0 0
218 0 0
210 0 0
207 0 0
210 0 0
217 0 0
213 0 0
208 0 0
212 0 0
207 0 0
208 0 0
216 0 0
213 0 0
217 0 0
211 0 0
206 0 0
214 0 0
215 0 0
218 0 0
215 0 0
218 0 0
210 0 0
211 0 0
212 0 0
215 0 0
219 0 0
212 0 0
217 0 0
215 0 0
215 0 0
221 0 0
215 0 0
214 0 0
216 0 0
217 0 0
217 0 0
214 0 0
217 0 0
214 0 0
217 0 0
215 0 0
216 0 0
221 0 0
221 0 0
214 0 0
214 0 0
220 0 0
215 0 0
214 0 0
216 0 0
218 0 0
222 0 0
215 0 0
217 0 0
216 0 0
219 0 0
218 0 0
218 0 0
219 0 0
217 0 0
217 0 0
220 0 0
214 0 0
217 0 0
218 0 0
220 0 0
220 0 0
219 0 0
216 0 0
218 0 0
221 0 0
218 0 0
219 0 0
219 0 0
216 0 0
220 0 0
216 0 0
221 0 0
220 0 0
221 0 0
216 0 0
213 0 0
221 0 0
216 0 0
219 0 0
218 0 0
216 0 0
219 0 0
216 0 0
219 0 0
217 0 0
217 0 0
220 0 0
221 0 0
219 0 0
218 0 0
216 0 0
219 0 0
220 0 0
219 0 0
224 0 0
219 0 0
216 0 0
223 0 0
215 0 0
215 0 0
218 0 0
221 0 0
218 0 0
220 0 0
220 0 0
218 0 0
221 0 0
215 0 0
220 0 0
221 0 0
220 0 0
218 0 0
220 0 0
0 0 255
0 0 254
0 0 254
0 0 253
0 0 255
0 0 255
0 0 253
0 0 255
0 0 254
0 0 255
0 0 255
0 0 255
0 0 254
0 0 255
0 0 255
0 0 255
0 0 255
0 0 253
0 0 255
0 0 255
0 0 254
0 0 254
0 0 255
0 0 254
0 0 254
0 0 255
0 0 254
0 0 253
0 0 253
0 0 254
0 0 253
0 0 253
0 0 255
0 0 255
0 0 255
0 0 252
0 0 253
0 0 254
0 0 254
0 0 253
0 0 253
0 0 254
0 0 254
0 0 254
0 0 252
0 0 252
0 0 252
0 0 252
0 0 254
0 0 254
0 0 252
0 0 255
0 0 252
0 0 253
0 0 255
0 0 252
0 0 255
0 0 255
0 0 250
0 0 252
0 0 252
0 0 254
0 0 253
0 0 252
0 0 252
0 0 254
0 0 250
0 0 253
0 0 253
0 0 252
0 0 253
0 0 254
0 0 254
0 0 245
0 0 248
0 0 249
0 0 252
0 0 250
0 0 246
0 0 253
0 0 250
0 0 252
0 0 250
0 0 250
0 0 250
0 0 248
0 0 249
0 0 253
0 0 252
0 0 253
0 0 250
0 0 248
0 0 249
0 0 248
0 0 252
0 0 246
0 0 249
0 0 252
0 0 254
0 0 253
0 0 253
0 0 248
0 0 248
0 0 248
0 0 252
0 0 244
0 0 245
0 0 245
0 0 244
0 0 249
0 0 248
0 0 252
0 0 252
0 0 250
0 0 245
0 0 246
0 0 245
0 0 246
0 0 249
0 0 250
0 0 252
0 0 248
0 0 245
0 0 244
0 0 245
0 0 249
0 0 245
0 0 242
0 0 241
0 0 245
0 0 246
0 0 240
0 0 238
0 0 236
0 0 242
0 0 244
0 0 245
0 0 244
0 0 246
0 0 242
0 0 241
0 0 244
0 0 245
0 0 234
0 0 238
0 0 242
0 0 242
0 0 246
0 0 234
0 0 242
0 0 231
0 0 233
0 0 242
0 0 241
0 0 236
0 0 241
0 0 238
0 0 236
0 0 233
0 0 226
0 0 218
0 0 231
0 0 228
0 0 223
0 0 236
0 0 220
0 0 223
0 0 220
0 0 223
0 0 223
0 0 220
0 0 223
0 0 220
0 0 209
0 0 209
0 0 223
0 0 214
0 0 220
0 0 212
0 0 196
0 0 209
0 0 204
0 0 206
0 0 184
0 0 194
0 0 186
0 0 207
0 0 191
0 0 179
0 0 159
0 0 157
0 0 169
0 0 173
0 0 153
0 0 149
0 0 135
0 0 108
0 0 125
0 0 92
204 219 242
207 220 241
70 0 0
81 0 0
105 0 0
113 0 0
100 0 0
114 0 0
131 0 0
128 0 0
137 0 0
143 0 0
156 0 0
170 0 0
158 0 0
165 0 0
162 0 0
175 0 0
177 0 0
172 0 0
181 0 0
176 0 0
166 0 0
185 0 0
187 0 0
188 0 0
192 0 0
174 0 0
182 0 0
186 0 0
190 0 0
184 0 0
199 0 0
190 0 0
190 0 0
195 0 0
194 0 0
199 0 0
190 0 0
185 0 0
203 0 0
193 0 0
201 0 0
203 0 0
200 0 0
202 0 0
198 0 0
194 0 0
197 0 0
199 0 0
205 0 0
202 0 0
198 0 0
199 0 0
203 0 0
205 0 0
198 0 0
202 0 0
203 0 0
206 0 0
208 0 0
201 0 0
209 0 0
203 0 0
209 0 0
209 0 0
208 0 0
210 0 0
208 0 0
210 0 0
212 0 0
210 0 0
212 0 0
212 0 0
210 0 0
208 0 0
205 0 0
211 0 0
208 0 0
213 0 0
217 0 0
217 0 0
214 0 0
213 0 0
216 0 0
210 0 0
209 0 0
224 0 0
216 0 0
212 0 0
205 0 0
209 0 0
211 0 0
212 0 0
213 0 0
216 0 0
209 0 0
217 0 0
213 0 0
213 0 0
211 0 0
216 0 0
211 0 0
217 0 0
214 0 0
214 0 0
219 0 0
215 0 0
217 0 0
216 0 0
213 0 0
217 0 0
216 0 0
212 0 0
215 0 0
214 0 0
216 0 0
215 0 0
214 0 0
225 0 0
215 0 0
212 0 0
217 0 0
218 0 0
214 0 0
213 0 0
215 0 0
218 0 0
219 0 0
216 0 0
216 0 0
218 0 0
219 0 0
216 0 0
217 0 0
220 0 0
220 0 0
216 0 0
219 0 0
217 0 0
214 0 0
219 0 0
220 0 0
220 0 0
222 0 0
216 0 0
215 0 0
216 0 0
218 0 0
218 0 0
220 0 0
219 0 0
217 0 0
218 0 0
217 0 0
216 0 0
222 0 0
220 0 0
220 0 0
217 0 0
214 0 0
219 0 0
218 0 0
217 0 0
220 0 0
220 0 0
221 0 0
217 0 0
222 0 0
219 0 0
222 0 0
217 0 0
216 0 0
217 0 0
221 0 0
214 0 0
221 0 0
218 0 0
217 0 0
219 0 0
222 0 0
217 0 0
218 0 0
219 0 0
217 0 0
216 0 0
220 0 0
216 0 0
222 0 0
218 0 0
220 0 0
220 0 0
221 0 0
218 0 0
222 0 0
220 0 0
221 0 0
223 0 0
220 0 0
223 0 0
221 0 0
0 0 255
0 0 253
0 0 253
0 0 254
0 0 255
0 0 254
0 0 254
0 0 255
0 0 255
0 0 255
0 0 254
0 0 254
0 0 254
0 0 255
0 0 254
0 0 254
0 0 255
0 0 255
0 0 253
0 0 254
0 0 252
0 0 255
0 0 254
0 0 255
0 0 254
0 0 254
0 0 253
0 0 254
0 0 253
0 0 254
0 0 254
0 0 252
0 0 252
0 0 253
0 0 252
0 0 254
0 0 253
0 0 255
0 0 254
0 0 254
0 0 253
0 0 255
0 0 253
0 0 254
0 0 254
0 0 255
0 0 254
0 0 255
0 0 254
0 0 252
0 0 255
0 0 253
0 0 254
0 0 252
0 0 253
0 0 253
0 0 254
0 0 253
0 0 245
0 0 248
0 0 248
0 0 252
0 0 254
0 0 252
0 0 254
0 0 249
0 0 253
0 0 255
0 0 254
0 0 253
0 0 250
0 0 252
0 0 252
0 0 250
0 0 254
0 0 249
0 0 253
0 0 250
0 0 249
0 0 250
0 0 254
0 0 249
0 0 253
0 0 250
0 0 253
0 0 249
0 0 250
0 0 252
0 0 249
0 0 248
0 0 253
0 0 253
0 0 250
0 0 250
0 0 248
0 0 253
0 0 250
0 0 250
0 0 253
0 0 248
0 0 245
0 0 249
0 0 250
0 0 249
0 0 249
0 0 246
0 0 253
0 0 244
0 0 248
0 0 249
0 0 253
0 0 246
0 0 248
0 0 244
0 0 249
0 0 246
0 0 253
0 0 246
0 0 248
0 0 245
0 0 245
0 0 244
0 0 246
0 0 234
0 0 242
0 0 240
0 0 242
0 0 248
0 0 237
0 0 248
0 0 240
0 0 249
0 0 240
0 0 242
0 0 248
0 0 240
0 0 246
0 0 245
0 0 246
0 0 237
0 0 244
0 0 240
0 0 242
0 0 244
0 0 236
0 0 238
0 0 236
0 0 248
0 0 238
0 0 237
0 0 238
0 0 237
0 0 234
0 0 231
0 0 234
0 0 230
0 0 233
0 0 236
0 0 234
0 0 231
0 0 226
0 0 237
0 0 226
0 0 221
0 0 228
0 0 221
0 0 230
0 0 224
0 0 226
0 0 223
0 0 215
0 0 227
0 0 211
0 0 226
0 0 201
0 0 223
0 0 214
0 0 226
0 0 215
0 0 206
0 0 201
0 0 206
0 0 220
0 0 198
0 0 204
0 0 184
0 0 186
0 0 186
0 0 171
0 0 173
0 0 182
0 0 151
0 0 167
0 0 137
0 0 159
0 0 153
0 0 114
0 0 111
0 0 76
196 210 233
184 195 214
63 0 0
75 0 0
111 0 0
104 0 0
114 0 0
123 0 0
139 0 0
151 0 0
153 0 0
152 0 0
151 0 0
151 0 0
166 0 0
170 0 0
167 0 0
170 0 0
165 0 0
182 0 0
164 0 0
176 0 0
175 0 0
184 0 0
181 0 0
174 0 0
167 0 0
181 0 0
193 0 0
192 0 0
186 0 0
194 0 0
181 0 0
185 0 0
208 0 0
195 0 0
191 0 0
198 0 0
190 0 0
211 0 0
204 0 0
198 0 0
196 0 0
195 0 0
201 0 0
203 0 0
195 0 0
204 0 0
207 0 0
206 0 0
205 0 0
209 0 0
203 0 0
212 0 0
205 0 0
207 0 0
206 0 0
203 0 0
200 0 0
208 0 0
211 0 0
207 0 0
205 0 0
205 0 0
205 0 0
207 0 0
205 0 0
206 0 0
208 0 0
208 0 0
215 0 0
211 0 0
210 0 0
213 0 0
211 0 0
208 0 0
211 0 0
209 0 0
208 0 0
209 0 0
218 0 0
212 0 0
208 0 0
209 0 0
211 0 0
218 0 0
211 0 0
210 0 0
213 0 0
211 0 0
218 0 0
210 0 0
215 0 0
218 0 0
213 0 0
221 0 0
217 0 0
217 0 0
216 0 0
216 0 0
218 0 0
208 0 0
212 0 0
215 0 0
214 0 0
214 0 0
214 0 0
215 0 0
217 0 0
218 0 0
215 0 0
214 0 0
218 0 0
217 0 0
210 0 0
218 0 0
219 0 0
215 0 0
218 0 0
221 0 0
214 0 0
219 0 0
218 0 0
212 0 0
222 0 0
216 0 0
216 0 0
223 0 0
221 0 0
219 0 0
219 0 0
220 0 0
217 0 0
214 0 0
216 0 0
219 0 0
217 0 0
213 0 0
212 0 0
217 0 0
220 0 0
214 0 0
218 0 0
217 0 0
218 0 0
215 0 0
220 0 0
220 0 0
220 0 0
214 0 0
217 0 0
216 0 0
215 0 0
219 0 0
222 0 0
218 0 0
217 0 0
219 0 0
220 0 0
220 0 0
222 0 0
218 0 0
214 0 0
223 0 0
221 0 0
222 0 0
222 0 0
221 0 0
220 0 0
217 0 0
224 0 0
220 0 0
219 0 0
216 0 0
216 0 0
221 0 0
217 0 0
220 0 0
218 0 0
216 0 0
221 0 0
220 0 0
216 0 0
218 0 0
221 0 0
223 0 0
221 0 0
219 0 0
223 0 0
219 0 0
217 0 0
217 0 0
220 0 0
217 0 0
220 0 0
219 0 0
222 0 0
216 0 0
220 0 0
217 0 0
220 0 0
0 0 255
0 0 254
0 0 254
0 0 255
0 0 255
0 0 255
0 0 255
0 0 254
0 0 255
0 0 252
0 0 254
0 0 255
0 0 255
0 0 254
0 0 254
0 0 255
0 0 254
0 0 255
0 0 254
0 0 253
0 0 255
0 0 254
0 0 253
0 0 254
0 0 253
0 0 253
0 0 254
0 0 250
0 0 255
0 0 254
0 0 254
0 0 254
0 0 254
0 0 254
0 0 255
0 0 253
0 0 254
0 0 253
0 0 254
0 0 254
0 0 255
0 0 253
0 0 253
0 0 254
0 0 254
0 0 253
0 0 252
0 0 254
0 0 254
0 0 250
0 0 255
0 0 250
0 0 255
0 0 252
0 0 254
0 0 254
0 0 253
0 0 249
0 0 254
0 0 255
0 0 252
0 0 248
0 0 254
0 0 248
0 0 252
0 0 250
0 0 249
0 0 253
0 0 253
0 0 244
0 0 254
0 0 252
0 0 250
0 0 254
0 0 253
0 0 250
0 0 253
0 0 254
0 0 252
0 0 250
0 0 254
0 0 252
0 0 252
0 0 253
0 0 254
0 0 250
0 0 254
0 0 254
0 0 246
0 0 249
0 0 246
0 0 255
0 0 252
0 0 250
0 0 250
0 0 250
0 0 248
0 0 250
0 0 246
0 0 246
0 0 253
0 0 249
0 0 246
0 0 246
0 0 250
0 0 246
0 0 252
0 0 248
0 0 250
0 0 249
0 0 248
0 0 245
0 0 244
0 0 252
0 0 244
0 0 252
0 0 248
0 0 252
0 0 238
0 0 242
0 0 245
0 0 249
0 0 246
0 0 245
0 0 246
0 0 246
0 0 240
0 0 248
0 0 242
0 0 244
0 0 246
0 0 246
0 0 234
0 0 245
0 0 240
0 0 242
0 0 241
0 0 234
0 0 245
0 0 241
0 0 241
0 0 241
0 0 238
0 0 240
0 0 244
0 0 236
0 0 242
0 0 240
0 0 244
0 0 233
0 0 233
0 0 236
0 0 234
0 0 242
0 0 240
0 0 233
0 0 215
0 0 226
0 0 238
0 0 234
0 0 223
0 0 231
0 0 226
0 0 224
0 0 218
0 0 227
0 0 227
0 0 227
0 0 237
0 0 228
0 0 227
0 0 228
0 0 199
0 0 223
0 0 227
0 0 204
0 0 204
0 0 207
0 0 218
0 0 207
0 0 203
0 0 223
0 0 203
0 0 194
0 0 198
0 0 201
0 0 182
0 0 198
0 0 186
0 0 177
0 0 186
0 0 161
0 0 161
0 0 171
0 0 135
0 0 147
0 0 125
0 0 108
0 0 111
173 185 207
180 191 209
49 0 0
67 0 0
90 0 0
110 0 0
128 0 0
139 0 0
139 0 0
148 0 0
129 0 0
155 0 0
162 0 0
162 0 0
173 0 0
172 0 0
165 0 0
174 0 0
179 0 0
168 0 0
176 0 0
175 0 0
177 0 0
176 0 0
177 0 0
198 0 0
189 0 0
186 0 0
177 0 0
191 0 0
199 0 0
196 0 0
199 0 0
191 0 0
188 0 0
198 0 0
184 0 0
190 0 0
204 0 0
195 0 0
190 0 0
197 0 0
207 0 0
208 0 0
206 0 0
200 0 0
206 0 0
204 0 0
198 0 0
198 0 0
203 0 0
205 0 0
201 0 0
191 0 0
204 0 0
198 0 0
199 0 0
201 0 0
202 0 0
203 0 0
206 0 0
206 0 0
205 0 0
216 0 0
209 0 0
210 0 0
209 0 0
210 0 0
210 0 0
208 0 0
206 0 0
214 0 0
210 0 0
211 0 0
211 0 0
212 0 0
204 0 0
211 0 0
206 0 0
212 0 0
215 0 0
210 0 0
211 0 0
215 0 0
217 0 0
208 0 0
206 0 0
214 0 0
213 0 0
211 0 0
216 0 0
214 0 0
217 0 0
215 0 0
209 0 0
215 0 0
215 0 0
218 0 0
211 0 0
214 0 0
208 0 0
216 0 0
211 0 0
214 0 0
214 0 0
222 0 0
212 0 0
215 0 0
219 0 0
217 0 0
214 0 0
222 0 0
208 0 0
213 0 0
214 0 0
216 0 0
212 0 0
220 0 0
212 0 0
219 0 0
215 0 0
218 0 0
219 0 0
218 0 0
216 0 0
213 0 0
223 0 0
216 0 0
218 0 0
223 0 0
217 0 0
216 0 0
218 0 0
215 0 0
219 0 0
216 0 0
219 0 0
218 0 0
219 0 0
222 0 0
210 0 0
220 0 0
221 0 0
217 0 0
219 0 0
218 0 0
220 0 0
213 0 0
217 0 0
216 0 0
216 0 0
212 0 0
215 0 0
219 0 0
220 0 0
218 0 0
217 0 0
220 0 0
216 0 0
220 0 0
219 0 0
217 0 0
220 0 0
218 0 0
220 0 0
222 0 0
221 0 0
223 0 0
222 0 0
219 0 0
217 0 0
218 0 0
220 0 0
220 0 0
219 0 0
217 0 0
222 0 0
220 0 0
220 0 0
215 0 0
222 0 0
219 0 0
220 0 0
220 0 0
219 0 0
222 0 0
220 0 0
220 0 0
218 0 0
221 0 0
221 0 0
218 0 0
218 0 0
221 0 0
224 0 0
219 0 0
220 0 0
217 0 0
220 0 0
220 0 0
222 0 0
0 0 254
0 0 254
0 0 255
0 0 255
0 0 255
0 0 255
0 0 255
0 0 255
0 0 254
0 0 253
0 0 255
0 0 255
0 0 255
0 0 255
0 0 254
0 0 255
0 0 254
0 0 255
0 0 255
0 0 254
0 0 255
0 0 255
0 0 255
0 0 255
0 0 255
0 0 253
0 0 254
0 0 255
0 0 254
0 0 255
0 0 254
0 0 253
0 0 252
0 0 255
0 0 254
0 0 253
0 0 255
0 0 255
0 0 253
0 0 253
0 0 254
0 0 252
0 0 254
0 0 255
0 0 253
0 0 254
0 0 253
0 0 253
0 0 254
0 0 252
0 0 252
0 0 255
0 0 254
0 0 254
0 0 254
0 0 254
0 0 252
0 0 252
0 0 254
0 0 255
0 0 250
0 0 253
0 0 254
0 0 253
0 0 253
0 0 254
0 0 252
0 0 250
0 0 254
0 0 249
0 0 254
0 0 254
0 0 253
0 0 252
0 0 249
0 0 253
0 0 249
0 0 252
0 0 255
0 0 250
0 0 252
0 0 253
0 0 250
0 0 250
0 0 250
0 0 245
0 0 253
0 0 253
0 0 252
0 0 246
0 0 250
0 0 253
0 0 246
0 0 250
0 0 244
0 0 250
0 0 250
0 0 248
0 0 249
0 0 246
0 0 246
0 0 248
0 0 248
0 0 250
0 0 252
0 0 249
0 0 250
0 0 249
0 0 250
0 0 249
0 0 245
0 0 253
0 0 249
0 0 246
0 0 248
0 0 249
0 0 249
0 0 250
0 0 242
0 0 241
0 0 245
0 0 252
0 0 246
0 0 249
0 0 249
0 0 248
0 0 245
0 0 245
0 0 245
0 0 246
0 0 244
0 0 248
0 0 244
0 0 242
0 0 237
0 0 245
0 0 242
0 0 242
0 0 242
0 0 245
0 0 242
0 0 231
0 0 242
0 0 245
0 0 234
0 0 238
0 0 238
0 0 234
0 0 233
0 0 234
0 0 238
0 0 242
0 0 233
0 0 236
0 0 238
0 0 233
0 0 238
0 0 228
0 0 220
0 0 228
0 0 220
0 0 237
0 0 227
0 0 233
0 0 238
0 0 226
0 0 224
0 0 228
0 0 207
0 0 231
0 0 217
0 0 215
0 0 214
0 0 223
0 0 226
0 0 223
0 0 207
0 0 215
0 0 218
0 0 201
0 0 218
0 0 211
0 0 199
0 0 203
0 0 186
0 0 186
0 0 186
0 0 167
0 0 181
0 0 184
0 0 155
0 0 157
0 0 159
0 0 155
0 0 142
0 0 137
0 0 122
0 0 92
0 0 88
149 160 181
167 175 191
65 0 0
89 0 0
108 0 0
89 0 0
126 0 0
109 0 0
139 0 0
137 0 0
155 0 0
161 0 0
153 0 0
149 0 0
160 0 0
158 0 0
155 0 0
171 0 0
175 0 0
171 0 0
180 0 0
183 0 0
185 0 0
178 0 0
187 0 0
180 0 0
182 0 0
179 0 0
188 0 0
187 0 0
192 0 0
198 0 0
190 0 0
186 0 0
192 0 0
193 0 0
193 0 0
193 0 0
198 0 0
197 0 0
187 0 0
198 0 0
206 0 0
203 0 0
201 0 0
199 0 0
205 0 0
201 0 0
207 0 0
204 0 0
193 0 0
206 0 0
204 0 0
209 0 0
205 0 0
202 0 0
204 0 0
211 0 0
206 0 0
202 0 0
204 0 0
213 0 0
211 0 0
202 0 0
213 0 0
202 0 0
213 0 0
210 0 0
214 0 0
213 0 0
213 0 0
211 0 0
204 0 0
209 0 0
202 0 0
207 0 0
211 0 0
214 0 0
213 0 0
215 0 0
212 0 0
210 0 0
215 0 0
216 0 0
209 0 0
209 0 0
215 0 0
212 0 0
209 0 0
211 0 0
218 0 0
212 0 0
218 0 0
214 0 0
213 0 0
211 0 0
215 0 0
211 0 0
213 0 0
217 0 0
214 0 0
218 0 0
212 0 0
217 0 0
210 0 0
215 0 0
210 0 0
213 0 0
211 0 0
215 0 0
215 0 0
217 0 0
215 0 0
219 0 0
214 0 0
214 0 0
214 0 0
220 0 0
215 0 0
207 0 0
216 0 0
215 0 0
212 0 0
218 0 0
216 0 0
216 0 0
217 0 0
216 0 0
217 0 0
217 0 0
218 0 0
219 0 0
220 0 0
218 0 0
215 0 0
217 0 0
216 0 0
217 0 0
219 0 0
219 0 0
218 0 0
218 0 0
221 0 0
216 0 0
222 0 0
218 0 0
220 0 0
216 0 0
221 0 0
217 0 0
221 0 0
221 0 0
220 0 0
220 0 0
218 0 0
218 0 0
220 0 0
222 0 0
221 0 0
218 0 0
221 0 0
220 0 0
217 0 0
221 0 0
220 0 0
217 0 0
219 0 0
215 0 0
221 0 0
214 0 0
215 0 0
220 0 0
220 0 0
219 0 0
219 0 0
222 0 0
218 0 0
222 0 0
219 0 0
218 0 0
218 0 0
219 0 0
220 0 0
217 0 0
220 0 0
223 0 0
216 0 0
222 0 0
222 0 0
221 0 0
222 0 0
220 0 0
222 0 0
221 0 0
221 0 0
218 0 0
220 0 0
216 0 0
220 0 0
221 0 0
222 0 0
0 0 255
0 0 255
0 0 255
0 0 255
0 0 253
0 0 254
0 0 255
0 0 255
0 0 255
0 0 253
0 0 255
0 0 255
0 0 254
0 0 253
0 0 252
0 0 255
0 0 255
0 0 255
0 0 254
0 0 252
0 0 252
0 0 254
0 0 255
0 0 255
0 0 255
0 0 255
0 0 254
0 0 255
0 0 254
0 0 253
0 0 254
0 0 254
0 0 255
0 0 255
0 0 255
0 0 254
0 0 254
0 0 254
0 0 254
0 0 254
0 0 253
0 0 254
0 0 253
0 0 254
0 0 255
0 0 254
0 0 255
0 0 254
0 0 255
0 0 249
0 0 254
0 0 255
0 0 253
0 0 253
0 0 254
0 0 253
0 0 253
0 0 250
0 0 253
0 0 253
0 0 255
0 0 255
0 0 254
0 0 252
0 0 255
0 0 253
0 0 250
0 0 250
0 0 252
0 0 250
0 0 253
0 0 253
0 0 250
0 0 250
0 0 253
0 0 252
0 0 253
0 0 250
0 0 250
0 0 250
0 0 246
0 0 254
0 0 248
0 0 253
0 0 250
0 0 254
0 0 249
0 0 252
0 0 254
0 0 249
0 0 246
0 0 246
0 0 254
0 0 249
0 0 254
0 0 253
0 0 248
0 0 250
0 0 248
0 0 246
0 0 250
0 0 249
0 0 246
0 0 252
0 0 248
0 0 248
0 0 250
0 0 253
0 0 254
0 0 246
0 0 246
0 0 250
0 0 249
0 0 245
0 0 249
0 0 248
0 0 245
0 0 241
0 0 252
0 0 242
0 0 245
0 0 240
0 0 241
0 0 245
0 0 242
0 0 242
0 0 246
0 0 244
0 0 240
0 0 244
0 0 245
0 0 236
0 0 240
0 0 234
0 0 242
0 0 244
0 0 237
0 0 245
0 0 245
0 0 234
0 0 237
0 0 233
0 0 237
0 0 233
0 0 242
0 0 244
0 0 245
0 0 234
0 0 237
0 0 237
0 0 240
0 0 242
0 0 234
0 0 233
0 0 231
0 0 241
0 0 234
0 0 241
0 0 234
0 0 244
0 0 221
0 0 231
0 0 223
0 0 230
0 0 228
0 0 227
0 0 227
0 0 221
0 0 224
0 0 224
0 0 224
0 0 220
0 0 215
0 0 221
0 0 217
0 0 211
0 0 203
0 0 220
0 0 206
0 0 212
0 0 189
0 0 198
0 0 199
0 0 199
0 0 203
0 0 184
0 0 193
0 0 189
0 0 171
0 0 169
0 0 177
0 0 159
0 0 173
0 0 163
0 0 130
0 0 128
0 0 128
0 0 133
0 0 80
135 144 169
144 152 165
66 0 0
90 0 0
99 0 0
111 0 0
119 0 0
138 0 0
136 0 0
135 0 0
149 0 0
153 0 0
165 0 0
161 0 0
163 0 0
163 0 0
162 0 0
168 0 0
173 0 0
168 0 0
185 0 0
177 0 0
182 0 0
182 0 0
199 0 0
192 0 0
183 0 0
180 0 0
191 0 0
180 0 0
195 0 0
188 0 0
185 0 0
193 0 0
206 0 0
201 0 0
202 0 0
200 0 0
188 0 0
199 0 0
194 0 0
197 0 0
200 0 0
195 0 0
198 0 0
197 0 0
212 0 0
210 0 0
205 0 0
206 0 0
206 0 0
212 0 0
205 0 0
208 0 0
205 0 0
200 0 0
208 0 0
203 0 0
202 0 0
207 0 0
205 0 0
211 0 0
206 0 0
207 0 0
205 0 0
207 0 0
211 0 0
202 0 0
206 0 0
212 0 0
209 0 0
205 0 0
211 0 0
214 0 0
209 0 0
213 0 0
213 0 0
211 0 0
213 0 0
207 0 0
211 0 0
218 0 0
211 0 0
209 0 0
209 0 0
211 0 0
217 0 0
209 0 0
210 0 0
214 0 0
215 0 0
217 0 0
213 0 0
213 0 0
218 0 0
215 0 0
212 0 0
215 0 0
212 0 0
218 0 0
217 0 0
216 0 0
218 0 0
214 0 0
216 0 0
218 0 0
215 0 0
221 0 0
214 0 0
215 0 0
215 0 0
216 0 0
220 0 0
215 0 0
213 0 0
217 0 0
217 0 0
216 0 0
220 0 0
220 0 0
212 0 0
220 0 0
215 0 0
217 0 0
216 0 0
220 0 0
216 0 0
220 0 0
216 0 0
216 0 0
215 0 0
220 0 0
220 0 0
218 0 0
218 0 0
216 0 0
220 0 0
221 0 0
218 0 0
218 0 0
216 0 0
214 0 0
214 0 0
218 0 0
222 0 0
216 0 0
221 0 0
214 0 0
218 0 0
215 0 0
221 0 0
218 0 0
221 0 0
222 0 0
217 0 0
222 0 0
217 0 0
221 0 0
215 0 0
221 0 0
214 0 0
220 0 0
218 0 0
217 0 0
217 0 0
218 0 0
223 0 0
219 0 0
220 0 0
217 0 0
220 0 0
218 0 0
217 0 0
219 0 0
218 0 0
218 0 0
221 0 0
218 0 0
217 0 0
219 0 0
222 0 0
220 0 0
220 0 0
219 0 0
217 0 0
220 0 0
216 0 0
223 0 0
220 0 0
218 0 0
220 0 0
218 0 0
218 0 0
217 0 0
220 0 0
218 0 0
217 0 0
224 0 0
221 0 0
216 0 0
221 0 0
0 0 255
0 0 255
0 0 254
0 0 252
0 0 254
0 0 255
0 0 253
0 0 254
0 0 255
0 0 254
0 0 254
0 0 255
0 0 254
0 0 255
0 0 255
0 0 255
0 0 255
0 0 254
0 0 254
0 0 254
0 0 255
0 0 254
0 0 254
0 0 255
0 0 254
0 0 253
0 0 253
0 0 254
0 0 255
0 0 255
0 0 254
0 0 254
0 0 255
0 0 253
0 0 255
0 0 254
0 0 254
0 0 254
0 0 253
0 0 254
0 0 253
0 0 253
0 0 253
0 0 253
0 0 254
0 0 254
0 0 252
0 0 254
0 0 252
0 0 252
0 0 249
0 0 255
0 0 252
0 0 255
0 0 253
0 0 250
0 0 252
0 0 252
0 0 253
0 0 252
0 0 253
0 0 253
0 0 254
0 0 253
0 0 253
0 0 248
0 0 252
0 0 246
0 0 250
0 0 250
0 0 253
0 0 250
0 0 254
0 0 254
0 0 250
0 0 252
0 0 249
0 0 249
0 0 253
0 0 253
0 0 248
0 0 253
0 0 253
0 0 254
0 0 254
0 0 253
0 0 252
0 0 248
0 0 241
0 0 253
0 0 250
0 0 250
0 0 248
0 0 254
0 0 250
0 0 255
0 0 248
0 0 250
0 0 250
0 0 246
0 0 246
0 0 253
0 0 249
0 0 252
0 0 248
0 0 245
0 0 249
0 0 245
0 0 246
0 0 250
0 0 252
0 0 248
0 0 250
0 0 245
0 0 245
0 0 246
0 0 245
0 0 248
0 0 241
0 0 245
0 0 250
0 0 241
0 0 252
0 0 249
0 0 252
0 0 238
0 0 248
0 0 244
0 0 248
0 0 245
0 0 241
0 0 246
0 0 248
0 0 244
0 0 242
0 0 245
0 0 241
0 0 234
0 0 245
0 0 238
0 0 242
0 0 234
0 0 240
0 0 241
0 0 238
0 0 234
0 0 245
0 0 237
0 0 234
0 0 241
0 0 240
0 0 240
0 0 242
0 0 230
0 0 244
0 0 228
0 0 242
0 0 228
0 0 234
0 0 223
0 0 228
0 0 223
0 0 221
0 0 220
0 0 223
0 0 230
0 0 233
0 0 226
0 0 236
0 0 231
0 0 217
0 0 221
0 0 215
0 0 212
0 0 209
0 0 212
0 0 186
0 0 215
0 0 212
0 0 215
0 0 204
0 0 214
0 0 194
0 0 189
0 0 188
0 0 212
0 0 181
0 0 169
0 0 196
0 0 188
0 0 179
0 0 165
0 0 171
0 0 135
0 0 142
0 0 144
0 0 117
0 0 111
0 0 76
126 134 167
117 119 130
65 0 0
88 0 0
116 0 0
122 0 0
109 0 0
132 0 0
132 0 0
144 0 0
143 0 0
150 0 0
141 0 0
157 0 0
170 0 0
165 0 0
164 0 0
157 0 0
180 0 0
184 0 0
176 0 0
181 0 0
183 0 0
178 0 0
179 0 0
188 0 0
190 0 0
193 0 0
185 0 0
180 0 0
195 0 0
201 0 0
199 0 0
200 0 0
190 0 0
201 0 0
184 0 0
188 0 0
200 0 0
203 0 0
199 0 0
202 0 0
191 0 0
199 0 0
203 0 0
198 0 0
193 0 0
202 0 0
209 0 0
207 0 0
204 0 0
201 0 0
204 0 0
209 0 0
208 0 0
205 0 0
206 0 0
203 0 0
207 0 0
203 0 0
209 0 0
204 0 0
211 0 0
200 0 0
209 0 0
217 0 0
215 0 0
206 0 0
209 0 0
213 0 0
214 0 0
209 0 0
216 0 0
213 0 0
215 0 0
216 0 0
211 0 0
210 0 0
207 0 0
213 0 0
209 0 0
209 0 0
216 0 0
210 0 0
212 0 0
213 0 0
220 0 0
216 0 0
218 0 0
219 0 0
210 0 0
213 0 0
215 0 0
213 0 0
214 0 0
215 0 0
213 0 0
216 0 0
221 0 0
213 0 0
215 0 0
216 0 0
217 0 0
216 0 0
219 0 0
211 0 0
219 0 0
215 0 0
218 0 0
217 0 0
217 0 0
215 0 0
211 0 0
220 0 0
221 0 0
220 0 0
215 0 0
217 0 0
213 0 0
218 0 0
218 0 0
215 0 0
218 0 0
219 0 0
220 0 0
219 0 0
220 0 0
214 0 0
220 0 0
218 0 0
220 0 0
214 0 0
217 0 0
218 0 0
213 0 0
215 0 0
218 0 0
221 0 0
220 0 0
217 0 0
218 0 0
216 0 0
218 0 0
219 0 0
215 0 0
217 0 0
222 0 0
216 0 0
216 0 0
216 0 0
219 0 0
217 0 0
217 0 0
219 0 0
222 0 0
222 0 0
216 0 0
217 0 0
220 0 0
221 0 0
217 0 0
217 0 0
222 0 0
218 0 0
217 0 0
221 0 0
219 0 0
223 0 0
218 0 0
220 0 0
217 0 0
218 0 0
224 0 0
221 0 0
220 0 0
221 0 0
216 0 0
222 0 0
220 0 0
220 0 0
216 0 0
222 0 0
218 0 0
218 0 0
218 0 0
220 0 0
221 0 0
223 0 0
223 0 0
219 0 0
220 0 0
217 0 0
219 0 0
221 0 0
225 0 0
222 0 0
221 0 0
222 0 0
220 0 0
219 0 0
220 0 0
0 0 255
0 0 255
0 0 253
0 0 254
0 0 255
0 0 254
0 0 255
0 0 255
0 0 255
0 0 255
0 0 255
0 0 255
0 0 254
0 0 255
0 0 254
0 0 255
0 0 255
0 0 254
0 0 253
0 0 253
0 0 254
0 0 255
0 0 252
0 0 253
0 0 254
0 0 254
0 0 255
0 0 255
0 0 253
0 0 252
0 0 252
0 0 255
0 0 254
0 0 254
0 0 254
0 0 254
0 0 253
0 0 254
0 0 253
0 0 253
0 0 255
0 0 254
0 0 255
0 0 254
0 0 253
0 0 253
0 0 252
0 0 253
0 0 255
0 0 253
0 0 253
0 0 255
0 0 253
0 0 253
0 0 254
0 0 252
0 0 253
0 0 255
0 0 252
0 0 252
0 0 254
0 0 250
0 0 253
0 0 255
0 0 250
0 0 250
0 0 252
0 0 254
0 0 252
0 0 254
0 0 250
0 0 252
0 0 250
0 0 252
0 0 254
0 0 253
0 0 252
0 0 249
0 0 250
0 0 252
0 0 246
0 0 250
0 0 253
0 0 248
0 0 248
0 0 248
0 0 250
0 0 248
0 0 253
0 0 254
0 0 245
0 0 246
0 0 253
0 0 250
0 0 254
0 0 250
0 0 249
0 0 254
0 0 246
0 0 252
0 0 253
0 0 254
0 0 250
0 0 252
0 0 253
0 0 248
0 0 242
0 0 252
0 0 245
0 0 245
0 0 246
0 0 248
0 0 240
0 0 249
0 0 250
0 0 244
0 0 249
0 0 248
0 0 245
0 0 246
0 0 245
0 0 249
0 0 249
0 0 245
0 0 245
0 0 240
0 0 245
0 0 242
0 0 245
0 0 245
0 0 252
0 0 237
0 0 241
0 0 242
0 0 236
0 0 242
0 0 238
0 0 237
0 0 241
0 0 240
0 0 249
0 0 241
0 0 244
0 0 245
0 0 241
0 0 238
0 0 236
0 0 237
0 0 237
0 0 234
0 0 236
0 0 240
0 0 230
0 0 231
0 0 233
0 0 231
0 0 230
0 0 228
0 0 230
0 0 223
0 0 228
0 0 234
0 0 241
0 0 227
0 0 230
0 0 234
0 0 215
0 0 224
0 0 224
0 0 228
0 0 230
0 0 223
0 0 220
0 0 215
0 0 215
0 0 207
0 0 204
0 0 217
0 0 206
0 0 194
0 0 212
0 0 201
0 0 212
0 0 201
0 0 198
0 0 186
0 0 201
0 0 181
0 0 189
0 0 182
0 0 173
0 0 167
0 0 169
0 0 151
0 0 149
0 0 128
0 0 120
0 0 120
0 0 88
98 105 125
114 110 120
72 0 0
65 0 0
102 0 0
113 0 0
131 0 0
128 0 0
146 0 0
137 0 0
146 0 0
149 0 0
150 0 0
149 0 0
165 0 0
166 0 0
162 0 0
181 0 0
182 0 0
169 0 0
180 0 0
164 0 0
192 0 0
185 0 0
192 0 0
184 0 0
180 0 0
197 0 0
183 0 0
190 0 0
184 0 0
187 0 0
195 0 0
196 0 0
200 0 0
197 0 0
196 0 0
193 0 0
196 0 0
194 0 0
202 0 0
205 0 0
191 0 0
193 0 0
201 0 0
198 0 0
201 0 0
199 0 0
201 0 0
212 0 0
207 0 0
206 0 0
202 0 0
208 0 0
204 0 0
209 0 0
210 0 0
204 0 0
207 0 0
206 0 0
216 0 0
210 0 0
206 0 0
209 0 0
209 0 0
211 0 0
212 0 0
213 0 0
203 0 0
214 0 0
212 0 0
207 0 0
212 0 0
214 0 0
202 0 0
214 0 0
209 0 0
212 0 0
212 0 0
211 0 0
213 0 0
213 0 0
207 0 0
215 0 0
208 0 0
221 0 0
211 0 0
210 0 0
214 0 0
224 0 0
215 0 0
217 0 0
219 0 0
214 0 0
213 0 0
211 0 0
212 0 0
206 0 0
223 0 0
218 0 0
218 0 0
220 0 0
213 0 0
217 0 0
213 0 0
218 0 0
217 0 0
215 0 0
218 0 0
218 0 0
219 0 0
216 0 0
217 0 0
214 0 0
218 0 0
219 0 0
215 0 0
213 0 0
214 0 0
219 0 0
220 0 0
216 0 0
219 0 0
218 0 0
215 0 0
218 0 0
211 0 0
214 0 0
214 0 0
218 0 0
216 0 0
214 0 0
219 0 0
219 0 0
219 0 0
222 0 0
217 0 0
219 0 0
217 0 0
216 0 0
219 0 0
216 0 0
218 0 0
217 0 0
215 0 0
221 0 0
215 0 0
219 0 0
220 0 0
219 0 0
216 0 0
219 0 0
213 0 0
216 0 0
220 0 0
219 0 0
216 0 0
219 0 0
223 0 0
216 0 0
222 0 0
220 0 0
223 0 0
218 0 0
217 0 0
222 0 0
219 0 0
221 0 0
220 0 0
219 0 0
220 0 0
225 0 0
216 0 0
219 0 0
218 0 0
219 0 0
218 0 0
220 0 0
219 0 0
219 0 0
223 0 0
219 0 0
218 0 0
217 0 0
220 0 0
219 0 0
220 0 0
220 0 0
219 0 0
221 0 0
219 0 0
219 0 0
222 0 0
221 0 0
215 0 0
218 0 0
222 0 0
223 0 0
217 0 0
219 0 0
221 0 0
0 0 253
0 0 255
0 0 254
0 0 255
0 0 255
0 0 254
0 0 254
0 0 254
0 0 253
0 0 254
0 0 254
0 0 254
0 0 254
0 0 255
0 0 254
0 0 255
0 0 254
0 0 254
0 0 254
0 0 254
0 0 252
0 0 254
0 0 254
0 0 254
0 0 253
0 0 255
0 0 255
0 0 255
0 0 253
0 0 254
0 0 254
0 0 253
0 0 253
0 0 255
0 0 253
0 0 254
0 0 255
0 0 254
0 0 254
0 0 254
0 0 253
0 0 253
0 0 253
0 0 253
0 0 255
0 0 252
0 0 255
0 0 253
0 0 254
0 0 252
0 0 254
0 0 253
0 0 254
0 0 255
0 0 252
0 0 255
0 0 253
0 0 254
0 0 253
0 0 255
0 0 252
0 0 255
0 0 254
0 0 253
0 0 250
0 0 252
0 0 254
0 0 254
0 0 252
0 0 253
0 0 254
0 0 249
0 0 255
0 0 250
0 0 253
0 0 252
0 0 255
0 0 249
0 0 250
0 0 252
0 0 252
0 0 254
0 0 253
0 0 254
0 0 252
0 0 252
0 0 254
0 0 253
0 0 249
0 0 254
0 0 252
0 0 253
0 0 252
0 0 254
0 0 250
0 0 252
0 0 254
0 0 245
0 0 252
0 0 254
0 0 249
0 0 246
0 0 248
0 0 249
0 0 253
0 0 249
0 0 246
0 0 249
0 0 249
0 0 244
0 0 253
0 0 245
0 0 246
0 0 248
0 0 245
0 0 244
0 0 246
0 0 248
0 0 248
0 0 244
0 0 240
0 0 248
0 0 242
0 0 249
0 0 236
0 0 240
0 0 245
0 0 248
0 0 242
0 0 249
0 0 244
0 0 246
0 0 250
0 0 240
0 0 249
0 0 237
0 0 244
0 0 244
0 0 242
0 0 238
0 0 242
0 0 237
0 0 242
0 0 244
0 0 244
0 0 246
0 0 246
0 0 237
0 0 238
0 0 234
0 0 233
0 0 233
0 0 240
0 0 237
0 0 237
0 0 230
0 0 233
0 0 230
0 0 221
0 0 237
0 0 231
0 0 227
0 0 230
0 0 231
0 0 237
0 0 221
0 0 223
0 0 233
0 0 233
0 0 217
0 0 218
0 0 220
0 0 215
0 0 217
0 0 224
0 0 209
0 0 221
0 0 207
0 0 206
0 0 209
0 0 223
0 0 218
0 0 191
0 0 198
0 0 207
0 0 189
0 0 191
0 0 207
0 0 201
0 0 181
0 0 157
0 0 169
0 0 155
0 0 137
0 0 144
0 0 133
0 0 128
0 0 105
0 0 80
69 74 111
108 99 108
75 0 0
93 0 0
107 0 0
112 0 0
123 0 0
125 0 0
145 0 0
145 0 0
140 0 0
146 0 0
156 0 0
156 0 0
163 0 0
170 0 0
169 0 0
162 0 0
167 0 0
158 0 0
179 0 0
177 0 0
189 0 0
177 0 0
178 0 0
186 0 0
180 0 0
185 0 0
191 0 0
192 0 0
194 0 0
188 0 0
199 0 0
187 0 0
187 0 0
199 0 0
207 0 0
203 0 0
203 0 0
191 0 0
191 0 0
197 0 0
201 0 0
198 0 0
208 0 0
194 0 0
201 0 0
200 0 0
205 0 0
202 0 0
207 0 0
202 0 0
200 0 0
211 0 0
207 0 0
205 0 0
203 0 0
216 0 0
208 0 0
200 0 0
214 0 0
205 0 0
214 0 0
210 0 0
209 0 0
214 0 0
211 0 0
215 0 0
214 0 0
211 0 0
206 0 0
210 0 0
217 0 0
210 0 0
213 0 0
215 0 0
214 0 0
213 0 0
210 0 0
209 0 0
219 0 0
208 0 0
208 0 0
212 0 0
211 0 0
217 0 0
210 0 0
217 0 0
214 0 0
216 0 0
213 0 0
217 0 0
219 0 0
215 0 0
218 0 0
211 0 0
216 0 0
214 0 0
208 0 0
211 0 0
217 0 0
211 0 0
213 0 0
209 0 0
218 0 0
208 0 0
214 0 0
212 0 0
210 0 0
212 0 0
216 0 0
218 0 0
216 0 0
216 0 0
213 0 0
217 0 0
212 0 0
221 0 0
216 0 0
217 0 0
219 0 0
216 0 0
218 0 0
218 0 0
218 0 0
217 0 0
218 0 0
220 0 0
216 0 0
217 0 0
213 0 0
217 0 0
220 0 0
222 0 0
217 0 0
213 0 0
220 0 0
216 0 0
215 0 0
220 0 0
220 0 0
220 0 0
219 0 0
220 0 0
217 0 0
220 0 0
216 0 0
217 0 0
220 0 0
212 0 0
219 0 0
221 0 0
222 0 0
219 0 0
222 0 0
219 0 0
217 0 0
223 0 0
215 0 0
218 0 0
221 0 0
222 0 0
216 0 0
217 0 0
222 0 0
223 0 0
219 0 0
217 0 0
218 0 0
221 0 0
218 0 0
221 0 0
220 0 0
221 0 0
217 0 0
222 0 0
217 0 0
223 0 0
221 0 0
220 0 0
225 0 0
217 0 0
221 0 0
221 0 0
219 0 0
218 0 0
220 0 0
223 0 0
222 0 0
217 0 0
220 0 0
214 0 0
223 0 0
219 0 0
217 0 0
223 0 0
223 0 0
219 0 0
220 0 0
216 0 0
222 0 0
0 0 255
0 0 255
0 0 253
0 0 254
0 0 255
0 0 255
0 0 255
0 0 254
0 0 254
0 0 255
0 0 254
0 0 255
0 0 253
0 0 255
0 0 255
0 0 255
0 0 255
0 0 253
0 0 255
0 0 252
0 0 254
0 0 253
0 0 255
0 0 255
0 0 255
0 0 255
0 0 255
0 0 252
0 0 254
0 0 255
0 0 254
0 0 254
0 0 254
0 0 252
0 0 254
0 0 255
0 0 252
0 0 255
0 0 254
0 0 254
0 0 253
0 0 249
0 0 254
0 0 253
0 0 255
0 0 253
0 0 254
0 0 255
0 0 252
0 0 255
0 0 252
0 0 253
0 0 254
0 0 254
0 0 254
0 0 254
0 0 254
0 0 248
0 0 254
0 0 254
0 0 252
0 0 250
0 0 255
0 0 253
0 0 255
0 0 250
0 0 250
0 0 253
0 0 250
0 0 250
0 0 250
0 0 252
0 0 250
0 0 253
0 0 246
0 0 254
0 0 253
0 0 250
0 0 252
0 0 250
0 0 254
0 0 250
0 0 252
0 0 253
0 0 250
0 0 253
0 0 253
0 0 252
0 0 254
0 0 249
0 0 246
0 0 249
0 0 250
0 0 250
0 0 248
0 0 252
0 0 246
0 0 248
0 0 250
0 0 249
0 0 253
0 0 250
0 0 245
0 0 246
0 0 249
0 0 249
0 0 246
0 0 252
0 0 249
0 0 242
0 0 248
0 0 253
0 0 250
0 0 249
0 0 245
0 0 244
0 0 250
0 0 249
0 0 245
0 0 242
0 0 242
0 0 250
0 0 246
0 0 249
0 0 249
0 0 249
0 0 246
0 0 242
0 0 244
0 0 242
0 0 245
0 0 236
0 0 236
0 0 237
0 0 241
0 0 246
0 0 241
0 0 242
0 0 252
0 0 240
0 0 246
0 0 240
0 0 240
0 0 240
0 0 241
0 0 234
0 0 237
0 0 238
0 0 238
0 0 228
0 0 233
0 0 238
0 0 242
0 0 236
0 0 241
0 0 228
0 0 233
0 0 228
0 0 237
0 0 234
0 0 224
0 0 226
0 0 236
0 0 227
0 0 224
0 0 227
0 0 234
0 0 231
0 0 226
0 0 227
0 0 217
0 0 209
0 0 227
0 0 217
0 0 224
0 0 204
0 0 212
0 0 215
0 0 206
0 0 215
0 0 199
0 0 211
0 0 203
0 0 203
0 0 207
0 0 191
0 0 206
0 0 182
0 0 175
0 0 196
0 0 173
0 0 181
0 0 157
0 0 147
0 0 137
0 0 135
0 0 117
0 0 114
0 0 72
53 57 84
87 84 92
60 0 0
95 0 0
97 0 0
124 0 0
124 0 0
120 0 0
145 0 0
142 0 0
138 0 0
149 0 0
166 0 0
154 0 0
158 0 0
171 0 0
178 0 0
175 0 0
162 0 0
185 0 0
180 0 0
174 0 0
177 0 0
187 0 0
183 0 0
179 0 0
188 0 0
207 0 0
197 0 0
201 0 0
189 0 0
193 0 0
198 0 0
187 0 0
195 0 0
198 0 0
203 0 0
192 0 0
205 0 0
204 0 0
191 0 0
200 0 0
203 0 0
198 0 0
201 0 0
203 0 0
204 0 0
198 0 0
208 0 0
202 0 0
211 0 0
208 0 0
205 0 0
208 0 0
204 0 0
212 0 0
203 0 0
209 0 0
207 0 0
208 0 0
208 0 0
204 0 0
214 0 0
201 0 0
216 0 0
210 0 0
208 0 0
211 0 0
201 0 0
208 0 0
211 0 0
204 0 0
211 0 0
207 0 0
212 0 0
210 0 0
208 0 0
214 0 0
214 0 0
212 0 0
210 0 0
208 0 0
217 0 0
217 0 0
217 0 0
215 0 0
218 0 0
209 0 0
211 0 0
213 0 0
218 0 0
214 0 0
216 0 0
213 0 0
215 0 0
217 0 0
216 0 0
213 0 0
217 0 0
218 0 0
209 0 0
213 0 0
211 0 0
211 0 0
209 0 0
222 0 0
216 0 0
220 0 0
211 0 0
218 0 0
213 0 0
223 0 0
217 0 0
218 0 0
215 0 0
217 0 0
218 0 0
211 0 0
213 0 0
220 0 0
219 0 0
218 0 0
216 0 0
218 0 0
215 0 0
216 0 0
219 0 0
220 0 0
220 0 0
217 0 0
216 0 0
219 0 0
216 0 0
214 0 0
218 0 0
220 0 0
219 0 0
221 0 0
219 0 0
213 0 0
216 0 0
220 0 0
219 0 0
222 0 0
221 0 0
220 0 0
221 0 0
221 0 0
223 0 0
218 0 0
216 0 0
221 0 0
221 0 0
219 0 0
220 0 0
221 0 0
213 0 0
221 0 0
221 0 0
221 0 0
220 0 0
221 0 0
220 0 0
219 0 0
218 0 0
220 0 0
221 0 0
219 0 0
221 0 0
218 0 0
221 0 0
217 0 0
219 0 0
219 0 0
220 0 0
221 0 0
221 0 0
223 0 0
220 0 0
215 0 0
219 0 0
221 0 0
217 0 0
223 0 0
222 0 0
222 0 0
220 0 0
219 0 0
219 0 0
221 0 0
223 0 0
218 0 0
224 0 0
217 0 0
222 0 0
221 0 0
222 0 0
220 0 0
218 0 0
223 0 0
223 0 0
0 0 255
0 0 255
0 0 253
0 0 254
0 0 254
0 0 255
0 0 254
0 0 253
0 0 254
0 0 255
0 0 254
0 0 253
0 0 254
0 0 255
0 0 254
0 0 255
0 0 254
0 0 254
0 0 255
0 0 255
0 0 254
0 0 255
0 0 253
0 0 255
0 0 254
0 0 255
0 0 255
0 0 255
0 0 253
0 0 254
0 0 254
0 0 254
0 0 255
0 0 253
0 0 254
0 0 253
0 0 253
0 0 252
0 0 253
0 0 252
0 0 254
0 0 254
0 0 254
0 0 255
0 0 253
0 0 255
0 0 255
0 0 248
0 0 255
0 0 254
0 0 253
0 0 253
0 0 249
0 0 250
0 0 252
0 0 253
0 0 255
0 0 249
0 0 252
0 0 255
0 0 255
0 0 252
0 0 250
0 0 254
0 0 253
0 0 253
0 0 254
0 0 252
0 0 255
0 0 252
0 0 253
0 0 253
0 0 253
0 0 253
0 0 253
0 0 246
0 0 255
0 0 245
0 0 246
0 0 250
0 0 254
0 0 248
0 0 252
0 0 253
0 0 244
0 0 252
0 0 252
0 0 250
0 0 253
0 0 254
0 0 252
0 0 249
0 0 253
0 0 241
0 0 252
0 0 250
0 0 245
0 0 248
0 0 249
0 0 248
0 0 248
0 0 246
0 0 249
0 0 250
0 0 252
0 0 250
0 0 250
0 0 252
0 0 249
0 0 242
0 0 252
0 0 244
0 0 249
0 0 245
0 0 255
0 0 249
0 0 252
0 0 250
0 0 245
0 0 240
0 0 240
0 0 248
0 0 244
0 0 242
0 0 245
0 0 246
0 0 244
0 0 246
0 0 245
0 0 245
0 0 245
0 0 245
0 0 248
0 0 250
0 0 246
0 0 246
0 0 246
0 0 236
0 0 245
0 0 248
0 0 241
0 0 241
0 0 240
0 0 248
0 0 244
0 0 241
0 0 228
0 0 242
0 0 236
0 0 238
0 0 233
0 0 231
0 0 231
0 0 227
0 0 233
0 0 233
0 0 227
0 0 240
0 0 231
0 0 223
0 0 223
0 0 228
0 0 227
0 0 231
0 0 224
0 0 234
0 0 217
0 0 228
0 0 209
0 0 221
0 0 220
0 0 217
0 0 215
0 0 223
0 0 217
0 0 223
0 0 212
0 0 201
0 0 194
0 0 204
0 0 212
0 0 203
0 0 206
0 0 196
0 0 181
0 0 199
0 0 196
0 0 199
0 0 194
0 0 175
0 0 157
0 0 159
0 0 135
0 0 140
0 0 161
0 0 142
0 0 117
0 0 105
0 0 62
44 47 84
76 57 62
84 0 0
109 0 0
108 0 0
119 0 0
134 0 0
148 0 0
123 0 0
150 0 0
149 0 0
148 0 0
176 0 0
167 0 0
152 0 0
161 0 0
173 0 0
172 0 0
175 0 0
173 0 0
176 0 0
179 0 0
197 0 0
183 0 0
175 0 0
175 0 0
187 0 0
196 0 0
190 0 0
195 0 0
199 0 0
189 0 0
190 0 0
188 0 0
193 0 0
198 0 0
199 0 0
197 0 0
195 0 0
204 0 0
197 0 0
201 0 0
196 0 0
201 0 0
205 0 0
203 0 0
208 0 0
198 0 0
207 0 0
202 0 0
210 0 0
203 0 0
200 0 0
204 0 0
203 0 0
209 0 0
210 0 0
202 0 0
209 0 0
209 0 0
212 0 0
213 0 0
207 0 0
211 0 0
211 0 0
210 0 0
213 0 0
212 0 0
206 0 0
210 0 0
212 0 0
211 0 0
212 0 0
207 0 0
211 0 0
205 0 0
210 0 0
215 0 0
213 0 0
215 0 0
211 0 0
216 0 0
209 0 0
212 0 0
213 0 0
211 0 0
215 0 0
210 0 0
220 0 0
218 0 0
213 0 0
217 0 0
216 0 0
210 0 0
219 0 0
210 0 0
212 0 0
210 0 0
217 0 0
214 0 0
213 0 0
211 0 0
216 0 0
213 0 0
218 0 0
212 0 0
213 0 0
218 0 0
215 0 0
209 0 0
217 0 0
216 0 0
215 0 0
217 0 0
216 0 0
215 0 0
218 0 0
208 0 0
215 0 0
216 0 0
219 0 0
218 0 0
215 0 0
218 0 0
215 0 0
221 0 0
218 0 0
219 0 0
220 0 0
221 0 0
218 0 0
218 0 0
215 0 0
217 0 0
220 0 0
220 0 0
217 0 0
219 0 0
220 0 0
215 0 0
218 0 0
223 0 0
219 0 0
222 0 0
219 0 0
217 0 0
223 0 0
222 0 0
221 0 0
220 0 0
218 0 0
219 0 0
223 0 0
221 0 0
216 0 0
218 0 0
221 0 0
221 0 0
222 0 0
216 0 0
216 0 0
223 0 0
217 0 0
218 0 0
217 0 0
221 0 0
220 0 0
218 0 0
218 0 0
219 0 0
216 0 0
219 0 0
222 0 0
221 0 0
223 0 0
222 0 0
221 0 0
220 0 0
220 0 0
220 0 0
221 0 0
218 0 0
223 0 0
217 0 0
216 0 0
223 0 0
221 0 0
216 0 0
222 0 0
220 0 0
222 0 0
216 0 0
222 0 0
223 0 0
222 0 0
222 0 0
218 0 0
222 0 0
223 0 0
223 0 0
219 0 0
0 0 255
0 0 255
0 0 255
0 0 254
0 0 254
0 0 253
0 0 255
0 0 255
0 0 254
0 0 254
0 0 253
0 0 252
0 0 254
0 0 254
0 0 253
0 0 254
0 0 255
0 0 253
0 0 255
0 0 255
0 0 255
0 0 255
0 0 254
0 0 254
0 0 254
0 0 254
0 0 255
0 0 253
0 0 255
0 0 255
0 0 253
0 0 254
0 0 253
0 0 255
0 0 255
0 0 254
0 0 254
0 0 255
0 0 254
0 0 249
0 0 252
0 0 253
0 0 253
0 0 250
0 0 253
0 0 252
0 0 253
0 0 254
0 0 250
0 0 255
0 0 255
0 0 254
0 0 254
0 0 253
0 0 253
0 0 253
0 0 254
0 0 254
0 0 252
0 0 255
0 0 252
0 0 254
0 0 255
0 0 249
0 0 254
0 0 252
0 0 254
0 0 253
0 0 253
0 0 252
0 0 252
0 0 254
0 0 252
0 0 254
0 0 252
0 0 253
0 0 254
0 0 250
0 0 252
0 0 246
0 0 253
0 0 252
0 0 252
0 0 253
0 0 250
0 0 252
0 0 250
0 0 248
0 0 254
0 0 254
0 0 250
0 0 250
0 0 250
0 0 249
0 0 250
0 0 250
0 0 248
0 0 246
0 0 249
0 0 252
0 0 252
0 0 253
0 0 241
0 0 252
0 0 248
0 0 249
0 0 253
0 0 248
0 0 248
0 0 246
0 0 250
0 0 253
0 0 250
0 0 250
0 0 244
0 0 245
0 0 240
0 0 250
0 0 248
0 0 246
0 0 249
0 0 241
0 0 244
0 0 228
0 0 249
0 0 250
0 0 253
0 0 245
0 0 244
0 0 240
0 0 244
0 0 244
0 0 245
0 0 242
0 0 240
0 0 240
0 0 231
0 0 246
0 0 236
0 0 236
0 0 237
0 0 245
0 0 238
0 0 242
0 0 240
0 0 234
0 0 233
0 0 237
0 0 236
0 0 240
0 0 237
0 0 231
0 0 242
0 0 237
0 0 241
0 0 236
0 0 234
0 0 233
0 0 231
0 0 234
0 0 226
0 0 228
0 0 226
0 0 234
0 0 230
0 0 224
0 0 221
0 0 224
0 0 212
0 0 223
0 0 234
0 0 227
0 0 212
0 0 217
0 0 218
0 0 218
0 0 226
0 0 203
0 0 201
0 0 198
0 0 211
0 0 214
0 0 194
0 0 186
0 0 209
0 0 201
0 0 182
0 0 191
0 0 159
0 0 175
0 0 171
0 0 181
0 0 163
0 0 155
0 0 142
0 0 130
0 0 114
0 0 117
0 0 84
22 23 57
68 33 36
69 0 0
98 0 0
106 0 0
127 0 0
126 0 0
114 0 0
154 0 0
148 0 0
154 0 0
160 0 0
153 0 0
152 0 0
175 0 0
162 0 0
169 0 0
164 0 0
168 0 0
168 0 0
189 0 0
186 0 0
172 0 0
174 0 0
192 0 0
183 0 0
168 0 0
194 0 0
194 0 0
176 0 0
185 0 0
188 0 0
191 0 0
187 0 0
191 0 0
203 0 0
202 0 0
184 0 0
191 0 0
199 0 0
194 0 0
197 0 0
204 0 0
202 0 0
198 0 0
199 0 0
204 0 0
203 0 0
201 0 0
206 0 0
213 0 0
202 0 0
207 0 0
202 0 0
213 0 0
199 0 0
203 0 0
210 0 0
200 0 0
199 0 0
205 0 0
206 0 0
209 0 0
216 0 0
209 0 0
212 0 0
216 0 0
204 0 0
211 0 0
211 0 0
204 0 0
206 0 0
206 0 0
209 0 0
204 0 0
212 0 0
213 0 0
210 0 0
219 0 0
207 0 0
204 0 0
214 0 0
207 0 0
209 0 0
216 0 0
209 0 0
216 0 0
215 0 0
211 0 0
215 0 0
206 0 0
213 0 0
219 0 0
212 0 0
215 0 0
213 0 0
214 0 0
214 0 0
217 0 0
215 0 0
216 0 0
217 0 0
221 0 0
221 0 0
220 0 0
214 0 0
217 0 0
218 0 0
220 0 0
217 0 0
221 0 0
212 0 0
217 0 0
221 0 0
217 0 0
219 0 0
213 0 0
216 0 0
216 0 0
216 0 0
219 0 0
218 0 0
213 0 0
213 0 0
221 0 0
218 0 0
214 0 0
216 0 0
218 0 0
217 0 0
215 0 0
219 0 0
218 0 0
215 0 0
221 0 0
218 0 0
217 0 0
218 0 0
222 0 0
221 0 0
219 0 0
215 0 0
222 0 0
222 0 0
220 0 0
218 0 0
217 0 0
218 0 0
216 0 0
221 0 0
219 0 0
222 0 0
217 0 0
216 0 0
218 0 0
220 0 0
220 0 0
219 0 0
218 0 0
221 0 0
221 0 0
216 0 0
221 0 0
221 0 0
215 0 0
220 0 0
219 0 0
222 0 0
219 0 0
221 0 0
220 0 0
217 0 0
220 0 0
219 0 0
220 0 0
223 0 0
224 0 0
219 0 0
220 0 0
220 0 0
215 0 0
219 0 0
223 0 0
220 0 0
219 0 0
224 0 0
221 0 0
221 0 0
219 0 0
218 0 0
214 0 0
220 0 0
218 0 0
222 0 0
218 0 0
221 0 0
224 0 0
222 0 0
214 0 0
219 0 0
222 0 0
0 0 255
0 0 255
0 0 254
0 0 255
0 0 252
0 0 255
0 0 255
0 0 252
0 0 254
0 0 255
0 0 255
0 0 255
0 0 255
0 0 255
0 0 254
0 0 254
0 0 253
0 0 255
0 0 253
0 0 255
0 0 255
0 0 254
0 0 254
0 0 254
0 0 255
0 0 253
0 0 255
0 0 255
0 0 255
0 0 253
0 0 253
0 0 254
0 0 255
0 0 255
0 0 254
0 0 253
0 0 253
0 0 253
0 0 253
0 0 249
0 0 255
0 0 254
0 0 255
0 0 254
0 0 254
0 0 253
0 0 253
0 0 255
0 0 254
0 0 253
0 0 253
0 0 254
0 0 250
0 0 252
0 0 252
0 0 253
0 0 252
0 0 254
0 0 254
0 0 253
0 0 255
0 0 254
0 0 252
0 0 252
0 0 252
0 0 252
0 0 250
0 0 248
0 0 254
0 0 252
0 0 253
0 0 254
0 0 254
0 0 252
0 0 249
0 0 249
0 0 252
0 0 249
0 0 249
0 0 252
0 0 249
0 0 252
0 0 250
0 0 252
0 0 248
0 0 253
0 0 252
0 0 252
0 0 249
0 0 249
0 0 254
0 0 249
0 0 254
0 0 250
0 0 250
0 0 252
0 0 249
0 0 254
0 0 249
0 0 248
0 0 252
0 0 250
0 0 246
0 0 250
0 0 246
0 0 252
0 0 250
0 0 250
0 0 241
0 0 249
0 0 242
0 0 250
0 0 248
0 0 240
0 0 254
0 0 248
0 0 242
0 0 249
0 0 246
0 0 249
0 0 248
0 0 249
0 0 237
0 0 238
0 0 244
0 0 241
0 0 246
0 0 242
0 0 242
0 0 241
0 0 245
0 0 245
0 0 244
0 0 246
0 0 238
0 0 249
0 0 237
0 0 241
0 0 238
0 0 245
0 0 246
0 0 242
0 0 245
0 0 241
0 0 242
0 0 234
0 0 238
0 0 240
0 0 236
0 0 234
0 0 234
0 0 240
0 0 233
0 0 244
0 0 237
0 0 236
0 0 242
0 0 228
0 0 233
0 0 224
0 0 238
0 0 231
0 0 228
0 0 231
0 0 226
0 0 226
0 0 227
0 0 218
0 0 226
0 0 233
0 0 220
0 0 206
0 0 221
0 0 230
0 0 230
0 0 214
0 0 221
0 0 215
0 0 207
0 0 206
0 0 209
0 0 203
0 0 214
0 0 189
0 0 201
0 0 186
0 0 198
0 0 182
0 0 179
0 0 186
0 0 181
0 0 167
0 0 159
0 0 163
0 0 140
0 0 144
0 0 120
0 0 108
0 0 92
22 23 67
51 0 0
70 0 0
94 0 0
94 0 0
126 0 0
127 0 0
112 0 0
153 0 0
155 0 0
148 0 0
162 0 0
166 0 0
168 0 0
168 0 0
163 0 0
174 0 0
173 0 0
178 0 0
178 0 0
175 0 0
176 0 0
184 0 0
190 0 0
185 0 0
183 0 0
175 0 0
192 0 0
184 0 0
193 0 0
194 0 0
190 0 0
187 0 0
190 0 0
189 0 0
204 0 0
195 0 0
196 0 0
204 0 0
196 0 0
200 0 0
208 0 0
204 0 0
203 0 0
205 0 0
200 0 0
203 0 0
196 0 0
199 0 0
197 0 0
206 0 0
195 0 0
201 0 0
208 0 0
211 0 0
218 0 0
200 0 0
210 0 0
206 0 0
207 0 0
208 0 0
210 0 0
209 0 0
213 0 0
212 0 0
209 0 0
215 0 0
208 0 0
213 0 0
203 0 0
217 0 0
208 0 0
209 0 0
210 0 0
217 0 0
213 0 0
215 0 0
209 0 0
216 0 0
211 0 0
214 0 0
211 0 0
213 0 0
212 0 0
213 0 0
214 0 0
216 0 0
212 0 0
214 0 0
224 0 0
215 0 0
216 0 0
212 0 0
213 0 0
214 0 0
210 0 0
217 0 0
218 0 0
216 0 0
216 0 0
219 0 0
218 0 0
220 0 0
220 0 0
223 0 0
210 0 0
207 0 0
213 0 0
214 0 0
217 0 0
222 0 0
217 0 0
222 0 0
217 0 0
216 0 0
219 0 0
218 0 0
216 0 0
216 0 0
217 0 0
220 0 0
218 0 0
217 0 0
216 0 0
216 0 0
222 0 0
214 0 0
221 0 0
222 0 0
219 0 0
220 0 0
217 0 0
216 0 0
217 0 0
219 0 0
217 0 0
219 0 0
219 0 0
220 0 0
221 0 0
221 0 0
221 0 0
216 0 0
221 0 0
217 0 0
220 0 0
218 0 0
222 0 0
217 0 0
216 0 0
219 0 0
217 0 0
220 0 0
221 0 0
211 0 0
220 0 0
216 0 0
219 0 0
221 0 0
223 0 0
223 0 0
219 0 0
220 0 0
221 0 0
219 0 0
223 0 0
220 0 0
219 0 0
221 0 0
218 0 0
214 0 0
220 0 0
223 0 0
216 0 0
221 0 0
222 0 0
219 0 0
217 0 0
221 0 0
223 0 0
218 0 0
223 0 0
220 0 0
218 0 0
222 0 0
219 0 0
218 0 0
219 0 0
222 0 0
220 0 0
216 0 0
221 0 0
222 0 0
217 0 0
220 0 0
216 0 0
222 0 0
220 0 0
219 0 0
222 0 0
219 0 0
0 0 255
0 0 255
0 0 255
0 0 254
0 0 255
0 0 253
0 0 255
0 0 254
0 0 255
0 0 254
0 0 254
0 0 254
0 0 255
0 0 254
0 0 255
0 0 255
0 0 253
0 0 255
0 0 255
0 0 254
0 0 255
0 0 255
0 0 253
0 0 254
0 0 252
0 0 255
0 0 253
0 0 253
0 0 254
0 0 254
0 0 254
0 0 255
0 0 254
0 0 252
0 0 254
0 0 253
0 0 253
0 0 255
0 0 255
0 0 249
0 0 252
0 0 253
0 0 253
0 0 254
0 0 252
0 0 255
0 0 253
0 0 254
0 0 254
0 0 255
0 0 253
0 0 254
0 0 253
0 0 254
0 0 250
0 0 250
0 0 253
0 0 253
0 0 254
0 0 254
0 0 253
0 0 253
0 0 250
0 0 253
0 0 254
0 0 253
0 0 253
0 0 253
0 0 250
0 0 253
0 0 253
0 0 255
0 0 252
0 0 246
0 0 254
0 0 254
0 0 252
0 0 252
0 0 254
0 0 253
0 0 253
0 0 248
0 0 252
0 0 252
0 0 254
0 0 249
0 0 252
0 0 254
0 0 246
0 0 254
0 0 249
0 0 246
0 0 249
0 0 249
0 0 249
0 0 254
0 0 250
0 0 253
0 0 248
0 0 246
0 0 248
0 0 254
0 0 245
0 0 250
0 0 244
0 0 245
0 0 249
0 0 249
0 0 248
0 0 246
0 0 246
0 0 246
0 0 250
0 0 241
0 0 245
0 0 249
0 0 244
0 0 250
0 0 244
0 0 246
0 0 244
0 0 253
0 0 250
0 0 242
0 0 248
0 0 245
0 0 244
0 0 250
0 0 241
0 0 236
0 0 240
0 0 244
0 0 250
0 0 244
0 0 248
0 0 241
0 0 237
0 0 242
0 0 242
0 0 237
0 0 238
0 0 237
0 0 242
0 0 234
0 0 238
0 0 248
0 0 231
0 0 238
0 0 238
0 0 237
0 0 237
0 0 237
0 0 241
0 0 231
0 0 234
0 0 234
0 0 230
0 0 234
0 0 238
0 0 231
0 0 231
0 0 230
0 0 230
0 0 231
0 0 224
0 0 218
0 0 217
0 0 221
0 0 227
0 0 228
0 0 233
0 0 223
0 0 224
0 0 218
0 0 211
0 0 204
0 0 220
0 0 203
0 0 211
0 0 181
0 0 199
0 0 215
0 0 203
0 0 196
0 0 199
0 0 179
0 0 193
0 0 184
0 0 175
0 0 179
0 0 171
0 0 157
0 0 159
0 0 151
0 0 149
0 0 130
0 0 122
0 0 105
0 0 95
0 0 62
30 0 0
66 0 0
104 0 0
108 0 0
131 0 0
113 0 0
116 0 0
140 0 0
143 0 0
150 0 0
140 0 0
158 0 0
156 0 0
173 0 0
151 0 0
177 0 0
168 0 0
170 0 0
177 0 0
172 0 0
179 0 0
188 0 0
183 0 0
179 0 0
184 0 0
175 0 0
190 0 0
190 0 0
192 0 0
185 0 0
189 0 0
191 0 0
204 0 0
193 0 0
188 0 0
190 0 0
195 0 0
197 0 0
197 0 0
202 0 0
193 0 0
208 0 0
199 0 0
198 0 0
199 0 0
204 0 0
203 0 0
198 0 0
197 0 0
204 0 0
207 0 0
206 0 0
207 0 0
209 0 0
206 0 0
205 0 0
211 0 0
204 0 0
209 0 0
204 0 0
204 0 0
212 0 0
201 0 0
210 0 0
212 0 0
212 0 0
209 0 0
210 0 0
214 0 0
205 0 0
213 0 0
211 0 0
211 0 0
214 0 0
215 0 0
207 0 0
211 0 0
209 0 0
212 0 0
209 0 0
218 0 0
219 0 0
213 0 0
217 0 0
212 0 0
207 0 0
213 0 0
213 0 0
219 0 0
215 0 0
218 0 0
212 0 0
216 0 0
212 0 0
217 0 0
213 0 0
220 0 0
213 0 0
214 0 0
215 0 0
217 0 0
215 0 0
213 0 0
210 0 0
222 0 0
215 0 0
217 0 0
218 0 0
220 0 0
214 0 0
219 0 0
213 0 0
218 0 0
218 0 0
219 0 0
213 0 0
216 0 0
215 0 0
218 0 0
213 0 0
216 0 0
215 0 0
216 0 0
218 0 0
214 0 0
220 0 0
215 0 0
215 0 0
222 0 0
223 0 0
217 0 0
221 0 0
223 0 0
218 0 0
219 0 0
220 0 0
221 0 0
222 0 0
219 0 0
218 0 0
218 0 0
220 0 0
220 0 0
222 0 0
214 0 0
220 0 0
222 0 0
222 0 0
218 0 0
219 0 0
221 0 0
219 0 0
217 0 0
222 0 0
216 0 0
218 0 0
219 0 0
215 0 0
223 0 0
221 0 0
218 0 0
221 0 0
222 0 0
220 0 0
219 0 0
220 0 0
223 0 0
221 0 0
222 0 0
217 0 0
214 0 0
219 0 0
222 0 0
221 0 0
222 0 0
221 0 0
220 0 0
222 0 0
222 0 0
220 0 0
222 0 0
217 0 0
219 0 0
222 0 0
219 0 0
222 0 0
217 0 0
221 0 0
219 0 0
222 0 0
220 0 0
218 0 0
221 0 0
221 0 0
219 0 0
222 0 0
223 0 0
223 0 0
218 0 0
223 0 0
0 0 255
0 0 255
0 0 255
0 0 255
0 0 254
0 0 255
0 0 255
0 0 255
0 0 255
0 0 254
0 0 250
0 0 254
0 0 254
0 0 255
0 0 255
0 0 255
0 0 254
0 0 254
0 0 253
0 0 255
0 0 255
0 0 254
0 0 250
0 0 255
0 0 255
0 0 254
0 0 254
0 0 255
0 0 255
0 0 255
0 0 254
0 0 252
0 0 254
0 0 255
0 0 252
0 0 253
0 0 255
0 0 254
0 0 254
0 0 252
0 0 255
0 0 253
0 0 254
0 0 254
0 0 252
0 0 254
0 0 252
0 0 255
0 0 252
0 0 252
0 0 255
0 0 252
0 0 252
0 0 252
0 0 249
0 0 254
0 0 254
0 0 254
0 0 255
0 0 253
0 0 250
0 0 252
0 0 253
0 0 252
0 0 252
0 0 253
0 0 252
0 0 255
0 0 254
0 0 253
0 0 254
0 0 250
0 0 253
0 0 254
0 0 253
0 0 253
0 0 254
0 0 254
0 0 254
0 0 253
0 0 253
0 0 250
0 0 254
0 0 250
0 0 252
0 0 248
0 0 252
0 0 248
0 0 252
0 0 250
0 0 253
0 0 249
0 0 253
0 0 244
0 0 253
0 0 246
0 0 248
0 0 250
0 0 252
0 0 253
0 0 249
0 0 253
0 0 248
0 0 249
0 0 241
0 0 249
0 0 250
0 0 249
0 0 250
0 0 246
0 0 242
0 0 244
0 0 245
0 0 242
0 0 248
0 0 253
0 0 245
0 0 248
0 0 254
0 0 242
0 0 249
0 0 244
0 0 246
0 0 252
0 0 244
0 0 242
0 0 250
0 0 244
0 0 242
0 0 244
0 0 245
0 0 241
0 0 244
0 0 249
0 0 233
0 0 231
0 0 248
0 0 245
0 0 240
0 0 242
0 0 242
0 0 234
0 0 236
0 0 242
0 0 236
0 0 241
0 0 236
0 0 236
0 0 240
0 0 231
0 0 230
0 0 230
0 0 236
0 0 231
0 0 234
0 0 233
0 0 236
0 0 241
0 0 227
0 0 230
0 0 236
0 0 234
0 0 227
0 0 226
0 0 218
0 0 223
0 0 227
0 0 228
0 0 223
0 0 223
0 0 224
0 0 224
0 0 212
0 0 217
0 0 220
0 0 226
0 0 220
0 0 223
0 0 214
0 0 207
0 0 203
0 0 203
0 0 201
0 0 194
0 0 191
0 0 207
0 0 184
0 0 194
0 0 182
0 0 182
0 0 186
0 0 163
0 0 151
0 0 147
0 0 149
0 0 128
0 0 122
0 0 105
0 0 80
0 0 44
64 0 0
47 0 0
90 0 0
112 0 0
124 0 0
121 0 0
142 0 0
135 0 0
153 0 0
153 0 0
167 0 0
155 0 0
162 0 0
172 0 0
166 0 0
155 0 0
169 0 0
160 0 0
180 0 0
177 0 0
194 0 0
180 0 0
175 0 0
193 0 0
186 0 0
196 0 0
181 0 0
189 0 0
191 0 0
189 0 0
191 0 0
185 0 0
206 0 0
187 0 0
192 0 0
188 0 0
196 0 0
205 0 0
200 0 0
191 0 0
195 0 0
199 0 0
203 0 0
197 0 0
209 0 0
201 0 0
200 0 0
207 0 0
198 0 0
210 0 0
212 0 0
212 0 0
210 0 0
207 0 0
203 0 0
209 0 0
196 0 0
203 0 0
211 0 0
214 0 0
207 0 0
214 0 0
212 0 0
211 0 0
211 0 0
211 0 0
210 0 0
209 0 0
207 0 0
211 0 0
218 0 0
206 0 0
216 0 0
214 0 0
210 0 0
212 0 0
208 0 0
215 0 0
213 0 0
211 0 0
214 0 0
215 0 0
206 0 0
215 0 0
211 0 0
214 0 0
215 0 0
221 0 0
212 0 0
212 0 0
210 0 0
207 0 0
217 0 0
212 0 0
221 0 0
216 0 0
217 0 0
207 0 0
209 0 0
219 0 0
217 0 0
213 0 0
210 0 0
219 0 0
214 0 0
206 0 0
215 0 0
216 0 0
216 0 0
219 0 0
215 0 0
219 0 0
213 0 0
222 0 0
221 0 0
217 0 0
218 0 0
220 0 0
221 0 0
214 0 0
216 0 0
222 0 0
216 0 0
217 0 0
222 0 0
217 0 0
219 0 0
216 0 0
218 0 0
221 0 0
226 0 0
219 0 0
222 0 0
221 0 0
220 0 0
218 0 0
220 0 0
218 0 0
219 0 0
218 0 0
213 0 0
220 0 0
217 0 0
220 0 0
218 0 0
217 0 0
217 0 0
219 0 0
219 0 0
219 0 0
218 0 0
220 0 0
220 0 0
219 0 0
217 0 0
221 0 0
219 0 0
219 0 0
222 0 0
219 0 0
221 0 0
223 0 0
216 0 0
220 0 0
220 0 0
222 0 0
224 0 0
220 0 0
222 0 0
214 0 0
218 0 0
220 0 0
221 0 0
219 0 0
222 0 0
221 0 0
220 0 0
218 0 0
221 0 0
222 0 0
223 0 0
223 0 0
225 0 0
225 0 0
222 0 0
226 0 0
218 0 0
222 0 0
216 0 0
222 0 0
217 0 0
225 0 0
220 0 0
218 0 0
220 0 0
219 0 0
221 0 0
221 0 0
220 0 0
220 0 0
0 0 253
0 0 255
0 0 254
0 0 253
0 0 255
0 0 254
0 0 254
0 0 255
0 0 254
0 0 255
0 0 255
0 0 254
0 0 254
0 0 255
0 0 253
0 0 254
0 0 255
0 0 255
0 0 252
0 0 253
0 0 255
0 0 254
0 0 254
0 0 255
0 0 255
0 0 254
0 0 254
0 0 250
0 0 253
0 0 253
0 0 252
0 0 254
0 0 253
0 0 254
0 0 254
0 0 253
0 0 255
0 0 254
0 0 255
0 0 254
0 0 253
0 0 255
0 0 253
0 0 254
0 0 253
0 0 254
0 0 255
0 0 255
0 0 254
0 0 250
0 0 254
0 0 252
0 0 253
0 0 255
0 0 254
0 0 254
0 0 254
0 0 253
0 0 254
0 0 254
0 0 254
0 0 253
0 0 252
0 0 253
0 0 255
0 0 255
0 0 252
0 0 254
0 0 250
0 0 250
0 0 248
0 0 249
0 0 253
0 0 252
0 0 250
0 0 248
0 0 250
0 0 250
0 0 254
0 0 253
0 0 250
0 0 250
0 0 252
0 0 249
0 0 250
0 0 252
0 0 245
0 0 254
0 0 252
0 0 252
0 0 252
0 0 248
0 0 249
0 0 253
0 0 246
0 0 249
0 0 249
0 0 249
0 0 252
0 0 252
0 0 253
0 0 244
0 0 250
0 0 250
0 0 249
0 0 250
0 0 250
0 0 249
0 0 252
0 0 241
0 0 244
0 0 244
0 0 249
0 0 242
0 0 253
0 0 244
0 0 246
0 0 245
0 0 246
0 0 250
0 0 246
0 0 245
0 0 248
0 0 242
0 0 242
0 0 245
0 0 248
0 0 244
0 0 246
0 0 240
0 0 241
0 0 237
0 0 240
0 0 240
0 0 241
0 0 238
0 0 242
0 0 234
0 0 248
0 0 242
0 0 248
0 0 245
0 0 231
0 0 238
0 0 237
0 0 233
0 0 244
0 0 234
0 0 231
0 0 236
0 0 240
0 0 238
0 0 234
0 0 234
0 0 237
0 0 233
0 0 223
0 0 237
0 0 234
0 0 237
0 0 228
0 0 231
0 0 221
0 0 238
0 0 228
0 0 227
0 0 221
0 0 223
0 0 227
0 0 223
0 0 223
0 0 217
0 0 228
0 0 206
0 0 199
0 0 214
0 0 227
0 0 209
0 0 221
0 0 207
0 0 204
0 0 206
0 0 201
0 0 199
0 0 186
0 0 191
0 0 193
0 0 199
0 0 184
0 0 175
0 0 177
0 0 155
0 0 177
0 0 157
0 0 133
0 0 130
0 0 147
0 0 105
0 0 62
0 0 36
66 40 44
67 0 0
95 0 0
79 0 0
140 0 0
129 0 0
138 0 0
148 0 0
148 0 0
171 0 0
147 0 0
167 0 0
158 0 0
158 0 0
163 0 0
156 0 0
169 0 0
184 0 0
170 0 0
161 0 0
183 0 0
182 0 0
174 0 0
190 0 0
192 0 0
188 0 0
196 0 0
189 0 0
202 0 0
195 0 0
196 0 0
194 0 0
189 0 0
208 0 0
192 0 0
201 0 0
193 0 0
202 0 0
193 0 0
194 0 0
194 0 0
202 0 0
211 0 0
202 0 0
201 0 0
202 0 0
202 0 0
215 0 0
206 0 0
209 0 0
203 0 0
202 0 0
210 0 0
200 0 0
202 0 0
204 0 0
207 0 0
212 0 0
215 0 0
203 0 0
210 0 0
204 0 0
198 0 0
214 0 0
213 0 0
213 0 0
214 0 0
213 0 0
215 0 0
210 0 0
207 0 0
207 0 0
212 0 0
217 0 0
213 0 0
213 0 0
212 0 0
211 0 0
211 0 0
212 0 0
212 0 0
217 0 0
210 0 0
216 0 0
211 0 0
218 0 0
218 0 0
213 0 0
213 0 0
212 0 0
218 0 0
212 0 0
213 0 0
211 0 0
215 0 0
218 0 0
217 0 0
217 0 0
217 0 0
218 0 0
224 0 0
217 0 0
217 0 0
223 0 0
210 0 0
219 0 0
211 0 0
217 0 0
217 0 0
213 0 0
217 0 0
220 0 0
220 0 0
219 0 0
218 0 0
221 0 0
218 0 0
221 0 0
219 0 0
217 0 0
216 0 0
214 0 0
218 0 0
220 0 0
219 0 0
218 0 0
217 0 0
220 0 0
219 0 0
222 0 0
218 0 0
211 0 0
220 0 0
220 0 0
223 0 0
216 0 0
219 0 0
219 0 0
216 0 0
219 0 0
219 0 0
222 0 0
217 0 0
223 0 0
216 0 0
220 0 0
216 0 0
221 0 0
218 0 0
222 0 0
222 0 0
222 0 0
220 0 0
217 0 0
219 0 0
217 0 0
222 0 0
219 0 0
220 0 0
222 0 0
219 0 0
216 0 0
219 0 0
220 0 0
219 0 0
223 0 0
219 0 0
220 0 0
217 0 0
220 0 0
222 0 0
218 0 0
220 0 0
223 0 0
218 0 0
221 0 0
220 0 0
222 0 0
220 0 0
217 0 0
219 0 0
220 0 0
223 0 0
214 0 0
222 0 0
219 0 0
220 0 0
223 0 0
221 0 0
218 0 0
219 0 0
221 0 0
222 0 0
218 0 0
221 0 0
222 0 0
221 0 0
220 0 0
222 0 0
222 0 0
0 0 255
0 0 255
0 0 254
0 0 255
0 0 255
0 0 255
0 0 255
0 0 255
0 0 254
0 0 255
0 0 253
0 0 255
0 0 255
0 0 254
0 0 255
0 0 255
0 0 254
0 0 255
0 0 254
0 0 255
0 0 254
0 0 255
0 0 254
0 0 255
0 0 255
0 0 254
0 0 254
0 0 254
0 0 254
0 0 255
0 0 255
0 0 255
0 0 255
0 0 254
0 0 253
0 0 254
0 0 255
0 0 253
0 0 254
0 0 254
0 0 252
0 0 253
0 0 253
0 0 250
0 0 255
0 0 254
0 0 254
0 0 255
0 0 255
0 0 254
0 0 253
0 0 253
0 0 249
0 0 255
0 0 254
0 0 254
0 0 249
0 0 254
0 0 253
0 0 252
0 0 254
0 0 253
0 0 254
0 0 253
0 0 253
0 0 250
0 0 252
0 0 254
0 0 253
0 0 249
0 0 253
0 0 252
0 0 254
0 0 250
0 0 254
0 0 246
0 0 252
0 0 253
0 0 255
0 0 253
0 0 252
0 0 253
0 0 252
0 0 248
0 0 249
0 0 250
0 0 254
0 0 249
0 0 244
0 0 254
0 0 250
0 0 253
0 0 250
0 0 252
0 0 248
0 0 253
0 0 249
0 0 254
0 0 254
0 0 253
0 0 246
0 0 253
0 0 240
0 0 242
0 0 248
0 0 245
0 0 244
0 0 249
0 0 248
0 0 252
0 0 248
0 0 248
0 0 249
0 0 250
0 0 250
0 0 245
0 0 246
0 0 248
0 0 246
0 0 240
0 0 248
0 0 246
0 0 246
0 0 241
0 0 242
0 0 244
0 0 242
0 0 245
0 0 248
0 0 244
0 0 241
0 0 248
0 0 238
0 0 246
0 0 240
0 0 240
0 0 240
0 0 238
0 0 241
0 0 240
0 0 236
0 0 234
0 0 233
0 0 238
0 0 241
0 0 230
0 0 244
0 0 236
0 0 240
0 0 237
0 0 240
0 0 233
0 0 233
0 0 248
0 0 236
0 0 237
0 0 234
0 0 237
0 0 228
0 0 231
0 0 231
0 0 227
0 0 231
0 0 230
0 0 227
0 0 227
0 0 228
0 0 223
0 0 217
0 0 226
0 0 226
0 0 227
0 0 217
0 0 223
0 0 209
0 0 214
0 0 223
0 0 194
0 0 215
0 0 221
0 0 212
0 0 199
0 0 198
0 0 194
0 0 193
0 0 179
0 0 189
0 0 193
0 0 167
0 0 173
0 0 173
0 0 161
0 0 163
0 0 147
0 0 147
0 0 135
0 0 130
0 0 92
0 0 80
70 74 95
77 62 67
72 0 0
107 0 0
130 0 0
99 0 0
123 0 0
138 0 0
141 0 0
140 0 0
151 0 0
157 0 0
169 0 0
175 0 0
156 0 0
162 0 0
168 0 0
164 0 0
161 0 0
180 0 0
187 0 0
172 0 0
182 0 0
185 0 0
186 0 0
198 0 0
195 0 0
185 0 0
188 0 0
192 0 0
199 0 0
184 0 0
186 0 0
201 0 0
200 0 0
196 0 0
196 0 0
206 0 0
205 0 0
206 0 0
197 0 0
203 0 0
204 0 0
204 0 0
201 0 0
207 0 0
202 0 0
200 0 0
204 0 0
212 0 0
208 0 0
200 0 0
209 0 0
204 0 0
209 0 0
204 0 0
203 0 0
212 0 0
206 0 0
202 0 0
205 0 0
215 0 0
208 0 0
218 0 0
212 0 0
209 0 0
215 0 0
208 0 0
207 0 0
208 0 0
215 0 0
210 0 0
208 0 0
213 0 0
208 0 0
216 0 0
214 0 0
207 0 0
215 0 0
218 0 0
220 0 0
210 0 0
220 0 0
210 0 0
212 0 0
211 0 0
213 0 0
219 0 0
210 0 0
214 0 0
213 0 0
213 0 0
214 0 0
220 0 0
212 0 0
215 0 0
220 0 0
219 0 0
217 0 0
214 0 0
218 0 0
215 0 0
215 0 0
221 0 0
211 0 0
215 0 0
225 0 0
209 0 0
222 0 0
217 0 0
218 0 0
218 0 0
215 0 0
218 0 0
215 0 0
218 0 0
220 0 0
217 0 0
219 0 0
218 0 0
217 0 0
221 0 0
219 0 0
219 0 0
221 0 0
219 0 0
215 0 0
218 0 0
214 0 0
219 0 0
215 0 0
217 0 0
219 0 0
217 0 0
221 0 0
219 0 0
223 0 0
217 0 0
214 0 0
220 0 0
218 0 0
216 0 0
223 0 0
222 0 0
220 0 0
221 0 0
218 0 0
217 0 0
219 0 0
219 0 0
216 0 0
220 0 0
219 0 0
218 0 0
218 0 0
222 0 0
215 0 0
219 0 0
213 0 0
221 0 0
219 0 0
219 0 0
221 0 0
220 0 0
217 0 0
219 0 0
221 0 0
220 0 0
223 0 0
221 0 0
220 0 0
224 0 0
221 0 0
222 0 0
223 0 0
224 0 0
217 0 0
218 0 0
222 0 0
222 0 0
220 0 0
225 0 0
222 0 0
221 0 0
220 0 0
221 0 0
220 0 0
219 0 0
221 0 0
225 0 0
220 0 0
220 0 0
220 0 0
222 0 0
216 0 0
225 0 0
225 0 0
218 0 0
220 0 0
223 0 0
221 0 0
0 0 253
0 0 254
0 0 255
0 0 254
0 0 254
0 0 254
0 0 254
0 0 255
0 0 255
0 0 255
0 0 255
0 0 255
0 0 255
0 0 254
0 0 255
0 0 255
0 0 254
0 0 255
0 0 255
0 0 254
0 0 254
0 0 255
0 0 255
0 0 255
0 0 255
0 0 253
0 0 255
0 0 255
0 0 254
0 0 252
0 0 255
0 0 253
0 0 252
0 0 253
0 0 254
0 0 255
0 0 253
0 0 253
0 0 254
0 0 254
0 0 252
0 0 254
0 0 254
0 0 253
0 0 253
0 0 254
0 0 253
0 0 255
0 0 255
0 0 254
0 0 255
0 0 255
0 0 252
0 0 252
0 0 253
0 0 249
0 0 254
0 0 252
0 0 253
0 0 253
0 0 253
0 0 252
0 0 253
0 0 253
0 0 250
0 0 255
0 0 254
0 0 254
0 0 253
0 0 249
0 0 252
0 0 254
0 0 249
0 0 252
0 0 249
0 0 255
0 0 253
0 0 252
0 0 252
0 0 246
0 0 254
0 0 252
0 0 252
0 0 253
0 0 249
0 0 253
0 0 250
0 0 252
0 0 254
0 0 253
0 0 248
0 0 249
0 0 252
0 0 249
0 0 249
0 0 245
0 0 250
0 0 253
0 0 250
0 0 245
0 0 246
0 0 255
0 0 254
0 0 248
0 0 245
0 0 246
0 0 252
0 0 249
0 0 248
0 0 249
0 0 250
0 0 246
0 0 246
0 0 249
0 0 250
0 0 246
0 0 246
0 0 248
0 0 248
0 0 244
0 0 248
0 0 242
0 0 244
0 0 244
0 0 242
0 0 245
0 0 238
0 0 245
0 0 245
0 0 248
0 0 237
0 0 244
0 0 244
0 0 238
0 0 250
0 0 249
0 0 244
0 0 244
0 0 234
0 0 241
0 0 242
0 0 246
0 0 245
0 0 226
0 0 238
0 0 246
0 0 241
0 0 234
0 0 230
0 0 228
0 0 240
0 0 238
0 0 237
0 0 236
0 0 226
0 0 217
0 0 236
0 0 230
0 0 237
0 0 234
0 0 231
0 0 227
0 0 233
0 0 230
0 0 231
0 0 221
0 0 231
0 0 223
0 0 221
0 0 221
0 0 228
0 0 215
0 0 221
0 0 221
0 0 217
0 0 212
0 0 217
0 0 204
0 0 211
0 0 201
0 0 206
0 0 207
0 0 204
0 0 204
0 0 194
0 0 193
0 0 194
0 0 196
0 0 193
0 0 171
0 0 169
0 0 151
0 0 147
0 0 161
0 0 147
0 0 135
0 0 125
0 0 114
0 0 88
89 94 114
85 74 80
72 0 0
75 0 0
127 0 0
104 0 0
139 0 0
135 0 0
138 0 0
147 0 0
160 0 0
153 0 0
160 0 0
166 0 0
163 0 0
186 0 0
160 0 0
178 0 0
174 0 0
179 0 0
188 0 0
180 0 0
191 0 0
183 0 0
188 0 0
172 0 0
189 0 0
192 0 0
178 0 0
195 0 0
190 0 0
195 0 0
182 0 0
189 0 0
193 0 0
197 0 0
192 0 0
196 0 0
203 0 0
198 0 0
197 0 0
206 0 0
208 0 0
205 0 0
207 0 0
197 0 0
209 0 0
209 0 0
202 0 0
212 0 0
200 0 0
206 0 0
205 0 0
210 0 0
214 0 0
202 0 0
211 0 0
207 0 0
201 0 0
212 0 0
208 0 0
209 0 0
210 0 0
211 0 0
209 0 0
209 0 0
214 0 0
217 0 0
206 0 0
215 0 0
218 0 0
214 0 0
214 0 0
222 0 0
210 0 0
211 0 0
215 0 0
213 0 0
211 0 0
211 0 0
215 0 0
216 0 0
216 0 0
208 0 0
210 0 0
219 0 0
216 0 0
216 0 0
213 0 0
212 0 0
212 0 0
216 0 0
219 0 0
215 0 0
215 0 0
214 0 0
220 0 0
221 0 0
215 0 0
215 0 0
221 0 0
216 0 0
220 0 0
217 0 0
216 0 0
218 0 0
215 0 0
212 0 0
220 0 0
219 0 0
213 0 0
215 0 0
215 0 0
216 0 0
212 0 0
220 0 0
221 0 0
216 0 0
216 0 0
223 0 0
222 0 0
219 0 0
221 0 0
224 0 0
214 0 0
219 0 0
217 0 0
211 0 0
218 0 0
221 0 0
217 0 0
212 0 0
215 0 0
223 0 0
212 0 0
218 0 0
218 0 0
221 0 0
215 0 0
217 0 0
221 0 0
221 0 0
216 0 0
223 0 0
225 0 0
224 0 0
215 0 0
217 0 0
220 0 0
219 0 0
217 0 0
217 0 0
221 0 0
216 0 0
217 0 0
223 0 0
220 0 0
219 0 0
216 0 0
220 0 0
219 0 0
222 0 0
222 0 0
220 0 0
218 0 0
222 0 0
224 0 0
218 0 0
218 0 0
220 0 0
216 0 0
221 0 0
219 0 0
222 0 0
221 0 0
218 0 0
217 0 0
222 0 0
220 0 0
220 0 0
222 0 0
222 0 0
222 0 0
220 0 0
219 0 0
221 0 0
223 0 0
221 0 0
217 0 0
220 0 0
221 0 0
220 0 0
221 0 0
221 0 0
222 0 0
224 0 0
222 0 0
220 0 0
223 0 0
219 0 0
222 0 0
0 0 253
0 0 254
0 0 255
0 0 255
0 0 254
0 0 254
0 0 252
0 0 255
0 0 254
0 0 253
0 0 255
0 0 254
0 0 255
0 0 254
0 0 254
0 0 254
0 0 254
0 0 253
0 0 255
0 0 254
0 0 255
0 0 255
0 0 252
0 0 254
0 0 255
0 0 254
0 0 254
0 0 254
0 0 254
0 0 255
0 0 254
0 0 255
0 0 254
0 0 254
0 0 254
0 0 253
0 0 253
0 0 253
0 0 255
0 0 254
0 0 253
0 0 254
0 0 255
0 0 254
0 0 254
0 0 254
0 0 253
0 0 254
0 0 253
0 0 253
0 0 253
0 0 255
0 0 250
0 0 252
0 0 255
0 0 253
0 0 253
0 0 252
0 0 250
0 0 252
0 0 254
0 0 254
0 0 253
0 0 254
0 0 253
0 0 250
0 0 254
0 0 250
0 0 255
0 0 249
0 0 253
0 0 255
0 0 249
0 0 245
0 0 249
0 0 255
0 0 249
0 0 252
0 0 250
0 0 253
0 0 253
0 0 250
0 0 252
0 0 250
0 0 248
0 0 248
0 0 250
0 0 249
0 0 248
0 0 245
0 0 250
0 0 252
0 0 246
0 0 249
0 0 250
0 0 249
0 0 250
0 0 253
0 0 252
0 0 250
0 0 249
0 0 252
0 0 248
0 0 248
0 0 248
0 0 253
0 0 242
0 0 246
0 0 250
0 0 248
0 0 248
0 0 249
0 0 246
0 0 241
0 0 246
0 0 245
0 0 248
0 0 240
0 0 246
0 0 245
0 0 242
0 0 241
0 0 241
0 0 244
0 0 242
0 0 244
0 0 241
0 0 248
0 0 244
0 0 246
0 0 242
0 0 250
0 0 241
0 0 246
0 0 244
0 0 238
0 0 244
0 0 252
0 0 242
0 0 238
0 0 246
0 0 236
0 0 246
0 0 242
0 0 233
0 0 238
0 0 230
0 0 242
0 0 233
0 0 237
0 0 236
0 0 244
0 0 224
0 0 236
0 0 228
0 0 231
0 0 227
0 0 226
0 0 236
0 0 236
0 0 224
0 0 231
0 0 234
0 0 236
0 0 231
0 0 221
0 0 231
0 0 224
0 0 209
0 0 221
0 0 223
0 0 218
0 0 215
0 0 224
0 0 211
0 0 212
0 0 206
0 0 217
0 0 211
0 0 212
0 0 215
0 0 212
0 0 203
0 0 218
0 0 191
0 0 199
0 0 191
0 0 189
0 0 173
0 0 179
0 0 173
0 0 171
0 0 167
0 0 157
0 0 133
0 0 151
0 0 133
0 0 111
0 0 80
94 100 114
95 97 105
79 0 0
88 0 0
108 0 0
112 0 0
127 0 0
140 0 0
132 0 0
156 0 0
156 0 0
164 0 0
156 0 0
178 0 0
176 0 0
166 0 0
179 0 0
163 0 0
177 0 0
174 0 0
170 0 0
191 0 0
176 0 0
182 0 0
190 0 0
192 0 0
186 0 0
185 0 0
196 0 0
194 0 0
191 0 0
200 0 0
192 0 0
207 0 0
197 0 0
194 0 0
194 0 0
192 0 0
198 0 0
199 0 0
196 0 0
204 0 0
199 0 0
206 0 0
209 0 0
207 0 0
201 0 0
208 0 0
200 0 0
204 0 0
192 0 0
196 0 0
212 0 0
200 0 0
212 0 0
215 0 0
198 0 0
202 0 0
212 0 0
202 0 0
210 0 0
209 0 0
208 0 0
206 0 0
205 0 0
212 0 0
217 0 0
212 0 0
211 0 0
210 0 0
209 0 0
213 0 0
207 0 0
212 0 0
213 0 0
217 0 0
209 0 0
217 0 0
207 0 0
216 0 0
214 0 0
216 0 0
210 0 0
208 0 0
215 0 0
219 0 0
217 0 0
211 0 0
218 0 0
220 0 0
214 0 0
220 0 0
219 0 0
216 0 0
208 0 0
217 0 0
217 0 0
214 0 0
220 0 0
217 0 0
214 0 0
216 0 0
219 0 0
221 0 0
220 0 0
217 0 0
216 0 0
216 0 0
219 0 0
217 0 0
222 0 0
213 0 0
222 0 0
215 0 0
215 0 0
217 0 0
218 0 0
215 0 0
221 0 0
216 0 0
222 0 0
218 0 0
211 0 0
218 0 0
224 0 0
218 0 0
219 0 0
215 0 0
219 0 0
218 0 0
217 0 0
219 0 0
222 0 0
222 0 0
223 0 0
221 0 0
220 0 0
220 0 0
223 0 0
222 0 0
217 0 0
219 0 0
221 0 0
220 0 0
217 0 0
219 0 0
220 0 0
219 0 0
216 0 0
218 0 0
219 0 0
216 0 0
220 0 0
222 0 0
223 0 0
217 0 0
221 0 0
222 0 0
219 0 0
217 0 0
221 0 0
215 0 0
219 0 0
222 0 0
223 0 0
218 0 0
222 0 0
218 0 0
219 0 0
223 0 0
219 0 0
220 0 0
220 0 0
220 0 0
221 0 0
221 0 0
218 0 0
219 0 0
219 0 0
222 0 0
220 0 0
223 0 0
222 0 0
218 0 0
222 0 0
224 0 0
220 0 0
220 0 0
222 0 0
222 0 0
221 0 0
219 0 0
219 0 0
219 0 0
218 0 0
222 0 0
221 0 0
221 0 0
221 0 0
221 0 0
220 0 0
0 0 255
0 0 254
0 0 255
0 0 255
0 0 254
0 0 255
0 0 254
0 0 254
0 0 254
0 0 255
0 0 255
0 0 253
0 0 255
0 0 255
0 0 254
0 0 255
0 0 255
0 0 255
0 0 255
0 0 253
0 0 252
0 0 254
0 0 254
0 0 255
0 0 254
0 0 254
0 0 253
0 0 255
0 0 255
0 0 254
0 0 255
0 0 255
0 0 253
0 0 255
0 0 254
0 0 253
0 0 253
0 0 255
0 0 252
0 0 252
0 0 254
0 0 254
0 0 255
0 0 254
0 0 250
0 0 253
0 0 255
0 0 254
0 0 252
0 0 254
0 0 252
0 0 254
0 0 252
0 0 255
0 0 252
0 0 254
0 0 254
0 0 253
0 0 254
0 0 253
0 0 253
0 0 249
0 0 253
0 0 252
0 0 254
0 0 254
0 0 254
0 0 254
0 0 254
0 0 245
0 0 254
0 0 250
0 0 255
0 0 252
0 0 253
0 0 253
0 0 254
0 0 254
0 0 253
0 0 253
0 0 252
0 0 254
0 0 252
0 0 249
0 0 249
0 0 252
0 0 249
0 0 254
0 0 253
0 0 252
0 0 248
0 0 250
0 0 253
0 0 252
0 0 248
0 0 246
0 0 250
0 0 245
0 0 245
0 0 254
0 0 248
0 0 254
0 0 253
0 0 249
0 0 246
0 0 252
0 0 250
0 0 252
0 0 253
0 0 249
0 0 246
0 0 245
0 0 242
0 0 254
0 0 249
0 0 246
0 0 246
0 0 245
0 0 241
0 0 244
0 0 253
0 0 244
0 0 246
0 0 249
0 0 244
0 0 249
0 0 246
0 0 249
0 0 240
0 0 244
0 0 244
0 0 250
0 0 240
0 0 248
0 0 230
0 0 237
0 0 245
0 0 240
0 0 237
0 0 226
0 0 237
0 0 234
0 0 245
0 0 244
0 0 233
0 0 249
0 0 233
0 0 236
0 0 233
0 0 234
0 0 241
0 0 231
0 0 231
0 0 245
0 0 237
0 0 240
0 0 244
0 0 236
0 0 228
0 0 240
0 0 238
0 0 237
0 0 231
0 0 223
0 0 230
0 0 221
0 0 217
0 0 221
0 0 215
0 0 218
0 0 220
0 0 214
0 0 224
0 0 214
0 0 223
0 0 228
0 0 215
0 0 212
0 0 215
0 0 218
0 0 207
0 0 198
0 0 194
0 0 199
0 0 191
0 0 199
0 0 184
0 0 194
0 0 186
0 0 193
0 0 186
0 0 163
0 0 173
0 0 140
0 0 163
0 0 133
0 0 117
0 0 122
0 0 76
94 100 117
106 106 114
73 0 0
81 0 0
116 0 0
124 0 0
130 0 0
133 0 0
152 0 0
147 0 0
143 0 0
163 0 0
171 0 0
155 0 0
174 0 0
169 0 0
163 0 0
173 0 0
184 0 0
173 0 0
170 0 0
181 0 0
184 0 0
178 0 0
190 0 0
193 0 0
185 0 0
203 0 0
180 0 0
197 0 0
191 0 0
200 0 0
199 0 0
192 0 0
189 0 0
199 0 0
200 0 0
202 0 0
202 0 0
203 0 0
214 0 0
192 0 0
210 0 0
202 0 0
199 0 0
211 0 0
207 0 0
208 0 0
205 0 0
200 0 0
207 0 0
209 0 0
212 0 0
204 0 0
209 0 0
215 0 0
209 0 0
201 0 0
205 0 0
205 0 0
208 0 0
210 0 0
212 0 0
215 0 0
213 0 0
209 0 0
207 0 0
210 0 0
216 0 0
215 0 0
211 0 0
212 0 0
215 0 0
212 0 0
215 0 0
215 0 0
217 0 0
213 0 0
214 0 0
209 0 0
209 0 0
209 0 0
217 0 0
219 0 0
216 0 0
213 0 0
215 0 0
215 0 0
208 0 0
218 0 0
219 0 0
211 0 0
214 0 0
212 0 0
212 0 0
219 0 0
208 0 0
208 0 0
218 0 0
219 0 0
218 0 0
216 0 0
218 0 0
217 0 0
218 0 0
210 0 0
215 0 0
220 0 0
221 0 0
215 0 0
217 0 0
217 0 0
217 0 0
219 0 0
220 0 0
214 0 0
212 0 0
219 0 0
216 0 0
219 0 0
219 0 0
213 0 0
215 0 0
221 0 0
219 0 0
219 0 0
217 0 0
221 0 0
220 0 0
221 0 0
217 0 0
218 0 0
220 0 0
219 0 0
218 0 0
216 0 0
218 0 0
220 0 0
219 0 0
220 0 0
218 0 0
220 0 0
218 0 0
218 0 0
218 0 0
217 0 0
218 0 0
219 0 0
222 0 0
219 0 0
220 0 0
220 0 0
215 0 0
218 0 0
218 0 0
220 0 0
221 0 0
220 0 0
220 0 0
223 0 0
221 0 0
218 0 0
219 0 0
223 0 0
217 0 0
219 0 0
222 0 0
220 0 0
220 0 0
220 0 0
224 0 0
220 0 0
218 0 0
223 0 0
225 0 0
224 0 0
222 0 0
223 0 0
222 0 0
223 0 0
218 0 0
223 0 0
222 0 0
220 0 0
221 0 0
223 0 0
223 0 0
222 0 0
218 0 0
220 0 0
222 0 0
219 0 0
219 0 0
221 0 0
223 0 0
224 0 0
223 0 0
221 0 0
225 0 0
222 0 0
218 0 0
0 0 255
0 0 255
0 0 254
0 0 254
0 0 255
0 0 254
0 0 253
0 0 254
0 0 255
0 0 253
0 0 255
0 0 254
0 0 255
0 0 255
0 0 255
0 0 255
0 0 253
0 0 255
0 0 255
0 0 253
0 0 254
0 0 255
0 0 253
0 0 254
0 0 255
0 0 254
0 0 254
0 0 254
0 0 255
0 0 255
0 0 255
0 0 254
0 0 255
0 0 254
0 0 252
0 0 255
0 0 253
0 0 254
0 0 253
0 0 254
0 0 255
0 0 254
0 0 253
0 0 253
0 0 252
0 0 253
0 0 254
0 0 254
0 0 254
0 0 255
0 0 253
0 0 254
0 0 254
0 0 250
0 0 254
0 0 255
0 0 252
0 0 254
0 0 253
0 0 253
0 0 253
0 0 254
0 0 255
0 0 252
0 0 252
0 0 254
0 0 254
0 0 254
0 0 253
0 0 253
0 0 252
0 0 250
0 0 252
0 0 249
0 0 250
0 0 249
0 0 253
0 0 250
0 0 252
0 0 250
0 0 249
0 0 250
0 0 250
0 0 253
0 0 252
0 0 252
0 0 250
0 0 248
0 0 249
0 0 253
0 0 252
0 0 252
0 0 254
0 0 248
0 0 249
0 0 249
0 0 253
0 0 248
0 0 250
0 0 248
0 0 245
0 0 245
0 0 250
0 0 248
0 0 248
0 0 250
0 0 252
0 0 246
0 0 242
0 0 245
0 0 246
0 0 248
0 0 253
0 0 248
0 0 244
0 0 245
0 0 248
0 0 244
0 0 240
0 0 244
0 0 241
0 0 246
0 0 248
0 0 244
0 0 249
0 0 241
0 0 246
0 0 240
0 0 249
0 0 248
0 0 246
0 0 244
0 0 244
0 0 248
0 0 249
0 0 242
0 0 246
0 0 242
0 0 240
0 0 238
0 0 242
0 0 234
0 0 242
0 0 240
0 0 242
0 0 228
0 0 236
0 0 242
0 0 236
0 0 238
0 0 234
0 0 236
0 0 234
0 0 234
0 0 238
0 0 237
0 0 234
0 0 224
0 0 236
0 0 223
0 0 230
0 0 234
0 0 228
0 0 227
0 0 227
0 0 223
0 0 240
0 0 227
0 0 209
0 0 230
0 0 221
0 0 211
0 0 217
0 0 218
0 0 215
0 0 206
0 0 217
0 0 206
0 0 212
0 0 211
0 0 215
0 0 189
0 0 193
0 0 206
0 0 196
0 0 191
0 0 189
0 0 198
0 0 182
0 0 181
0 0 169
0 0 175
0 0 167
0 0 175
0 0 151
0 0 133
0 0 114
0 0 122
0 0 72
118 125 142
135 136 147
77 0 0
105 0 0
124 0 0
112 0 0
139 0 0
124 0 0
138 0 0
154 0 0
150 0 0
152 0 0
151 0 0
158 0 0
172 0 0
171 0 0
162 0 0
170 0 0
159 0 0
181 0 0
186 0 0
167 0 0
175 0 0
179 0 0
199 0 0
191 0 0
191 0 0
184 0 0
190 0 0
196 0 0
192 0 0
200 0 0
196 0 0
203 0 0
193 0 0
198 0 0
193 0 0
194 0 0
199 0 0
195 0 0
210 0 0
200 0 0
201 0 0
203 0 0
207 0 0
210 0 0
197 0 0
210 0 0
207 0 0
209 0 0
205 0 0
207 0 0
206 0 0
200 0 0
200 0 0
207 0 0
208 0 0
206 0 0
209 0 0
205 0 0
210 0 0
210 0 0
214 0 0
214 0 0
204 0 0
201 0 0
211 0 0
205 0 0
212 0 0
215 0 0
213 0 0
212 0 0
210 0 0
214 0 0
203 0 0
211 0 0
210 0 0
218 0 0
213 0 0
219 0 0
214 0 0
210 0 0
213 0 0
216 0 0
216 0 0
215 0 0
210 0 0
214 0 0
214 0 0
213 0 0
218 0 0
216 0 0
216 0 0
219 0 0
210 0 0
211 0 0
219 0 0
216 0 0
218 0 0
221 0 0
219 0 0
220 0 0
215 0 0
218 0 0
221 0 0
216 0 0
217 0 0
220 0 0
214 0 0
219 0 0
222 0 0
216 0 0
214 0 0
215 0 0
215 0 0
220 0 0
214 0 0
216 0 0
218 0 0
219 0 0
215 0 0
216 0 0
221 0 0
221 0 0
216 0 0
222 0 0
216 0 0
223 0 0
222 0 0
219 0 0
223 0 0
222 0 0
223 0 0
222 0 0
218 0 0
221 0 0
222 0 0
212 0 0
218 0 0
222 0 0
219 0 0
218 0 0
222 0 0
219 0 0
219 0 0
220 0 0
216 0 0
216 0 0
216 0 0
217 0 0
217 0 0
219 0 0
220 0 0
218 0 0
218 0 0
223 0 0
220 0 0
218 0 0
220 0 0
218 0 0
219 0 0
216 0 0
216 0 0
223 0 0
218 0 0
225 0 0
220 0 0
222 0 0
219 0 0
220 0 0
223 0 0
219 0 0
218 0 0
222 0 0
218 0 0
222 0 0
220 0 0
220 0 0
217 0 0
221 0 0
219 0 0
218 0 0
222 0 0
222 0 0
222 0 0
224 0 0
223 0 0
222 0 0
224 0 0
223 0 0
220 0 0
223 0 0
219 0 0
218 0 0
222 0 0
219 0 0
226 0 0
219 0 0
221 0 0
225 0 0
222 0 0
0 0 255
0 0 255
0 0 255
0 0 254
0 0 255
0 0 254
0 0 254
0 0 255
0 0 255
0 0 255
0 0 255
0 0 255
0 0 253
0 0 255
0 0 255
0 0 255
0 0 255
0 0 255
0 0 254
0 0 253
0 0 253
0 0 255
0 0 254
0 0 255
0 0 255
0 0 253
0 0 254
0 0 255
0 0 254
0 0 254
0 0 254
0 0 255
0 0 255
0 0 254
0 0 254
0 0 253
0 0 254
0 0 255
0 0 255
0 0 253
0 0 254
0 0 253
0 0 254
0 0 255
0 0 249
0 0 250
0 0 255
0 0 254
0 0 255
0 0 252
0 0 254
0 0 254
0 0 254
0 0 254
0 0 250
0 0 253
0 0 252
0 0 255
0 0 250
0 0 250
0 0 253
0 0 255
0 0 252
0 0 252
0 0 253
0 0 253
0 0 250
0 0 248
0 0 255
0 0 254
0 0 253
0 0 252
0 0 252
0 0 254
0 0 253
0 0 253
0 0 254
0 0 254
0 0 250
0 0 253
0 0 253
0 0 249
0 0 253
0 0 255
0 0 254
0 0 250
0 0 250
0 0 253
0 0 250
0 0 250
0 0 249
0 0 244
0 0 250
0 0 250
0 0 248
0 0 252
0 0 242
0 0 253
0 0 249
0 0 250
0 0 241
0 0 250
0 0 252
0 0 248
0 0 246
0 0 249
0 0 248
0 0 249
0 0 250
0 0 249
0 0 248
0 0 250
0 0 244
0 0 244
0 0 248
0 0 249
0 0 242
0 0 246
0 0 245
0 0 242
0 0 250
0 0 246
0 0 242
0 0 248
0 0 245
0 0 244
0 0 245
0 0 246
0 0 242
0 0 248
0 0 241
0 0 253
0 0 245
0 0 242
0 0 246
0 0 241
0 0 240
0 0 244
0 0 248
0 0 244
0 0 238
0 0 233
0 0 241
0 0 240
0 0 244
0 0 228
0 0 234
0 0 234
0 0 233
0 0 237
0 0 237
0 0 237
0 0 237
0 0 244
0 0 236
0 0 238
0 0 240
0 0 233
0 0 227
0 0 237
0 0 230
0 0 231
0 0 234
0 0 233
0 0 223
0 0 233
0 0 217
0 0 227
0 0 220
0 0 227
0 0 215
0 0 220
0 0 217
0 0 217
0 0 221
0 0 203
0 0 211
0 0 211
0 0 207
0 0 209
0 0 196
0 0 199
0 0 206
0 0 184
0 0 188
0 0 191
0 0 193
0 0 181
0 0 179
0 0 179
0 0 173
0 0 163
0 0 147
0 0 163
0 0 130
0 0 155
0 0 114
0 0 133
0 0 84
134 142 165
150 155 167
90 0 0
104 0 0
105 0 0
126 0 0
140 0 0
142 0 0
153 0 0
147 0 0
152 0 0
149 0 0
167 0 0
161 0 0
156 0 0
168 0 0
167 0 0
174 0 0
169 0 0
177 0 0
179 0 0
172 0 0
190 0 0
171 0 0
190 0 0
184 0 0
198 0 0
195 0 0
187 0 0
195 0 0
182 0 0
194 0 0
197 0 0
195 0 0
199 0 0
202 0 0
199 0 0
199 0 0
198 0 0
203 0 0
192 0 0
195 0 0
203 0 0
201 0 0
204 0 0
200 0 0
196 0 0
199 0 0
200 0 0
202 0 0
202 0 0
217 0 0
202 0 0
204 0 0
205 0 0
208 0 0
206 0 0
212 0 0
201 0 0
210 0 0
218 0 0
208 0 0
210 0 0
217 0 0
209 0 0
208 0 0
210 0 0
210 0 0
217 0 0
220 0 0
213 0 0
215 0 0
209 0 0
213 0 0
212 0 0
215 0 0
209 0 0
217 0 0
212 0 0
222 0 0
212 0 0
216 0 0
217 0 0
213 0 0
207 0 0
213 0 0
209 0 0
219 0 0
216 0 0
211 0 0
216 0 0
217 0 0
220 0 0
218 0 0
216 0 0
216 0 0
218 0 0
216 0 0
215 0 0
215 0 0
217 0 0
214 0 0
225 0 0
218 0 0
220 0 0
219 0 0
216 0 0
216 0 0
217 0 0
219 0 0
213 0 0
220 0 0
220 0 0
219 0 0
217 0 0
221 0 0
220 0 0
221 0 0
217 0 0
224 0 0
224 0 0
219 0 0
215 0 0
215 0 0
216 0 0
218 0 0
218 0 0
222 0 0
218 0 0
215 0 0
218 0 0
224 0 0
218 0 0
219 0 0
216 0 0
220 0 0
216 0 0
217 0 0
220 0 0
218 0 0
223 0 0
220 0 0
223 0 0
217 0 0
218 0 0
221 0 0
219 0 0
222 0 0
221 0 0
222 0 0
220 0 0
212 0 0
222 0 0
219 0 0
220 0 0
222 0 0
225 0 0
218 0 0
220 0 0
220 0 0
221 0 0
221 0 0
223 0 0
220 0 0
220 0 0
217 0 0
222 0 0
224 0 0
220 0 0
217 0 0
218 0 0
216 0 0
219 0 0
220 0 0
220 0 0
224 0 0
221 0 0
221 0 0
221 0 0
221 0 0
218 0 0
219 0 0
221 0 0
225 0 0
221 0 0
224 0 0
219 0 0
219 0 0
223 0 0
219 0 0
221 0 0
220 0 0
218 0 0
227 0 0
222 0 0
218 0 0
224 0 0
222 0 0
222 0 0
225 0 0
222 0 0
0 0 254
0 0 255
0 0 255
0 0 255
0 0 254
0 0 255
0 0 254
0 0 255
0 0 253
0 0 254
0 0 255
0 0 255
0 0 255
0 0 253
0 0 254
0 0 253
0 0 255
0 0 255
0 0 253
0 0 255
0 0 255
0 0 255
0 0 255
0 0 255
0 0 255
0 0 254
0 0 255
0 0 254
0 0 254
0 0 255
0 0 254
0 0 255
0 0 253
0 0 250
0 0 254
0 0 254
0 0 253
0 0 254
0 0 254
0 0 252
0 0 255
0 0 250
0 0 254
0 0 253
0 0 254
0 0 254
0 0 255
0 0 254
0 0 253
0 0 253
0 0 255
0 0 254
0 0 254
0 0 253
0 0 253
0 0 252
0 0 254
0 0 255
0 0 252
0 0 252
0 0 253
0 0 254
0 0 250
0 0 254
0 0 252
0 0 250
0 0 249
0 0 250
0 0 254
0 0 252
0 0 253
0 0 250
0 0 252
0 0 254
0 0 253
0 0 252
0 0 249
0 0 253
0 0 254
0 0 250
0 0 250
0 0 253
0 0 250
0 0 252
0 0 250
0 0 254
0 0 252
0 0 249
0 0 249
0 0 248
0 0 249
0 0 245
0 0 250
0 0 250
0 0 249
0 0 252
0 0 252
0 0 253
0 0 252
0 0 250
0 0 249
0 0 246
0 0 244
0 0 250
0 0 249
0 0 250
0 0 252
0 0 248
0 0 246
0 0 250
0 0 245
0 0 246
0 0 244
0 0 252
0 0 248
0 0 245
0 0 245
0 0 242
0 0 249
0 0 253
0 0 240
0 0 242
0 0 242
0 0 249
0 0 237
0 0 250
0 0 246
0 0 240
0 0 249
0 0 242
0 0 250
0 0 241
0 0 245
0 0 246
0 0 237
0 0 250
0 0 238
0 0 237
0 0 240
0 0 234
0 0 241
0 0 242
0 0 238
0 0 237
0 0 238
0 0 242
0 0 240
0 0 244
0 0 230
0 0 241
0 0 241
0 0 238
0 0 227
0 0 245
0 0 241
0 0 242
0 0 234
0 0 224
0 0 234
0 0 234
0 0 221
0 0 228
0 0 231
0 0 227
0 0 230
0 0 234
0 0 223
0 0 233
0 0 223
0 0 221
0 0 218
0 0 217
0 0 218
0 0 209
0 0 217
0 0 206
0 0 220
0 0 212
0 0 206
0 0 204
0 0 203
0 0 207
0 0 214
0 0 204
0 0 206
0 0 196
0 0 189
0 0 163
0 0 188
0 0 186
0 0 194
0 0 181
0 0 157
0 0 153
0 0 149
0 0 149
0 0 122
0 0 111
0 0 84
166 176 189
166 174 188
70 0 0
105 0 0
112 0 0
129 0 0
118 0 0
120 0 0
149 0 0
159 0 0
158 0 0
163 0 0
160 0 0
152 0 0
178 0 0
171 0 0
172 0 0
164 0 0
181 0 0
193 0 0
182 0 0
179 0 0
172 0 0
191 0 0
187 0 0
181 0 0
194 0 0
183 0 0
184 0 0
191 0 0
201 0 0
202 0 0
200 0 0
196 0 0
208 0 0
199 0 0
198 0 0
193 0 0
206 0 0
204 0 0
206 0 0
198 0 0
209 0 0
203 0 0
200 0 0
211 0 0
211 0 0
212 0 0
209 0 0
212 0 0
206 0 0
210 0 0
211 0 0
209 0 0
209 0 0
204 0 0
214 0 0
207 0 0
211 0 0
212 0 0
202 0 0
209 0 0
213 0 0
214 0 0
214 0 0
205 0 0
209 0 0
204 0 0
210 0 0
209 0 0
211 0 0
212 0 0
214 0 0
214 0 0
213 0 0
216 0 0
211 0 0
214 0 0
216 0 0
206 0 0
215 0 0
207 0 0
213 0 0
206 0 0
220 0 0
212 0 0
216 0 0
214 0 0
217 0 0
211 0 0
213 0 0
217 0 0
219 0 0
216 0 0
208 0 0
216 0 0
218 0 0
217 0 0
214 0 0
220 0 0
221 0 0
213 0 0
218 0 0
220 0 0
216 0 0
223 0 0
221 0 0
221 0 0
221 0 0
216 0 0
218 0 0
217 0 0
214 0 0
212 0 0
224 0 0
219 0 0
214 0 0
213 0 0
219 0 0
218 0 0
216 0 0
219 0 0
218 0 0
220 0 0
218 0 0
217 0 0
218 0 0
216 0 0
225 0 0
218 0 0
216 0 0
218 0 0
219 0 0
221 0 0
222 0 0
217 0 0
222 0 0
217 0 0
222 0 0
219 0 0
218 0 0
221 0 0
215 0 0
223 0 0
221 0 0
223 0 0
221 0 0
215 0 0
222 0 0
221 0 0
221 0 0
219 0 0
220 0 0
218 0 0
220 0 0
225 0 0
222 0 0
218 0 0
223 0 0
223 0 0
224 0 0
223 0 0
225 0 0
222 0 0
219 0 0
223 0 0
219 0 0
219 0 0
220 0 0
217 0 0
220 0 0
218 0 0
220 0 0
221 0 0
219 0 0
220 0 0
222 0 0
224 0 0
220 0 0
219 0 0
220 0 0
220 0 0
222 0 0
220 0 0
221 0 0
225 0 0
221 0 0
222 0 0
222 0 0
221 0 0
222 0 0
221 0 0
219 0 0
224 0 0
222 0 0
222 0 0
219 0 0
221 0 0
221 0 0
222 0 0
220 0 0
0 0 254
0 0 254
0 0 255
0 0 254
0 0 254
0 0 255
0 0 255
0 0 255
0 0 254
0 0 255
0 0 255
0 0 254
0 0 255
0 0 255
0 0 255
0 0 255
0 0 255
0 0 255
0 0 255
0 0 249
0 0 253
0 0 255
0 0 254
0 0 253
0 0 254
0 0 254
0 0 255
0 0 253
0 0 253
0 0 254
0 0 255
0 0 253
0 0 253
0 0 255
0 0 253
0 0 253
0 0 255
0 0 253
0 0 250
0 0 255
0 0 252
0 0 254
0 0 253
0 0 254
0 0 253
0 0 255
0 0 252
0 0 253
0 0 253
0 0 252
0 0 253
0 0 253
0 0 255
0 0 252
0 0 254
0 0 253
0 0 254
0 0 252
0 0 253
0 0 250
0 0 252
0 0 254
0 0 253
0 0 253
0 0 254
0 0 253
0 0 248
0 0 253
0 0 254
0 0 249
0 0 253
0 0 250
0 0 253
0 0 250
0 0 249
0 0 254
0 0 249
0 0 254
0 0 249
0 0 250
0 0 253
0 0 253
0 0 253
0 0 253
0 0 252
0 0 253
0 0 253
0 0 253
0 0 248
0 0 248
0 0 253
0 0 252
0 0 250
0 0 250
0 0 249
0 0 253
0 0 252
0 0 250
0 0 250
0 0 249
0 0 250
0 0 246
0 0 248
0 0 246
0 0 248
0 0 252
0 0 248
0 0 250
0 0 244
0 0 248
0 0 242
0 0 250
0 0 246
0 0 244
0 0 248
0 0 246
0 0 245
0 0 241
0 0 249
0 0 248
0 0 246
0 0 249
0 0 248
0 0 241
0 0 250
0 0 248
0 0 249
0 0 246
0 0 248
0 0 250
0 0 245
0 0 238
0 0 244
0 0 233
0 0 248
0 0 241
0 0 238
0 0 237
0 0 245
0 0 245
0 0 248
0 0 228
0 0 249
0 0 240
0 0 241
0 0 236
0 0 242
0 0 241
0 0 240
0 0 242
0 0 245
0 0 241
0 0 236
0 0 240
0 0 227
0 0 234
0 0 224
0 0 233
0 0 228
0 0 226
0 0 228
0 0 224
0 0 236
0 0 226
0 0 233
0 0 231
0 0 230
0 0 224
0 0 227
0 0 231
0 0 226
0 0 223
0 0 217
0 0 220
0 0 211
0 0 226
0 0 214
0 0 211
0 0 214
0 0 218
0 0 211
0 0 199
0 0 209
0 0 198
0 0 196
0 0 177
0 0 188
0 0 193
0 0 186
0 0 175
0 0 169
0 0 167
0 0 165
0 0 157
0 0 151
0 0 157
0 0 114
0 0 111
0 0 76
192 203 218
183 187 201
77 0 0
91 0 0
134 0 0
129 0 0
120 0 0
146 0 0
148 0 0
139 0 0
155 0 0
156 0 0
170 0 0
182 0 0
165 0 0
172 0 0
168 0 0
173 0 0
172 0 0
181 0 0
170 0 0
183 0 0
190 0 0
179 0 0
191 0 0
175 0 0
180 0 0
188 0 0
194 0 0
192 0 0
203 0 0
190 0 0
198 0 0
185 0 0
203 0 0
198 0 0
194 0 0
200 0 0
205 0 0
199 0 0
209 0 0
207 0 0
208 0 0
199 0 0
208 0 0
204 0 0
202 0 0
212 0 0
199 0 0
210 0 0
208 0 0
209 0 0
209 0 0
206 0 0
207 0 0
218 0 0
211 0 0
206 0 0
206 0 0
208 0 0
214 0 0
215 0 0
208 0 0
203 0 0
207 0 0
211 0 0
211 0 0
218 0 0
209 0 0
215 0 0
212 0 0
212 0 0
209 0 0
217 0 0
212 0 0
212 0 0
215 0 0
216 0 0
215 0 0
216 0 0
212 0 0
215 0 0
215 0 0
213 0 0
219 0 0
219 0 0
208 0 0
215 0 0
215 0 0
211 0 0
219 0 0
219 0 0
216 0 0
217 0 0
219 0 0
212 0 0
215 0 0
213 0 0
214 0 0
214 0 0
215 0 0
210 0 0
217 0 0
221 0 0
218 0 0
214 0 0
219 0 0
217 0 0
211 0 0
217 0 0
220 0 0
213 0 0
217 0 0
218 0 0
219 0 0
221 0 0
215 0 0
214 0 0
216 0 0
220 0 0
221 0 0
217 0 0
219 0 0
219 0 0
222 0 0
220 0 0
221 0 0
218 0 0
217 0 0
217 0 0
221 0 0
221 0 0
222 0 0
217 0 0
221 0 0
219 0 0
220 0 0
218 0 0
221 0 0
224 0 0
222 0 0
221 0 0
220 0 0
222 0 0
222 0 0
222 0 0
218 0 0
219 0 0
223 0 0
225 0 0
221 0 0
218 0 0
220 0 0
225 0 0
220 0 0
222 0 0
220 0 0
221 0 0
221 0 0
218 0 0
216 0 0
223 0 0
219 0 0
223 0 0
223 0 0
221 0 0
223 0 0
223 0 0
220 0 0
219 0 0
224 0 0
222 0 0
222 0 0
218 0 0
220 0 0
218 0 0
226 0 0
218 0 0
220 0 0
223 0 0
221 0 0
220 0 0
223 0 0
221 0 0
223 0 0
224 0 0
221 0 0
221 0 0
217 0 0
221 0 0
222 0 0
219 0 0
220 0 0
218 0 0
224 0 0
221 0 0
220 0 0
223 0 0
220 0 0
219 0 0
219 0 0
0 0 255
0 0 255
0 0 255
0 0 255
0 0 255
0 0 255
0 0 253
0 0 255
0 0 255
0 0 255
0 0 254
0 0 252
0 0 255
0 0 254
0 0 253
0 0 255
0 0 254
0 0 254
0 0 255
0 0 255
0 0 253
0 0 255
0 0 254
0 0 255
0 0 253
0 0 255
0 0 253
0 0 253
0 0 255
0 0 255
0 0 255
0 0 253
0 0 255
0 0 255
0 0 255
0 0 254
0 0 254
0 0 255
0 0 255
0 0 254
0 0 255
0 0 254
0 0 255
0 0 252
0 0 252
0 0 254
0 0 255
0 0 252
0 0 250
0 0 252
0 0 250
0 0 254
0 0 254
0 0 255
0 0 253
0 0 253
0 0 248
0 0 253
0 0 250
0 0 250
0 0 252
0 0 252
0 0 254
0 0 252
0 0 250
0 0 255
0 0 252
0 0 255
0 0 254
0 0 252
0 0 253
0 0 252
0 0 250
0 0 252
0 0 253
0 0 250
0 0 249
0 0 249
0 0 253
0 0 245
0 0 254
0 0 253
0 0 250
0 0 252
0 0 252
0 0 250
0 0 250
0 0 248
0 0 249
0 0 250
0 0 253
0 0 253
0 0 253
0 0 248
0 0 246
0 0 250
0 0 245
0 0 252
0 0 242
0 0 254
0 0 252
0 0 246
0 0 246
0 0 246
0 0 249
0 0 249
0 0 250
0 0 250
0 0 248
0 0 249
0 0 242
0 0 250
0 0 245
0 0 249
0 0 248
0 0 250
0 0 242
0 0 248
0 0 249
0 0 242
0 0 245
0 0 249
0 0 240
0 0 244
0 0 245
0 0 245
0 0 246
0 0 242
0 0 245
0 0 248
0 0 241
0 0 241
0 0 241
0 0 246
0 0 238
0 0 233
0 0 245
0 0 249
0 0 242
0 0 244
0 0 249
0 0 241
0 0 234
0 0 231
0 0 231
0 0 238
0 0 234
0 0 237
0 0 242
0 0 231
0 0 233
0 0 230
0 0 238
0 0 231
0 0 238
0 0 234
0 0 236
0 0 227
0 0 231
0 0 236
0 0 240
0 0 226
0 0 234
0 0 231
0 0 233
0 0 233
0 0 224
0 0 218
0 0 218
0 0 221
0 0 224
0 0 217
0 0 217
0 0 220
0 0 211
0 0 217
0 0 230
0 0 211
0 0 212
0 0 214
0 0 201
0 0 193
0 0 203
0 0 199
0 0 194
0 0 177
0 0 194
0 0 186
0 0 182
0 0 194
0 0 173
0 0 165
0 0 155
0 0 137
0 0 128
0 0 128
0 0 125
0 0 130
0 0 67
184 194 212
192 196 211
94 0 0
126 0 0
98 0 0
129 0 0
139 0 0
138 0 0
154 0 0
155 0 0
155 0 0
158 0 0
138 0 0
166 0 0
167 0 0
180 0 0
170 0 0
172 0 0
184 0 0
185 0 0
189 0 0
189 0 0
184 0 0
184 0 0
188 0 0
192 0 0
188 0 0
185 0 0
189 0 0
184 0 0
195 0 0
193 0 0
200 0 0
201 0 0
196 0 0
206 0 0
208 0 0
195 0 0
190 0 0
187 0 0
200 0 0
201 0 0
207 0 0
203 0 0
201 0 0
206 0 0
211 0 0
210 0 0
219 0 0
200 0 0
210 0 0
212 0 0
205 0 0
212 0 0
201 0 0
207 0 0
208 0 0
208 0 0
211 0 0
212 0 0
211 0 0
204 0 0
213 0 0
211 0 0
214 0 0
213 0 0
209 0 0
211 0 0
210 0 0
208 0 0
206 0 0
219 0 0
210 0 0
211 0 0
216 0 0
211 0 0
216 0 0
216 0 0
216 0 0
218 0 0
213 0 0
213 0 0
210 0 0
213 0 0
209 0 0
219 0 0
218 0 0
218 0 0
214 0 0
209 0 0
218 0 0
219 0 0
214 0 0
214 0 0
218 0 0
222 0 0
220 0 0
220 0 0
218 0 0
217 0 0
220 0 0
213 0 0
218 0 0
219 0 0
219 0 0
218 0 0
219 0 0
219 0 0
218 0 0
217 0 0
219 0 0
216 0 0
222 0 0
222 0 0
221 0 0
221 0 0
219 0 0
218 0 0
222 0 0
215 0 0
217 0 0
224 0 0
220 0 0
223 0 0
216 0 0
214 0 0
217 0 0
223 0 0
216 0 0
220 0 0
222 0 0
225 0 0
218 0 0
227 0 0
219 0 0
218 0 0
223 0 0
221 0 0
221 0 0
217 0 0
222 0 0
222 0 0
223 0 0
218 0 0
220 0 0
219 0 0
221 0 0
221 0 0
225 0 0
218 0 0
219 0 0
220 0 0
219 0 0
220 0 0
221 0 0
224 0 0
216 0 0
220 0 0
220 0 0
218 0 0
219 0 0
219 0 0
223 0 0
223 0 0
219 0 0
221 0 0
224 0 0
218 0 0
222 0 0
217 0 0
223 0 0
221 0 0
220 0 0
217 0 0
221 0 0
220 0 0
218 0 0
223 0 0
221 0 0
222 0 0
222 0 0
223 0 0
219 0 0
222 0 0
216 0 0
221 0 0
222 0 0
221 0 0
224 0 0
218 0 0
222 0 0
221 0 0
219 0 0
222 0 0
222 0 0
223 0 0
219 0 0
219 0 0
221 0 0
226 0 0
220 0 0
0 0 255
0 0 255
0 0 255
0 0 255
0 0 254
0 0 255
0 0 252
0 0 253
0 0 254
0 0 255
0 0 254
0 0 254
0 0 255
0 0 254
0 0 255
0 0 254
0 0 254
0 0 253
0 0 255
0 0 255
0 0 255
0 0 254
0 0 255
0 0 255
0 0 254
0 0 252
0 0 254
0 0 250
0 0 253
0 0 254
0 0 255
0 0 254
0 0 254
0 0 252
0 0 253
0 0 253
0 0 254
0 0 254
0 0 254
0 0 254
0 0 254
0 0 250
0 0 255
0 0 253
0 0 254
0 0 254
0 0 255
0 0 254
0 0 255
0 0 255
0 0 250
0 0 254
0 0 254
0 0 254
0 0 255
0 0 254
0 0 255
0 0 254
0 0 253
0 0 253
0 0 253
0 0 255
0 0 254
0 0 253
0 0 254
0 0 252
0 0 255
0 0 253
0 0 252
0 0 253
0 0 249
0 0 250
0 0 253
0 0 253
0 0 253
0 0 253
0 0 252
0 0 253
0 0 253
0 0 254
0 0 254
0 0 250
0 0 253
0 0 250
0 0 254
0 0 253
0 0 250
0 0 254
0 0 252
0 0 249
0 0 249
0 0 245
0 0 250
0 0 244
0 0 248
0 0 252
0 0 250
0 0 253
0 0 245
0 0 249
0 0 250
0 0 249
0 0 252
0 0 246
0 0 246
0 0 248
0 0 246
0 0 249
0 0 248
0 0 255
0 0 249
0 0 248
0 0 245
0 0 248
0 0 250
0 0 238
0 0 244
0 0 246
0 0 249
0 0 242
0 0 245
0 0 252
0 0 242
0 0 246
0 0 246
0 0 246
0 0 236
0 0 246
0 0 246
0 0 244
0 0 245
0 0 244
0 0 240
0 0 240
0 0 244
0 0 242
0 0 242
0 0 242
0 0 245
0 0 242
0 0 244
0 0 240
0 0 241
0 0 231
0 0 227
0 0 244
0 0 236
0 0 228
0 0 230
0 0 238
0 0 233
0 0 236
0 0 242
0 0 234
0 0 227
0 0 230
0 0 241
0 0 227
0 0 228
0 0 242
0 0 227
0 0 230
0 0 236
0 0 230
0 0 226
0 0 233
0 0 228
0 0 236
0 0 223
0 0 230
0 0 218
0 0 220
0 0 218
0 0 218
0 0 209
0 0 217
0 0 203
0 0 221
0 0 215
0 0 207
0 0 198
0 0 209
0 0 206
0 0 189
0 0 198
0 0 194
0 0 198
0 0 191
0 0 188
0 0 181
0 0 191
0 0 175
0 0 157
0 0 157
0 0 161
0 0 125
0 0 108
0 0 108
0 0 95
217 229 248
220 232 249
86 0 0
94 0 0
93 0 0
120 0 0
146 0 0
147 0 0
154 0 0
147 0 0
152 0 0
168 0 0
160 0 0
175 0 0
165 0 0
178 0 0
159 0 0
178 0 0
176 0 0
171 0 0
176 0 0
187 0 0
166 0 0
186 0 0
174 0 0
192 0 0
189 0 0
184 0 0
189 0 0
190 0 0
187 0 0
194 0 0
190 0 0
202 0 0
207 0 0
202 0 0
203 0 0
211 0 0
204 0 0
203 0 0
207 0 0
206 0 0
197 0 0
204 0 0
199 0 0
207 0 0
209 0 0
210 0 0
205 0 0
203 0 0
203 0 0
206 0 0
207 0 0
209 0 0
200 0 0
211 0 0
213 0 0
207 0 0
205 0 0
209 0 0
210 0 0
209 0 0
208 0 0
211 0 0
212 0 0
218 0 0
207 0 0
213 0 0
208 0 0
214 0 0
218 0 0
212 0 0
211 0 0
207 0 0
212 0 0
210 0 0
219 0 0
216 0 0
211 0 0
218 0 0
216 0 0
214 0 0
213 0 0
213 0 0
221 0 0
216 0 0
218 0 0
216 0 0
215 0 0
220 0 0
217 0 0
210 0 0
213 0 0
217 0 0
214 0 0
219 0 0
222 0 0
215 0 0
217 0 0
221 0 0
217 0 0
219 0 0
211 0 0
218 0 0
216 0 0
218 0 0
219 0 0
218 0 0
223 0 0
216 0 0
218 0 0
222 0 0
218 0 0
222 0 0
219 0 0
222 0 0
218 0 0
210 0 0
220 0 0
219 0 0
217 0 0
225 0 0
218 0 0
220 0 0
221 0 0
222 0 0
222 0 0
222 0 0
217 0 0
219 0 0
220 0 0
219 0 0
219 0 0
219 0 0
220 0 0
214 0 0
218 0 0
220 0 0
223 0 0
221 0 0
219 0 0
223 0 0
221 0 0
221 0 0
220 0 0
219 0 0
222 0 0
219 0 0
216 0 0
221 0 0
218 0 0
219 0 0
221 0 0
221 0 0
217 0 0
219 0 0
218 0 0
224 0 0
221 0 0
221 0 0
221 0 0
219 0 0
217 0 0
221 0 0
220 0 0
222 0 0
221 0 0
220 0 0
222 0 0
224 0 0
222 0 0
220 0 0
222 0 0
218 0 0
221 0 0
223 0 0
220 0 0
219 0 0
223 0 0
223 0 0
219 0 0
220 0 0
220 0 0
222 0 0
222 0 0
221 0 0
226 0 0
219 0 0
219 0 0
219 0 0
222 0 0
223 0 0
220 0 0
221 0 0
224 0 0
219 0 0
222 0 0
221 0 0
223 0 0
222 0 0
220 0 0
0 0 255
0 0 255
0 0 254
0 0 255
0 0 255
0 0 254
0 0 254
0 0 255
0 0 255
0 0 254
0 0 255
0 0 253
0 0 255
0 0 255
0 0 255
0 0 255
0 0 255
0 0 255
0 0 255
0 0 255
0 0 255
0 0 253
0 0 255
0 0 255
0 0 255
0 0 254
0 0 254
0 0 254
0 0 255
0 0 255
0 0 250
0 0 255
0 0 254
0 0 255
0 0 255
0 0 254
0 0 253
0 0 255
0 0 254
0 0 253
0 0 255
0 0 252
0 0 254
0 0 253
0 0 254
0 0 253
0 0 253
0 0 253
0 0 255
0 0 254
0 0 253
0 0 254
0 0 252
0 0 255
0 0 253
0 0 252
0 0 252
0 0 255
0 0 254
0 0 253
0 0 252
0 0 248
0 0 253
0 0 253
0 0 253
0 0 252
0 0 255
0 0 253
0 0 254
0 0 253
0 0 253
0 0 254
0 0 250
0 0 254
0 0 253
0 0 254
0 0 255
0 0 249
0 0 253
0 0 253
0 0 253
0 0 253
0 0 254
0 0 253
0 0 255
0 0 253
0 0 252
0 0 250
0 0 249
0 0 250
0 0 253
0 0 249
0 0 249
0 0 248
0 0 242
0 0 246
0 0 253
0 0 250
0 0 253
0 0 250
0 0 250
0 0 248
0 0 253
0 0 255
0 0 245
0 0 250
0 0 249
0 0 241
0 0 252
0 0 248
0 0 248
0 0 249
0 0 252
0 0 248
0 0 252
0 0 245
0 0 245
0 0 246
0 0 249
0 0 246
0 0 246
0 0 250
0 0 249
0 0 240
0 0 240
0 0 241
0 0 248
0 0 242
0 0 241
0 0 246
0 0 244
0 0 234
0 0 248
0 0 242
0 0 241
0 0 246
0 0 242
0 0 250
0 0 245
0 0 228
0 0 244
0 0 238
0 0 236
0 0 240
0 0 237
0 0 234
0 0 245
0 0 237
0 0 245
0 0 236
0 0 249
0 0 236
0 0 236
0 0 227
0 0 231
0 0 233
0 0 237
0 0 228
0 0 237
0 0 234
0 0 224
0 0 227
0 0 215
0 0 228
0 0 226
0 0 230
0 0 228
0 0 228
0 0 218
0 0 217
0 0 215
0 0 209
0 0 226
0 0 211
0 0 218
0 0 206
0 0 204
0 0 201
0 0 206
0 0 211
0 0 204
0 0 199
0 0 207
0 0 206
0 0 179
0 0 191
0 0 193
0 0 186
0 0 165
0 0 177
0 0 177
0 0 177
0 0 165
0 0 157
0 0 144
0 0 151
0 0 142
0 0 95
67 71 111
225 238 255
225 238 255
102 53 57
91 0 0
100 0 0
118 0 0
139 0 0
150 0 0
154 0 0
144 0 0
147 0 0
163 0 0
166 0 0
165 0 0
168 0 0
165 0 0
171 0 0
176 0 0
185 0 0
169 0 0
187 0 0
181 0 0
177 0 0
182 0 0
193 0 0
195 0 0
189 0 0
190 0 0
186 0 0
190 0 0
197 0 0
202 0 0
192 0 0
203 0 0
198 0 0
209 0 0
201 0 0
200 0 0
208 0 0
198 0 0
198 0 0
195 0 0
204 0 0
201 0 0
198 0 0
207 0 0
199 0 0
208 0 0
208 0 0
204 0 0
205 0 0
213 0 0
205 0 0
208 0 0
208 0 0
212 0 0
212 0 0
214 0 0
205 0 0
211 0 0
207 0 0
211 0 0
211 0 0
208 0 0
208 0 0
202 0 0
214 0 0
214 0 0
215 0 0
214 0 0
217 0 0
216 0 0
220 0 0
215 0 0
215 0 0
218 0 0
215 0 0
214 0 0
212 0 0
222 0 0
221 0 0
224 0 0
215 0 0
217 0 0
212 0 0
213 0 0
215 0 0
217 0 0
220 0 0
217 0 0
217 0 0
219 0 0
217 0 0
214 0 0
213 0 0
211 0 0
216 0 0
217 0 0
214 0 0
215 0 0
217 0 0
215 0 0
221 0 0
217 0 0
225 0 0
220 0 0
216 0 0
215 0 0
216 0 0
223 0 0
214 0 0
214 0 0
221 0 0
223 0 0
218 0 0
224 0 0
213 0 0
217 0 0
222 0 0
216 0 0
219 0 0
217 0 0
220 0 0
220 0 0
221 0 0
221 0 0
217 0 0
214 0 0
223 0 0
220 0 0
218 0 0
221 0 0
220 0 0
219 0 0
220 0 0
220 0 0
221 0 0
222 0 0
216 0 0
221 0 0
222 0 0
218 0 0
218 0 0
223 0 0
223 0 0
218 0 0
218 0 0
222 0 0
222 0 0
222 0 0
221 0 0
217 0 0
221 0 0
218 0 0
226 0 0
222 0 0
224 0 0
220 0 0
221 0 0
224 0 0
221 0 0
219 0 0
217 0 0
219 0 0
220 0 0
222 0 0
222 0 0
218 0 0
222 0 0
220 0 0
223 0 0
222 0 0
224 0 0
223 0 0
222 0 0
220 0 0
225 0 0
220 0 0
226 0 0
224 0 0
221 0 0
219 0 0
219 0 0
223 0 0
220 0 0
221 0 0
222 0 0
223 0 0
220 0 0
222 0 0
225 0 0
218 0 0
224 0 0
223 0 0
223 0 0
223 0 0
222 0 0
221 0 0
223 0 0
218 0 0
224 0 0
0 0 255
0 0 255
0 0 255
0 0 255
0 0 255
0 0 254
0 0 255
0 0 255
0 0 254
0 0 254
0 0 253
0 0 255
0 0 255
0 0 253
0 0 255
0 0 255
0 0 255
0 0 255
0 0 254
0 0 254
0 0 255
0 0 254
0 0 254
0 0 253
0 0 255
0 0 253
0 0 254
0 0 254
0 0 254
0 0 253
0 0 254
0 0 254
0 0 255
0 0 253
0 0 255
0 0 254
0 0 253
0 0 255
0 0 254
0 0 254
0 0 255
0 0 255
0 0 254
0 0 253
0 0 255
0 0 254
0 0 255
0 0 254
0 0 254
0 0 253
0 0 254
0 0 253
0 0 254
0 0 255
0 0 254
0 0 253
0 0 248
0 0 253
0 0 254
0 0 254
0 0 252
0 0 250
0 0 254
0 0 253
0 0 253
0 0 252
0 0 253
0 0 254
0 0 250
0 0 255
0 0 254
0 0 252
0 0 254
0 0 250
0 0 252
0 0 255
0 0 253
0 0 249
0 0 250
0 0 252
0 0 252
0 0 254
0 0 252
0 0 245
0 0 249
0 0 252
0 0 253
0 0 254
0 0 249
0 0 246
0 0 252
0 0 252
0 0 250
0 0 252
0 0 253
0 0 250
0 0 253
0 0 248
0 0 245
0 0 249
0 0 246
0 0 252
0 0 252
0 0 252
0 0 253
0 0 250
0 0 250
0 0 245
0 0 248
0 0 250
0 0 246
0 0 252
0 0 249
0 0 246
0 0 246
0 0 249
0 0 252
0 0 248
0 0 248
0 0 245
0 0 244
0 0 252
0 0 246
0 0 246
0 0 252
0 0 245
0 0 245
0 0 248
0 0 244
0 0 244
0 0 246
0 0 245
0 0 242
0 0 241
0 0 244
0 0 236
0 0 244
0 0 240
0 0 238
0 0 241
0 0 241
0 0 238
0 0 237
0 0 231
0 0 234
0 0 245
0 0 236
0 0 240
0 0 241
0 0 240
0 0 236
0 0 241
0 0 233
0 0 221
0 0 237
0 0 227
0 0 233
0 0 238
0 0 228
0 0 218
0 0 234
0 0 238
0 0 234
0 0 240
0 0 218
0 0 231
0 0 234
0 0 231
0 0 223
0 0 223
0 0 221
0 0 217
0 0 220
0 0 230
0 0 221
0 0 220
0 0 217
0 0 211
0 0 214
0 0 214
0 0 203
0 0 204
0 0 207
0 0 198
0 0 191
0 0 179
0 0 188
0 0 186
0 0 182
0 0 194
0 0 175
0 0 153
0 0 157
0 0 163
0 0 133
0 0 125
0 0 133
0 0 128
106 111 137
226 238 255
226 238 255
141 109 117
90 0 0
116 0 0
119 0 0
135 0 0
141 0 0
155 0 0
141 0 0
142 0 0
165 0 0
163 0 0
165 0 0
171 0 0
167 0 0
156 0 0
176 0 0
179 0 0
170 0 0
182 0 0
198 0 0
185 0 0
191 0 0
179 0 0
190 0 0
201 0 0
183 0 0
195 0 0
205 0 0
196 0 0
191 0 0
205 0 0
204 0 0
202 0 0
191 0 0
200 0 0
207 0 0
199 0 0
196 0 0
201 0 0
208 0 0
193 0 0
205 0 0
204 0 0
206 0 0
198 0 0
203 0 0
211 0 0
203 0 0
205 0 0
212 0 0
209 0 0
210 0 0
204 0 0
204 0 0
209 0 0
206 0 0
213 0 0
213 0 0
214 0 0
208 0 0
210 0 0
212 0 0
212 0 0
213 0 0
206 0 0
218 0 0
199 0 0
214 0 0
221 0 0
216 0 0
208 0 0
217 0 0
212 0 0
208 0 0
217 0 0
210 0 0
209 0 0
212 0 0
217 0 0
216 0 0
213 0 0
220 0 0
216 0 0
220 0 0
213 0 0
212 0 0
216 0 0
218 0 0
222 0 0
222 0 0
214 0 0
216 0 0
222 0 0
216 0 0
218 0 0
220 0 0
220 0 0
214 0 0
215 0 0
221 0 0
222 0 0
224 0 0
222 0 0
214 0 0
216 0 0
220 0 0
219 0 0
216 0 0
219 0 0
217 0 0
214 0 0
221 0 0
218 0 0
220 0 0
220 0 0
216 0 0
221 0 0
221 0 0
221 0 0
220 0 0
218 0 0
219 0 0
216 0 0
215 0 0
219 0 0
219 0 0
216 0 0
215 0 0
217 0 0
224 0 0
212 0 0
220 0 0
223 0 0
221 0 0
220 0 0
220 0 0
221 0 0
223 0 0
222 0 0
219 0 0
220 0 0
217 0 0
217 0 0
219 0 0
218 0 0
224 0 0
220 0 0
220 0 0
221 0 0
222 0 0
223 0 0
223 0 0
220 0 0
225 0 0
221 0 0
221 0 0
220 0 0
221 0 0
218 0 0
221 0 0
224 0 0
222 0 0
222 0 0
224 0 0
219 0 0
222 0 0
222 0 0
227 0 0
220 0 0
221 0 0
220 0 0
221 0 0
221 0 0
219 0 0
222 0 0
222 0 0
221 0 0
222 0 0
221 0 0
219 0 0
222 0 0
226 0 0
222 0 0
224 0 0
221 0 0
221 0 0
220 0 0
224 0 0
224 0 0
225 0 0
222 0 0
223 0 0
225 0 0
219 0 0
222 0 0
222 0 0
221 0 0
221 0 0
223 0 0
0 0 255
0 0 255
0 0 254
0 0 255
0 0 254
0 0 255
0 0 254
0 0 254
0 0 255
0 0 255
0 0 255
0 0 254
0 0 255
0 0 255
0 0 254
0 0 254
0 0 255
0 0 255
0 0 254
0 0 253
0 0 255
0 0 255
0 0 253
0 0 255
0 0 254
0 0 254
0 0 253
0 0 254
0 0 255
0 0 252
0 0 254
0 0 254
0 0 255
0 0 253
0 0 255
0 0 255
0 0 253
0 0 255
0 0 253
0 0 254
0 0 255
0 0 252
0 0 255
0 0 254
0 0 250
0 0 252
0 0 255
0 0 248
0 0 255
0 0 253
0 0 254
0 0 252
0 0 253
0 0 252
0 0 249
0 0 254
0 0 253
0 0 253
0 0 252
0 0 249
0 0 249
0 0 253
0 0 253
0 0 252
0 0 254
0 0 253
0 0 249
0 0 254
0 0 253
0 0 248
0 0 250
0 0 252
0 0 253
0 0 255
0 0 253
0 0 250
0 0 250
0 0 248
0 0 254
0 0 253
0 0 252
0 0 250
0 0 252
0 0 255
0 0 248
0 0 248
0 0 250
0 0 250
0 0 249
0 0 253
0 0 248
0 0 250
0 0 253
0 0 252
0 0 249
0 0 250
0 0 253
0 0 250
0 0 246
0 0 250
0 0 248
0 0 252
0 0 248
0 0 250
0 0 253
0 0 240
0 0 240
0 0 250
0 0 245
0 0 253
0 0 249
0 0 252
0 0 249
0 0 249
0 0 253
0 0 250
0 0 246
0 0 248
0 0 246
0 0 244
0 0 248
0 0 242
0 0 248
0 0 246
0 0 246
0 0 244
0 0 244
0 0 242
0 0 245
0 0 241
0 0 240
0 0 250
0 0 246
0 0 237
0 0 248
0 0 240
0 0 242
0 0 245
0 0 244
0 0 244
0 0 240
0 0 233
0 0 238
0 0 237
0 0 236
0 0 237
0 0 242
0 0 234
0 0 240
0 0 240
0 0 241
0 0 231
0 0 238
0 0 230
0 0 233
0 0 231
0 0 234
0 0 228
0 0 234
0 0 233
0 0 236
0 0 233
0 0 223
0 0 224
0 0 215
0 0 227
0 0 224
0 0 214
0 0 220
0 0 203
0 0 207
0 0 218
0 0 218
0 0 218
0 0 218
0 0 211
0 0 209
0 0 204
0 0 217
0 0 207
0 0 201
0 0 203
0 0 204
0 0 198
0 0 207
0 0 186
0 0 201
0 0 181
0 0 179
0 0 179
0 0 167
0 0 163
0 0 159
0 0 171
0 0 149
0 0 128
0 0 120
0 0 111
155 163 194
226 238 255
226 238 255
168 161 173
97 0 0
104 0 0
112 0 0
140 0 0
150 0 0
134 0 0
145 0 0
164 0 0
153 0 0
174 0 0
160 0 0
179 0 0
173 0 0
181 0 0
182 0 0
183 0 0
169 0 0
193 0 0
187 0 0
174 0 0
187 0 0
195 0 0
187 0 0
194 0 0
203 0 0
189 0 0
194 0 0
196 0 0
190 0 0
196 0 0
198 0 0
196 0 0
202 0 0
195 0 0
208 0 0
205 0 0
193 0 0
204 0 0
213 0 0
201 0 0
199 0 0
203 0 0
206 0 0
207 0 0
209 0 0
208 0 0
200 0 0
215 0 0
202 0 0
210 0 0
203 0 0
214 0 0
207 0 0
205 0 0
212 0 0
209 0 0
212 0 0
207 0 0
211 0 0
206 0 0
215 0 0
211 0 0
213 0 0
213 0 0
212 0 0
211 0 0
211 0 0
211 0 0
213 0 0
213 0 0
213 0 0
223 0 0
213 0 0
215 0 0
208 0 0
217 0 0
217 0 0
217 0 0
215 0 0
206 0 0
214 0 0
220 0 0
222 0 0
218 0 0
218 0 0
217 0 0
215 0 0
217 0 0
207 0 0
219 0 0
217 0 0
219 0 0
217 0 0
220 0 0
215 0 0
215 0 0
215 0 0
222 0 0
221 0 0
217 0 0
215 0 0
215 0 0
216 0 0
220 0 0
218 0 0
215 0 0
218 0 0
223 0 0
224 0 0
219 0 0
217 0 0
217 0 0
215 0 0
211 0 0
220 0 0
219 0 0
222 0 0
219 0 0
216 0 0
221 0 0
217 0 0
222 0 0
223 0 0
218 0 0
223 0 0
222 0 0
218 0 0
219 0 0
217 0 0
223 0 0
223 0 0
219 0 0
220 0 0
219 0 0
221 0 0
218 0 0
220 0 0
224 0 0
221 0 0
222 0 0
222 0 0
222 0 0
226 0 0
222 0 0
222 0 0
224 0 0
222 0 0
220 0 0
220 0 0
214 0 0
224 0 0
222 0 0
223 0 0
221 0 0
223 0 0
224 0 0
223 0 0
220 0 0
220 0 0
220 0 0
224 0 0
220 0 0
220 0 0
218 0 0
222 0 0
224 0 0
220 0 0
223 0 0
223 0 0
218 0 0
219 0 0
223 0 0
224 0 0
223 0 0
221 0 0
221 0 0
223 0 0
223 0 0
223 0 0
222 0 0
223 0 0
221 0 0
219 0 0
223 0 0
222 0 0
221 0 0
223 0 0
222 0 0
224 0 0
222 0 0
227 0 0
225 0 0
219 0 0
222 0 0
221 0 0
219 0 0
223 0 0
223 0 0
0 0 255
0 0 254
0 0 255
0 0 254
0 0 255
0 0 255
0 0 255
0 0 253
0 0 255
0 0 255
0 0 255
0 0 254
0 0 254
0 0 254
0 0 255
0 0 253
0 0 255
0 0 255
0 0 254
0 0 254
0 0 254
0 0 255
0 0 254
0 0 254
0 0 255
0 0 255
0 0 254
0 0 253
0 0 254
0 0 255
0 0 255
0 0 254
0 0 253
0 0 255
0 0 254
0 0 255
0 0 253
0 0 253
0 0 253
0 0 253
0 0 250
0 0 254
0 0 252
0 0 252
0 0 254
0 0 254
0 0 254
0 0 253
0 0 255
0 0 253
0 0 254
0 0 255
0 0 255
0 0 254
0 0 255
0 0 255
0 0 254
0 0 253
0 0 252
0 0 254
0 0 252
0 0 253
0 0 252
0 0 253
0 0 252
0 0 253
0 0 253
0 0 250
0 0 253
0 0 253
0 0 250
0 0 254
0 0 250
0 0 255
0 0 255
0 0 254
0 0 255
0 0 250
0 0 248
0 0 250
0 0 250
0 0 252
0 0 252
0 0 249
0 0 246
0 0 252
0 0 253
0 0 252
0 0 250
0 0 253
0 0 252
0 0 249
0 0 252
0 0 250
0 0 253
0 0 250
0 0 255
0 0 249
0 0 250
0 0 246
0 0 250
0 0 245
0 0 249
0 0 246
0 0 249
0 0 252
0 0 250
0 0 246
0 0 250
0 0 245
0 0 253
0 0 249
0 0 248
0 0 245
0 0 248
0 0 242
0 0 250
0 0 246
0 0 249
0 0 249
0 0 254
0 0 241
0 0 250
0 0 249
0 0 249
0 0 246
0 0 240
0 0 241
0 0 242
0 0 249
0 0 242
0 0 245
0 0 241
0 0 245
0 0 242
0 0 246
0 0 241
0 0 238
0 0 236
0 0 242
0 0 231
0 0 244
0 0 241
0 0 244
0 0 248
0 0 240
0 0 238
0 0 240
0 0 228
0 0 234
0 0 234
0 0 234
0 0 237
0 0 240
0 0 228
0 0 227
0 0 234
0 0 237
0 0 241
0 0 220
0 0 233
0 0 228
0 0 215
0 0 231
0 0 233
0 0 221
0 0 220
0 0 214
0 0 211
0 0 227
0 0 217
0 0 221
0 0 214
0 0 221
0 0 218
0 0 218
0 0 215
0 0 211
0 0 215
0 0 198
0 0 206
0 0 194
0 0 214
0 0 196
0 0 201
0 0 204
0 0 191
0 0 184
0 0 196
0 0 177
0 0 181
0 0 179
0 0 167
0 0 165
0 0 140
0 0 142
0 0 128
0 0 128
181 191 212
226 238 255
226 238 255
196 195 209
95 0 0
126 0 0
123 0 0
122 0 0
132 0 0
152 0 0
156 0 0
150 0 0
154 0 0
160 0 0
167 0 0
160 0 0
187 0 0
180 0 0
173 0 0
183 0 0
182 0 0
198 0 0
193 0 0
186 0 0
181 0 0
192 0 0
199 0 0
199 0 0
193 0 0
209 0 0
200 0 0
200 0 0
202 0 0
197 0 0
197 0 0
198 0 0
208 0 0
189 0 0
207 0 0
197 0 0
188 0 0
205 0 0
200 0 0
206 0 0
215 0 0
206 0 0
209 0 0
202 0 0
208 0 0
200 0 0
200 0 0
209 0 0
207 0 0
204 0 0
202 0 0
211 0 0
211 0 0
204 0 0
212 0 0
209 0 0
208 0 0
207 0 0
218 0 0
213 0 0
211 0 0
213 0 0
204 0 0
215 0 0
209 0 0
213 0 0
211 0 0
212 0 0
218 0 0
212 0 0
218 0 0
209 0 0
221 0 0
218 0 0
219 0 0
213 0 0
221 0 0
217 0 0
222 0 0
213 0 0
207 0 0
217 0 0
219 0 0
221 0 0
216 0 0
219 0 0
220 0 0
216 0 0
218 0 0
215 0 0
216 0 0
211 0 0
219 0 0
218 0 0
213 0 0
216 0 0
212 0 0
215 0 0
219 0 0
220 0 0
224 0 0
218 0 0
215 0 0
215 0 0
217 0 0
208 0 0
218 0 0
216 0 0
217 0 0
223 0 0
216 0 0
216 0 0
218 0 0
217 0 0
221 0 0
219 0 0
224 0 0
220 0 0
222 0 0
219 0 0
221 0 0
221 0 0
224 0 0
219 0 0
222 0 0
221 0 0
220 0 0
223 0 0
220 0 0
218 0 0
218 0 0
223 0 0
224 0 0
222 0 0
223 0 0
222 0 0
223 0 0
224 0 0
220 0 0
225 0 0
223 0 0
218 0 0
225 0 0
222 0 0
216 0 0
220 0 0
226 0 0
219 0 0
223 0 0
220 0 0
228 0 0
221 0 0
222 0 0
224 0 0
221 0 0
223 0 0
225 0 0
221 0 0
223 0 0
222 0 0
220 0 0
218 0 0
222 0 0
221 0 0
221 0 0
220 0 0
225 0 0
224 0 0
225 0 0
220 0 0
221 0 0
223 0 0
220 0 0
223 0 0
224 0 0
220 0 0
223 0 0
223 0 0
226 0 0
222 0 0
223 0 0
225 0 0
217 0 0
220 0 0
221 0 0
220 0 0
221 0 0
221 0 0
226 0 0
223 0 0
221 0 0
217 0 0
221 0 0
219 0 0
224 0 0
222 0 0
222 0 0
221 0 0
0 0 255
0 0 255
0 0 255
0 0 255
0 0 255
0 0 253
0 0 254
0 0 255
0 0 255
0 0 254
0 0 255
0 0 255
0 0 254
0 0 255
0 0 254
0 0 254
0 0 253
0 0 255
0 0 255
0 0 254
0 0 255
0 0 254
0 0 252
0 0 253
0 0 255
0 0 254
0 0 254
0 0 252
0 0 255
0 0 255
0 0 255
0 0 254
0 0 252
0 0 252
0 0 254
0 0 254
0 0 255
0 0 254
0 0 255
0 0 254
0 0 254
0 0 254
0 0 255
0 0 254
0 0 253
0 0 253
0 0 253
0 0 254
0 0 255
0 0 253
0 0 253
0 0 254
0 0 253
0 0 255
0 0 254
0 0 254
0 0 250
0 0 255
0 0 254
0 0 253
0 0 254
0 0 253
0 0 252
0 0 252
0 0 250
0 0 252
0 0 253
0 0 250
0 0 253
0 0 253
0 0 254
0 0 252
0 0 252
0 0 252
0 0 250
0 0 250
0 0 252
0 0 250
0 0 253
0 0 252
0 0 249
0 0 252
0 0 248
0 0 246
0 0 250
0 0 252
0 0 255
0 0 249
0 0 250
0 0 250
0 0 245
0 0 250
0 0 245
0 0 254
0 0 252
0 0 253
0 0 249
0 0 250
0 0 248
0 0 244
0 0 253
0 0 237
0 0 253
0 0 252
0 0 248
0 0 249
0 0 246
0 0 242
0 0 253
0 0 248
0 0 245
0 0 250
0 0 252
0 0 245
0 0 246
0 0 252
0 0 250
0 0 245
0 0 252
0 0 252
0 0 248
0 0 249
0 0 250
0 0 241
0 0 246
0 0 245
0 0 238
0 0 245
0 0 241
0 0 245
0 0 244
0 0 246
0 0 238
0 0 250
0 0 244
0 0 237
0 0 245
0 0 245
0 0 237
0 0 248
0 0 240
0 0 249
0 0 236
0 0 234
0 0 238
0 0 238
0 0 237
0 0 237
0 0 240
0 0 242
0 0 240
0 0 237
0 0 237
0 0 233
0 0 238
0 0 231
0 0 234
0 0 228
0 0 227
0 0 237
0 0 230
0 0 228
0 0 227
0 0 233
0 0 230
0 0 223
0 0 218
0 0 223
0 0 226
0 0 224
0 0 218
0 0 215
0 0 217
0 0 223
0 0 223
0 0 209
0 0 203
0 0 203
0 0 211
0 0 203
0 0 194
0 0 204
0 0 198
0 0 201
0 0 193
0 0 198
0 0 188
0 0 203
0 0 191
0 0 171
0 0 186
0 0 169
0 0 161
0 0 171
0 0 137
0 0 147
0 0 137
0 0 125
206 217 237
227 239 255
227 239 255
206 209 224
110 0 0
107 0 0
119 0 0
135 0 0
161 0 0
145 0 0
152 0 0
147 0 0
163 0 0
159 0 0
182 0 0
182 0 0
172 0 0
173 0 0
173 0 0
179 0 0
186 0 0
181 0 0
185 0 0
197 0 0
195 0 0
193 0 0
197 0 0
189 0 0
196 0 0
194 0 0
194 0 0
202 0 0
199 0 0
195 0 0
196 0 0
199 0 0
186 0 0
205 0 0
205 0 0
205 0 0
207 0 0
209 0 0
205 0 0
201 0 0
205 0 0
201 0 0
205 0 0
192 0 0
208 0 0
198 0 0
199 0 0
206 0 0
211 0 0
208 0 0
203 0 0
206 0 0
208 0 0
217 0 0
211 0 0
211 0 0
207 0 0
213 0 0
210 0 0
211 0 0
214 0 0
205 0 0
204 0 0
217 0 0
210 0 0
214 0 0
215 0 0
215 0 0
211 0 0
210 0 0
217 0 0
213 0 0
221 0 0
218 0 0
211 0 0
216 0 0
213 0 0
219 0 0
214 0 0
212 0 0
207 0 0
218 0 0
217 0 0
214 0 0
225 0 0
218 0 0
216 0 0
220 0 0
217 0 0
213 0 0
217 0 0
213 0 0
220 0 0
221 0 0
221 0 0
214 0 0
218 0 0
223 0 0
218 0 0
214 0 0
213 0 0
219 0 0
218 0 0
221 0 0
214 0 0
217 0 0
218 0 0
216 0 0
217 0 0
216 0 0
221 0 0
220 0 0
216 0 0
223 0 0
221 0 0
221 0 0
220 0 0
219 0 0
219 0 0
221 0 0
225 0 0
217 0 0
220 0 0
217 0 0
222 0 0
221 0 0
218 0 0
222 0 0
220 0 0
221 0 0
218 0 0
221 0 0
220 0 0
219 0 0
220 0 0
222 0 0
219 0 0
221 0 0
223 0 0
222 0 0
219 0 0
220 0 0
223 0 0
220 0 0
220 0 0
222 0 0
218 0 0
221 0 0
218 0 0
221 0 0
222 0 0
222 0 0
221 0 0
220 0 0
221 0 0
221 0 0
220 0 0
223 0 0
221 0 0
222 0 0
223 0 0
222 0 0
219 0 0
218 0 0
221 0 0
221 0 0
220 0 0
222 0 0
222 0 0
221 0 0
218 0 0
221 0 0
221 0 0
223 0 0
224 0 0
220 0 0
221 0 0
225 0 0
222 0 0
224 0 0
220 0 0
224 0 0
223 0 0
224 0 0
220 0 0
223 0 0
221 0 0
222 0 0
223 0 0
222 0 0
222 0 0
222 0 0
220 0 0
222 0 0
223 0 0
220 0 0
226 0 0
224 0 0
0 0 254
0 0 253
0 0 254
0 0 255
0 0 255
0 0 255
0 0 255
0 0 255
0 0 255
0 0 253
0 0 253
0 0 255
0 0 254
0 0 254
0 0 253
0 0 255
0 0 255
0 0 254
0 0 255
0 0 254
0 0 255
0 0 255
0 0 254
0 0 255
0 0 255
0 0 254
0 0 254
0 0 255
0 0 253
0 0 253
0 0 254
0 0 255
0 0 255
0 0 254
0 0 253
0 0 254
0 0 254
0 0 252
0 0 255
0 0 255
0 0 255
0 0 253
0 0 250
0 0 250
0 0 255
0 0 254
0 0 254
0 0 252
0 0 255
0 0 254
0 0 254
0 0 255
0 0 253
0 0 254
0 0 252
0 0 253
0 0 253
0 0 253
0 0 255
0 0 253
0 0 253
0 0 254
0 0 253
0 0 252
0 0 255
0 0 253
0 0 254
0 0 252
0 0 249
0 0 255
0 0 252
0 0 252
0 0 253
0 0 253
0 0 253
0 0 249
0 0 253
0 0 252
0 0 254
0 0 254
0 0 254
0 0 249
0 0 249
0 0 252
0 0 252
0 0 252
0 0 252
0 0 250
0 0 252
0 0 252
0 0 249
0 0 246
0 0 245
0 0 250
0 0 250
0 0 250
0 0 250
0 0 255
0 0 253
0 0 249
0 0 254
0 0 253
0 0 250
0 0 248
0 0 241
0 0 248
0 0 246
0 0 246
0 0 246
0 0 250
0 0 248
0 0 252
0 0 241
0 0 249
0 0 250
0 0 253
0 0 248
0 0 244
0 0 246
0 0 249
0 0 242
0 0 252
0 0 244
0 0 248
0 0 245
0 0 252
0 0 244
0 0 242
0 0 246
0 0 241
0 0 245
0 0 237
0 0 242
0 0 245
0 0 237
0 0 240
0 0 245
0 0 240
0 0 244
0 0 245
0 0 242
0 0 244
0 0 246
0 0 244
0 0 236
0 0 241
0 0 244
0 0 237
0 0 238
0 0 236
0 0 241
0 0 231
0 0 242
0 0 231
0 0 228
0 0 231
0 0 234
0 0 234
0 0 236
0 0 231
0 0 223
0 0 237
0 0 226
0 0 234
0 0 228
0 0 228
0 0 228
0 0 226
0 0 226
0 0 226
0 0 209
0 0 212
0 0 218
0 0 233
0 0 206
0 0 215
0 0 211
0 0 212
0 0 209
0 0 218
0 0 215
0 0 214
0 0 199
0 0 198
0 0 196
0 0 186
0 0 196
0 0 189
0 0 194
0 0 196
0 0 179
0 0 167
0 0 157
0 0 151
0 0 142
0 0 142
0 0 114
60 63 135
227 239 255
227 239 255
227 239 255
227 239 255
126 58 62
115 0 0
114 0 0
148 0 0
147 0 0
158 0 0
154 0 0
161 0 0
156 0 0
176 0 0
173 0 0
173 0 0
180 0 0
174 0 0
208 0 0
173 0 0
173 0 0
174 0 0
182 0 0
185 0 0
197 0 0
191 0 0
186 0 0
191 0 0
190 0 0
199 0 0
192 0 0
198 0 0
194 0 0
201 0 0
203 0 0
198 0 0
197 0 0
197 0 0
196 0 0
204 0 0
204 0 0
207 0 0
201 0 0
201 0 0
202 0 0
193 0 0
205 0 0
207 0 0
208 0 0
212 0 0
212 0 0
207 0 0
208 0 0
202 0 0
210 0 0
212 0 0
209 0 0
207 0 0
209 0 0
213 0 0
208 0 0
214 0 0
206 0 0
211 0 0
215 0 0
211 0 0
210 0 0
209 0 0
211 0 0
211 0 0
211 0 0
216 0 0
219 0 0
218 0 0
205 0 0
215 0 0
220 0 0
214 0 0
215 0 0
214 0 0
215 0 0
220 0 0
218 0 0
215 0 0
217 0 0
217 0 0
217 0 0
213 0 0
217 0 0
216 0 0
219 0 0
218 0 0
215 0 0
221 0 0
218 0 0
208 0 0
221 0 0
220 0 0
215 0 0
212 0 0
220 0 0
218 0 0
224 0 0
218 0 0
219 0 0
219 0 0
217 0 0
222 0 0
217 0 0
216 0 0
219 0 0
223 0 0
217 0 0
218 0 0
221 0 0
217 0 0
221 0 0
218 0 0
224 0 0
221 0 0
221 0 0
220 0 0
218 0 0
221 0 0
224 0 0
220 0 0
220 0 0
217 0 0
222 0 0
222 0 0
218 0 0
220 0 0
224 0 0
221 0 0
215 0 0
218 0 0
223 0 0
227 0 0
220 0 0
226 0 0
214 0 0
221 0 0
223 0 0
223 0 0
221 0 0
223 0 0
224 0 0
218 0 0
227 0 0
225 0 0
220 0 0
221 0 0
222 0 0
223 0 0
221 0 0
220 0 0
220 0 0
219 0 0
222 0 0
222 0 0
223 0 0
218 0 0
221 0 0
221 0 0
223 0 0
218 0 0
224 0 0
221 0 0
220 0 0
225 0 0
223 0 0
224 0 0
224 0 0
225 0 0
225 0 0
222 0 0
223 0 0
225 0 0
223 0 0
223 0 0
224 0 0
223 0 0
221 0 0
220 0 0
223 0 0
223 0 0
219 0 0
222 0 0
222 0 0
223 0 0
219 0 0
221 0 0
223 0 0
222 0 0
225 0 0
224 0 0
224 0 0
226 0 0
222 0 0
226 0 0
219 0 0
222 0 0
0 0 255
0 0 255
0 0 255
0 0 255
0 0 254
0 0 255
0 0 255
0 0 255
0 0 253
0 0 254
0 0 255
0 0 254
0 0 255
0 0 255
0 0 255
0 0 255
0 0 254
0 0 254
0 0 255
0 0 255
0 0 255
0 0 255
0 0 254
0 0 254
0 0 255
0 0 255
0 0 255
0 0 253
0 0 255
0 0 254
0 0 254
0 0 253
0 0 253
0 0 255
0 0 254
0 0 255
0 0 253
0 0 254
0 0 252
0 0 253
0 0 252
0 0 253
0 0 255
0 0 254
0 0 255
0 0 254
0 0 253
0 0 255
0 0 252
0 0 253
0 0 252
0 0 255
0 0 254
0 0 255
0 0 255
0 0 254
0 0 254
0 0 253
0 0 252
0 0 250
0 0 252
0 0 253
0 0 253
0 0 249
0 0 250
0 0 252
0 0 250
0 0 250
0 0 253
0 0 253
0 0 252
0 0 254
0 0 250
0 0 252
0 0 246
0 0 253
0 0 250
0 0 252
0 0 254
0 0 252
0 0 253
0 0 249
0 0 252
0 0 250
0 0 253
0 0 254
0 0 250
0 0 252
0 0 252
0 0 250
0 0 255
0 0 250
0 0 248
0 0 249
0 0 246
0 0 246
0 0 249
0 0 249
0 0 249
0 0 250
0 0 248
0 0 248
0 0 250
0 0 250
0 0 249
0 0 253
0 0 252
0 0 244
0 0 246
0 0 248
0 0 250
0 0 249
0 0 250
0 0 249
0 0 242
0 0 246
0 0 244
0 0 242
0 0 250
0 0 246
0 0 248
0 0 244
0 0 241
0 0 245
0 0 245
0 0 248
0 0 240
0 0 246
0 0 246
0 0 236
0 0 238
0 0 240
0 0 233
0 0 241
0 0 237
0 0 238
0 0 246
0 0 244
0 0 242
0 0 234
0 0 241
0 0 241
0 0 234
0 0 242
0 0 240
0 0 233
0 0 241
0 0 233
0 0 242
0 0 240
0 0 237
0 0 226
0 0 240
0 0 234
0 0 238
0 0 240
0 0 241
0 0 237
0 0 237
0 0 231
0 0 237
0 0 227
0 0 212
0 0 230
0 0 220
0 0 226
0 0 231
0 0 227
0 0 209
0 0 224
0 0 228
0 0 214
0 0 218
0 0 214
0 0 220
0 0 214
0 0 228
0 0 212
0 0 215
0 0 212
0 0 203
0 0 204
0 0 207
0 0 207
0 0 193
0 0 198
0 0 184
0 0 206
0 0 201
0 0 188
0 0 169
0 0 153
0 0 155
0 0 147
0 0 151
0 0 114
0 0 111
124 131 163
227 239 255
227 239 255
227 239 255
227 239 255
148 107 114
128 0 0
143 0 0
143 0 0
139 0 0
151 0 0
142 0 0
156 0 0
157 0 0
170 0 0
173 0 0
176 0 0
173 0 0
176 0 0
192 0 0
179 0 0
181 0 0
188 0 0
185 0 0
187 0 0
197 0 0
191 0 0
186 0 0
190 0 0
198 0 0
203 0 0
193 0 0
197 0 0
201 0 0
197 0 0
190 0 0
199 0 0
196 0 0
198 0 0
190 0 0
204 0 0
203 0 0
206 0 0
195 0 0
199 0 0
202 0 0
211 0 0
207 0 0
213 0 0
214 0 0
211 0 0
214 0 0
211 0 0
207 0 0
210 0 0
210 0 0
214 0 0
211 0 0
213 0 0
211 0 0
209 0 0
216 0 0
209 0 0
216 0 0
212 0 0
208 0 0
218 0 0
220 0 0
218 0 0
211 0 0
212 0 0
209 0 0
212 0 0
212 0 0
218 0 0
220 0 0
218 0 0
211 0 0
214 0 0
211 0 0
217 0 0
211 0 0
211 0 0
204 0 0
214 0 0
214 0 0
216 0 0
219 0 0
218 0 0
216 0 0
218 0 0
215 0 0
218 0 0
213 0 0
217 0 0
217 0 0
215 0 0
216 0 0
217 0 0
218 0 0
216 0 0
219 0 0
221 0 0
220 0 0
224 0 0
220 0 0
221 0 0
215 0 0
218 0 0
218 0 0
218 0 0
215 0 0
216 0 0
216 0 0
224 0 0
222 0 0
220 0 0
223 0 0
220 0 0
221 0 0
220 0 0
220 0 0
221 0 0
217 0 0
220 0 0
225 0 0
220 0 0
220 0 0
223 0 0
221 0 0
218 0 0
219 0 0
217 0 0
223 0 0
218 0 0
218 0 0
220 0 0
224 0 0
219 0 0
221 0 0
222 0 0
223 0 0
223 0 0
225 0 0
220 0 0
226 0 0
220 0 0
218 0 0
221 0 0
220 0 0
221 0 0
222 0 0
221 0 0
219 0 0
224 0 0
227 0 0
221 0 0
224 0 0
218 0 0
223 0 0
225 0 0
224 0 0
224 0 0
225 0 0
224 0 0
220 0 0
220 0 0
226 0 0
223 0 0
223 0 0
219 0 0
221 0 0
224 0 0
224 0 0
222 0 0
223 0 0
217 0 0
219 0 0
220 0 0
223 0 0
227 0 0
222 0 0
221 0 0
221 0 0
220 0 0
222 0 0
224 0 0
222 0 0
225 0 0
223 0 0
221 0 0
224 0 0
223 0 0
217 0 0
222 0 0
225 0 0
224 0 0
223 0 0
222 0 0
222 0 0
220 0 0
218 0 0
224 0 0
0 0 255
0 0 255
0 0 254
0 0 254
0 0 255
0 0 255
0 0 254
0 0 254
0 0 254
0 0 253
0 0 254
0 0 254
0 0 253
0 0 255
0 0 255
0 0 252
0 0 254
0 0 255
0 0 254
0 0 253
0 0 254
0 0 255
0 0 254
0 0 253
0 0 252
0 0 255
0 0 255
0 0 255
0 0 254
0 0 255
0 0 255
0 0 253
0 0 252
0 0 255
0 0 252
0 0 253
0 0 253
0 0 254
0 0 252
0 0 255
0 0 250
0 0 253
0 0 254
0 0 253
0 0 255
0 0 252
0 0 252
0 0 254
0 0 253
0 0 254
0 0 255
0 0 254
0 0 253
0 0 255
0 0 252
0 0 253
0 0 255
0 0 252
0 0 250
0 0 250
0 0 253
0 0 250
0 0 255
0 0 253
0 0 255
0 0 254
0 0 249
0 0 249
0 0 255
0 0 254
0 0 253
0 0 250
0 0 252
0 0 255
0 0 252
0 0 254
0 0 252
0 0 250
0 0 253
0 0 252
0 0 252
0 0 253
0 0 250
0 0 253
0 0 253
0 0 248
0 0 252
0 0 248
0 0 250
0 0 252
0 0 253
0 0 249
0 0 252
0 0 250
0 0 252
0 0 250
0 0 249
0 0 253
0 0 244
0 0 252
0 0 246
0 0 249
0 0 253
0 0 248
0 0 250
0 0 250
0 0 245
0 0 250
0 0 246
0 0 252
0 0 248
0 0 250
0 0 246
0 0 242
0 0 245
0 0 249
0 0 244
0 0 248
0 0 252
0 0 244
0 0 246
0 0 249
0 0 242
0 0 246
0 0 248
0 0 242
0 0 248
0 0 241
0 0 238
0 0 249
0 0 250
0 0 241
0 0 244
0 0 248
0 0 236
0 0 242
0 0 245
0 0 238
0 0 237
0 0 241
0 0 242
0 0 241
0 0 238
0 0 238
0 0 227
0 0 240
0 0 233
0 0 236
0 0 245
0 0 236
0 0 237
0 0 236
0 0 236
0 0 223
0 0 236
0 0 237
0 0 236
0 0 233
0 0 234
0 0 238
0 0 234
0 0 226
0 0 221
0 0 228
0 0 227
0 0 226
0 0 231
0 0 233
0 0 214
0 0 226
0 0 220
0 0 217
0 0 220
0 0 211
0 0 212
0 0 217
0 0 212
0 0 206
0 0 209
0 0 201
0 0 199
0 0 203
0 0 204
0 0 181
0 0 194
0 0 206
0 0 204
0 0 179
0 0 194
0 0 159
0 0 175
0 0 184
0 0 161
0 0 165
0 0 151
0 0 140
0 0 117
170 179 211
228 239 255
228 239 255
228 239 255
228 239 255
185 179 191
135 0 0
141 0 0
129 0 0
143 0 0
128 0 0
137 0 0
169 0 0
160 0 0
175 0 0
169 0 0
181 0 0
174 0 0
169 0 0
172 0 0
196 0 0
188 0 0
178 0 0
197 0 0
184 0 0
172 0 0
196 0 0
189 0 0
188 0 0
188 0 0
189 0 0
205 0 0
195 0 0
207 0 0
208 0 0
200 0 0
197 0 0
194 0 0
206 0 0
204 0 0
199 0 0
207 0 0
209 0 0
208 0 0
208 0 0
208 0 0
213 0 0
200 0 0
203 0 0
204 0 0
214 0 0
208 0 0
199 0 0
207 0 0
215 0 0
210 0 0
211 0 0
214 0 0
212 0 0
207 0 0
204 0 0
211 0 0
210 0 0
212 0 0
210 0 0
213 0 0
209 0 0
212 0 0
206 0 0
211 0 0
214 0 0
210 0 0
211 0 0
215 0 0
215 0 0
212 0 0
214 0 0
216 0 0
212 0 0
216 0 0
219 0 0
220 0 0
213 0 0
217 0 0
217 0 0
216 0 0
213 0 0
222 0 0
221 0 0
211 0 0
213 0 0
218 0 0
220 0 0
224 0 0
217 0 0
215 0 0
212 0 0
220 0 0
219 0 0
220 0 0
221 0 0
221 0 0
214 0 0
220 0 0
219 0 0
221 0 0
221 0 0
222 0 0
225 0 0
223 0 0
217 0 0
224 0 0
224 0 0
219 0 0
219 0 0
222 0 0
221 0 0
215 0 0
217 0 0
221 0 0
212 0 0
221 0 0
218 0 0
219 0 0
217 0 0
218 0 0
225 0 0
221 0 0
217 0 0
220 0 0
225 0 0
222 0 0
222 0 0
224 0 0
218 0 0
219 0 0
220 0 0
222 0 0
217 0 0
218 0 0
221 0 0
223 0 0
220 0 0
224 0 0
222 0 0
219 0 0
220 0 0
223 0 0
221 0 0
223 0 0
221 0 0
220 0 0
224 0 0
220 0 0
223 0 0
221 0 0
224 0 0
219 0 0
223 0 0
221 0 0
220 0 0
219 0 0
224 0 0
223 0 0
224 0 0
223 0 0
221 0 0
217 0 0
221 0 0
223 0 0
224 0 0
223 0 0
223 0 0
218 0 0
225 0 0
222 0 0
223 0 0
222 0 0
223 0 0
222 0 0
224 0 0
220 0 0
223 0 0
222 0 0
220 0 0
220 0 0
221 0 0
225 0 0
226 0 0
226 0 0
223 0 0
221 0 0
223 0 0
223 0 0
223 0 0
224 0 0
222 0 0
223 0 0
223 0 0
223 0 0
228 0 0
224 0 0
222 0 0
0 0 255
0 0 255
0 0 255
0 0 255
0 0 255
0 0 255
0 0 255
0 0 255
0 0 255
0 0 254
0 0 254
0 0 255
0 0 255
0 0 255
0 0 255
0 0 255
0 0 255
0 0 253
0 0 253
0 0 255
0 0 255
0 0 254
0 0 254
0 0 252
0 0 255
0 0 255
0 0 254
0 0 253
0 0 253
0 0 253
0 0 255
0 0 254
0 0 254
0 0 252
0 0 254
0 0 254
0 0 254
0 0 255
0 0 253
0 0 255
0 0 253
0 0 253
0 0 254
0 0 254
0 0 255
0 0 254
0 0 255
0 0 254
0 0 252
0 0 253
0 0 254
0 0 254
0 0 253
0 0 248
0 0 255
0 0 255
0 0 254
0 0 250
0 0 254
0 0 253
0 0 249
0 0 252
0 0 255
0 0 252
0 0 253
0 0 254
0 0 254
0 0 253
0 0 254
0 0 253
0 0 250
0 0 252
0 0 250
0 0 248
0 0 255
0 0 252
0 0 249
0 0 252
0 0 253
0 0 254
0 0 250
0 0 252
0 0 253
0 0 250
0 0 250
0 0 254
0 0 250
0 0 250
0 0 250
0 0 248
0 0 244
0 0 250
0 0 252
0 0 250
0 0 245
0 0 253
0 0 249
0 0 248
0 0 244
0 0 249
0 0 252
0 0 253
0 0 248
0 0 245
0 0 252
0 0 245
0 0 249
0 0 246
0 0 246
0 0 248
0 0 242
0 0 246
0 0 242
0 0 249
0 0 246
0 0 248
0 0 248
0 0 249
0 0 241
0 0 244
0 0 244
0 0 242
0 0 244
0 0 244
0 0 238
0 0 252
0 0 245
0 0 244
0 0 245
0 0 246
0 0 248
0 0 236
0 0 245
0 0 241
0 0 240
0 0 242
0 0 245
0 0 237
0 0 242
0 0 245
0 0 241
0 0 237
0 0 238
0 0 237
0 0 227
0 0 241
0 0 240
0 0 233
0 0 240
0 0 241
0 0 237
0 0 228
0 0 231
0 0 236
0 0 244
0 0 241
0 0 238
0 0 234
0 0 240
0 0 228
0 0 237
0 0 236
0 0 231
0 0 231
0 0 226
0 0 223
0 0 223
0 0 224
0 0 224
0 0 227
0 0 221
0 0 214
0 0 218
0 0 207
0 0 215
0 0 211
0 0 214
0 0 214
0 0 217
0 0 211
0 0 203
0 0 211
0 0 211
0 0 199
0 0 191
0 0 189
0 0 189
0 0 188
0 0 175
0 0 184
0 0 179
0 0 165
0 0 167
0 0 151
0 0 133
0 0 122
0 0 135
199 209 230
228 239 255
228 239 255
228 239 255
228 239 255
212 214 228
123 0 0
125 0 0
140 0 0
143 0 0
160 0 0
158 0 0
167 0 0
178 0 0
163 0 0
165 0 0
173 0 0
176 0 0
169 0 0
183 0 0
181 0 0
182 0 0
180 0 0
193 0 0
182 0 0
188 0 0
187 0 0
194 0 0
195 0 0
198 0 0
204 0 0
187 0 0
186 0 0
196 0 0
202 0 0
205 0 0
204 0 0
195 0 0
201 0 0
192 0 0
193 0 0
207 0 0
211 0 0
198 0 0
203 0 0
207 0 0
203 0 0
212 0 0
205 0 0
207 0 0
201 0 0
211 0 0
207 0 0
210 0 0
203 0 0
217 0 0
207 0 0
206 0 0
201 0 0
211 0 0
211 0 0
214 0 0
215 0 0
217 0 0
210 0 0
211 0 0
214 0 0
214 0 0
220 0 0
213 0 0
216 0 0
212 0 0
213 0 0
213 0 0
211 0 0
213 0 0
214 0 0
213 0 0
212 0 0
211 0 0
221 0 0
216 0 0
219 0 0
225 0 0
219 0 0
219 0 0
211 0 0
216 0 0
215 0 0
217 0 0
216 0 0
217 0 0
220 0 0
216 0 0
223 0 0
221 0 0
216 0 0
224 0 0
219 0 0
223 0 0
223 0 0
222 0 0
219 0 0
218 0 0
216 0 0
221 0 0
218 0 0
224 0 0
221 0 0
216 0 0
217 0 0
215 0 0
221 0 0
218 0 0
222 0 0
220 0 0
219 0 0
215 0 0
222 0 0
217 0 0
216 0 0
218 0 0
218 0 0
219 0 0
225 0 0
222 0 0
224 0 0
224 0 0
226 0 0
212 0 0
218 0 0
225 0 0
222 0 0
225 0 0
221 0 0
224 0 0
221 0 0
224 0 0
220 0 0
223 0 0
219 0 0
219 0 0
219 0 0
220 0 0
225 0 0
219 0 0
221 0 0
225 0 0
223 0 0
220 0 0
221 0 0
219 0 0
222 0 0
223 0 0
221 0 0
227 0 0
222 0 0
223 0 0
225 0 0
224 0 0
221 0 0
223 0 0
224 0 0
221 0 0
223 0 0
225 0 0
221 0 0
226 0 0
224 0 0
226 0 0
219 0 0
222 0 0
222 0 0
223 0 0
220 0 0
217 0 0
223 0 0
222 0 0
226 0 0
223 0 0
225 0 0
222 0 0
224 0 0
223 0 0
222 0 0
225 0 0
223 0 0
222 0 0
221 0 0
223 0 0
221 0 0
221 0 0
226 0 0
217 0 0
219 0 0
225 0 0
221 0 0
225 0 0
220 0 0
222 0 0
222 0 0
222 0 0
219 0 0
0 0 254
0 0 255
0 0 255
0 0 255
0 0 254
0 0 255
0 0 255
0 0 255
0 0 252
0 0 255
0 0 253
0 0 254
0 0 253
0 0 255
0 0 254
0 0 255
0 0 254
0 0 255
0 0 255
0 0 253
0 0 253
0 0 254
0 0 255
0 0 255
0 0 255
0 0 254
0 0 252
0 0 255
0 0 254
0 0 253
0 0 253
0 0 254
0 0 254
0 0 253
0 0 255
0 0 254
0 0 254
0 0 254
0 0 252
0 0 254
0 0 255
0 0 254
0 0 255
0 0 253
0 0 255
0 0 253
0 0 253
0 0 254
0 0 255
0 0 254
0 0 252
0 0 253
0 0 253
0 0 255
0 0 254
0 0 254
0 0 253
0 0 249
0 0 254
0 0 254
0 0 255
0 0 250
0 0 253
0 0 254
0 0 250
0 0 250
0 0 252
0 0 255
0 0 252
0 0 250
0 0 253
0 0 254
0 0 253
0 0 253
0 0 248
0 0 250
0 0 249
0 0 246
0 0 252
0 0 252
0 0 254
0 0 252
0 0 253
0 0 250
0 0 253
0 0 252
0 0 249
0 0 253
0 0 249
0 0 254
0 0 252
0 0 253
0 0 250
0 0 244
0 0 250
0 0 249
0 0 248
0 0 252
0 0 252
0 0 246
0 0 249
0 0 249
0 0 246
0 0 249
0 0 250
0 0 249
0 0 246
0 0 252
0 0 253
0 0 248
0 0 249
0 0 254
0 0 242
0 0 244
0 0 252
0 0 250
0 0 248
0 0 246
0 0 242
0 0 252
0 0 244
0 0 253
0 0 246
0 0 244
0 0 242
0 0 249
0 0 242
0 0 250
0 0 246
0 0 242
0 0 240
0 0 241
0 0 244
0 0 244
0 0 248
0 0 244
0 0 244
0 0 242
0 0 246
0 0 248
0 0 233
0 0 240
0 0 245
0 0 237
0 0 234
0 0 246
0 0 245
0 0 236
0 0 238
0 0 238
0 0 237
0 0 237
0 0 238
0 0 233
0 0 236
0 0 231
0 0 238
0 0 240
0 0 227
0 0 241
0 0 238
0 0 233
0 0 228
0 0 227
0 0 227
0 0 236
0 0 231
0 0 220
0 0 221
0 0 223
0 0 212
0 0 215
0 0 207
0 0 228
0 0 223
0 0 228
0 0 211
0 0 211
0 0 218
0 0 220
0 0 209
0 0 199
0 0 209
0 0 201
0 0 193
0 0 191
0 0 193
0 0 177
0 0 196
0 0 188
0 0 177
0 0 165
0 0 177
0 0 155
0 0 153
0 0 135
39 41 122
228 239 255
228 239 255
228 239 255
228 239 255
228 239 255
227 237 253
136 79 84
143 0 0
144 0 0
137 0 0
141 0 0
149 0 0
150 0 0
152 0 0
161 0 0
168 0 0
169 0 0
166 0 0
174 0 0
181 0 0
173 0 0
187 0 0
178 0 0
189 0 0
192 0 0
190 0 0
189 0 0
198 0 0
193 0 0
194 0 0
197 0 0
201 0 0
190 0 0
195 0 0
198 0 0
199 0 0
204 0 0
193 0 0
200 0 0
196 0 0
208 0 0
202 0 0
207 0 0
210 0 0
197 0 0
208 0 0
206 0 0
209 0 0
201 0 0
208 0 0
199 0 0
215 0 0
211 0 0
203 0 0
201 0 0
215 0 0
219 0 0
210 0 0
216 0 0
210 0 0
207 0 0
208 0 0
210 0 0
219 0 0
209 0 0
211 0 0
217 0 0
216 0 0
217 0 0
216 0 0
214 0 0
216 0 0
220 0 0
214 0 0
216 0 0
213 0 0
217 0 0
215 0 0
211 0 0
217 0 0
213 0 0
218 0 0
218 0 0
217 0 0
221 0 0
212 0 0
216 0 0
219 0 0
218 0 0
217 0 0
219 0 0
224 0 0
223 0 0
221 0 0
216 0 0
214 0 0
218 0 0
218 0 0
216 0 0
223 0 0
219 0 0
220 0 0
216 0 0
218 0 0
220 0 0
224 0 0
218 0 0
219 0 0
225 0 0
218 0 0
217 0 0
215 0 0
224 0 0
221 0 0
220 0 0
223 0 0
221 0 0
216 0 0
218 0 0
222 0 0
216 0 0
225 0 0
224 0 0
223 0 0
223 0 0
224 0 0
222 0 0
222 0 0
224 0 0
221 0 0
216 0 0
222 0 0
217 0 0
221 0 0
216 0 0
222 0 0
221 0 0
224 0 0
217 0 0
221 0 0
222 0 0
223 0 0
219 0 0
224 0 0
223 0 0
226 0 0
221 0 0
220 0 0
220 0 0
219 0 0
223 0 0
221 0 0
224 0 0
220 0 0
223 0 0
219 0 0
223 0 0
226 0 0
221 0 0
222 0 0
222 0 0
225 0 0
221 0 0
223 0 0
219 0 0
221 0 0
225 0 0
223 0 0
222 0 0
223 0 0
221 0 0
224 0 0
225 0 0
222 0 0
220 0 0
225 0 0
222 0 0
221 0 0
225 0 0
224 0 0
224 0 0
226 0 0
220 0 0
222 0 0
224 0 0
225 0 0
223 0 0
223 0 0
224 0 0
221 0 0
222 0 0
221 0 0
222 0 0
225 0 0
218 0 0
224 0 0
225 0 0
222 0 0
224 0 0
223 0 0
225 0 0
227 0 0
224 0 0
0 0 255
0 0 255
0 0 255
0 0 255
0 0 255
0 0 255
0 0 255
0 0 253
0 0 254
0 0 253
0 0 255
0 0 255
0 0 255
0 0 255
0 0 254
0 0 255
0 0 254
0 0 255
0 0 254
0 0 253
0 0 255
0 0 252
0 0 255
0 0 255
0 0 253
0 0 254
0 0 255
0 0 255
0 0 253
0 0 249
0 0 254
0 0 253
0 0 254
0 0 255
0 0 255
0 0 253
0 0 253
0 0 255
0 0 253
0 0 250
0 0 254
0 0 255
0 0 253
0 0 255
0 0 254
0 0 254
0 0 249
0 0 248
0 0 250
0 0 250
0 0 255
0 0 255
0 0 254
0 0 254
0 0 253
0 0 254
0 0 254
0 0 252
0 0 254
0 0 252
0 0 253
0 0 253
0 0 249
0 0 252
0 0 253
0 0 252
0 0 253
0 0 253
0 0 253
0 0 249
0 0 252
0 0 252
0 0 253
0 0 253
0 0 249
0 0 253
0 0 253
0 0 250
0 0 250
0 0 250
0 0 252
0 0 252
0 0 250
0 0 253
0 0 253
0 0 245
0 0 250
0 0 253
0 0 250
0 0 249
0 0 248
0 0 252
0 0 253
0 0 253
0 0 252
0 0 250
0 0 252
0 0 253
0 0 248
0 0 252
0 0 255
0 0 250
0 0 252
0 0 245
0 0 250
0 0 252
0 0 250
0 0 246
0 0 245
0 0 249
0 0 248
0 0 248
0 0 250
0 0 246
0 0 240
0 0 244
0 0 250
0 0 246
0 0 242
0 0 249
0 0 245
0 0 252
0 0 246
0 0 241
0 0 246
0 0 245
0 0 248
0 0 245
0 0 248
0 0 248
0 0 237
0 0 238
0 0 244
0 0 237
0 0 244
0 0 244
0 0 238
0 0 237
0 0 242
0 0 240
0 0 244
0 0 244
0 0 241
0 0 246
0 0 237
0 0 240
0 0 241
0 0 223
0 0 237
0 0 240
0 0 236
0 0 240
0 0 244
0 0 233
0 0 241
0 0 238
0 0 238
0 0 230
0 0 237
0 0 230
0 0 234
0 0 226
0 0 238
0 0 231
0 0 236
0 0 234
0 0 241
0 0 230
0 0 220
0 0 220
0 0 223
0 0 220
0 0 231
0 0 226
0 0 206
0 0 220
0 0 212
0 0 218
0 0 188
0 0 203
0 0 206
0 0 209
0 0 201
0 0 209
0 0 201
0 0 196
0 0 188
0 0 186
0 0 188
0 0 175
0 0 179
0 0 163
0 0 171
0 0 149
0 0 140
0 0 128
153 161 199
228 240 255
228 240 255
228 240 255
228 240 255
228 240 255
228 240 255
171 142 151
145 0 0
158 0 0
132 0 0
142 0 0
160 0 0
175 0 0
165 0 0
151 0 0
163 0 0
164 0 0
182 0 0
187 0 0
186 0 0
184 0 0
168 0 0
187 0 0
172 0 0
185 0 0
191 0 0
193 0 0
196 0 0
203 0 0
194 0 0
193 0 0
197 0 0
195 0 0
197 0 0
194 0 0
204 0 0
202 0 0
199 0 0
202 0 0
199 0 0
203 0 0
204 0 0
206 0 0
209 0 0
211 0 0
209 0 0
217 0 0
205 0 0
198 0 0
195 0 0
208 0 0
211 0 0
215 0 0
212 0 0
209 0 0
201 0 0
206 0 0
206 0 0
203 0 0
207 0 0
212 0 0
205 0 0
222 0 0
209 0 0
210 0 0
212 0 0
214 0 0
213 0 0
219 0 0
217 0 0
213 0 0
216 0 0
209 0 0
220 0 0
210 0 0
215 0 0
217 0 0
213 0 0
222 0 0
212 0 0
218 0 0
216 0 0
215 0 0
215 0 0
215 0 0
219 0 0
223 0 0
209 0 0
217 0 0
213 0 0
219 0 0
218 0 0
220 0 0
218 0 0
221 0 0
216 0 0
219 0 0
219 0 0
215 0 0
222 0 0
212 0 0
221 0 0
221 0 0
221 0 0
222 0 0
219 0 0
219 0 0
218 0 0
219 0 0
219 0 0
223 0 0
224 0 0
220 0 0
219 0 0
213 0 0
218 0 0
222 0 0
218 0 0
223 0 0
217 0 0
225 0 0
217 0 0
221 0 0
221 0 0
224 0 0
220 0 0
225 0 0
217 0 0
220 0 0
220 0 0
219 0 0
221 0 0
223 0 0
221 0 0
216 0 0
219 0 0
219 0 0
218 0 0
218 0 0
222 0 0
220 0 0
217 0 0
217 0 0
219 0 0
220 0 0
225 0 0
223 0 0
228 0 0
226 0 0
220 0 0
222 0 0
224 0 0
218 0 0
222 0 0
224 0 0
221 0 0
222 0 0
223 0 0
221 0 0
219 0 0
222 0 0
226 0 0
220 0 0
222 0 0
225 0 0
224 0 0
224 0 0
221 0 0
225 0 0
221 0 0
226 0 0
220 0 0
220 0 0
224 0 0
220 0 0
220 0 0
223 0 0
225 0 0
219 0 0
223 0 0
225 0 0
226 0 0
224 0 0
227 0 0
223 0 0
221 0 0
222 0 0
224 0 0
225 0 0
222 0 0
224 0 0
221 0 0
224 0 0
223 0 0
224 0 0
220 0 0
223 0 0
221 0 0
226 0 0
224 0 0
222 0 0
225 0 0
223 0 0
0 0 255
0 0 254
0 0 254
0 0 255
0 0 255
0 0 255
0 0 255
0 0 255
0 0 255
0 0 255
0 0 255
0 0 255
0 0 254
0 0 255
0 0 253
0 0 254
0 0 255
0 0 253
0 0 254
0 0 255
0 0 255
0 0 255
0 0 253
0 0 252
0 0 253
0 0 254
0 0 255
0 0 254
0 0 254
0 0 253
0 0 254
0 0 254
0 0 254
0 0 254
0 0 254
0 0 254
0 0 254
0 0 253
0 0 255
0 0 254
0 0 254
0 0 254
0 0 254
0 0 255
0 0 254
0 0 254
0 0 254
0 0 254
0 0 252
0 0 252
0 0 254
0 0 252
0 0 252
0 0 249
0 0 255
0 0 250
0 0 253
0 0 255
0 0 252
0 0 249
0 0 252
0 0 253
0 0 250
0 0 253
0 0 252
0 0 249
0 0 254
0 0 252
0 0 253
0 0 254
0 0 250
0 0 253
0 0 252
0 0 255
0 0 254
0 0 250
0 0 253
0 0 252
0 0 248
0 0 254
0 0 253
0 0 252
0 0 254
0 0 252
0 0 250
0 0 254
0 0 249
0 0 250
0 0 248
0 0 248
0 0 248
0 0 253
0 0 253
0 0 253
0 0 250
0 0 249
0 0 250
0 0 249
0 0 249
0 0 249
0 0 248
0 0 250
0 0 252
0 0 245
0 0 249
0 0 248
0 0 245
0 0 246
0 0 245
0 0 250
0 0 248
0 0 254
0 0 252
0 0 248
0 0 246
0 0 252
0 0 245
0 0 244
0 0 246
0 0 238
0 0 254
0 0 249
0 0 245
0 0 249
0 0 241
0 0 244
0 0 242
0 0 248
0 0 248
0 0 249
0 0 246
0 0 249
0 0 241
0 0 246
0 0 246
0 0 246
0 0 245
0 0 244
0 0 242
0 0 240
0 0 238
0 0 244
0 0 245
0 0 236
0 0 242
0 0 233
0 0 234
0 0 248
0 0 241
0 0 233
0 0 230
0 0 234
0 0 237
0 0 226
0 0 231
0 0 230
0 0 244
0 0 227
0 0 240
0 0 230
0 0 228
0 0 240
0 0 227
0 0 233
0 0 230
0 0 215
0 0 230
0 0 221
0 0 227
0 0 224
0 0 217
0 0 228
0 0 215
0 0 223
0 0 223
0 0 209
0 0 218
0 0 220
0 0 204
0 0 212
0 0 209
0 0 212
0 0 203
0 0 209
0 0 199
0 0 207
0 0 203
0 0 186
0 0 182
0 0 169
0 0 171
0 0 181
0 0 167
0 0 169
0 0 169
0 0 153
193 202 227
229 240 255
229 240 255
229 240 255
229 240 255
229 240 255
229 240 255
203 192 204
137 0 0
142 0 0
128 0 0
157 0 0
156 0 0
170 0 0
171 0 0
160 0 0
173 0 0
189 0 0
172 0 0
169 0 0
186 0 0
178 0 0
181 0 0
179 0 0
192 0 0
181 0 0
197 0 0
195 0 0
192 0 0
193 0 0
188 0 0
193 0 0
203 0 0
201 0 0
212 0 0
207 0 0
203 0 0
206 0 0
199 0 0
192 0 0
201 0 0
192 0 0
201 0 0
200 0 0
216 0 0
206 0 0
206 0 0
205 0 0
204 0 0
208 0 0
209 0 0
214 0 0
213 0 0
209 0 0
212 0 0
212 0 0
215 0 0
202 0 0
213 0 0
213 0 0
197 0 0
209 0 0
212 0 0
207 0 0
214 0 0
211 0 0
213 0 0
212 0 0
216 0 0
220 0 0
211 0 0
214 0 0
213 0 0
211 0 0
218 0 0
219 0 0
219 0 0
211 0 0
216 0 0
216 0 0
219 0 0
216 0 0
213 0 0
215 0 0
211 0 0
218 0 0
224 0 0
213 0 0
215 0 0
220 0 0
219 0 0
216 0 0
214 0 0
216 0 0
220 0 0
220 0 0
216 0 0
220 0 0
217 0 0
223 0 0
215 0 0
217 0 0
216 0 0
220 0 0
219 0 0
219 0 0
217 0 0
222 0 0
220 0 0
221 0 0
219 0 0
220 0 0
223 0 0
216 0 0
217 0 0
221 0 0
218 0 0
222 0 0
215 0 0
220 0 0
218 0 0
219 0 0
223 0 0
222 0 0
218 0 0
220 0 0
225 0 0
216 0 0
215 0 0
224 0 0
223 0 0
218 0 0
221 0 0
223 0 0
223 0 0
220 0 0
221 0 0
221 0 0
221 0 0
222 0 0
220 0 0
222 0 0
221 0 0
220 0 0
224 0 0
223 0 0
226 0 0
218 0 0
225 0 0
222 0 0
224 0 0
222 0 0
221 0 0
221 0 0
219 0 0
224 0 0
220 0 0
226 0 0
222 0 0
221 0 0
221 0 0
223 0 0
222 0 0
224 0 0
225 0 0
224 0 0
226 0 0
221 0 0
224 0 0
226 0 0
223 0 0
222 0 0
225 0 0
223 0 0
223 0 0
222 0 0
224 0 0
223 0 0
223 0 0
222 0 0
220 0 0
222 0 0
221 0 0
220 0 0
221 0 0
225 0 0
222 0 0
220 0 0
221 0 0
222 0 0
224 0 0
224 0 0
223 0 0
224 0 0
222 0 0
221 0 0
221 0 0
221 0 0
224 0 0
223 0 0
226 0 0
224 0 0
224 0 0
221 0 0
0 0 255
0 0 255
0 0 255
0 0 254
0 0 255
0 0 254
0 0 254
0 0 255
0 0 255
0 0 253
0 0 255
0 0 255
0 0 255
0 0 255
0 0 253
0 0 254
0 0 255
0 0 254
0 0 255
0 0 255
0 0 254
0 0 254
0 0 255
0 0 253
0 0 255
0 0 254
0 0 254
0 0 255
0 0 254
0 0 254
0 0 255
0 0 253
0 0 255
0 0 252
0 0 255
0 0 249
0 0 253
0 0 254
0 0 255
0 0 254
0 0 255
0 0 253
0 0 253
0 0 252
0 0 253
0 0 253
0 0 253
0 0 253
0 0 253
0 0 252
0 0 253
0 0 254
0 0 254
0 0 253
0 0 254
0 0 255
0 0 252
0 0 254
0 0 255
0 0 254
0 0 253
0 0 252
0 0 252
0 0 246
0 0 255
0 0 252
0 0 254
0 0 250
0 0 254
0 0 250
0 0 253
0 0 252
0 0 253
0 0 254
0 0 253
0 0 246
0 0 252
0 0 254
0 0 252
0 0 253
0 0 253
0 0 252
0 0 253
0 0 254
0 0 250
0 0 252
0 0 252
0 0 253
0 0 249
0 0 245
0 0 249
0 0 252
0 0 252
0 0 255
0 0 246
0 0 254
0 0 252
0 0 248
0 0 252
0 0 246
0 0 250
0 0 253
0 0 248
0 0 252
0 0 249
0 0 250
0 0 245
0 0 249
0 0 249
0 0 244
0 0 245
0 0 249
0 0 245
0 0 246
0 0 245
0 0 252
0 0 245
0 0 249
0 0 248
0 0 246
0 0 249
0 0 242
0 0 244
0 0 252
0 0 252
0 0 244
0 0 248
0 0 245
0 0 246
0 0 242
0 0 246
0 0 244
0 0 241
0 0 241
0 0 249
0 0 240
0 0 242
0 0 242
0 0 237
0 0 241
0 0 238
0 0 237
0 0 244
0 0 231
0 0 250
0 0 240
0 0 231
0 0 238
0 0 234
0 0 228
0 0 234
0 0 230
0 0 246
0 0 234
0 0 234
0 0 236
0 0 231
0 0 233
0 0 233
0 0 224
0 0 231
0 0 231
0 0 233
0 0 227
0 0 228
0 0 234
0 0 227
0 0 224
0 0 227
0 0 224
0 0 220
0 0 221
0 0 212
0 0 221
0 0 212
0 0 223
0 0 211
0 0 204
0 0 209
0 0 211
0 0 203
0 0 209
0 0 191
0 0 191
0 0 194
0 0 184
0 0 177
0 0 191
0 0 191
0 0 189
0 0 167
0 0 159
0 0 157
0 0 153
0 0 155
22 24 142
223 234 252
229 240 255
229 240 255
229 240 255
229 240 255
229 240 255
229 240 255
221 230 245
144 41 44
151 0 0
149 0 0
157 0 0
159 0 0
160 0 0
188 0 0
172 0 0
178 0 0
171 0 0
179 0 0
186 0 0
161 0 0
184 0 0
186 0 0
179 0 0
183 0 0
184 0 0
194 0 0
191 0 0
192 0 0
194 0 0
195 0 0
197 0 0
206 0 0
198 0 0
200 0 0
185 0 0
199 0 0
207 0 0
192 0 0
208 0 0
208 0 0
197 0 0
200 0 0
212 0 0
202 0 0
213 0 0
204 0 0
214 0 0
200 0 0
206 0 0
213 0 0
208 0 0
206 0 0
204 0 0
208 0 0
202 0 0
204 0 0
223 0 0
206 0 0
218 0 0
211 0 0
213 0 0
212 0 0
215 0 0
209 0 0
214 0 0
218 0 0
209 0 0
213 0 0
215 0 0
215 0 0
213 0 0
211 0 0
217 0 0
216 0 0
217 0 0
217 0 0
217 0 0
220 0 0
212 0 0
210 0 0
206 0 0
206 0 0
215 0 0
216 0 0
219 0 0
209 0 0
217 0 0
215 0 0
223 0 0
219 0 0
221 0 0
211 0 0
218 0 0
218 0 0
217 0 0
216 0 0
221 0 0
217 0 0
218 0 0
215 0 0
214 0 0
215 0 0
223 0 0
220 0 0
222 0 0
216 0 0
221 0 0
222 0 0
225 0 0
221 0 0
218 0 0
222 0 0
222 0 0
220 0 0
216 0 0
217 0 0
220 0 0
214 0 0
221 0 0
226 0 0
217 0 0
221 0 0
220 0 0
225 0 0
222 0 0
219 0 0
224 0 0
221 0 0
220 0 0
217 0 0
222 0 0
223 0 0
224 0 0
221 0 0
222 0 0
220 0 0
226 0 0
224 0 0
225 0 0
222 0 0
218 0 0
221 0 0
227 0 0
221 0 0
221 0 0
224 0 0
222 0 0
218 0 0
223 0 0
221 0 0
222 0 0
223 0 0
221 0 0
221 0 0
221 0 0
221 0 0
224 0 0
223 0 0
221 0 0
226 0 0
222 0 0
221 0 0
225 0 0
222 0 0
221 0 0
219 0 0
224 0 0
222 0 0
223 0 0
227 0 0
224 0 0
224 0 0
225 0 0
221 0 0
226 0 0
222 0 0
224 0 0
219 0 0
225 0 0
222 0 0
221 0 0
222 0 0
222 0 0
222 0 0
223 0 0
218 0 0
224 0 0
225 0 0
221 0 0
219 0 0
218 0 0
224 0 0
220 0 0
224 0 0
222 0 0
226 0 0
226 0 0
220 0 0
222 0 0
224 0 0
221 0 0
224 0 0
228 0 0
0 0 254
0 0 254
0 0 255
0 0 254
0 0 253
0 0 255
0 0 255
0 0 255
0 0 254
0 0 255
0 0 255
0 0 253
0 0 254
0 0 254
0 0 255
0 0 255
0 0 255
0 0 255
0 0 253
0 0 252
0 0 255
0 0 254
0 0 255
0 0 255
0 0 254
0 0 253
0 0 249
0 0 253
0 0 253
0 0 254
0 0 254
0 0 254
0 0 253
0 0 254
0 0 253
0 0 253
0 0 255
0 0 253
0 0 254
0 0 254
0 0 252
0 0 252
0 0 254
0 0 252
0 0 254
0 0 255
0 0 252
0 0 252
0 0 249
0 0 255
0 0 254
0 0 253
0 0 255
0 0 255
0 0 254
0 0 252
0 0 255
0 0 248
0 0 254
0 0 254
0 0 250
0 0 252
0 0 254
0 0 253
0 0 255
0 0 252
0 0 252
0 0 250
0 0 254
0 0 254
0 0 253
0 0 253
0 0 252
0 0 254
0 0 254
0 0 252
0 0 253
0 0 249
0 0 253
0 0 253
0 0 252
0 0 249
0 0 250
0 0 253
0 0 249
0 0 246
0 0 249
0 0 253
0 0 248
0 0 250
0 0 248
0 0 246
0 0 244
0 0 248
0 0 248
0 0 253
0 0 253
0 0 252
0 0 250
0 0 250
0 0 250
0 0 249
0 0 252
0 0 244
0 0 248
0 0 249
0 0 245
0 0 254
0 0 246
0 0 250
0 0 240
0 0 249
0 0 252
0 0 248
0 0 242
0 0 248
0 0 248
0 0 248
0 0 248
0 0 242
0 0 244
0 0 248
0 0 246
0 0 248
0 0 250
0 0 249
0 0 249
0 0 241
0 0 241
0 0 248
0 0 249
0 0 244
0 0 238
0 0 245
0 0 241
0 0 244
0 0 244
0 0 242
0 0 234
0 0 241
0 0 240
0 0 242
0 0 236
0 0 241
0 0 236
0 0 227
0 0 241
0 0 230
0 0 238
0 0 240
0 0 236
0 0 233
0 0 227
0 0 234
0 0 234
0 0 234
0 0 233
0 0 241
0 0 234
0 0 228
0 0 237
0 0 228
0 0 221
0 0 223
0 0 228
0 0 228
0 0 217
0 0 223
0 0 227
0 0 224
0 0 220
0 0 224
0 0 234
0 0 218
0 0 226
0 0 201
0 0 218
0 0 206
0 0 198
0 0 215
0 0 206
0 0 206
0 0 212
0 0 204
0 0 209
0 0 179
0 0 189
0 0 196
0 0 186
0 0 182
0 0 179
0 0 165
0 0 167
0 0 151
0 0 137
143 150 188
229 240 255
229 240 255
229 240 255
229 240 255
229 240 255
229 240 255
229 240 255
229 240 255
176 144 153
163 0 0
143 0 0
152 0 0
158 0 0
157 0 0
152 0 0
157 0 0
159 0 0
174 0 0
169 0 0
185 0 0
184 0 0
185 0 0
184 0 0
179 0 0
186 0 0
192 0 0
175 0 0
196 0 0
175 0 0
188 0 0
186 0 0
193 0 0
205 0 0
195 0 0
210 0 0
206 0 0
191 0 0
190 0 0
189 0 0
200 0 0
211 0 0
208 0 0
197 0 0
209 0 0
199 0 0
215 0 0
206 0 0
202 0 0
211 0 0
210 0 0
205 0 0
213 0 0
208 0 0
209 0 0
213 0 0
214 0 0
204 0 0
218 0 0
207 0 0
206 0 0
215 0 0
213 0 0
215 0 0
211 0 0
219 0 0
221 0 0
218 0 0
206 0 0
213 0 0
211 0 0
214 0 0
204 0 0
220 0 0
213 0 0
218 0 0
213 0 0
213 0 0
208 0 0
216 0 0
218 0 0
220 0 0
223 0 0
218 0 0
208 0 0
216 0 0
221 0 0
220 0 0
218 0 0
208 0 0
220 0 0
216 0 0
221 0 0
218 0 0
216 0 0
218 0 0
211 0 0
206 0 0
214 0 0
220 0 0
218 0 0
215 0 0
216 0 0
214 0 0
221 0 0
217 0 0
218 0 0
219 0 0
219 0 0
217 0 0
218 0 0
223 0 0
218 0 0
224 0 0
215 0 0
222 0 0
221 0 0
217 0 0
219 0 0
219 0 0
224 0 0
222 0 0
220 0 0
221 0 0
218 0 0
221 0 0
218 0 0
220 0 0
217 0 0
223 0 0
217 0 0
222 0 0
224 0 0
216 0 0
223 0 0
224 0 0
220 0 0
224 0 0
225 0 0
220 0 0
219 0 0
223 0 0
222 0 0
224 0 0
222 0 0
219 0 0
221 0 0
223 0 0
219 0 0
220 0 0
222 0 0
219 0 0
225 0 0
221 0 0
217 0 0
224 0 0
222 0 0
223 0 0
220 0 0
220 0 0
223 0 0
224 0 0
221 0 0
225 0 0
222 0 0
220 0 0
223 0 0
222 0 0
224 0 0
221 0 0
222 0 0
221 0 0
222 0 0
221 0 0
222 0 0
225 0 0
224 0 0
224 0 0
222 0 0
221 0 0
220 0 0
226 0 0
222 0 0
225 0 0
225 0 0
222 0 0
225 0 0
226 0 0
221 0 0
223 0 0
220 0 0
222 0 0
224 0 0
223 0 0
223 0 0
226 0 0
221 0 0
224 0 0
222 0 0
223 0 0
220 0 0
222 0 0
225 0 0
226 0 0
228 0 0
0 0 253
0 0 255
0 0 255
0 0 254
0 0 255
0 0 255
0 0 253
0 0 254
0 0 254
0 0 254
0 0 255
0 0 255
0 0 254
0 0 255
0 0 254
0 0 255
0 0 255
0 0 253
0 0 253
0 0 254
0 0 253
0 0 255
0 0 254
0 0 254
0 0 253
0 0 255
0 0 255
0 0 255
0 0 253
0 0 254
0 0 254
0 0 254
0 0 253
0 0 254
0 0 253
0 0 254
0 0 253
0 0 252
0 0 254
0 0 253
0 0 254
0 0 253
0 0 255
0 0 255
0 0 253
0 0 254
0 0 254
0 0 253
0 0 250
0 0 253
0 0 252
0 0 254
0 0 254
0 0 254
0 0 253
0 0 255
0 0 254
0 0 254
0 0 250
0 0 252
0 0 254
0 0 253
0 0 254
0 0 250
0 0 253
0 0 252
0 0 253
0 0 253
0 0 252
0 0 254
0 0 252
0 0 248
0 0 253
0 0 249
0 0 253
0 0 252
0 0 252
0 0 253
0 0 253
0 0 253
0 0 253
0 0 250
0 0 252
0 0 252
0 0 246
0 0 249
0 0 253
0 0 249
0 0 252
0 0 254
0 0 248
0 0 250
0 0 250
0 0 252
0 0 250
0 0 248
0 0 252
0 0 248
0 0 252
0 0 248
0 0 249
0 0 248
0 0 249
0 0 250
0 0 249
0 0 249
0 0 246
0 0 248
0 0 246
0 0 244
0 0 246
0 0 245
0 0 246
0 0 244
0 0 246
0 0 246
0 0 252
0 0 245
0 0 246
0 0 245
0 0 240
0 0 249
0 0 245
0 0 245
0 0 246
0 0 248
0 0 248
0 0 237
0 0 244
0 0 252
0 0 242
0 0 245
0 0 241
0 0 245
0 0 240
0 0 242
0 0 248
0 0 242
0 0 236
0 0 238
0 0 242
0 0 245
0 0 237
0 0 241
0 0 241
0 0 237
0 0 245
0 0 240
0 0 242
0 0 242
0 0 234
0 0 233
0 0 245
0 0 230
0 0 237
0 0 241
0 0 231
0 0 236
0 0 234
0 0 238
0 0 226
0 0 234
0 0 234
0 0 236
0 0 231
0 0 226
0 0 228
0 0 220
0 0 237
0 0 221
0 0 224
0 0 227
0 0 215
0 0 220
0 0 212
0 0 212
0 0 201
0 0 201
0 0 214
0 0 217
0 0 217
0 0 207
0 0 206
0 0 203
0 0 199
0 0 191
0 0 184
0 0 181
0 0 177
0 0 167
0 0 165
0 0 159
0 0 169
0 0 184
0 0 161
186 195 227
230 240 255
230 240 255
230 240 255
230 240 255
230 240 255
230 240 255
230 240 255
230 240 255
206 189 201
164 0 0
159 0 0
153 0 0
157 0 0
159 0 0
177 0 0
167 0 0
173 0 0
170 0 0
177 0 0
166 0 0
172 0 0
177 0 0
178 0 0
185 0 0
202 0 0
191 0 0
177 0 0
193 0 0
194 0 0
188 0 0
184 0 0
200 0 0
192 0 0
197 0 0
197 0 0
199 0 0
191 0 0
209 0 0
207 0 0
199 0 0
196 0 0
217 0 0
214 0 0
206 0 0
211 0 0
204 0 0
209 0 0
208 0 0
212 0 0
212 0 0
203 0 0
208 0 0
213 0 0
216 0 0
207 0 0
219 0 0
211 0 0
206 0 0
208 0 0
211 0 0
212 0 0
210 0 0
210 0 0
213 0 0
213 0 0
217 0 0
210 0 0
217 0 0
212 0 0
210 0 0
216 0 0
217 0 0
213 0 0
212 0 0
210 0 0
212 0 0
219 0 0
220 0 0
215 0 0
220 0 0
218 0 0
216 0 0
218 0 0
216 0 0
211 0 0
213 0 0
216 0 0
217 0 0
216 0 0
213 0 0
213 0 0
219 0 0
215 0 0
220 0 0
219 0 0
215 0 0
215 0 0
214 0 0
217 0 0
224 0 0
221 0 0
221 0 0
220 0 0
221 0 0
218 0 0
222 0 0
222 0 0
215 0 0
223 0 0
219 0 0
218 0 0
225 0 0
221 0 0
219 0 0
220 0 0
221 0 0
222 0 0
225 0 0
220 0 0
222 0 0
218 0 0
221 0 0
221 0 0
218 0 0
219 0 0
224 0 0
218 0 0
218 0 0
220 0 0
226 0 0
220 0 0
222 0 0
225 0 0
224 0 0
226 0 0
222 0 0
224 0 0
221 0 0
225 0 0
220 0 0
225 0 0
218 0 0
222 0 0
228 0 0
222 0 0
222 0 0
223 0 0
222 0 0
222 0 0
226 0 0
226 0 0
228 0 0
220 0 0
224 0 0
220 0 0
224 0 0
222 0 0
225 0 0
224 0 0
219 0 0
225 0 0
223 0 0
222 0 0
223 0 0
224 0 0
221 0 0
225 0 0
225 0 0
226 0 0
221 0 0
223 0 0
223 0 0
224 0 0
218 0 0
224 0 0
224 0 0
224 0 0
226 0 0
222 0 0
222 0 0
222 0 0
222 0 0
223 0 0
226 0 0
222 0 0
227 0 0
225 0 0
224 0 0
223 0 0
226 0 0
223 0 0
222 0 0
225 0 0
224 0 0
225 0 0
223 0 0
224 0 0
222 0 0
226 0 0
225 0 0
224 0 0
222 0 0
220 0 0
222 0 0
0 0 254
0 0 255
0 0 255
0 0 255
0 0 255
0 0 255
0 0 255
0 0 254
0 0 255
0 0 254
0 0 255
0 0 255
0 0 255
0 0 254
0 0 255
0 0 254
0 0 254
0 0 255
0 0 254
0 0 255
0 0 255
0 0 255
0 0 255
0 0 253
0 0 254
0 0 254
0 0 255
0 0 253
0 0 254
0 0 254
0 0 252
0 0 254
0 0 254
0 0 254
0 0 255
0 0 255
0 0 253
0 0 253
0 0 248
0 0 253
0 0 254
0 0 253
0 0 254
0 0 252
0 0 253
0 0 255
0 0 253
0 0 254
0 0 250
0 0 254
0 0 253
0 0 253
0 0 254
0 0 253
0 0 255
0 0 254
0 0 252
0 0 248
0 0 254
0 0 253
0 0 253
0 0 254
0 0 253
0 0 252
0 0 252
0 0 250
0 0 254
0 0 254
0 0 250
0 0 252
0 0 248
0 0 254
0 0 253
0 0 252
0 0 250
0 0 252
0 0 249
0 0 254
0 0 250
0 0 253
0 0 252
0 0 254
0 0 252
0 0 250
0 0 246
0 0 253
0 0 253
0 0 248
0 0 250
0 0 249
0 0 248
0 0 255
0 0 249
0 0 246
0 0 248
0 0 242
0 0 250
0 0 252
0 0 250
0 0 246
0 0 252
0 0 250
0 0 250
0 0 249
0 0 252
0 0 245
0 0 248
0 0 249
0 0 246
0 0 248
0 0 249
0 0 250
0 0 248
0 0 250
0 0 249
0 0 249
0 0 250
0 0 248
0 0 250
0 0 249
0 0 246
0 0 252
0 0 246
0 0 244
0 0 245
0 0 244
0 0 244
0 0 249
0 0 240
0 0 246
0 0 238
0 0 245
0 0 245
0 0 244
0 0 244
0 0 241
0 0 245
0 0 240
0 0 234
0 0 234
0 0 240
0 0 242
0 0 236
0 0 237
0 0 245
0 0 241
0 0 240
0 0 240
0 0 242
0 0 240
0 0 240
0 0 241
0 0 226
0 0 236
0 0 240
0 0 233
0 0 223
0 0 240
0 0 234
0 0 234
0 0 230
0 0 227
0 0 230
0 0 233
0 0 223
0 0 237
0 0 233
0 0 230
0 0 227
0 0 236
0 0 230
0 0 226
0 0 211
0 0 220
0 0 211
0 0 217
0 0 218
0 0 214
0 0 215
0 0 214
0 0 209
0 0 212
0 0 212
0 0 217
0 0 198
0 0 203
0 0 193
0 0 201
0 0 188
0 0 198
0 0 149
0 0 157
0 0 167
0 0 144
46 48 177
224 234 249
230 241 255
230 240 255
230 241 255
230 241 255
230 241 255
230 240 255
230 240 255
230 240 255
222 231 245
163 41 44
170 0 0
166 0 0
171 0 0
163 0 0
164 0 0
165 0 0
167 0 0
180 0 0
187 0 0
175 0 0
177 0 0
190 0 0
178 0 0
177 0 0
201 0 0
184 0 0
194 0 0
195 0 0
190 0 0
194 0 0
199 0 0
202 0 0
197 0 0
202 0 0
198 0 0
208 0 0
192 0 0
213 0 0
205 0 0
211 0 0
206 0 0
209 0 0
200 0 0
211 0 0
207 0 0
202 0 0
207 0 0
204 0 0
211 0 0
206 0 0
216 0 0
203 0 0
209 0 0
215 0 0
209 0 0
213 0 0
216 0 0
208 0 0
208 0 0
211 0 0
209 0 0
213 0 0
211 0 0
207 0 0
211 0 0
213 0 0
210 0 0
218 0 0
211 0 0
213 0 0
216 0 0
215 0 0
212 0 0
211 0 0
216 0 0
215 0 0
209 0 0
215 0 0
208 0 0
214 0 0
220 0 0
219 0 0
220 0 0
217 0 0
217 0 0
222 0 0
215 0 0
210 0 0
215 0 0
217 0 0
215 0 0
224 0 0
213 0 0
214 0 0
215 0 0
225 0 0
223 0 0
221 0 0
219 0 0
222 0 0
219 0 0
215 0 0
220 0 0
218 0 0
221 0 0
221 0 0
221 0 0
217 0 0
222 0 0
220 0 0
219 0 0
223 0 0
220 0 0
218 0 0
219 0 0
220 0 0
218 0 0
219 0 0
224 0 0
221 0 0
221 0 0
218 0 0
218 0 0
223 0 0
222 0 0
222 0 0
218 0 0
219 0 0
223 0 0
223 0 0
222 0 0
223 0 0
224 0 0
224 0 0
222 0 0
221 0 0
220 0 0
220 0 0
225 0 0
224 0 0
224 0 0
225 0 0
227 0 0
219 0 0
223 0 0
220 0 0
224 0 0
223 0 0
224 0 0
222 0 0
224 0 0
227 0 0
222 0 0
221 0 0
227 0 0
224 0 0
220 0 0
221 0 0
223 0 0
220 0 0
223 0 0
222 0 0
226 0 0
223 0 0
219 0 0
218 0 0
225 0 0
225 0 0
228 0 0
223 0 0
224 0 0
224 0 0
224 0 0
218 0 0
223 0 0
223 0 0
224 0 0
222 0 0
226 0 0
225 0 0
225 0 0
219 0 0
219 0 0
221 0 0
225 0 0
222 0 0
221 0 0
222 0 0
222 0 0
221 0 0
223 0 0
225 0 0
225 0 0
223 0 0
224 0 0
222 0 0
229 0 0
226 0 0
221 0 0
224 0 0
226 0 0
220 0 0
223 0 0
220 0 0
0 0 255
0 0 255
0 0 255
0 0 255
0 0 255
0 0 254
0 0 255
0 0 254
0 0 253
0 0 255
0 0 254
0 0 255
0 0 255
0 0 254
0 0 255
0 0 255
0 0 255
0 0 255
0 0 254
0 0 254
0 0 255
0 0 255
0 0 254
0 0 255
0 0 255
0 0 253
0 0 254
0 0 253
0 0 254
0 0 254
0 0 253
0 0 255
0 0 255
0 0 252
0 0 254
0 0 255
0 0 254
0 0 253
0 0 253
0 0 255
0 0 253
0 0 255
0 0 252
0 0 253
0 0 255
0 0 253
0 0 252
0 0 254
0 0 250
0 0 250
0 0 254
0 0 255
0 0 254
0 0 255
0 0 255
0 0 254
0 0 255
0 0 250
0 0 253
0 0 253
0 0 250
0 0 253
0 0 252
0 0 252
0 0 248
0 0 252
0 0 254
0 0 253
0 0 252
0 0 254
0 0 250
0 0 253
0 0 254
0 0 252
0 0 249
0 0 252
0 0 252
0 0 250
0 0 254
0 0 252
0 0 252
0 0 254
0 0 253
0 0 250
0 0 254
0 0 254
0 0 249
0 0 249
0 0 244
0 0 254
0 0 253
0 0 248
0 0 250
0 0 250
0 0 249
0 0 253
0 0 250
0 0 252
0 0 244
0 0 245
0 0 252
0 0 252
0 0 242
0 0 252
0 0 250
0 0 250
0 0 253
0 0 249
0 0 248
0 0 253
0 0 250
0 0 244
0 0 246
0 0 253
0 0 246
0 0 253
0 0 250
0 0 248
0 0 242
0 0 246
0 0 252
0 0 249
0 0 253
0 0 249
0 0 242
0 0 252
0 0 248
0 0 245
0 0 245
0 0 250
0 0 249
0 0 244
0 0 238
0 0 242
0 0 242
0 0 244
0 0 249
0 0 242
0 0 241
0 0 240
0 0 234
0 0 244
0 0 244
0 0 240
0 0 244
0 0 246
0 0 234
0 0 236
0 0 240
0 0 240
0 0 244
0 0 236
0 0 245
0 0 233
0 0 237
0 0 233
0 0 240
0 0 231
0 0 227
0 0 236
0 0 223
0 0 237
0 0 224
0 0 236
0 0 223
0 0 231
0 0 214
0 0 221
0 0 230
0 0 221
0 0 221
0 0 227
0 0 227
0 0 220
0 0 226
0 0 218
0 0 211
0 0 214
0 0 209
0 0 223
0 0 218
0 0 211
0 0 214
0 0 206
0 0 209
0 0 198
0 0 194
0 0 194
0 0 194
0 0 189
0 0 175
0 0 177
0 0 182
0 0 155
142 148 196
230 241 255
230 241 255
230 241 255
230 241 255
230 241 255
230 241 255
230 241 255
230 241 255
230 241 255
230 241 255
180 152 161
156 0 0
160 0 0
156 0 0
169 0 0
158 0 0
180 0 0
178 0 0
166 0 0
182 0 0
181 0 0
190 0 0
184 0 0
184 0 0
186 0 0
185 0 0
180 0 0
191 0 0
193 0 0
195 0 0
207 0 0
192 0 0
205 0 0
197 0 0
195 0 0
196 0 0
204 0 0
202 0 0
192 0 0
199 0 0
209 0 0
206 0 0
208 0 0
207 0 0
206 0 0
197 0 0
204 0 0
214 0 0
207 0 0
213 0 0
204 0 0
214 0 0
215 0 0
214 0 0
210 0 0
215 0 0
213 0 0
211 0 0
212 0 0
208 0 0
207 0 0
214 0 0
213 0 0
213 0 0
211 0 0
218 0 0
211 0 0
215 0 0
214 0 0
219 0 0
210 0 0
212 0 0
213 0 0
213 0 0
216 0 0
221 0 0
222 0 0
220 0 0
218 0 0
208 0 0
218 0 0
215 0 0
218 0 0
215 0 0
221 0 0
218 0 0
222 0 0
213 0 0
220 0 0
215 0 0
217 0 0
220 0 0
218 0 0
219 0 0
217 0 0
219 0 0
215 0 0
218 0 0
219 0 0
221 0 0
218 0 0
224 0 0
223 0 0
215 0 0
222 0 0
219 0 0
216 0 0
214 0 0
227 0 0
220 0 0
221 0 0
214 0 0
218 0 0
224 0 0
226 0 0
222 0 0
218 0 0
227 0 0
223 0 0
219 0 0
216 0 0
223 0 0
223 0 0
221 0 0
219 0 0
219 0 0
221 0 0
218 0 0
220 0 0
220 0 0
222 0 0
223 0 0
224 0 0
224 0 0
222 0 0
224 0 0
221 0 0
222 0 0
219 0 0
218 0 0
223 0 0
224 0 0
219 0 0
223 0 0
219 0 0
221 0 0
221 0 0
218 0 0
221 0 0
217 0 0
222 0 0
220 0 0
225 0 0
223 0 0
226 0 0
223 0 0
222 0 0
222 0 0
217 0 0
223 0 0
223 0 0
225 0 0
222 0 0
222 0 0
222 0 0
222 0 0
224 0 0
226 0 0
222 0 0
226 0 0
224 0 0
220 0 0
223 0 0
222 0 0
224 0 0
225 0 0
222 0 0
221 0 0
226 0 0
223 0 0
221 0 0
221 0 0
222 0 0
227 0 0
221 0 0
220 0 0
227 0 0
224 0 0
222 0 0
220 0 0
227 0 0
222 0 0
225 0 0
221 0 0
222 0 0
224 0 0
220 0 0
222 0 0
222 0 0
225 0 0
218 0 0
225 0 0
223 0 0
225 0 0
226 0 0
0 0 255
0 0 254
0 0 254
0 0 255
0 0 255
0 0 255
0 0 254
0 0 255
0 0 255
0 0 255
0 0 253
0 0 255
0 0 255
0 0 254
0 0 255
0 0 255
0 0 255
0 0 252
0 0 254
0 0 255
0 0 254
0 0 246
0 0 255
0 0 253
0 0 254
0 0 255
0 0 254
0 0 255
0 0 253
0 0 253
0 0 254
0 0 255
0 0 253
0 0 254
0 0 255
0 0 254
0 0 253
0 0 250
0 0 253
0 0 255
0 0 254
0 0 255
0 0 254
0 0 253
0 0 253
0 0 250
0 0 248
0 0 253
0 0 255
0 0 252
0 0 255
0 0 250
0 0 255
0 0 253
0 0 255
0 0 254
0 0 252
0 0 253
0 0 254
0 0 255
0 0 254
0 0 253
0 0 254
0 0 254
0 0 254
0 0 255
0 0 252
0 0 252
0 0 253
0 0 248
0 0 252
0 0 249
0 0 253
0 0 255
0 0 254
0 0 252
0 0 252
0 0 253
0 0 252
0 0 250
0 0 255
0 0 253
0 0 250
0 0 249
0 0 253
0 0 249
0 0 253
0 0 249
0 0 250
0 0 249
0 0 250
0 0 254
0 0 249
0 0 246
0 0 250
0 0 248
0 0 253
0 0 249
0 0 249
0 0 252
0 0 245
0 0 249
0 0 252
0 0 249
0 0 252
0 0 248
0 0 248
0 0 245
0 0 248
0 0 249
0 0 246
0 0 248
0 0 250
0 0 253
0 0 246
0 0 240
0 0 254
0 0 249
0 0 244
0 0 242
0 0 242
0 0 241
0 0 249
0 0 244
0 0 240
0 0 244
0 0 244
0 0 248
0 0 250
0 0 240
0 0 240
0 0 245
0 0 246
0 0 249
0 0 245
0 0 245
0 0 241
0 0 241
0 0 233
0 0 242
0 0 234
0 0 241
0 0 244
0 0 246
0 0 244
0 0 237
0 0 233
0 0 231
0 0 240
0 0 237
0 0 230
0 0 242
0 0 233
0 0 231
0 0 230
0 0 226
0 0 236
0 0 224
0 0 226
0 0 223
0 0 221
0 0 221
0 0 228
0 0 233
0 0 227
0 0 227
0 0 234
0 0 221
0 0 224
0 0 218
0 0 224
0 0 223
0 0 227
0 0 223
0 0 212
0 0 211
0 0 209
0 0 215
0 0 212
0 0 223
0 0 204
0 0 217
0 0 207
0 0 203
0 0 204
0 0 182
0 0 171
0 0 193
0 0 188
0 0 191
0 0 165
0 0 179
0 0 165
0 0 161
206 215 238
231 241 255
231 241 255
231 241 255
231 241 255
231 241 255
231 241 255
231 241 255
231 241 255
231 241 255
231 241 255
210 201 214
145 0 0
156 0 0
162 0 0
159 0 0
154 0 0
170 0 0
171 0 0
160 0 0
171 0 0
171 0 0
168 0 0
186 0 0
198 0 0
190 0 0
185 0 0
193 0 0
182 0 0
190 0 0
198 0 0
192 0 0
194 0 0
207 0 0
187 0 0
197 0 0
201 0 0
208 0 0
200 0 0
202 0 0
202 0 0
208 0 0
207 0 0
204 0 0
212 0 0
205 0 0
209 0 0
212 0 0
208 0 0
202 0 0
217 0 0
205 0 0
214 0 0
210 0 0
205 0 0
212 0 0
218 0 0
210 0 0
214 0 0
212 0 0
212 0 0
208 0 0
219 0 0
215 0 0
205 0 0
214 0 0
207 0 0
207 0 0
216 0 0
216 0 0
212 0 0
218 0 0
215 0 0
217 0 0
209 0 0
224 0 0
213 0 0
209 0 0
211 0 0
208 0 0
223 0 0
213 0 0
216 0 0
219 0 0
220 0 0
219 0 0
218 0 0
214 0 0
222 0 0
214 0 0
210 0 0
212 0 0
217 0 0
221 0 0
217 0 0
223 0 0
218 0 0
222 0 0
215 0 0
221 0 0
221 0 0
217 0 0
215 0 0
217 0 0
216 0 0
222 0 0
217 0 0
220 0 0
220 0 0
222 0 0
219 0 0
224 0 0
220 0 0
219 0 0
221 0 0
223 0 0
224 0 0
219 0 0
219 0 0
221 0 0
225 0 0
218 0 0
213 0 0
218 0 0
223 0 0
218 0 0
223 0 0
224 0 0
217 0 0
215 0 0
219 0 0
225 0 0
221 0 0
223 0 0
224 0 0
226 0 0
220 0 0
220 0 0
220 0 0
223 0 0
225 0 0
223 0 0
225 0 0
223 0 0
228 0 0
219 0 0
225 0 0
226 0 0
223 0 0
224 0 0
223 0 0
223 0 0
221 0 0
221 0 0
218 0 0
227 0 0
222 0 0
214 0 0
225 0 0
221 0 0
225 0 0
227 0 0
225 0 0
221 0 0
222 0 0
220 0 0
218 0 0
223 0 0
225 0 0
221 0 0
221 0 0
223 0 0
222 0 0
220 0 0
220 0 0
223 0 0
222 0 0
224 0 0
221 0 0
223 0 0
221 0 0
224 0 0
225 0 0
221 0 0
221 0 0
222 0 0
220 0 0
221 0 0
220 0 0
224 0 0
223 0 0
224 0 0
227 0 0
220 0 0
222 0 0
223 0 0
227 0 0
223 0 0
225 0 0
225 0 0
225 0 0
227 0 0
224 0 0
221 0 0
220 0 0
223 0 0
0 0 253
0 0 254
0 0 255
0 0 255
0 0 255
0 0 255
0 0 255
0 0 255
0 0 255
0 0 254
0 0 254
0 0 255
0 0 253
0 0 255
0 0 255
0 0 254
0 0 254
0 0 254
0 0 255
0 0 254
0 0 254
0 0 255
0 0 254
0 0 255
0 0 252
0 0 255
0 0 254
0 0 255
0 0 253
0 0 255
0 0 255
0 0 255
0 0 255
0 0 255
0 0 253
0 0 255
0 0 254
0 0 253
0 0 250
0 0 254
0 0 254
0 0 254
0 0 253
0 0 255
0 0 250
0 0 254
0 0 254
0 0 250
0 0 254
0 0 252
0 0 255
0 0 255
0 0 253
0 0 253
0 0 249
0 0 255
0 0 255
0 0 252
0 0 254
0 0 252
0 0 255
0 0 254
0 0 255
0 0 253
0 0 252
0 0 252
0 0 249
0 0 253
0 0 249
0 0 250
0 0 250
0 0 254
0 0 254
0 0 255
0 0 250
0 0 252
0 0 252
0 0 253
0 0 254
0 0 248
0 0 253
0 0 248
0 0 252
0 0 250
0 0 254
0 0 249
0 0 253
0 0 250
0 0 253
0 0 254
0 0 248
0 0 250
0 0 248
0 0 250
0 0 246
0 0 249
0 0 252
0 0 246
0 0 249
0 0 253
0 0 252
0 0 250
0 0 249
0 0 248
0 0 253
0 0 250
0 0 249
0 0 249
0 0 248
0 0 246
0 0 245
0 0 246
0 0 244
0 0 249
0 0 249
0 0 246
0 0 240
0 0 249
0 0 242
0 0 249
0 0 245
0 0 248
0 0 248
0 0 242
0 0 241
0 0 249
0 0 252
0 0 242
0 0 242
0 0 242
0 0 240
0 0 244
0 0 246
0 0 242
0 0 248
0 0 250
0 0 245
0 0 241
0 0 234
0 0 238
0 0 240
0 0 238
0 0 237
0 0 238
0 0 237
0 0 249
0 0 241
0 0 230
0 0 231
0 0 238
0 0 244
0 0 245
0 0 240
0 0 240
0 0 238
0 0 234
0 0 231
0 0 227
0 0 227
0 0 240
0 0 224
0 0 224
0 0 233
0 0 234
0 0 228
0 0 221
0 0 231
0 0 224
0 0 233
0 0 226
0 0 211
0 0 224
0 0 227
0 0 209
0 0 214
0 0 223
0 0 211
0 0 221
0 0 221
0 0 215
0 0 199
0 0 217
0 0 203
0 0 199
0 0 209
0 0 204
0 0 194
0 0 198
0 0 196
0 0 189
0 0 167
0 0 181
0 0 171
89 93 182
230 240 254
231 241 255
231 241 255
231 241 255
231 241 255
231 241 255
231 241 255
231 241 255
231 241 255
231 241 255
231 241 255
231 241 255
181 105 111
171 0 0
163 0 0
165 0 0
170 0 0
174 0 0
179 0 0
180 0 0
183 0 0
197 0 0
189 0 0
177 0 0
192 0 0
180 0 0
194 0 0
194 0 0
202 0 0
192 0 0
190 0 0
203 0 0
199 0 0
187 0 0
209 0 0
209 0 0
183 0 0
202 0 0
208 0 0
191 0 0
202 0 0
198 0 0
203 0 0
224 0 0
200 0 0
199 0 0
203 0 0
204 0 0
217 0 0
209 0 0
213 0 0
208 0 0
210 0 0
205 0 0
210 0 0
216 0 0
213 0 0
215 0 0
213 0 0
218 0 0
214 0 0
214 0 0
204 0 0
215 0 0
219 0 0
214 0 0
213 0 0
212 0 0
216 0 0
214 0 0
211 0 0
215 0 0
216 0 0
209 0 0
218 0 0
210 0 0
225 0 0
217 0 0
218 0 0
216 0 0
213 0 0
220 0 0
221 0 0
221 0 0
215 0 0
217 0 0
217 0 0
215 0 0
219 0 0
211 0 0
223 0 0
213 0 0
220 0 0
215 0 0
215 0 0
217 0 0
217 0 0
217 0 0
222 0 0
222 0 0
220 0 0
214 0 0
216 0 0
224 0 0
222 0 0
220 0 0
219 0 0
224 0 0
222 0 0
222 0 0
218 0 0
217 0 0
221 0 0
223 0 0
220 0 0
224 0 0
219 0 0
223 0 0
218 0 0
220 0 0
226 0 0
217 0 0
222 0 0
220 0 0
220 0 0
223 0 0
223 0 0
219 0 0
219 0 0
224 0 0
221 0 0
226 0 0
218 0 0
219 0 0
220 0 0
223 0 0
225 0 0
224 0 0
224 0 0
225 0 0
223 0 0
221 0 0
220 0 0
222 0 0
225 0 0
220 0 0
225 0 0
212 0 0
228 0 0
224 0 0
222 0 0
223 0 0
223 0 0
223 0 0
225 0 0
224 0 0
224 0 0
223 0 0
226 0 0
221 0 0
226 0 0
226 0 0
219 0 0
222 0 0
221 0 0
219 0 0
224 0 0
221 0 0
224 0 0
225 0 0
223 0 0
221 0 0
228 0 0
228 0 0
224 0 0
224 0 0
226 0 0
223 0 0
224 0 0
222 0 0
226 0 0
227 0 0
225 0 0
220 0 0
224 0 0
226 0 0
222 0 0
223 0 0
223 0 0
220 0 0
227 0 0
223 0 0
224 0 0
222 0 0
224 0 0
222 0 0
221 0 0
222 0 0
224 0 0
223 0 0
220 0 0
226 0 0
226 0 0
223 0 0
223 0 0
224 0 0
0 0 255
0 0 255
0 0 254
0 0 254
0 0 255
0 0 254
0 0 254
0 0 255
0 0 255
0 0 255
0 0 254
0 0 255
0 0 254
0 0 255
0 0 253
0 0 254
0 0 255
0 0 255
0 0 255
0 0 253
0 0 254
0 0 252
0 0 255
0 0 253
0 0 255
0 0 255
0 0 255
0 0 253
0 0 254
0 0 255
0 0 254
0 0 254
0 0 254
0 0 254
0 0 255
0 0 255
0 0 255
0 0 254
0 0 253
0 0 254
0 0 253
0 0 254
0 0 253
0 0 253
0 0 253
0 0 252
0 0 253
0 0 255
0 0 254
0 0 255
0 0 254
0 0 254
0 0 254
0 0 253
0 0 252
0 0 254
0 0 254
0 0 254
0 0 254
0 0 254
0 0 252
0 0 254
0 0 249
0 0 249
0 0 253
0 0 255
0 0 253
0 0 249
0 0 252
0 0 252
0 0 249
0 0 253
0 0 254
0 0 253
0 0 253
0 0 253
0 0 253
0 0 250
0 0 254
0 0 249
0 0 253
0 0 250
0 0 253
0 0 253
0 0 250
0 0 244
0 0 252
0 0 250
0 0 250
0 0 249
0 0 252
0 0 244
0 0 249
0 0 253
0 0 246
0 0 254
0 0 249
0 0 246
0 0 253
0 0 249
0 0 253
0 0 253
0 0 253
0 0 250
0 0 248
0 0 246
0 0 246
0 0 248
0 0 250
0 0 246
0 0 252
0 0 248
0 0 244
0 0 242
0 0 242
0 0 245
0 0 248
0 0 245
0 0 249
0 0 249
0 0 248
0 0 252
0 0 246
0 0 244
0 0 246
0 0 244
0 0 238
0 0 242
0 0 252
0 0 241
0 0 246
0 0 240
0 0 242
0 0 248
0 0 238
0 0 248
0 0 249
0 0 242
0 0 242
0 0 241
0 0 236
0 0 234
0 0 238
0 0 249
0 0 242
0 0 246
0 0 237
0 0 231
0 0 231
0 0 244
0 0 240
0 0 237
0 0 238
0 0 233
0 0 236
0 0 233
0 0 233
0 0 237
0 0 230
0 0 230
0 0 230
0 0 231
0 0 234
0 0 240
0 0 231
0 0 217
0 0 226
0 0 221
0 0 217
0 0 230
0 0 228
0 0 220
0 0 211
0 0 207
0 0 215
0 0 218
0 0 217
0 0 204
0 0 206
0 0 206
0 0 217
0 0 204
0 0 191
0 0 196
0 0 204
0 0 199
0 0 196
0 0 193
0 0 169
0 0 184
0 0 173
0 0 177
0 0 181
163 170 223
231 241 255
231 241 255
231 241 255
231 241 255
231 241 255
231 241 255
231 241 255
231 241 255
231 241 255
231 241 255
231 241 255
231 241 255
200 190 201
168 0 0
159 0 0
162 0 0
185 0 0
181 0 0
186 0 0
179 0 0
179 0 0
188 0 0
178 0 0
187 0 0
183 0 0
186 0 0
194 0 0
204 0 0
194 0 0
204 0 0
199 0 0
197 0 0
197 0 0
213 0 0
189 0 0
203 0 0
196 0 0
209 0 0
197 0 0
196 0 0
206 0 0
199 0 0
206 0 0
214 0 0
215 0 0
200 0 0
199 0 0
216 0 0
213 0 0
210 0 0
202 0 0
215 0 0
209 0 0
203 0 0
211 0 0
217 0 0
202 0 0
208 0 0
203 0 0
214 0 0
207 0 0
217 0 0
215 0 0
214 0 0
218 0 0
214 0 0
218 0 0
218 0 0
218 0 0
216 0 0
211 0 0
216 0 0
216 0 0
211 0 0
209 0 0
216 0 0
212 0 0
215 0 0
219 0 0
219 0 0
217 0 0
221 0 0
222 0 0
219 0 0
215 0 0
214 0 0
214 0 0
212 0 0
219 0 0
217 0 0
219 0 0
218 0 0
217 0 0
216 0 0
220 0 0
220 0 0
220 0 0
222 0 0
215 0 0
217 0 0
221 0 0
216 0 0
216 0 0
223 0 0
221 0 0
210 0 0
218 0 0
226 0 0
220 0 0
223 0 0
221 0 0
221 0 0
221 0 0
225 0 0
216 0 0
218 0 0
219 0 0
223 0 0
219 0 0
222 0 0
220 0 0
221 0 0
221 0 0
217 0 0
221 0 0
222 0 0
223 0 0
221 0 0
222 0 0
221 0 0
219 0 0
224 0 0
224 0 0
221 0 0
219 0 0
222 0 0
220 0 0
219 0 0
223 0 0
221 0 0
223 0 0
225 0 0
223 0 0
218 0 0
223 0 0
222 0 0
227 0 0
220 0 0
223 0 0
224 0 0
222 0 0
222 0 0
222 0 0
224 0 0
227 0 0
223 0 0
218 0 0
225 0 0
224 0 0
224 0 0
223 0 0
225 0 0
223 0 0
223 0 0
222 0 0
226 0 0
224 0 0
222 0 0
222 0 0
224 0 0
224 0 0
224 0 0
223 0 0
224 0 0
223 0 0
224 0 0
221 0 0
222 0 0
223 0 0
223 0 0
224 0 0
224 0 0
221 0 0
223 0 0
223 0 0
225 0 0
225 0 0
221 0 0
225 0 0
224 0 0
222 0 0
225 0 0
223 0 0
223 0 0
226 0 0
224 0 0
222 0 0
224 0 0
224 0 0
224 0 0
228 0 0
221 0 0
225 0 0
223 0 0
223 0 0
225 0 0
0 0 255
0 0 255
0 0 255
0 0 255
0 0 253
0 0 255
0 0 255
0 0 254
0 0 255
0 0 254
0 0 255
0 0 255
0 0 255
0 0 254
0 0 253
0 0 255
0 0 255
0 0 255
0 0 255
0 0 255
0 0 253
0 0 255
0 0 253
0 0 255
0 0 254
0 0 255
0 0 254
0 0 255
0 0 252
0 0 255
0 0 255
0 0 255
0 0 254
0 0 254
0 0 253
0 0 254
0 0 255
0 0 253
0 0 255
0 0 253
0 0 255
0 0 254
0 0 254
0 0 253
0 0 255
0 0 253
0 0 249
0 0 253
0 0 254
0 0 252
0 0 254
0 0 253
0 0 253
0 0 254
0 0 255
0 0 255
0 0 252
0 0 255
0 0 250
0 0 253
0 0 253
0 0 253
0 0 250
0 0 254
0 0 255
0 0 253
0 0 252
0 0 249
0 0 254
0 0 254
0 0 250
0 0 252
0 0 250
0 0 253
0 0 250
0 0 255
0 0 252
0 0 250
0 0 254
0 0 252
0 0 253
0 0 252
0 0 249
0 0 252
0 0 253
0 0 254
0 0 253
0 0 253
0 0 249
0 0 252
0 0 249
0 0 254
0 0 250
0 0 253
0 0 253
0 0 252
0 0 253
0 0 244
0 0 253
0 0 249
0 0 249
0 0 246
0 0 246
0 0 242
0 0 242
0 0 249
0 0 250
0 0 245
0 0 244
0 0 250
0 0 252
0 0 246
0 0 252
0 0 249
0 0 244
0 0 250
0 0 249
0 0 246
0 0 249
0 0 249
0 0 245
0 0 244
0 0 248
0 0 245
0 0 238
0 0 249
0 0 238
0 0 249
0 0 238
0 0 245
0 0 250
0 0 244
0 0 244
0 0 240
0 0 241
0 0 242
0 0 249
0 0 240
0 0 240
0 0 236
0 0 236
0 0 248
0 0 245
0 0 237
0 0 237
0 0 230
0 0 241
0 0 240
0 0 238
0 0 228
0 0 231
0 0 234
0 0 241
0 0 241
0 0 234
0 0 237
0 0 248
0 0 236
0 0 223
0 0 228
0 0 241
0 0 224
0 0 228
0 0 230
0 0 215
0 0 230
0 0 226
0 0 234
0 0 224
0 0 230
0 0 233
0 0 218
0 0 224
0 0 206
0 0 228
0 0 217
0 0 215
0 0 214
0 0 211
0 0 211
0 0 217
0 0 203
0 0 198
0 0 204
0 0 191
0 0 203
0 0 186
0 0 198
0 0 194
0 0 182
0 0 184
0 0 169
51 54 182
221 230 249
231 241 255
231 241 255
231 241 255
231 241 255
231 241 255
231 241 255
231 241 255
231 241 255
231 241 255
231 241 255
231 241 255
231 241 255
226 234 248
165 48 51
156 0 0
167 0 0
167 0 0
184 0 0
180 0 0
180 0 0
180 0 0
187 0 0
173 0 0
185 0 0
176 0 0
195 0 0
197 0 0
189 0 0
194 0 0
191 0 0
196 0 0
201 0 0
198 0 0
205 0 0
196 0 0
201 0 0
209 0 0
206 0 0
212 0 0
196 0 0
200 0 0
211 0 0
202 0 0
206 0 0
205 0 0
206 0 0
210 0 0
214 0 0
207 0 0
210 0 0
200 0 0
210 0 0
212 0 0
214 0 0
211 0 0
218 0 0
206 0 0
216 0 0
218 0 0
218 0 0
213 0 0
205 0 0
211 0 0
213 0 0
215 0 0
211 0 0
212 0 0
212 0 0
211 0 0
206 0 0
217 0 0
217 0 0
222 0 0
219 0 0
216 0 0
219 0 0
217 0 0
217 0 0
218 0 0
216 0 0
218 0 0
217 0 0
220 0 0
216 0 0
221 0 0
219 0 0
221 0 0
225 0 0
219 0 0
217 0 0
218 0 0
224 0 0
219 0 0
219 0 0
217 0 0
214 0 0
220 0 0
220 0 0
216 0 0
216 0 0
219 0 0
215 0 0
221 0 0
217 0 0
220 0 0
220 0 0
222 0 0
220 0 0
222 0 0
221 0 0
222 0 0
216 0 0
221 0 0
220 0 0
224 0 0
224 0 0
219 0 0
221 0 0
219 0 0
218 0 0
221 0 0
216 0 0
222 0 0
223 0 0
221 0 0
223 0 0
219 0 0
218 0 0
223 0 0
221 0 0
224 0 0
216 0 0
219 0 0
223 0 0
223 0 0
226 0 0
225 0 0
218 0 0
222 0 0
223 0 0
220 0 0
223 0 0
221 0 0
222 0 0
221 0 0
225 0 0
223 0 0
225 0 0
224 0 0
224 0 0
224 0 0
217 0 0
225 0 0
223 0 0
221 0 0
221 0 0
224 0 0
219 0 0
224 0 0
223 0 0
224 0 0
219 0 0
222 0 0
221 0 0
222 0 0
224 0 0
225 0 0
223 0 0
221 0 0
222 0 0
224 0 0
228 0 0
224 0 0
223 0 0
227 0 0
223 0 0
225 0 0
224 0 0
223 0 0
226 0 0
224 0 0
218 0 0
225 0 0
226 0 0
224 0 0
224 0 0
227 0 0
222 0 0
224 0 0
226 0 0
224 0 0
225 0 0
225 0 0
224 0 0
225 0 0
224 0 0
222 0 0
224 0 0
223 0 0
226 0 0
224 0 0
227 0 0
224 0 0
224 0 0
222 0 0
225 0 0
0 0 254
0 0 255
0 0 255
0 0 255
0 0 254
0 0 255
0 0 255
0 0 255
0 0 255
0 0 254
0 0 254
0 0 250
0 0 255
0 0 254
0 0 255
0 0 253
0 0 255
0 0 255
0 0 253
0 0 254
0 0 255
0 0 252
0 0 253
0 0 255
0 0 255
0 0 255
0 0 254
0 0 254
0 0 255
0 0 255
0 0 254
0 0 255
0 0 254
0 0 253
0 0 253
0 0 253
0 0 254
0 0 250
0 0 254
0 0 255
0 0 255
0 0 253
0 0 255
0 0 249
0 0 255
0 0 253
0 0 255
0 0 255
0 0 255
0 0 253
0 0 255
0 0 252
0 0 252
0 0 252
0 0 253
0 0 250
0 0 255
0 0 250
0 0 253
0 0 254
0 0 253
0 0 253
0 0 254
0 0 250
0 0 252
0 0 252
0 0 252
0 0 255
0 0 253
0 0 252
0 0 254
0 0 253
0 0 253
0 0 252
0 0 250
0 0 254
0 0 253
0 0 253
0 0 252
0 0 255
0 0 249
0 0 249
0 0 250
0 0 252
0 0 253
0 0 252
0 0 253
0 0 252
0 0 254
0 0 246
0 0 250
0 0 253
0 0 254
0 0 248
0 0 250
0 0 248
0 0 252
0 0 250
0 0 250
0 0 250
0 0 246
0 0 252
0 0 253
0 0 250
0 0 253
0 0 252
0 0 249
0 0 242
0 0 248
0 0 246
0 0 246
0 0 240
0 0 250
0 0 249
0 0 249
0 0 253
0 0 249
0 0 240
0 0 246
0 0 246
0 0 249
0 0 246
0 0 245
0 0 242
0 0 249
0 0 245
0 0 245
0 0 248
0 0 244
0 0 245
0 0 241
0 0 233
0 0 246
0 0 241
0 0 246
0 0 244
0 0 244
0 0 248
0 0 237
0 0 245
0 0 240
0 0 241
0 0 238
0 0 244
0 0 241
0 0 241
0 0 231
0 0 244
0 0 233
0 0 234
0 0 233
0 0 231
0 0 237
0 0 240
0 0 242
0 0 236
0 0 240
0 0 228
0 0 223
0 0 231
0 0 234
0 0 230
0 0 223
0 0 223
0 0 226
0 0 227
0 0 233
0 0 221
0 0 226
0 0 228
0 0 217
0 0 220
0 0 231
0 0 211
0 0 227
0 0 203
0 0 227
0 0 223
0 0 218
0 0 218
0 0 201
0 0 207
0 0 207
0 0 204
0 0 182
0 0 204
0 0 198
0 0 194
0 0 184
0 0 184
0 0 189
0 0 194
125 130 201
232 241 255
232 241 255
232 241 255
232 241 255
232 241 255
232 241 255
232 241 255
232 241 255
232 241 255
232 241 255
232 241 255
232 241 255
232 241 255
232 241 255
196 158 167
175 0 0
174 0 0
171 0 0
172 0 0
162 0 0
184 0 0
170 0 0
178 0 0
182 0 0
187 0 0
189 0 0
182 0 0
197 0 0
183 0 0
198 0 0
204 0 0
195 0 0
194 0 0
208 0 0
208 0 0
204 0 0
198 0 0
216 0 0
208 0 0
198 0 0
203 0 0
210 0 0
212 0 0
208 0 0
204 0 0
202 0 0
199 0 0
212 0 0
209 0 0
203 0 0
209 0 0
210 0 0
209 0 0
216 0 0
214 0 0
211 0 0
210 0 0
210 0 0
209 0 0
217 0 0
214 0 0
220 0 0
206 0 0
210 0 0
217 0 0
212 0 0
221 0 0
217 0 0
217 0 0
208 0 0
208 0 0
218 0 0
212 0 0
215 0 0
210 0 0
222 0 0
219 0 0
220 0 0
215 0 0
213 0 0
215 0 0
206 0 0
217 0 0
217 0 0
222 0 0
212 0 0
212 0 0
222 0 0
222 0 0
219 0 0
214 0 0
212 0 0
219 0 0
216 0 0
216 0 0
219 0 0
219 0 0
224 0 0
220 0 0
218 0 0
219 0 0
221 0 0
223 0 0
220 0 0
222 0 0
216 0 0
217 0 0
218 0 0
226 0 0
221 0 0
220 0 0
223 0 0
219 0 0
223 0 0
220 0 0
220 0 0
223 0 0
221 0 0
223 0 0
220 0 0
213 0 0
223 0 0
222 0 0
222 0 0
221 0 0
223 0 0
222 0 0
222 0 0
219 0 0
223 0 0
219 0 0
221 0 0
220 0 0
222 0 0
221 0 0
222 0 0
220 0 0
224 0 0
222 0 0
225 0 0
229 0 0
222 0 0
223 0 0
221 0 0
222 0 0
222 0 0
225 0 0
226 0 0
219 0 0
226 0 0
222 0 0
219 0 0
221 0 0
220 0 0
223 0 0
221 0 0
220 0 0
226 0 0
224 0 0
225 0 0
220 0 0
225 0 0
223 0 0
222 0 0
223 0 0
219 0 0
225 0 0
224 0 0
220 0 0
222 0 0
222 0 0
223 0 0
220 0 0
225 0 0
223 0 0
223 0 0
221 0 0
226 0 0
223 0 0
224 0 0
220 0 0
222 0 0
223 0 0
221 0 0
224 0 0
224 0 0
223 0 0
223 0 0
223 0 0
222 0 0
223 0 0
224 0 0
222 0 0
224 0 0
225 0 0
225 0 0
223 0 0
227 0 0
225 0 0
225 0 0
222 0 0
224 0 0
227 0 0
221 0 0
224 0 0
226 0 0
223 0 0
0 0 254
0 0 254
0 0 255
0 0 255
0 0 255
0 0 254
0 0 255
0 0 255
0 0 255
0 0 255
0 0 255
0 0 255
0 0 255
0 0 255
0 0 253
0 0 254
0 0 255
0 0 255
0 0 255
0 0 253
0 0 253
0 0 254
0 0 254
0 0 255
0 0 255
0 0 255
0 0 255
0 0 254
0 0 252
0 0 254
0 0 255
0 0 254
0 0 252
0 0 253
0 0 255
0 0 255
0 0 255
0 0 255
0 0 253
0 0 252
0 0 255
0 0 255
0 0 254
0 0 254
0 0 255
0 0 254
0 0 250
0 0 253
0 0 253
0 0 255
0 0 254
0 0 255
0 0 252
0 0 253
0 0 254
0 0 252
0 0 255
0 0 253
0 0 253
0 0 248
0 0 253
0 0 254
0 0 252
0 0 254
0 0 255
0 0 254
0 0 250
0 0 249
0 0 254
0 0 252
0 0 255
0 0 253
0 0 254
0 0 254
0 0 250
0 0 255
0 0 250
0 0 252
0 0 253
0 0 253
0 0 252
0 0 250
0 0 253
0 0 250
0 0 253
0 0 252
0 0 253
0 0 249
0 0 249
0 0 250
0 0 250
0 0 250
0 0 252
0 0 249
0 0 250
0 0 253
0 0 250
0 0 252
0 0 249
0 0 249
0 0 250
0 0 244
0 0 248
0 0 255
0 0 249
0 0 253
0 0 254
0 0 249
0 0 246
0 0 245
0 0 249
0 0 246
0 0 245
0 0 253
0 0 253
0 0 253
0 0 249
0 0 246
0 0 252
0 0 249
0 0 252
0 0 248
0 0 242
0 0 252
0 0 248
0 0 246
0 0 238
0 0 242
0 0 248
0 0 246
0 0 245
0 0 237
0 0 246
0 0 245
0 0 250
0 0 249
0 0 248
0 0 236
0 0 244
0 0 241
0 0 242
0 0 241
0 0 238
0 0 248
0 0 236
0 0 238
0 0 241
0 0 238
0 0 240
0 0 240
0 0 226
0 0 240
0 0 240
0 0 238
0 0 236
0 0 228
0 0 238
0 0 237
0 0 224
0 0 230
0 0 226
0 0 223
0 0 230
0 0 227
0 0 234
0 0 215
0 0 241
0 0 228
0 0 231
0 0 220
0 0 224
0 0 234
0 0 224
0 0 226
0 0 224
0 0 228
0 0 215
0 0 227
0 0 206
0 0 220
0 0 214
0 0 223
0 0 196
0 0 206
0 0 203
0 0 209
0 0 201
0 0 199
0 0 181
0 0 181
0 0 177
51 54 179
218 227 246
232 242 255
232 242 255
232 242 255
232 242 255
232 242 255
232 242 255
232 242 255
232 242 255
232 242 255
232 242 255
232 242 255
232 242 255
232 242 255
232 242 255
221 227 240
171 24 25
170 0 0
178 0 0
192 0 0
174 0 0
174 0 0
176 0 0
186 0 0
184 0 0
192 0 0
182 0 0
188 0 0
186 0 0
189 0 0
202 0 0
197 0 0
198 0 0
195 0 0
196 0 0
202 0 0
196 0 0
206 0 0
195 0 0
198 0 0
199 0 0
202 0 0
208 0 0
209 0 0
208 0 0
204 0 0
209 0 0
202 0 0
205 0 0
205 0 0
210 0 0
212 0 0
201 0 0
210 0 0
214 0 0
201 0 0
205 0 0
210 0 0
205 0 0
208 0 0
216 0 0
203 0 0
209 0 0
212 0 0
216 0 0
215 0 0
211 0 0
224 0 0
213 0 0
221 0 0
217 0 0
214 0 0
215 0 0
222 0 0
218 0 0
215 0 0
212 0 0
220 0 0
216 0 0
214 0 0
218 0 0
221 0 0
223 0 0
216 0 0
221 0 0
224 0 0
222 0 0
221 0 0
215 0 0
220 0 0
225 0 0
218 0 0
220 0 0
220 0 0
223 0 0
218 0 0
216 0 0
222 0 0
218 0 0
222 0 0
218 0 0
215 0 0
221 0 0
219 0 0
224 0 0
223 0 0
216 0 0
217 0 0
225 0 0
221 0 0
224 0 0
219 0 0
226 0 0
222 0 0
220 0 0
221 0 0
219 0 0
222 0 0
224 0 0
223 0 0
227 0 0
224 0 0
215 0 0
226 0 0
227 0 0
220 0 0
226 0 0
220 0 0
218 0 0
216 0 0
218 0 0
220 0 0
223 0 0
222 0 0
223 0 0
223 0 0
223 0 0
225 0 0
225 0 0
223 0 0
226 0 0
224 0 0
225 0 0
221 0 0
219 0 0
220 0 0
225 0 0
221 0 0
220 0 0
218 0 0
226 0 0
222 0 0
223 0 0
224 0 0
218 0 0
224 0 0
219 0 0
220 0 0
225 0 0
226 0 0
223 0 0
226 0 0
223 0 0
219 0 0
227 0 0
225 0 0
222 0 0
226 0 0
224 0 0
221 0 0
222 0 0
224 0 0
223 0 0
223 0 0
217 0 0
223 0 0
224 0 0
224 0 0
226 0 0
225 0 0
224 0 0
225 0 0
226 0 0
223 0 0
222 0 0
218 0 0
222 0 0
224 0 0
225 0 0
228 0 0
222 0 0
222 0 0
224 0 0
223 0 0
220 0 0
225 0 0
225 0 0
222 0 0
226 0 0
222 0 0
223 0 0
225 0 0
221 0 0
224 0 0
225 0 0
220 0 0
223 0 0
220 0 0
0 0 255
0 0 255
0 0 250
0 0 254
0 0 255
0 0 254
0 0 255
0 0 255
0 0 255
0 0 254
0 0 254
0 0 255
0 0 254
0 0 255
0 0 252
0 0 254
0 0 254
0 0 254
0 0 254
0 0 255
0 0 255
0 0 254
0 0 255
0 0 255
0 0 254
0 0 252
0 0 253
0 0 254
0 0 254
0 0 254
0 0 252
0 0 255
0 0 253
0 0 255
0 0 254
0 0 254
0 0 255
0 0 254
0 0 253
0 0 252
0 0 253
0 0 255
0 0 255
0 0 254
0 0 254
0 0 253
0 0 255
0 0 248
0 0 253
0 0 253
0 0 255
0 0 254
0 0 253
0 0 249
0 0 253
0 0 253
0 0 255
0 0 252
0 0 253
0 0 253
0 0 253
0 0 254
0 0 255
0 0 255
0 0 254
0 0 254
0 0 254
0 0 254
0 0 254
0 0 255
0 0 254
0 0 254
0 0 252
0 0 254
0 0 253
0 0 250
0 0 252
0 0 249
0 0 250
0 0 250
0 0 252
0 0 248
0 0 254
0 0 250
0 0 252
0 0 252
0 0 252
0 0 250
0 0 249
0 0 252
0 0 253
0 0 253
0 0 250
0 0 252
0 0 250
0 0 246
0 0 252
0 0 253
0 0 249
0 0 253
0 0 253
0 0 250
0 0 250
0 0 248
0 0 252
0 0 249
0 0 249
0 0 249
0 0 250
0 0 248
0 0 248
0 0 245
0 0 244
0 0 248
0 0 250
0 0 244
0 0 244
0 0 246
0 0 252
0 0 246
0 0 248
0 0 244
0 0 248
0 0 249
0 0 245
0 0 252
0 0 246
0 0 246
0 0 246
0 0 240
0 0 242
0 0 246
0 0 249
0 0 245
0 0 237
0 0 246
0 0 242
0 0 242
0 0 244
0 0 244
0 0 242
0 0 237
0 0 240
0 0 249
0 0 238
0 0 241
0 0 245
0 0 233
0 0 241
0 0 237
0 0 244
0 0 240
0 0 249
0 0 228
0 0 234
0 0 237
0 0 228
0 0 227
0 0 231
0 0 236
0 0 234
0 0 236
0 0 230
0 0 231
0 0 227
0 0 224
0 0 230
0 0 236
0 0 234
0 0 236
0 0 227
0 0 214
0 0 228
0 0 226
0 0 231
0 0 212
0 0 221
0 0 214
0 0 218
0 0 211
0 0 201
0 0 214
0 0 212
0 0 217
0 0 193
0 0 191
0 0 182
0 0 196
0 0 191
0 0 189
0 0 169
145 151 212
232 242 255
232 242 255
232 242 255
232 242 255
232 242 255
232 242 255
232 242 255
232 242 255
232 242 255
232 242 255
232 242 255
232 242 255
232 242 255
232 242 255
232 242 255
232 242 255
189 137 144
172 0 0
182 0 0
174 0 0
164 0 0
184 0 0
172 0 0
204 0 0
184 0 0
182 0 0
184 0 0
185 0 0
185 0 0
189 0 0
206 0 0
190 0 0
200 0 0
204 0 0
204 0 0
204 0 0
202 0 0
211 0 0
199 0 0
211 0 0
197 0 0
209 0 0
208 0 0
214 0 0
205 0 0
202 0 0
220 0 0
205 0 0
199 0 0
216 0 0
211 0 0
206 0 0
216 0 0
209 0 0
209 0 0
203 0 0
211 0 0
211 0 0
211 0 0
219 0 0
213 0 0
224 0 0
218 0 0
213 0 0
211 0 0
216 0 0
210 0 0
215 0 0
218 0 0
208 0 0
220 0 0
216 0 0
217 0 0
217 0 0
210 0 0
222 0 0
224 0 0
222 0 0
219 0 0
215 0 0
214 0 0
217 0 0
216 0 0
216 0 0
216 0 0
223 0 0
214 0 0
220 0 0
219 0 0
220 0 0
219 0 0
212 0 0
215 0 0
221 0 0
223 0 0
216 0 0
218 0 0
225 0 0
218 0 0
227 0 0
225 0 0
221 0 0
224 0 0
219 0 0
222 0 0
225 0 0
222 0 0
220 0 0
226 0 0
221 0 0
217 0 0
221 0 0
219 0 0
222 0 0
219 0 0
223 0 0
223 0 0
227 0 0
226 0 0
217 0 0
217 0 0
221 0 0
219 0 0
219 0 0
217 0 0
222 0 0
219 0 0
218 0 0
223 0 0
220 0 0
226 0 0
222 0 0
222 0 0
216 0 0
218 0 0
225 0 0
225 0 0
223 0 0
224 0 0
224 0 0
221 0 0
225 0 0
224 0 0
215 0 0
228 0 0
224 0 0
224 0 0
220 0 0
216 0 0
221 0 0
219 0 0
222 0 0
220 0 0
228 0 0
223 0 0
228 0 0
221 0 0
224 0 0
227 0 0
222 0 0
223 0 0
223 0 0
225 0 0
223 0 0
225 0 0
223 0 0
220 0 0
227 0 0
223 0 0
225 0 0
222 0 0
224 0 0
225 0 0
222 0 0
226 0 0
225 0 0
226 0 0
221 0 0
222 0 0
224 0 0
226 0 0
224 0 0
224 0 0
222 0 0
229 0 0
224 0 0
223 0 0
227 0 0
223 0 0
222 0 0
225 0 0
227 0 0
225 0 0
222 0 0
230 0 0
225 0 0
227 0 0
224 0 0
226 0 0
226 0 0
225 0 0
224 0 0
222 0 0
222 0 0
223 0 0
225 0 0
222 0 0
223 0 0
0 0 255
0 0 255
0 0 255
0 0 255
0 0 255
0 0 255
0 0 255
0 0 255
0 0 254
0 0 255
0 0 254
0 0 254
0 0 254
0 0 255
0 0 255
0 0 255
0 0 255
0 0 255
0 0 255
0 0 255
0 0 254
0 0 255
0 0 255
0 0 254
0 0 254
0 0 255
0 0 254
0 0 255
0 0 254
0 0 254
0 0 255
0 0 255
0 0 255
0 0 252
0 0 255
0 0 255
0 0 253
0 0 253
0 0 254
0 0 254
0 0 254
0 0 250
0 0 253
0 0 254
0 0 253
0 0 254
0 0 253
0 0 255
0 0 253
0 0 254
0 0 254
0 0 253
0 0 253
0 0 250
0 0 253
0 0 253
0 0 253
0 0 253
0 0 250
0 0 255
0 0 252
0 0 253
0 0 252
0 0 253
0 0 253
0 0 252
0 0 252
0 0 255
0 0 253
0 0 254
0 0 249
0 0 253
0 0 253
0 0 249
0 0 253
0 0 253
0 0 254
0 0 249
0 0 249
0 0 250
0 0 249
0 0 254
0 0 250
0 0 255
0 0 252
0 0 252
0 0 252
0 0 253
0 0 252
0 0 249
0 0 244
0 0 253
0 0 248
0 0 253
0 0 250
0 0 252
0 0 250
0 0 246
0 0 248
0 0 246
0 0 248
0 0 252
0 0 249
0 0 249
0 0 252
0 0 250
0 0 255
0 0 249
0 0 246
0 0 245
0 0 242
0 0 250
0 0 252
0 0 248
0 0 244
0 0 240
0 0 250
0 0 249
0 0 246
0 0 252
0 0 242
0 0 245
0 0 248
0 0 249
0 0 246
0 0 244
0 0 245
0 0 241
0 0 244
0 0 244
0 0 242
0 0 245
0 0 240
0 0 244
0 0 248
0 0 241
0 0 242
0 0 246
0 0 237
0 0 248
0 0 244
0 0 245
0 0 237
0 0 242
0 0 241
0 0 242
0 0 242
0 0 241
0 0 240
0 0 230
0 0 238
0 0 240
0 0 236
0 0 237
0 0 233
0 0 241
0 0 231
0 0 227
0 0 231
0 0 228
0 0 236
0 0 231
0 0 233
0 0 224
0 0 236
0 0 227
0 0 230
0 0 228
0 0 221
0 0 221
0 0 228
0 0 220
0 0 207
0 0 214
0 0 228
0 0 233
0 0 227
0 0 217
0 0 217
0 0 218
0 0 211
0 0 194
0 0 198
0 0 218
0 0 193
0 0 209
0 0 209
0 0 188
0 0 194
0 0 179
32 34 181
219 228 244
232 242 255
232 242 255
232 242 255
232 242 255
232 242 255
232 242 255
232 242 255
232 242 255
232 242 255
232 242 255
232 242 255
232 242 255
232 242 255
232 242 255
232 242 255
232 242 255
225 226 238
178 34 36
188 0 0
166 0 0
179 0 0
178 0 0
181 0 0
183 0 0
197 0 0
187 0 0
188 0 0
185 0 0
190 0 0
193 0 0
194 0 0
197 0 0
207 0 0
202 0 0
198 0 0
200 0 0
205 0 0
199 0 0
182 0 0
193 0 0
192 0 0
206 0 0
207 0 0
211 0 0
211 0 0
199 0 0
206 0 0
207 0 0
215 0 0
210 0 0
208 0 0
207 0 0
208 0 0
216 0 0
214 0 0
210 0 0
204 0 0
213 0 0
217 0 0
205 0 0
216 0 0
212 0 0
206 0 0
203 0 0
224 0 0
210 0 0
207 0 0
217 0 0
217 0 0
218 0 0
217 0 0
217 0 0
216 0 0
218 0 0
217 0 0
218 0 0
220 0 0
220 0 0
221 0 0
220 0 0
213 0 0
218 0 0
222 0 0
221 0 0
220 0 0
224 0 0
225 0 0
218 0 0
219 0 0
217 0 0
223 0 0
218 0 0
223 0 0
223 0 0
218 0 0
219 0 0
225 0 0
222 0 0
215 0 0
220 0 0
218 0 0
221 0 0
219 0 0
213 0 0
216 0 0
222 0 0
228 0 0
219 0 0
219 0 0
220 0 0
219 0 0
226 0 0
222 0 0
223 0 0
227 0 0
221 0 0
221 0 0
221 0 0
223 0 0
222 0 0
223 0 0
223 0 0
222 0 0
222 0 0
223 0 0
219 0 0
223 0 0
226 0 0
214 0 0
223 0 0
222 0 0
223 0 0
220 0 0
221 0 0
221 0 0
221 0 0
220 0 0
221 0 0
216 0 0
227 0 0
223 0 0
223 0 0
222 0 0
224 0 0
225 0 0
226 0 0
225 0 0
220 0 0
224 0 0
223 0 0
224 0 0
224 0 0
225 0 0
223 0 0
227 0 0
226 0 0
222 0 0
223 0 0
223 0 0
223 0 0
226 0 0
223 0 0
224 0 0
225 0 0
222 0 0
227 0 0
225 0 0
221 0 0
226 0 0
224 0 0
226 0 0
219 0 0
225 0 0
224 0 0
224 0 0
224 0 0
221 0 0
220 0 0
223 0 0
226 0 0
222 0 0
225 0 0
222 0 0
222 0 0
226 0 0
224 0 0
224 0 0
228 0 0
223 0 0
227 0 0
222 0 0
223 0 0
224 0 0
224 0 0
228 0 0
225 0 0
225 0 0
225 0 0
225 0 0
225 0 0
227 0 0
224 0 0
222 0 0
227 0 0
225 0 0
223 0 0
224 0 0
228 0 0
0 0 255
0 0 255
0 0 255
0 0 255
0 0 254
0 0 255
0 0 255
0 0 255
0 0 254
0 0 254
0 0 255
0 0 255
0 0 254
0 0 255
0 0 252
0 0 254
0 0 255
0 0 253
0 0 255
0 0 254
0 0 255
0 0 255
0 0 254
0 0 254
0 0 255
0 0 254
0 0 255
0 0 252
0 0 255
0 0 255
0 0 255
0 0 255
0 0 253
0 0 255
0 0 255
0 0 255
0 0 254
0 0 253
0 0 253
0 0 250
0 0 254
0 0 254
0 0 255
0 0 254
0 0 255
0 0 252
0 0 255
0 0 254
0 0 254
0 0 252
0 0 252
0 0 254
0 0 253
0 0 253
0 0 252
0 0 254
0 0 254
0 0 254
0 0 253
0 0 255
0 0 254
0 0 253
0 0 250
0 0 253
0 0 255
0 0 254
0 0 253
0 0 249
0 0 250
0 0 252
0 0 250
0 0 250
0 0 248
0 0 255
0 0 249
0 0 250
0 0 253
0 0 254
0 0 249
0 0 255
0 0 248
0 0 253
0 0 250
0 0 252
0 0 252
0 0 254
0 0 255
0 0 252
0 0 254
0 0 250
0 0 250
0 0 252
0 0 246
0 0 249
0 0 246
0 0 248
0 0 253
0 0 249
0 0 250
0 0 250
0 0 249
0 0 249
0 0 249
0 0 250
0 0 249
0 0 250
0 0 249
0 0 246
0 0 249
0 0 246
0 0 246
0 0 249
0 0 248
0 0 248
0 0 246
0 0 253
0 0 246
0 0 246
0 0 240
0 0 241
0 0 248
0 0 249
0 0 245
0 0 248
0 0 245
0 0 250
0 0 244
0 0 240
0 0 241
0 0 242
0 0 244
0 0 244
0 0 250
0 0 241
0 0 233
0 0 245
0 0 241
0 0 245
0 0 244
0 0 241
0 0 236
0 0 242
0 0 241
0 0 244
0 0 238
0 0 241
0 0 245
0 0 242
0 0 241
0 0 234
0 0 238
0 0 240
0 0 240
0 0 234
0 0 238
0 0 241
0 0 233
0 0 238
0 0 228
0 0 227
0 0 231
0 0 234
0 0 226
0 0 218
0 0 238
0 0 233
0 0 223
0 0 230
0 0 220
0 0 231
0 0 220
0 0 211
0 0 227
0 0 224
0 0 207
0 0 220
0 0 218
0 0 211
0 0 198
0 0 215
0 0 212
0 0 198
0 0 221
0 0 201
0 0 207
0 0 207
0 0 194
0 0 184
0 0 189
0 0 186
143 149 214
233 242 255
233 242 255
233 242 255
233 242 255
233 242 255
233 242 255
233 242 255
233 242 255
233 242 255
233 242 255
233 242 255
233 242 255
233 242 255
233 242 255
233 242 255
233 242 255
233 242 255
233 242 255
202 151 159
171 0 0
164 0 0
189 0 0
192 0 0
186 0 0
186 0 0
184 0 0
200 0 0
191 0 0
194 0 0
193 0 0
189 0 0
202 0 0
206 0 0
189 0 0
193 0 0
192 0 0
208 0 0
208 0 0
202 0 0
210 0 0
209 0 0
200 0 0
201 0 0
202 0 0
198 0 0
211 0 0
211 0 0
215 0 0
203 0 0
212 0 0
213 0 0
204 0 0
219 0 0
221 0 0
208 0 0
207 0 0
207 0 0
207 0 0
213 0 0
207 0 0
200 0 0
212 0 0
217 0 0
219 0 0
218 0 0
214 0 0
220 0 0
213 0 0
215 0 0
213 0 0
219 0 0
215 0 0
214 0 0
221 0 0
220 0 0
216 0 0
217 0 0
215 0 0
219 0 0
216 0 0
218 0 0
219 0 0
219 0 0
216 0 0
220 0 0
213 0 0
212 0 0
213 0 0
214 0 0
215 0 0
223 0 0
217 0 0
215 0 0
220 0 0
223 0 0
219 0 0
221 0 0
214 0 0
215 0 0
220 0 0
223 0 0
213 0 0
225 0 0
219 0 0
216 0 0
221 0 0
224 0 0
226 0 0
217 0 0
221 0 0
224 0 0
219 0 0
222 0 0
224 0 0
219 0 0
224 0 0
220 0 0
225 0 0
221 0 0
223 0 0
225 0 0
221 0 0
214 0 0
219 0 0
228 0 0
226 0 0
224 0 0
220 0 0
216 0 0
226 0 0
222 0 0
223 0 0
220 0 0
219 0 0
222 0 0
223 0 0
227 0 0
219 0 0
224 0 0
227 0 0
224 0 0
223 0 0
219 0 0
220 0 0
223 0 0
225 0 0
222 0 0
226 0 0
223 0 0
224 0 0
226 0 0
222 0 0
225 0 0
221 0 0
224 0 0
224 0 0
227 0 0
222 0 0
225 0 0
224 0 0
224 0 0
221 0 0
225 0 0
225 0 0
225 0 0
222 0 0
223 0 0
225 0 0
225 0 0
222 0 0
228 0 0
224 0 0
222 0 0
225 0 0
227 0 0
225 0 0
222 0 0
221 0 0
228 0 0
226 0 0
222 0 0
225 0 0
224 0 0
224 0 0
223 0 0
225 0 0
224 0 0
218 0 0
224 0 0
225 0 0
222 0 0
224 0 0
224 0 0
227 0 0
226 0 0
226 0 0
225 0 0
225 0 0
225 0 0
224 0 0
224 0 0
222 0 0
226 0 0
223 0 0
227 0 0
223 0 0
223 0 0
228 0 0
223 0 0
0 0 255
0 0 255
0 0 254
0 0 255
0 0 255
0 0 255
0 0 252
0 0 255
0 0 254
0 0 254
0 0 254
0 0 255
0 0 255
0 0 254
0 0 254
0 0 255
0 0 254
0 0 253
0 0 255
0 0 254
0 0 255
0 0 254
0 0 255
0 0 255
0 0 255
0 0 255
0 0 254
0 0 254
0 0 254
0 0 255
0 0 253
0 0 253
0 0 254
0 0 253
0 0 255
0 0 254
0 0 255
0 0 254
0 0 255
0 0 254
0 0 254
0 0 255
0 0 254
0 0 253
0 0 254
0 0 253
0 0 252
0 0 253
0 0 253
0 0 253
0 0 254
0 0 253
0 0 253
0 0 255
0 0 254
0 0 254
0 0 252
0 0 252
0 0 252
0 0 252
0 0 252
0 0 255
0 0 254
0 0 252
0 0 253
0 0 253
0 0 250
0 0 254
0 0 253
0 0 253
0 0 254
0 0 253
0 0 254
0 0 252
0 0 253
0 0 252
0 0 255
0 0 254
0 0 248
0 0 252
0 0 249
0 0 252
0 0 253
0 0 253
0 0 252
0 0 252
0 0 246
0 0 254
0 0 254
0 0 255
0 0 253
0 0 250
0 0 252
0 0 255
0 0 252
0 0 246
0 0 248
0 0 250
0 0 253
0 0 250
0 0 250
0 0 248
0 0 249
0 0 253
0 0 248
0 0 250
0 0 248
0 0 252
0 0 245
0 0 249
0 0 250
0 0 250
0 0 249
0 0 249
0 0 249
0 0 248
0 0 246
0 0 244
0 0 253
0 0 241
0 0 248
0 0 246
0 0 238
0 0 244
0 0 248
0 0 246
0 0 248
0 0 245
0 0 244
0 0 246
0 0 246
0 0 244
0 0 246
0 0 241
0 0 246
0 0 242
0 0 234
0 0 244
0 0 246
0 0 242
0 0 241
0 0 242
0 0 238
0 0 242
0 0 242
0 0 244
0 0 238
0 0 240
0 0 237
0 0 244
0 0 240
0 0 238
0 0 234
0 0 238
0 0 242
0 0 226
0 0 231
0 0 233
0 0 240
0 0 227
0 0 231
0 0 237
0 0 237
0 0 233
0 0 228
0 0 231
0 0 224
0 0 234
0 0 224
0 0 234
0 0 220
0 0 221
0 0 228
0 0 221
0 0 211
0 0 212
0 0 223
0 0 203
0 0 214
0 0 218
0 0 221
0 0 212
0 0 207
0 0 203
0 0 184
0 0 203
0 0 198
0 0 209
0 0 196
23 24 201
212 221 250
233 242 255
233 242 255
233 242 255
233 242 255
233 242 255
233 242 255
233 242 255
233 242 255
233 242 255
233 242 255
233 242 255
233 242 255
233 242 255
233 242 255
233 242 255
233 242 255
233 242 255
233 242 255
218 217 228
186 24 25
175 0 0
184 0 0
169 0 0
188 0 0
186 0 0
175 0 0
201 0 0
186 0 0
205 0 0
193 0 0
201 0 0
191 0 0
200 0 0
201 0 0
201 0 0
201 0 0
204 0 0
200 0 0
203 0 0
203 0 0
210 0 0
197 0 0
213 0 0
209 0 0
209 0 0
209 0 0
205 0 0
202 0 0
214 0 0
212 0 0
206 0 0
213 0 0
223 0 0
209 0 0
210 0 0
209 0 0
207 0 0
214 0 0
213 0 0
218 0 0
215 0 0
216 0 0
209 0 0
213 0 0
214 0 0
220 0 0
212 0 0
217 0 0
212 0 0
218 0 0
220 0 0
218 0 0
211 0 0
218 0 0
216 0 0
218 0 0
227 0 0
215 0 0
215 0 0
215 0 0
216 0 0
217 0 0
217 0 0
218 0 0
215 0 0
216 0 0
222 0 0
212 0 0
219 0 0
222 0 0
221 0 0
221 0 0
220 0 0
216 0 0
221 0 0
216 0 0
219 0 0
218 0 0
218 0 0
218 0 0
219 0 0
221 0 0
220 0 0
220 0 0
218 0 0
226 0 0
224 0 0
223 0 0
224 0 0
220 0 0
219 0 0
222 0 0
223 0 0
222 0 0
216 0 0
216 0 0
220 0 0
222 0 0
223 0 0
223 0 0
217 0 0
223 0 0
224 0 0
223 0 0
220 0 0
221 0 0
224 0 0
223 0 0
220 0 0
222 0 0
220 0 0
226 0 0
221 0 0
221 0 0
225 0 0
224 0 0
227 0 0
226 0 0
222 0 0
225 0 0
224 0 0
222 0 0
223 0 0
228 0 0
220 0 0
227 0 0
223 0 0
222 0 0
226 0 0
225 0 0
222 0 0
220 0 0
221 0 0
223 0 0
220 0 0
226 0 0
226 0 0
218 0 0
220 0 0
228 0 0
222 0 0
224 0 0
221 0 0
226 0 0
225 0 0
225 0 0
222 0 0
226 0 0
225 0 0
225 0 0
227 0 0
223 0 0
225 0 0
224 0 0
225 0 0
225 0 0
224 0 0
226 0 0
225 0 0
229 0 0
221 0 0
224 0 0
225 0 0
226 0 0
226 0 0
225 0 0
225 0 0
228 0 0
225 0 0
224 0 0
222 0 0
224 0 0
226 0 0
226 0 0
230 0 0
226 0 0
223 0 0
226 0 0
222 0 0
225 0 0
225 0 0
227 0 0
226 0 0
224 0 0
227 0 0
221 0 0
227 0 0
224 0 0
224 0 0
0 0 254
0 0 253
0 0 255
0 0 255
0 0 255
0 0 255
0 0 255
0 0 252
0 0 253
0 0 255
0 0 255
0 0 255
0 0 255
0 0 254
0 0 254
0 0 255
0 0 255
0 0 253
0 0 252
0 0 255
0 0 254
0 0 254
0 0 254
0 0 254
0 0 255
0 0 255
0 0 253
0 0 255
0 0 255
0 0 254
0 0 254
0 0 255
0 0 254
0 0 255
0 0 254
0 0 253
0 0 254
0 0 254
0 0 254
0 0 255
0 0 254
0 0 255
0 0 254
0 0 255
0 0 254
0 0 254
0 0 252
0 0 255
0 0 252
0 0 253
0 0 255
0 0 255
0 0 254
0 0 254
0 0 254
0 0 254
0 0 254
0 0 252
0 0 255
0 0 253
0 0 254
0 0 250
0 0 253
0 0 248
0 0 254
0 0 253
0 0 250
0 0 252
0 0 252
0 0 250
0 0 254
0 0 249
0 0 250
0 0 254
0 0 248
0 0 249
0 0 250
0 0 249
0 0 248
0 0 253
0 0 248
0 0 253
0 0 246
0 0 252
0 0 253
0 0 253
0 0 254
0 0 252
0 0 249
0 0 249
0 0 246
0 0 248
0 0 250
0 0 252
0 0 253
0 0 244
0 0 249
0 0 244
0 0 246
0 0 248
0 0 249
0 0 248
0 0 249
0 0 252
0 0 248
0 0 246
0 0 249
0 0 242
0 0 250
0 0 249
0 0 252
0 0 246
0 0 254
0 0 248
0 0 249
0 0 252
0 0 245
0 0 244
0 0 248
0 0 249
0 0 249
0 0 242
0 0 246
0 0 249
0 0 248
0 0 244
0 0 249
0 0 250
0 0 248
0 0 244
0 0 244
0 0 246
0 0 246
0 0 241
0 0 248
0 0 244
0 0 236
0 0 250
0 0 250
0 0 242
0 0 246
0 0 240
0 0 241
0 0 238
0 0 236
0 0 245
0 0 242
0 0 230
0 0 241
0 0 242
0 0 240
0 0 244
0 0 231
0 0 240
0 0 238
0 0 230
0 0 236
0 0 236
0 0 240
0 0 237
0 0 227
0 0 233
0 0 237
0 0 233
0 0 238
0 0 220
0 0 211
0 0 223
0 0 233
0 0 230
0 0 233
0 0 223
0 0 212
0 0 224
0 0 221
0 0 217
0 0 214
0 0 214
0 0 209
0 0 215
0 0 215
0 0 206
0 0 207
0 0 196
0 0 204
0 0 189
0 0 206
0 0 193
0 0 201
140 145 224
233 242 255
233 242 255
233 242 255
233 242 255
233 242 255
233 242 255
233 242 255
233 242 255
233 242 255
233 242 255
233 242 255
233 242 255
233 242 255
233 242 255
233 242 255
233 242 255
233 242 255
233 242 255
233 242 255
233 242 255
201 155 163
182 0 0
179 0 0
189 0 0
193 0 0
180 0 0
192 0 0
192 0 0
203 0 0
197 0 0
196 0 0
189 0 0
186 0 0
199 0 0
203 0 0
202 0 0
194 0 0
204 0 0
207 0 0
197 0 0
206 0 0
196 0 0
207 0 0
199 0 0
204 0 0
208 0 0
207 0 0
209 0 0
204 0 0
203 0 0
212 0 0
212 0 0
195 0 0
211 0 0
208 0 0
213 0 0
213 0 0
210 0 0
210 0 0
212 0 0
213 0 0
206 0 0
206 0 0
218 0 0
216 0 0
222 0 0
218 0 0
213 0 0
222 0 0
218 0 0
217 0 0
221 0 0
217 0 0
209 0 0
213 0 0
209 0 0
213 0 0
204 0 0
209 0 0
219 0 0
219 0 0
214 0 0
215 0 0
220 0 0
217 0 0
221 0 0
228 0 0
226 0 0
215 0 0
215 0 0
224 0 0
217 0 0
217 0 0
216 0 0
223 0 0
223 0 0
221 0 0
221 0 0
220 0 0
218 0 0
223 0 0
222 0 0
222 0 0
226 0 0
216 0 0
219 0 0
223 0 0
223 0 0
219 0 0
225 0 0
224 0 0
221 0 0
222 0 0
217 0 0
220 0 0
217 0 0
215 0 0
226 0 0
216 0 0
217 0 0
222 0 0
222 0 0
223 0 0
216 0 0
224 0 0
224 0 0
214 0 0
221 0 0
226 0 0
225 0 0
223 0 0
218 0 0
222 0 0
223 0 0
225 0 0
222 0 0
223 0 0
225 0 0
222 0 0
224 0 0
219 0 0
221 0 0
223 0 0
226 0 0
225 0 0
224 0 0
224 0 0
221 0 0
226 0 0
226 0 0
226 0 0
227 0 0
226 0 0
223 0 0
226 0 0
225 0 0
223 0 0
228 0 0
225 0 0
224 0 0
223 0 0
222 0 0
223 0 0
225 0 0
225 0 0
225 0 0
223 0 0
225 0 0
223 0 0
221 0 0
225 0 0
220 0 0
224 0 0
222 0 0
219 0 0
223 0 0
224 0 0
223 0 0
225 0 0
225 0 0
224 0 0
223 0 0
222 0 0
226 0 0
223 0 0
224 0 0
225 0 0
224 0 0
219 0 0
228 0 0
224 0 0
227 0 0
222 0 0
226 0 0
226 0 0
225 0 0
225 0 0
224 0 0
228 0 0
225 0 0
222 0 0
223 0 0
221 0 0
223 0 0
225 0 0
226 0 0
223 0 0
224 0 0
225 0 0
225 0 0
0 0 255
0 0 254
0 0 253
0 0 255
0 0 255
0 0 255
0 0 255
0 0 253
0 0 255
0 0 255
0 0 255
0 0 253
0 0 255
0 0 254
0 0 255
0 0 254
0 0 255
0 0 254
0 0 255
0 0 255
0 0 255
0 0 253
0 0 255
0 0 253
0 0 252
0 0 253
0 0 253
0 0 254
0 0 255
0 0 254
0 0 254
0 0 255
0 0 255
0 0 253
0 0 253
0 0 254
0 0 253
0 0 255
0 0 254
0 0 254
0 0 250
0 0 255
0 0 253
0 0 253
0 0 254
0 0 253
0 0 253
0 0 252
0 0 252
0 0 255
0 0 253
0 0 253
0 0 252
0 0 254
0 0 255
0 0 255
0 0 254
0 0 253
0 0 254
0 0 253
0 0 253
0 0 255
0 0 253
0 0 254
0 0 255
0 0 252
0 0 253
0 0 254
0 0 250
0 0 253
0 0 250
0 0 252
0 0 249
0 0 254
0 0 252
0 0 252
0 0 248
0 0 254
0 0 254
0 0 253
0 0 250
0 0 250
0 0 248
0 0 250
0 0 253
0 0 254
0 0 252
0 0 252
0 0 248
0 0 253
0 0 252
0 0 252
0 0 250
0 0 249
0 0 250
0 0 253
0 0 249
0 0 252
0 0 253
0 0 254
0 0 248
0 0 245
0 0 249
0 0 248
0 0 250
0 0 249
0 0 249
0 0 244
0 0 248
0 0 245
0 0 248
0 0 248
0 0 245
0 0 253
0 0 249
0 0 245
0 0 245
0 0 248
0 0 241
0 0 252
0 0 250
0 0 244
0 0 244
0 0 245
0 0 249
0 0 245
0 0 242
0 0 249
0 0 246
0 0 249
0 0 249
0 0 246
0 0 244
0 0 252
0 0 244
0 0 244
0 0 242
0 0 241
0 0 242
0 0 244
0 0 240
0 0 244
0 0 238
0 0 241
0 0 238
0 0 238
0 0 238
0 0 245
0 0 238
0 0 236
0 0 238
0 0 240
0 0 227
0 0 245
0 0 234
0 0 237
0 0 234
0 0 244
0 0 223
0 0 230
0 0 234
0 0 223
0 0 231
0 0 231
0 0 231
0 0 231
0 0 236
0 0 234
0 0 226
0 0 221
0 0 212
0 0 215
0 0 223
0 0 227
0 0 223
0 0 214
0 0 207
0 0 223
0 0 206
0 0 211
0 0 207
0 0 212
0 0 215
0 0 214
0 0 214
0 0 207
0 0 196
0 0 182
40 42 181
224 233 253
233 243 255
233 243 255
233 243 255
233 243 255
233 243 255
234 243 255
234 243 255
234 243 255
234 243 255
234 243 255
234 243 255
234 243 255
234 243 255
234 243 255
234 243 255
234 243 255
233 243 255
233 243 255
233 243 255
233 243 255
229 231 244
197 54 57
179 0 0
185 0 0
199 0 0
192 0 0
193 0 0
194 0 0
194 0 0
186 0 0
192 0 0
212 0 0
194 0 0
201 0 0
205 0 0
195 0 0
206 0 0
208 0 0
202 0 0
210 0 0
202 0 0
210 0 0
208 0 0
202 0 0
208 0 0
203 0 0
218 0 0
208 0 0
209 0 0
211 0 0
211 0 0
207 0 0
213 0 0
213 0 0
211 0 0
217 0 0
211 0 0
211 0 0
209 0 0
221 0 0
217 0 0
209 0 0
211 0 0
219 0 0
223 0 0
211 0 0
212 0 0
215 0 0
214 0 0
213 0 0
213 0 0
221 0 0
220 0 0
222 0 0
212 0 0
217 0 0
218 0 0
214 0 0
218 0 0
227 0 0
218 0 0
219 0 0
215 0 0
215 0 0
215 0 0
221 0 0
218 0 0
217 0 0
216 0 0
221 0 0
221 0 0
217 0 0
218 0 0
221 0 0
218 0 0
221 0 0
218 0 0
220 0 0
217 0 0
218 0 0
223 0 0
223 0 0
219 0 0
217 0 0
221 0 0
215 0 0
217 0 0
223 0 0
222 0 0
222 0 0
215 0 0
221 0 0
223 0 0
223 0 0
218 0 0
222 0 0
223 0 0
220 0 0
220 0 0
224 0 0
216 0 0
224 0 0
225 0 0
227 0 0
223 0 0
225 0 0
220 0 0
217 0 0
218 0 0
222 0 0
226 0 0
226 0 0
223 0 0
224 0 0
223 0 0
223 0 0
223 0 0
227 0 0
222 0 0
222 0 0
224 0 0
219 0 0
223 0 0
225 0 0
228 0 0
223 0 0
223 0 0
223 0 0
224 0 0
225 0 0
223 0 0
223 0 0
223 0 0
224 0 0
221 0 0
227 0 0
225 0 0
227 0 0
217 0 0
218 0 0
222 0 0
227 0 0
226 0 0
222 0 0
224 0 0
225 0 0
221 0 0
224 0 0
227 0 0
222 0 0
224 0 0
226 0 0
221 0 0
225 0 0
223 0 0
222 0 0
224 0 0
225 0 0
224 0 0
224 0 0
226 0 0
221 0 0
226 0 0
226 0 0
228 0 0
226 0 0
227 0 0
225 0 0
227 0 0
225 0 0
226 0 0
225 0 0
226 0 0
227 0 0
222 0 0
226 0 0
229 0 0
223 0 0
224 0 0
224 0 0
224 0 0
225 0 0
224 0 0
226 0 0
224 0 0
226 0 0
225 0 0
224 0 0
224 0 0
225 0 0
0 0 255
0 0 255
0 0 255
0 0 255
0 0 255
0 0 255
0 0 255
0 0 255
0 0 254
0 0 254
0 0 255
0 0 255
0 0 253
0 0 254
0 0 255
0 0 255
0 0 254
0 0 254
0 0 254
0 0 254
0 0 255
0 0 254
0 0 255
0 0 255
0 0 254
0 0 255
0 0 255
0 0 255
0 0 255
0 0 250
0 0 254
0 0 254
0 0 255
0 0 255
0 0 255
0 0 254
0 0 253
0 0 254
0 0 252
0 0 253
0 0 255
0 0 254
0 0 253
0 0 254
0 0 252
0 0 250
0 0 253
0 0 254
0 0 255
0 0 248
0 0 254
0 0 254
0 0 253
0 0 255
0 0 250
0 0 254
0 0 255
0 0 254
0 0 253
0 0 254
0 0 255
0 0 254
0 0 255
0 0 252
0 0 253
0 0 249
0 0 254
0 0 253
0 0 253
0 0 252
0 0 254
0 0 252
0 0 246
0 0 246
0 0 248
0 0 252
0 0 253
0 0 254
0 0 252
0 0 254
0 0 249
0 0 252
0 0 255
0 0 253
0 0 252
0 0 253
0 0 252
0 0 249
0 0 252
0 0 252
0 0 248
0 0 249
0 0 253
0 0 248
0 0 253
0 0 249
0 0 250
0 0 252
0 0 252
0 0 248
0 0 248
0 0 250
0 0 246
0 0 250
0 0 246
0 0 249
0 0 252
0 0 249
0 0 248
0 0 250
0 0 250
0 0 248
0 0 249
0 0 244
0 0 242
0 0 246
0 0 242
0 0 249
0 0 245
0 0 246
0 0 248
0 0 244
0 0 245
0 0 246
0 0 252
0 0 242
0 0 245
0 0 248
0 0 244
0 0 242
0 0 248
0 0 240
0 0 248
0 0 238
0 0 249
0 0 245
0 0 244
0 0 245
0 0 240
0 0 246
0 0 240
0 0 244
0 0 236
0 0 231
0 0 234
0 0 231
0 0 240
0 0 234
0 0 241
0 0 238
0 0 231
0 0 238
0 0 240
0 0 238
0 0 234
0 0 236
0 0 233
0 0 233
0 0 231
0 0 242
0 0 233
0 0 234
0 0 228
0 0 230
0 0 230
0 0 227
0 0 227
0 0 230
0 0 233
0 0 215
0 0 221
0 0 221
0 0 231
0 0 220
0 0 223
0 0 234
0 0 209
0 0 220
0 0 217
0 0 215
0 0 212
0 0 209
0 0 209
0 0 201
0 0 199
0 0 204
0 0 206
0 0 206
176 183 231
234 243 255
234 243 255
234 243 255
234 243 255
234 243 255
234 243 255
234 243 255
234 243 255
234 243 255
234 243 255
234 243 255
234 243 255
234 243 255
234 243 255
234 243 255
234 243 255
234 243 255
234 243 255
234 243 255
234 243 255
234 243 255
234 243 255
215 170 179
184 0 0
175 0 0
204 0 0
185 0 0
188 0 0
212 0 0
196 0 0
186 0 0
189 0 0
197 0 0
195 0 0
192 0 0
205 0 0
190 0 0
207 0 0
199 0 0
208 0 0
206 0 0
212 0 0
211 0 0
205 0 0
217 0 0
209 0 0
212 0 0
213 0 0
208 0 0
207 0 0
209 0 0
211 0 0
217 0 0
201 0 0
218 0 0
217 0 0
211 0 0
211 0 0
218 0 0
208 0 0
209 0 0
218 0 0
217 0 0
207 0 0
215 0 0
210 0 0
209 0 0
211 0 0
219 0 0
223 0 0
211 0 0
210 0 0
211 0 0
219 0 0
217 0 0
214 0 0
218 0 0
213 0 0
213 0 0
222 0 0
220 0 0
213 0 0
214 0 0
223 0 0
219 0 0
217 0 0
221 0 0
215 0 0
215 0 0
222 0 0
223 0 0
220 0 0
219 0 0
221 0 0
214 0 0
222 0 0
223 0 0
223 0 0
215 0 0
217 0 0
222 0 0
224 0 0
221 0 0
214 0 0
225 0 0
215 0 0
224 0 0
226 0 0
225 0 0
218 0 0
219 0 0
218 0 0
222 0 0
216 0 0
224 0 0
226 0 0
224 0 0
222 0 0
227 0 0
228 0 0
219 0 0
220 0 0
222 0 0
225 0 0
224 0 0
225 0 0
225 0 0
223 0 0
226 0 0
223 0 0
226 0 0
228 0 0
224 0 0
226 0 0
219 0 0
225 0 0
228 0 0
222 0 0
225 0 0
227 0 0
225 0 0
222 0 0
225 0 0
226 0 0
223 0 0
225 0 0
227 0 0
221 0 0
222 0 0
226 0 0
220 0 0
227 0 0
227 0 0
221 0 0
223 0 0
220 0 0
222 0 0
229 0 0
226 0 0
226 0 0
222 0 0
223 0 0
225 0 0
224 0 0
224 0 0
228 0 0
225 0 0
224 0 0
225 0 0
223 0 0
225 0 0
224 0 0
227 0 0
224 0 0
225 0 0
224 0 0
225 0 0
227 0 0
225 0 0
228 0 0
223 0 0
222 0 0
227 0 0
223 0 0
225 0 0
224 0 0
223 0 0
223 0 0
225 0 0
222 0 0
227 0 0
225 0 0
225 0 0
225 0 0
227 0 0
226 0 0
226 0 0
227 0 0
224 0 0
225 0 0
226 0 0
224 0 0
225 0 0
227 0 0
221 0 0
224 0 0
223 0 0
225 0 0
222 0 0
225 0 0
225 0 0
0 0 255
0 0 254
0 0 255
0 0 255
0 0 254
0 0 255
0 0 255
0 0 255
0 0 255
0 0 255
0 0 254
0 0 255
0 0 255
0 0 255
0 0 254
0 0 255
0 0 254
0 0 255
0 0 254
0 0 253
0 0 255
0 0 254
0 0 255
0 0 253
0 0 254
0 0 255
0 0 254
0 0 254
0 0 253
0 0 255
0 0 254
0 0 253
0 0 255
0 0 253
0 0 254
0 0 254
0 0 254
0 0 254
0 0 253
0 0 253
0 0 254
0 0 255
0 0 253
0 0 254
0 0 254
0 0 250
0 0 254
0 0 254
0 0 255
0 0 252
0 0 254
0 0 254
0 0 255
0 0 252
0 0 253
0 0 253
0 0 253
0 0 254
0 0 253
0 0 253
0 0 254
0 0 246
0 0 252
0 0 249
0 0 252
0 0 253
0 0 250
0 0 253
0 0 254
0 0 250
0 0 253
0 0 254
0 0 253
0 0 250
0 0 252
0 0 255
0 0 252
0 0 253
0 0 252
0 0 253
0 0 254
0 0 248
0 0 252
0 0 250
0 0 253
0 0 253
0 0 250
0 0 254
0 0 253
0 0 253
0 0 248
0 0 253
0 0 252
0 0 255
0 0 253
0 0 250
0 0 250
0 0 246
0 0 252
0 0 249
0 0 246
0 0 250
0 0 249
0 0 253
0 0 252
0 0 249
0 0 248
0 0 250
0 0 250
0 0 250
0 0 244
0 0 252
0 0 248
0 0 246
0 0 244
0 0 246
0 0 252
0 0 250
0 0 244
0 0 249
0 0 250
0 0 241
0 0 244
0 0 250
0 0 246
0 0 248
0 0 244
0 0 246
0 0 246
0 0 242
0 0 238
0 0 238
0 0 245
0 0 246
0 0 246
0 0 246
0 0 242
0 0 245
0 0 245
0 0 248
0 0 246
0 0 248
0 0 244
0 0 245
0 0 244
0 0 245
0 0 241
0 0 242
0 0 241
0 0 238
0 0 237
0 0 236
0 0 240
0 0 240
0 0 233
0 0 236
0 0 231
0 0 234
0 0 240
0 0 234
0 0 233
0 0 231
0 0 234
0 0 231
0 0 237
0 0 233
0 0 209
0 0 226
0 0 230
0 0 227
0 0 230
0 0 212
0 0 231
0 0 215
0 0 220
0 0 217
0 0 206
0 0 217
0 0 223
0 0 211
0 0 209
0 0 207
0 0 215
0 0 201
0 0 189
0 0 198
0 0 198
84 87 207
229 238 253
234 243 255
234 243 255
234 243 255
234 243 255
234 243 255
234 243 255
234 243 255
234 243 255
234 243 255
234 243 255
234 243 255
234 243 255
234 243 255
234 243 255
234 243 255
234 243 255
234 243 255
234 243 255
234 243 255
234 243 255
234 243 255
234 243 255
230 239 252
180 91 95
177 0 0
195 0 0
190 0 0
193 0 0
196 0 0
187 0 0
186 0 0
196 0 0
192 0 0
206 0 0
205 0 0
192 0 0
203 0 0
203 0 0
198 0 0
208 0 0
205 0 0
194 0 0
205 0 0
211 0 0
209 0 0
207 0 0
213 0 0
209 0 0
210 0 0
204 0 0
212 0 0
219 0 0
214 0 0
211 0 0
218 0 0
216 0 0
208 0 0
213 0 0
222 0 0
216 0 0
214 0 0
215 0 0
222 0 0
219 0 0
215 0 0
206 0 0
211 0 0
216 0 0
214 0 0
215 0 0
208 0 0
216 0 0
217 0 0
218 0 0
214 0 0
216 0 0
220 0 0
217 0 0
224 0 0
216 0 0
216 0 0
220 0 0
217 0 0
220 0 0
219 0 0
226 0 0
221 0 0
215 0 0
221 0 0
218 0 0
222 0 0
222 0 0
220 0 0
219 0 0
216 0 0
217 0 0
224 0 0
222 0 0
225 0 0
225 0 0
214 0 0
217 0 0
221 0 0
223 0 0
220 0 0
222 0 0
218 0 0
219 0 0
221 0 0
223 0 0
219 0 0
222 0 0
225 0 0
224 0 0
224 0 0
221 0 0
221 0 0
226 0 0
227 0 0
219 0 0
216 0 0
224 0 0
219 0 0
223 0 0
223 0 0
221 0 0
225 0 0
221 0 0
222 0 0
223 0 0
217 0 0
222 0 0
223 0 0
225 0 0
222 0 0
225 0 0
220 0 0
221 0 0
223 0 0
227 0 0
218 0 0
223 0 0
224 0 0
221 0 0
224 0 0
222 0 0
226 0 0
222 0 0
224 0 0
229 0 0
223 0 0
220 0 0
229 0 0
230 0 0
223 0 0
225 0 0
222 0 0
225 0 0
223 0 0
225 0 0
225 0 0
225 0 0
228 0 0
227 0 0
229 0 0
222 0 0
227 0 0
224 0 0
228 0 0
231 0 0
227 0 0
226 0 0
226 0 0
224 0 0
223 0 0
226 0 0
228 0 0
224 0 0
224 0 0
223 0 0
229 0 0
221 0 0
224 0 0
225 0 0
229 0 0
225 0 0
226 0 0
225 0 0
224 0 0
228 0 0
224 0 0
224 0 0
224 0 0
223 0 0
226 0 0
224 0 0
225 0 0
222 0 0
224 0 0
228 0 0
226 0 0
224 0 0
226 0 0
220 0 0
227 0 0
224 0 0
224 0 0
229 0 0
225 0 0
222 0 0
225 0 0
0 0 255
0 0 254
0 0 255
0 0 255
0 0 255
0 0 255
0 0 255
0 0 255
0 0 255
0 0 254
0 0 254
0 0 254
0 0 255
0 0 254
0 0 253
0 0 255
0 0 255
0 0 254
0 0 253
0 0 254
0 0 255
0 0 254
0 0 253
0 0 253
0 0 254
0 0 255
0 0 255
0 0 255
0 0 254
0 0 255
0 0 255
0 0 253
0 0 255
0 0 255
0 0 254
0 0 254
0 0 254
0 0 255
0 0 255
0 0 254
0 0 254
0 0 255
0 0 249
0 0 253
0 0 254
0 0 254
0 0 253
0 0 252
0 0 255
0 0 254
0 0 252
0 0 255
0 0 254
0 0 254
0 0 255
0 0 254
0 0 253
0 0 252
0 0 250
0 0 255
0 0 252
0 0 250
0 0 255
0 0 252
0 0 255
0 0 252
0 0 253
0 0 249
0 0 252
0 0 254
0 0 252
0 0 254
0 0 253
0 0 252
0 0 252
0 0 254
0 0 253
0 0 252
0 0 253
0 0 249
0 0 252
0 0 253
0 0 250
0 0 252
0 0 254
0 0 250
0 0 254
0 0 253
0 0 253
0 0 252
0 0 249
0 0 248
0 0 246
0 0 252
0 0 245
0 0 250
0 0 249
0 0 253
0 0 248
0 0 248
0 0 246
0 0 250
0 0 250
0 0 248
0 0 246
0 0 250
0 0 252
0 0 253
0 0 245
0 0 245
0 0 250
0 0 252
0 0 244
0 0 250
0 0 249
0 0 245
0 0 249
0 0 245
0 0 250
0 0 246
0 0 252
0 0 245
0 0 245
0 0 249
0 0 248
0 0 248
0 0 238
0 0 248
0 0 248
0 0 245
0 0 248
0 0 244
0 0 248
0 0 244
0 0 242
0 0 244
0 0 246
0 0 241
0 0 246
0 0 241
0 0 241
0 0 245
0 0 245
0 0 242
0 0 238
0 0 244
0 0 237
0 0 240
0 0 236
0 0 238
0 0 246
0 0 244
0 0 244
0 0 236
0 0 236
0 0 245
0 0 233
0 0 238
0 0 236
0 0 227
0 0 234
0 0 236
0 0 234
0 0 238
0 0 230
0 0 234
0 0 224
0 0 223
0 0 226
0 0 231
0 0 234
0 0 231
0 0 234
0 0 218
0 0 226
0 0 226
0 0 207
0 0 221
0 0 215
0 0 207
0 0 214
0 0 207
0 0 214
0 0 211
0 0 199
0 0 214
0 0 203
175 182 241
234 243 255
234 243 255
234 243 255
234 243 255
234 243 255
234 243 255
234 243 255
234 243 255
234 243 255
234 243 255
234 243 255
234 243 255
234 243 255
234 243 255
234 243 255
234 243 255
234 243 255
234 243 255
234 243 255
234 243 255
234 243 255
234 243 255
234 243 255
234 243 255
219 190 199
194 0 0
197 0 0
196 0 0
186 0 0
184 0 0
196 0 0
201 0 0
198 0 0
193 0 0
191 0 0
200 0 0
188 0 0
202 0 0
204 0 0
203 0 0
194 0 0
206 0 0
209 0 0
214 0 0
214 0 0
212 0 0
216 0 0
216 0 0
210 0 0
210 0 0
216 0 0
211 0 0
221 0 0
209 0 0
212 0 0
208 0 0
208 0 0
220 0 0
218 0 0
213 0 0
219 0 0
218 0 0
211 0 0
218 0 0
222 0 0
216 0 0
206 0 0
218 0 0
218 0 0
215 0 0
212 0 0
215 0 0
219 0 0
217 0 0
209 0 0
217 0 0
213 0 0
219 0 0
222 0 0
216 0 0
214 0 0
218 0 0
218 0 0
213 0 0
215 0 0
218 0 0
214 0 0
217 0 0
220 0 0
222 0 0
222 0 0
219 0 0
218 0 0
217 0 0
220 0 0
223 0 0
220 0 0
222 0 0
223 0 0
226 0 0
216 0 0
219 0 0
217 0 0
222 0 0
218 0 0
221 0 0
224 0 0
223 0 0
225 0 0
219 0 0
217 0 0
220 0 0
224 0 0
215 0 0
221 0 0
222 0 0
224 0 0
221 0 0
222 0 0
218 0 0
220 0 0
225 0 0
223 0 0
222 0 0
221 0 0
225 0 0
225 0 0
226 0 0
222 0 0
226 0 0
219 0 0
223 0 0
223 0 0
225 0 0
219 0 0
220 0 0
223 0 0
220 0 0
222 0 0
218 0 0
223 0 0
224 0 0
225 0 0
225 0 0
227 0 0
226 0 0
226 0 0
221 0 0
223 0 0
225 0 0
221 0 0
227 0 0
221 0 0
224 0 0
227 0 0
229 0 0
227 0 0
227 0 0
222 0 0
224 0 0
228 0 0
226 0 0
224 0 0
225 0 0
224 0 0
224 0 0
224 0 0
220 0 0
224 0 0
224 0 0
228 0 0
225 0 0
223 0 0
227 0 0
227 0 0
227 0 0
226 0 0
223 0 0
223 0 0
224 0 0
228 0 0
228 0 0
223 0 0
222 0 0
226 0 0
228 0 0
223 0 0
228 0 0
225 0 0
224 0 0
224 0 0
227 0 0
227 0 0
229 0 0
225 0 0
226 0 0
223 0 0
226 0 0
226 0 0
227 0 0
226 0 0
224 0 0
225 0 0
224 0 0
227 0 0
225 0 0
227 0 0
226 0 0
229 0 0
226 0 0
225 0 0
225 0 0
0 0 253
0 0 255
0 0 255
0 0 255
0 0 254
0 0 254
0 0 255
0 0 254
0 0 255
0 0 255
0 0 255
0 0 254
0 0 253
0 0 255
0 0 255
0 0 255
0 0 254
0 0 254
0 0 254
0 0 255
0 0 254
0 0 254
0 0 255
0 0 254
0 0 255
0 0 250
0 0 253
0 0 254
0 0 255
0 0 254
0 0 254
0 0 255
0 0 255
0 0 255
0 0 253
0 0 253
0 0 255
0 0 253
0 0 255
0 0 255
0 0 252
0 0 255
0 0 254
0 0 255
0 0 253
0 0 250
0 0 253
0 0 253
0 0 252
0 0 255
0 0 254
0 0 252
0 0 253
0 0 253
0 0 253
0 0 254
0 0 253
0 0 253
0 0 250
0 0 252
0 0 254
0 0 255
0 0 249
0 0 253
0 0 254
0 0 249
0 0 255
0 0 252
0 0 254
0 0 255
0 0 254
0 0 254
0 0 250
0 0 254
0 0 252
0 0 250
0 0 253
0 0 250
0 0 253
0 0 249
0 0 253
0 0 248
0 0 250
0 0 252
0 0 250
0 0 248
0 0 254
0 0 252
0 0 252
0 0 252
0 0 254
0 0 252
0 0 253
0 0 249
0 0 253
0 0 252
0 0 250
0 0 252
0 0 248
0 0 249
0 0 250
0 0 246
0 0 249
0 0 250
0 0 254
0 0 242
0 0 252
0 0 249
0 0 249
0 0 252
0 0 252
0 0 249
0 0 249
0 0 250
0 0 246
0 0 250
0 0 244
0 0 246
0 0 250
0 0 249
0 0 250
0 0 242
0 0 250
0 0 242
0 0 250
0 0 246
0 0 248
0 0 240
0 0 244
0 0 246
0 0 240
0 0 245
0 0 233
0 0 244
0 0 237
0 0 245
0 0 240
0 0 241
0 0 240
0 0 238
0 0 242
0 0 244
0 0 236
0 0 240
0 0 244
0 0 244
0 0 234
0 0 240
0 0 244
0 0 240
0 0 244
0 0 240
0 0 245
0 0 240
0 0 237
0 0 236
0 0 237
0 0 223
0 0 233
0 0 226
0 0 228
0 0 230
0 0 230
0 0 236
0 0 234
0 0 233
0 0 230
0 0 223
0 0 220
0 0 218
0 0 227
0 0 223
0 0 220
0 0 220
0 0 228
0 0 215
0 0 224
0 0 212
0 0 214
0 0 218
0 0 217
0 0 217
0 0 207
0 0 206
0 0 206
0 0 194
148 154 224
233 242 255
234 243 255
234 243 255
234 243 255
235 243 255
234 243 255
235 243 255
235 243 255
235 243 255
235 243 255
235 243 255
235 243 255
235 243 255
235 243 255
235 243 255
235 243 255
235 243 255
235 243 255
235 243 255
235 243 255
235 243 255
234 243 255
234 243 255
234 243 255
234 243 255
234 243 255
202 144 151
200 0 0
187 0 0
203 0 0
203 0 0
192 0 0
194 0 0
193 0 0
196 0 0
193 0 0
211 0 0
201 0 0
210 0 0
201 0 0
213 0 0
195 0 0
204 0 0
205 0 0
205 0 0
207 0 0
210 0 0
197 0 0
210 0 0
213 0 0
214 0 0
213 0 0
212 0 0
209 0 0
209 0 0
213 0 0
209 0 0
207 0 0
216 0 0
210 0 0
216 0 0
211 0 0
217 0 0
213 0 0
216 0 0
211 0 0
215 0 0
211 0 0
214 0 0
213 0 0
214 0 0
222 0 0
220 0 0
213 0 0
218 0 0
218 0 0
215 0 0
223 0 0
217 0 0
223 0 0
218 0 0
217 0 0
223 0 0
222 0 0
217 0 0
221 0 0
217 0 0
223 0 0
222 0 0
220 0 0
217 0 0
220 0 0
223 0 0
225 0 0
219 0 0
221 0 0
222 0 0
220 0 0
216 0 0
225 0 0
225 0 0
225 0 0
223 0 0
223 0 0
220 0 0
220 0 0
225 0 0
222 0 0
219 0 0
219 0 0
222 0 0
230 0 0
221 0 0
219 0 0
222 0 0
223 0 0
218 0 0
220 0 0
226 0 0
222 0 0
223 0 0
223 0 0
227 0 0
220 0 0
224 0 0
222 0 0
219 0 0
219 0 0
221 0 0
221 0 0
220 0 0
219 0 0
225 0 0
219 0 0
219 0 0
227 0 0
226 0 0
221 0 0
223 0 0
226 0 0
228 0 0
229 0 0
218 0 0
224 0 0
223 0 0
222 0 0
225 0 0
219 0 0
225 0 0
224 0 0
222 0 0
223 0 0
225 0 0
220 0 0
225 0 0
224 0 0
225 0 0
224 0 0
219 0 0
219 0 0
223 0 0
225 0 0
225 0 0
222 0 0
224 0 0
223 0 0
225 0 0
222 0 0
225 0 0
225 0 0
226 0 0
221 0 0
222 0 0
225 0 0
224 0 0
220 0 0
228 0 0
227 0 0
227 0 0
224 0 0
226 0 0
227 0 0
228 0 0
225 0 0
226 0 0
228 0 0
228 0 0
223 0 0
225 0 0
226 0 0
224 0 0
225 0 0
224 0 0
229 0 0
225 0 0
225 0 0
223 0 0
229 0 0
225 0 0
226 0 0
225 0 0
226 0 0
226 0 0
225 0 0
226 0 0
224 0 0
225 0 0
227 0 0
224 0 0
229 0 0
227 0 0
227 0 0
227 0 0
0 0 255
0 0 255
0 0 255
0 0 255
0 0 255
0 0 255
0 0 254
0 0 255
0 0 255
0 0 253
0 0 254
0 0 254
0 0 254
0 0 255
0 0 255
0 0 254
0 0 254
0 0 255
0 0 255
0 0 255
0 0 255
0 0 255
0 0 254
0 0 254
0 0 254
0 0 254
0 0 255
0 0 253
0 0 254
0 0 253
0 0 255
0 0 255
0 0 254
0 0 254
0 0 252
0 0 254
0 0 254
0 0 254
0 0 254
0 0 255
0 0 254
0 0 254
0 0 255
0 0 253
0 0 254
0 0 252
0 0 254
0 0 254
0 0 253
0 0 253
0 0 253
0 0 255
0 0 254
0 0 253
0 0 254
0 0 253
0 0 253
0 0 254
0 0 254
0 0 255
0 0 254
0 0 253
0 0 252
0 0 253
0 0 253
0 0 254
0 0 255
0 0 250
0 0 254
0 0 254
0 0 253
0 0 254
0 0 254
0 0 250
0 0 250
0 0 252
0 0 250
0 0 254
0 0 255
0 0 252
0 0 253
0 0 254
0 0 250
0 0 254
0 0 248
0 0 254
0 0 249
0 0 250
0 0 250
0 0 249
0 0 253
0 0 250
0 0 248
0 0 248
0 0 252
0 0 252
0 0 254
0 0 249
0 0 254
0 0 246
0 0 246
0 0 253
0 0 250
0 0 245
0 0 249
0 0 252
0 0 242
0 0 249
0 0 253
0 0 246
0 0 245
0 0 248
0 0 250
0 0 248
0 0 245
0 0 252
0 0 249
0 0 249
0 0 244
0 0 246
0 0 245
0 0 249
0 0 252
0 0 240
0 0 248
0 0 250
0 0 246
0 0 252
0 0 245
0 0 241
0 0 249
0 0 244
0 0 242
0 0 248
0 0 245
0 0 241
0 0 250
0 0 244
0 0 248
0 0 245
0 0 246
0 0 241
0 0 240
0 0 242
0 0 240
0 0 242
0 0 234
0 0 242
0 0 237
0 0 241
0 0 242
0 0 245
0 0 241
0 0 234
0 0 238
0 0 245
0 0 236
0 0 244
0 0 237
0 0 231
0 0 233
0 0 227
0 0 242
0 0 238
0 0 226
0 0 234
0 0 226
0 0 224
0 0 230
0 0 230
0 0 228
0 0 220
0 0 217
0 0 234
0 0 224
0 0 215
0 0 224
0 0 215
0 0 204
0 0 212
0 0 218
0 0 220
0 0 209
0 0 204
0 0 209
52 54 217
228 236 253
235 243 255
235 243 255
235 243 255
235 243 255
235 243 255
235 243 255
235 243 255
235 243 255
235 243 255
235 243 255
235 243 255
235 243 255
235 243 255
235 243 255
235 243 255
235 243 255
235 243 255
235 243 255
235 243 255
235 243 255
235 243 255
235 243 255
235 243 255
235 243 255
235 243 255
235 243 255
230 227 238
203 34 36
189 0 0
195 0 0
193 0 0
187 0 0
197 0 0
202 0 0
210 0 0
193 0 0
206 0 0
203 0 0
200 0 0
201 0 0
207 0 0
202 0 0
202 0 0
197 0 0
207 0 0
212 0 0
211 0 0
203 0 0
207 0 0
217 0 0
203 0 0
205 0 0
212 0 0
220 0 0
209 0 0
212 0 0
214 0 0
203 0 0
210 0 0
214 0 0
211 0 0
204 0 0
215 0 0
212 0 0
215 0 0
215 0 0
214 0 0
215 0 0
221 0 0
221 0 0
213 0 0
226 0 0
219 0 0
222 0 0
217 0 0
214 0 0
224 0 0
217 0 0
216 0 0
220 0 0
218 0 0
218 0 0
221 0 0
219 0 0
218 0 0
213 0 0
219 0 0
225 0 0
224 0 0
223 0 0
224 0 0
220 0 0
223 0 0
217 0 0
223 0 0
220 0 0
219 0 0
223 0 0
218 0 0
222 0 0
219 0 0
222 0 0
223 0 0
218 0 0
221 0 0
221 0 0
220 0 0
220 0 0
223 0 0
222 0 0
224 0 0
221 0 0
218 0 0
221 0 0
223 0 0
225 0 0
224 0 0
220 0 0
220 0 0
220 0 0
221 0 0
218 0 0
216 0 0
225 0 0
224 0 0
228 0 0
223 0 0
223 0 0
221 0 0
224 0 0
224 0 0
225 0 0
217 0 0
228 0 0
225 0 0
224 0 0
219 0 0
222 0 0
222 0 0
227 0 0
222 0 0
225 0 0
223 0 0
225 0 0
222 0 0
224 0 0
229 0 0
225 0 0
223 0 0
219 0 0
227 0 0
225 0 0
225 0 0
222 0 0
219 0 0
221 0 0
224 0 0
223 0 0
221 0 0
223 0 0
229 0 0
223 0 0
223 0 0
222 0 0
226 0 0
225 0 0
224 0 0
224 0 0
225 0 0
222 0 0
227 0 0
226 0 0
225 0 0
223 0 0
223 0 0
225 0 0
227 0 0
225 0 0
220 0 0
226 0 0
221 0 0
226 0 0
224 0 0
225 0 0
226 0 0
225 0 0
222 0 0
228 0 0
225 0 0
220 0 0
229 0 0
225 0 0
228 0 0
226 0 0
225 0 0
219 0 0
228 0 0
224 0 0
230 0 0
224 0 0
225 0 0
225 0 0
221 0 0
225 0 0
226 0 0
229 0 0
224 0 0
220 0 0
224 0 0
224 0 0
225 0 0
224 0 0
226 0 0
0 0 255
0 0 255
0 0 255
0 0 255
0 0 254
0 0 254
0 0 255
0 0 255
0 0 254
0 0 255
0 0 255
0 0 254
0 0 255
0 0 254
0 0 253
0 0 254
0 0 255
0 0 253
0 0 254
0 0 254
0 0 253
0 0 254
0 0 254
0 0 254
0 0 254
0 0 254
0 0 255
0 0 255
0 0 254
0 0 255
0 0 253
0 0 253
0 0 254
0 0 254
0 0 255
0 0 254
0 0 253
0 0 254
0 0 252
0 0 255
0 0 253
0 0 255
0 0 255
0 0 254
0 0 252
0 0 249
0 0 250
0 0 252
0 0 252
0 0 253
0 0 255
0 0 254
0 0 254
0 0 253
0 0 254
0 0 253
0 0 253
0 0 252
0 0 253
0 0 253
0 0 252
0 0 252
0 0 249
0 0 254
0 0 253
0 0 252
0 0 253
0 0 253
0 0 250
0 0 253
0 0 250
0 0 248
0 0 252
0 0 249
0 0 253
0 0 249
0 0 250
0 0 252
0 0 250
0 0 254
0 0 250
0 0 249
0 0 253
0 0 250
0 0 253
0 0 252
0 0 250
0 0 249
0 0 253
0 0 252
0 0 254
0 0 250
0 0 249
0 0 252
0 0 248
0 0 248
0 0 250
0 0 248
0 0 246
0 0 250
0 0 250
0 0 248
0 0 238
0 0 248
0 0 246
0 0 250
0 0 254
0 0 249
0 0 254
0 0 250
0 0 249
0 0 248
0 0 253
0 0 244
0 0 246
0 0 250
0 0 244
0 0 253
0 0 244
0 0 249
0 0 249
0 0 246
0 0 249
0 0 250
0 0 246
0 0 252
0 0 244
0 0 241
0 0 248
0 0 244
0 0 242
0 0 242
0 0 246
0 0 244
0 0 246
0 0 242
0 0 245
0 0 237
0 0 240
0 0 250
0 0 241
0 0 244
0 0 234
0 0 238
0 0 238
0 0 240
0 0 237
0 0 240
0 0 244
0 0 230
0 0 241
0 0 244
0 0 244
0 0 244
0 0 246
0 0 237
0 0 241
0 0 228
0 0 223
0 0 238
0 0 234
0 0 234
0 0 238
0 0 236
0 0 230
0 0 228
0 0 234
0 0 234
0 0 233
0 0 224
0 0 227
0 0 224
0 0 227
0 0 221
0 0 224
0 0 215
0 0 220
0 0 214
0 0 204
0 0 207
0 0 194
0 0 218
0 0 212
0 0 206
0 0 207
183 190 240
235 243 255
235 243 255
235 243 255
235 243 255
235 243 255
235 243 255
235 243 255
235 243 255
235 243 255
235 243 255
235 243 255
235 243 255
235 243 255
235 243 255
235 243 255
235 243 255
235 243 255
235 243 255
235 243 255
235 243 255
235 243 255
235 243 255
235 243 255
235 243 255
235 243 255
235 243 255
235 243 255
235 243 255
219 172 181
186 0 0
196 0 0
189 0 0
188 0 0
197 0 0
199 0 0
193 0 0
205 0 0
212 0 0
207 0 0
203 0 0
206 0 0
192 0 0
193 0 0
214 0 0
208 0 0
208 0 0
198 0 0
211 0 0
209 0 0
212 0 0
212 0 0
202 0 0
211 0 0
210 0 0
212 0 0
205 0 0
219 0 0
216 0 0
216 0 0
218 0 0
210 0 0
213 0 0
216 0 0
214 0 0
214 0 0
217 0 0
209 0 0
219 0 0
218 0 0
214 0 0
220 0 0
222 0 0
221 0 0
214 0 0
225 0 0
215 0 0
209 0 0
214 0 0
224 0 0
219 0 0
227 0 0
219 0 0
219 0 0
224 0 0
213 0 0
217 0 0
221 0 0
209 0 0
217 0 0
227 0 0
223 0 0
226 0 0
220 0 0
222 0 0
220 0 0
219 0 0
219 0 0
220 0 0
219 0 0
220 0 0
227 0 0
220 0 0
207 0 0
222 0 0
223 0 0
224 0 0
221 0 0
216 0 0
225 0 0
220 0 0
223 0 0
228 0 0
222 0 0
227 0 0
222 0 0
220 0 0
225 0 0
221 0 0
225 0 0
222 0 0
221 0 0
223 0 0
228 0 0
220 0 0
224 0 0
225 0 0
223 0 0
225 0 0
218 0 0
223 0 0
223 0 0
217 0 0
226 0 0
226 0 0
221 0 0
222 0 0
226 0 0
219 0 0
224 0 0
222 0 0
227 0 0
222 0 0
224 0 0
223 0 0
226 0 0
227 0 0
225 0 0
220 0 0
225 0 0
221 0 0
229 0 0
227 0 0
229 0 0
223 0 0
224 0 0
223 0 0
226 0 0
222 0 0
228 0 0
223 0 0
227 0 0
229 0 0
222 0 0
224 0 0
223 0 0
225 0 0
223 0 0
226 0 0
223 0 0
224 0 0
229 0 0
228 0 0
226 0 0
225 0 0
227 0 0
222 0 0
226 0 0
224 0 0
228 0 0
224 0 0
226 0 0
220 0 0
224 0 0
225 0 0
225 0 0
225 0 0
222 0 0
225 0 0
224 0 0
224 0 0
229 0 0
225 0 0
223 0 0
225 0 0
227 0 0
223 0 0
223 0 0
229 0 0
227 0 0
226 0 0
224 0 0
223 0 0
228 0 0
226 0 0
226 0 0
226 0 0
225 0 0
226 0 0
225 0 0
222 0 0
226 0 0
224 0 0
225 0 0
227 0 0
0 0 253
0 0 255
0 0 254
0 0 255
0 0 255
0 0 254
0 0 253
0 0 253
0 0 255
0 0 255
0 0 255
0 0 254
0 0 255
0 0 255
0 0 254
0 0 255
0 0 255
0 0 254
0 0 255
0 0 255
0 0 255
0 0 253
0 0 254
0 0 255
0 0 254
0 0 254
0 0 255
0 0 255
0 0 254
0 0 255
0 0 254
0 0 253
0 0 254
0 0 253
0 0 255
0 0 253
0 0 254
0 0 254
0 0 255
0 0 255
0 0 250
0 0 253
0 0 254
0 0 255
0 0 254
0 0 252
0 0 254
0 0 255
0 0 254
0 0 253
0 0 255
0 0 253
0 0 252
0 0 255
0 0 252
0 0 255
0 0 254
0 0 254
0 0 253
0 0 254
0 0 253
0 0 254
0 0 253
0 0 255
0 0 253
0 0 255
0 0 253
0 0 255
0 0 253
0 0 252
0 0 254
0 0 252
0 0 253
0 0 250
0 0 254
0 0 255
0 0 254
0 0 252
0 0 252
0 0 253
0 0 253
0 0 254
0 0 253
0 0 253
0 0 255
0 0 250
0 0 250
0 0 254
0 0 252
0 0 252
0 0 253
0 0 250
0 0 246
0 0 253
0 0 246
0 0 248
0 0 250
0 0 252
0 0 246
0 0 250
0 0 249
0 0 250
0 0 249
0 0 252
0 0 248
0 0 248
0 0 248
0 0 250
0 0 249
0 0 249
0 0 254
0 0 253
0 0 250
0 0 248
0 0 244
0 0 241
0 0 253
0 0 250
0 0 242
0 0 246
0 0 249
0 0 250
0 0 248
0 0 249
0 0 242
0 0 244
0 0 248
0 0 238
0 0 244
0 0 240
0 0 250
0 0 240
0 0 241
0 0 245
0 0 244
0 0 252
0 0 249
0 0 245
0 0 233
0 0 245
0 0 237
0 0 246
0 0 248
0 0 244
0 0 237
0 0 241
0 0 241
0 0 242
0 0 246
0 0 233
0 0 231
0 0 242
0 0 234
0 0 231
0 0 237
0 0 236
0 0 234
0 0 238
0 0 236
0 0 223
0 0 236
0 0 242
0 0 241
0 0 234
0 0 228
0 0 221
0 0 230
0 0 224
0 0 228
0 0 221
0 0 223
0 0 227
0 0 224
0 0 227
0 0 221
0 0 214
0 0 220
0 0 209
0 0 223
0 0 203
0 0 221
0 0 215
0 0 209
0 0 204
108 111 227
232 240 254
235 244 255
235 244 255
235 244 255
235 244 255
235 244 255
235 244 255
235 244 255
235 244 255
235 244 255
235 244 255
235 244 255
235 244 255
235 244 255
235 244 255
235 244 255
235 244 255
235 244 255
235 244 255
235 244 255
235 244 255
235 244 255
235 244 255
235 244 255
235 244 255
235 244 255
235 244 255
235 244 255
235 244 255
235 244 255
198 114 120
210 0 0
201 0 0
186 0 0
205 0 0
205 0 0
194 0 0
185 0 0
197 0 0
204 0 0
204 0 0
207 0 0
200 0 0
206 0 0
211 0 0
197 0 0
212 0 0
205 0 0
211 0 0
212 0 0
200 0 0
206 0 0
214 0 0
215 0 0
214 0 0
212 0 0
202 0 0
215 0 0
205 0 0
215 0 0
217 0 0
203 0 0
210 0 0
208 0 0
213 0 0
219 0 0
216 0 0
217 0 0
214 0 0
218 0 0
215 0 0
216 0 0
220 0 0
214 0 0
220 0 0
209 0 0
218 0 0
210 0 0
216 0 0
213 0 0
212 0 0
225 0 0
218 0 0
221 0 0
222 0 0
219 0 0
227 0 0
226 0 0
224 0 0
222 0 0
219 0 0
224 0 0
223 0 0
221 0 0
219 0 0
224 0 0
226 0 0
222 0 0
223 0 0
222 0 0
221 0 0
225 0 0
218 0 0
224 0 0
225 0 0
222 0 0
225 0 0
221 0 0
226 0 0
227 0 0
221 0 0
224 0 0
221 0 0
221 0 0
219 0 0
222 0 0
226 0 0
221 0 0
224 0 0
224 0 0
225 0 0
225 0 0
223 0 0
215 0 0
221 0 0
222 0 0
220 0 0
221 0 0
225 0 0
221 0 0
221 0 0
226 0 0
222 0 0
226 0 0
225 0 0
224 0 0
224 0 0
225 0 0
223 0 0
222 0 0
224 0 0
223 0 0
227 0 0
224 0 0
225 0 0
225 0 0
226 0 0
223 0 0
224 0 0
225 0 0
223 0 0
227 0 0
223 0 0
225 0 0
229 0 0
229 0 0
225 0 0
224 0 0
226 0 0
221 0 0
226 0 0
229 0 0
222 0 0
226 0 0
225 0 0
224 0 0
225 0 0
222 0 0
220 0 0
220 0 0
222 0 0
228 0 0
223 0 0
226 0 0
228 0 0
221 0 0
226 0 0
224 0 0
227 0 0
224 0 0
225 0 0
223 0 0
226 0 0
223 0 0
229 0 0
224 0 0
227 0 0
225 0 0
224 0 0
226 0 0
227 0 0
224 0 0
224 0 0
226 0 0
227 0 0
227 0 0
228 0 0
226 0 0
226 0 0
223 0 0
228 0 0
225 0 0
223 0 0
223 0 0
225 0 0
226 0 0
226 0 0
223 0 0
228 0 0
225 0 0
225 0 0
227 0 0
224 0 0
226 0 0
226 0 0
0 0 254
0 0 255
0 0 255
0 0 255
0 0 254
0 0 255
0 0 254
0 0 255
0 0 254
0 0 255
0 0 254
0 0 254
0 0 255
0 0 255
0 0 254
0 0 254
0 0 255
0 0 255
0 0 254
0 0 254
0 0 254
0 0 255
0 0 254
0 0 253
0 0 254
0 0 254
0 0 253
0 0 255
0 0 254
0 0 255
0 0 255
0 0 254
0 0 255
0 0 254
0 0 254
0 0 253
0 0 254
0 0 255
0 0 254
0 0 254
0 0 255
0 0 254
0 0 255
0 0 254
0 0 255
0 0 254
0 0 254
0 0 253
0 0 253
0 0 254
0 0 254
0 0 254
0 0 252
0 0 254
0 0 254
0 0 253
0 0 254
0 0 252
0 0 253
0 0 255
0 0 253
0 0 254
0 0 254
0 0 255
0 0 249
0 0 255
0 0 252
0 0 255
0 0 253
0 0 255
0 0 250
0 0 250
0 0 254
0 0 250
0 0 252
0 0 253
0 0 252
0 0 254
0 0 253
0 0 250
0 0 253
0 0 249
0 0 252
0 0 252
0 0 249
0 0 252
0 0 253
0 0 250
0 0 255
0 0 248
0 0 246
0 0 252
0 0 245
0 0 250
0 0 252
0 0 252
0 0 248
0 0 248
0 0 249
0 0 252
0 0 253
0 0 253
0 0 252
0 0 253
0 0 248
0 0 250
0 0 252
0 0 250
0 0 245
0 0 248
0 0 246
0 0 248
0 0 246
0 0 245
0 0 246
0 0 254
0 0 249
0 0 248
0 0 249
0 0 244
0 0 246
0 0 249
0 0 246
0 0 244
0 0 252
0 0 246
0 0 249
0 0 238
0 0 245
0 0 238
0 0 242
0 0 237
0 0 233
0 0 245
0 0 248
0 0 246
0 0 244
0 0 248
0 0 245
0 0 242
0 0 236
0 0 244
0 0 236
0 0 240
0 0 240
0 0 228
0 0 242
0 0 244
0 0 246
0 0 238
0 0 238
0 0 234
0 0 244
0 0 236
0 0 234
0 0 238
0 0 249
0 0 233
0 0 228
0 0 227
0 0 230
0 0 237
0 0 233
0 0 226
0 0 233
0 0 231
0 0 228
0 0 223
0 0 233
0 0 226
0 0 226
0 0 220
0 0 227
0 0 203
0 0 221
0 0 207
0 0 224
0 0 207
0 0 218
0 0 223
0 0 209
0 0 206
0 0 207
66 69 206
218 226 252
235 244 255
235 244 255
235 244 255
235 244 255
235 244 255
235 244 255
235 244 255
235 244 255
235 244 255
235 244 255
235 244 255
236 244 255
236 244 255
236 244 255
235 244 255
236 244 255
235 244 255
235 244 255
235 244 255
235 244 255
235 244 255
235 244 255
235 244 255
235 244 255
235 244 255
235 244 255
235 244 255
235 244 255
235 244 255
235 244 255
232 229 240
198 0 0
195 0 0
204 0 0
194 0 0
204 0 0
201 0 0
198 0 0
203 0 0
207 0 0
211 0 0
202 0 0
209 0 0
208 0 0
209 0 0
211 0 0
216 0 0
210 0 0
206 0 0
207 0 0
213 0 0
214 0 0
214 0 0
210 0 0
213 0 0
220 0 0
208 0 0
216 0 0
219 0 0
218 0 0
218 0 0
221 0 0
209 0 0
220 0 0
215 0 0
219 0 0
224 0 0
217 0 0
215 0 0
221 0 0
222 0 0
221 0 0
220 0 0
223 0 0
226 0 0
213 0 0
217 0 0
218 0 0
221 0 0
219 0 0
215 0 0
215 0 0
223 0 0
218 0 0
219 0 0
221 0 0
221 0 0
220 0 0
217 0 0
216 0 0
221 0 0
223 0 0
222 0 0
217 0 0
222 0 0
219 0 0
219 0 0
225 0 0
226 0 0
221 0 0
224 0 0
224 0 0
223 0 0
219 0 0
222 0 0
219 0 0
222 0 0
222 0 0
219 0 0
225 0 0
218 0 0
224 0 0
224 0 0
223 0 0
226 0 0
219 0 0
226 0 0
225 0 0
224 0 0
224 0 0
224 0 0
223 0 0
226 0 0
227 0 0
225 0 0
225 0 0
229 0 0
223 0 0
224 0 0
224 0 0
230 0 0
225 0 0
224 0 0
224 0 0
222 0 0
225 0 0
227 0 0
227 0 0
225 0 0
225 0 0
219 0 0
224 0 0
227 0 0
225 0 0
223 0 0
222 0 0
222 0 0
231 0 0
219 0 0
225 0 0
221 0 0
227 0 0
230 0 0
224 0 0
225 0 0
228 0 0
225 0 0
223 0 0
223 0 0
225 0 0
230 0 0
228 0 0
220 0 0
224 0 0
226 0 0
228 0 0
226 0 0
224 0 0
225 0 0
227 0 0
227 0 0
229 0 0
228 0 0
226 0 0
223 0 0
227 0 0
223 0 0
227 0 0
223 0 0
224 0 0
223 0 0
226 0 0
226 0 0
226 0 0
229 0 0
222 0 0
227 0 0
231 0 0
225 0 0
222 0 0
229 0 0
227 0 0
225 0 0
225 0 0
224 0 0
227 0 0
223 0 0
224 0 0
224 0 0
223 0 0
224 0 0
225 0 0
226 0 0
225 0 0
227 0 0
230 0 0
223 0 0
227 0 0
225 0 0
228 0 0
224 0 0
224 0 0
228 0 0
226 0 0
227 0 0
0 0 254
0 0 255
0 0 255
0 0 255
0 0 253
0 0 255
0 0 254
0 0 255
0 0 255
0 0 255
0 0 255
0 0 255
0 0 255
0 0 254
0 0 255
0 0 253
0 0 253
0 0 254
0 0 255
0 0 253
0 0 255
0 0 254
0 0 255
0 0 253
0 0 253
0 0 255
0 0 253
0 0 255
0 0 255
0 0 255
0 0 255
0 0 255
0 0 254
0 0 255
0 0 252
0 0 254
0 0 254
0 0 254
0 0 253
0 0 255
0 0 253
0 0 254
0 0 255
0 0 255
0 0 253
0 0 253
0 0 253
0 0 252
0 0 254
0 0 253
0 0 255
0 0 250
0 0 255
0 0 253
0 0 255
0 0 255
0 0 252
0 0 254
0 0 254
0 0 253
0 0 252
0 0 254
0 0 252
0 0 254
0 0 255
0 0 253
0 0 250
0 0 253
0 0 254
0 0 253
0 0 252
0 0 246
0 0 252
0 0 254
0 0 255
0 0 253
0 0 253
0 0 253
0 0 249
0 0 249
0 0 253
0 0 252
0 0 250
0 0 246
0 0 252
0 0 254
0 0 250
0 0 248
0 0 249
0 0 255
0 0 252
0 0 249
0 0 244
0 0 254
0 0 250
0 0 253
0 0 252
0 0 244
0 0 250
0 0 253
0 0 249
0 0 250
0 0 249
0 0 249
0 0 248
0 0 250
0 0 248
0 0 248
0 0 249
0 0 252
0 0 246
0 0 249
0 0 245
0 0 249
0 0 244
0 0 248
0 0 248
0 0 248
0 0 253
0 0 248
0 0 248
0 0 242
0 0 248
0 0 252
0 0 248
0 0 242
0 0 250
0 0 248
0 0 246
0 0 249
0 0 246
0 0 248
0 0 236
0 0 245
0 0 245
0 0 248
0 0 248
0 0 242
0 0 240
0 0 242
0 0 242
0 0 234
0 0 238
0 0 240
0 0 242
0 0 242
0 0 230
0 0 240
0 0 246
0 0 237
0 0 238
0 0 244
0 0 240
0 0 233
0 0 231
0 0 230
0 0 236
0 0 234
0 0 238
0 0 231
0 0 246
0 0 233
0 0 231
0 0 227
0 0 220
0 0 214
0 0 233
0 0 223
0 0 223
0 0 224
0 0 228
0 0 226
0 0 233
0 0 214
0 0 224
0 0 226
0 0 212
0 0 223
0 0 228
0 0 221
0 0 204
0 0 220
0 0 194
176 182 244
236 244 255
236 244 255
236 244 255
236 244 255
236 244 255
236 244 255
236 244 255
236 244 255
236 244 255
236 244 255
236 244 255
236 244 255
236 244 255
236 244 255
236 244 255
236 244 255
236 244 255
236 244 255
236 244 255
236 244 255
236 244 255
236 244 255
236 244 255
236 244 255
236 244 255
236 244 255
236 244 255
236 244 255
236 244 255
236 244 255
236 244 255
236 244 255
221 176 184
213 0 0
202 0 0
205 0 0
192 0 0
202 0 0
198 0 0
213 0 0
211 0 0
205 0 0
206 0 0
212 0 0
202 0 0
198 0 0
205 0 0
209 0 0
206 0 0
217 0 0
218 0 0
212 0 0
209 0 0
218 0 0
220 0 0
221 0 0
211 0 0
214 0 0
216 0 0
213 0 0
216 0 0
216 0 0
216 0 0
213 0 0
217 0 0
214 0 0
220 0 0
227 0 0
210 0 0
222 0 0
224 0 0
212 0 0
216 0 0
221 0 0
212 0 0
214 0 0
222 0 0
223 0 0
223 0 0
219 0 0
218 0 0
213 0 0
220 0 0
225 0 0
212 0 0
223 0 0
217 0 0
224 0 0
222 0 0
219 0 0
217 0 0
222 0 0
215 0 0
223 0 0
219 0 0
221 0 0
222 0 0
221 0 0
215 0 0
221 0 0
220 0 0
224 0 0
223 0 0
219 0 0
219 0 0
219 0 0
222 0 0
224 0 0
224 0 0
227 0 0
222 0 0
226 0 0
227 0 0
219 0 0
225 0 0
227 0 0
219 0 0
220 0 0
224 0 0
222 0 0
221 0 0
226 0 0
228 0 0
224 0 0
225 0 0
220 0 0
222 0 0
226 0 0
222 0 0
222 0 0
222 0 0
224 0 0
215 0 0
220 0 0
228 0 0
226 0 0
220 0 0
224 0 0
224 0 0
221 0 0
224 0 0
225 0 0
226 0 0
227 0 0
224 0 0
226 0 0
225 0 0
226 0 0
223 0 0
225 0 0
225 0 0
225 0 0
224 0 0
225 0 0
223 0 0
223 0 0
226 0 0
223 0 0
225 0 0
229 0 0
219 0 0
228 0 0
229 0 0
226 0 0
228 0 0
228 0 0
224 0 0
223 0 0
226 0 0
224 0 0
225 0 0
225 0 0
225 0 0
225 0 0
225 0 0
228 0 0
221 0 0
225 0 0
226 0 0
224 0 0
227 0 0
224 0 0
225 0 0
228 0 0
222 0 0
229 0 0
228 0 0
228 0 0
223 0 0
226 0 0
226 0 0
226 0 0
229 0 0
227 0 0
224 0 0
222 0 0
227 0 0
222 0 0
224 0 0
223 0 0
225 0 0
227 0 0
228 0 0
228 0 0
227 0 0
225 0 0
225 0 0
227 0 0
226 0 0
224 0 0
223 0 0
227 0 0
227 0 0
228 0 0
226 0 0
228 0 0
0 0 255
0 0 255
0 0 255
0 0 255
0 0 254
0 0 255
0 0 255
0 0 255
0 0 255
0 0 255
0 0 255
0 0 255
0 0 255
0 0 254
0 0 255
0 0 255
0 0 255
0 0 255
0 0 255
0 0 255
0 0 253
0 0 253
0 0 255
0 0 255
0 0 253
0 0 255
0 0 254
0 0 254
0 0 255
0 0 254
0 0 255
0 0 254
0 0 254
0 0 255
0 0 255
0 0 253
0 0 254
0 0 255
0 0 255
0 0 255
0 0 254
0 0 253
0 0 252
0 0 255
0 0 252
0 0 254
0 0 254
0 0 254
0 0 254
0 0 253
0 0 254
0 0 252
0 0 250
0 0 253
0 0 253
0 0 253
0 0 254
0 0 255
0 0 254
0 0 253
0 0 254
0 0 254
0 0 253
0 0 255
0 0 254
0 0 253
0 0 254
0 0 253
0 0 250
0 0 252
0 0 249
0 0 253
0 0 250
0 0 250
0 0 250
0 0 254
0 0 254
0 0 250
0 0 254
0 0 253
0 0 252
0 0 253
0 0 252
0 0 253
0 0 253
0 0 253
0 0 252
0 0 252
0 0 253
0 0 248
0 0 254
0 0 254
0 0 249
0 0 250
0 0 254
0 0 246
0 0 252
0 0 248
0 0 253
0 0 252
0 0 248
0 0 252
0 0 253
0 0 252
0 0 249
0 0 248
0 0 249
0 0 248
0 0 254
0 0 249
0 0 249
0 0 253
0 0 250
0 0 246
0 0 248
0 0 250
0 0 252
0 0 250
0 0 250
0 0 248
0 0 245
0 0 245
0 0 246
0 0 248
0 0 246
0 0 252
0 0 248
0 0 252
0 0 244
0 0 248
0 0 245
0 0 248
0 0 249
0 0 242
0 0 248
0 0 245
0 0 242
0 0 246
0 0 242
0 0 238
0 0 244
0 0 238
0 0 242
0 0 236
0 0 236
0 0 244
0 0 237
0 0 246
0 0 250
0 0 227
0 0 236
0 0 241
0 0 231
0 0 231
0 0 242
0 0 227
0 0 236
0 0 240
0 0 245
0 0 234
0 0 233
0 0 228
0 0 227
0 0 233
0 0 233
0 0 233
0 0 228
0 0 209
0 0 230
0 0 227
0 0 220
0 0 224
0 0 204
0 0 226
0 0 223
0 0 227
0 0 212
0 0 226
0 0 230
0 0 215
0 0 224
0 0 227
129 133 217
236 244 255
236 244 255
236 244 255
236 244 255
236 244 255
236 244 255
236 244 255
236 244 255
236 244 255
236 244 255
236 244 255
236 244 255
236 244 255
236 244 255
236 244 255
236 244 255
236 244 255
236 244 255
236 244 255
236 244 255
236 244 255
236 244 255
236 244 255
236 244 255
236 244 255
236 244 255
236 244 255
236 244 255
236 244 255
236 244 255
236 244 255
236 244 255
236 244 255
236 244 255
219 124 130
198 0 0
191 0 0
194 0 0
210 0 0
204 0 0
209 0 0
201 0 0
207 0 0
206 0 0
206 0 0
209 0 0
214 0 0
206 0 0
211 0 0
214 0 0
205 0 0
220 0 0
207 0 0
207 0 0
212 0 0
212 0 0
217 0 0
204 0 0
212 0 0
201 0 0
212 0 0
212 0 0
222 0 0
212 0 0
212 0 0
214 0 0
215 0 0
216 0 0
223 0 0
216 0 0
222 0 0
218 0 0
219 0 0
217 0 0
210 0 0
214 0 0
220 0 0
220 0 0
215 0 0
218 0 0
221 0 0
229 0 0
217 0 0
223 0 0
220 0 0
221 0 0
218 0 0
217 0 0
220 0 0
216 0 0
224 0 0
217 0 0
215 0 0
219 0 0
220 0 0
224 0 0
216 0 0
227 0 0
224 0 0
220 0 0
224 0 0
217 0 0
222 0 0
229 0 0
225 0 0
221 0 0
219 0 0
218 0 0
225 0 0
219 0 0
219 0 0
221 0 0
217 0 0
221 0 0
226 0 0
223 0 0
228 0 0
220 0 0
226 0 0
227 0 0
221 0 0
222 0 0
219 0 0
222 0 0
225 0 0
223 0 0
218 0 0
225 0 0
220 0 0
226 0 0
219 0 0
225 0 0
226 0 0
225 0 0
223 0 0
222 0 0
226 0 0
221 0 0
223 0 0
224 0 0
228 0 0
222 0 0
226 0 0
223 0 0
223 0 0
226 0 0
224 0 0
220 0 0
225 0 0
228 0 0
227 0 0
223 0 0
230 0 0
227 0 0
227 0 0
227 0 0
225 0 0
226 0 0
229 0 0
225 0 0
231 0 0
224 0 0
225 0 0
222 0 0
226 0 0
230 0 0
223 0 0
226 0 0
227 0 0
222 0 0
227 0 0
227 0 0
226 0 0
226 0 0
225 0 0
226 0 0
228 0 0
226 0 0
226 0 0
222 0 0
224 0 0
228 0 0
230 0 0
221 0 0
225 0 0
228 0 0
228 0 0
221 0 0
225 0 0
225 0 0
228 0 0
225 0 0
226 0 0
226 0 0
226 0 0
223 0 0
228 0 0
226 0 0
229 0 0
226 0 0
226 0 0
228 0 0
226 0 0
226 0 0
224 0 0
223 0 0
225 0 0
225 0 0
227 0 0
227 0 0
230 0 0
225 0 0
230 0 0
229 0 0
222 0 0
226 0 0
225 0 0
0 0 255
0 0 255
0 0 255
0 0 255
0 0 255
0 0 255
0 0 255
0 0 255
0 0 254
0 0 254
0 0 252
0 0 254
0 0 253
0 0 254
0 0 253
0 0 255
0 0 255
0 0 255
0 0 255
0 0 255
0 0 255
0 0 254
0 0 254
0 0 254
0 0 255
0 0 255
0 0 254
0 0 255
0 0 255
0 0 255
0 0 255
0 0 254
0 0 254
0 0 254
0 0 253
0 0 254
0 0 254
0 0 253
0 0 253
0 0 253
0 0 254
0 0 253
0 0 255
0 0 254
0 0 254
0 0 255
0 0 254
0 0 255
0 0 254
0 0 254
0 0 253
0 0 255
0 0 254
0 0 252
0 0 250
0 0 252
0 0 254
0 0 254
0 0 253
0 0 252
0 0 255
0 0 255
0 0 254
0 0 252
0 0 254
0 0 252
0 0 253
0 0 253
0 0 253
0 0 252
0 0 253
0 0 253
0 0 254
0 0 249
0 0 253
0 0 254
0 0 254
0 0 254
0 0 253
0 0 253
0 0 252
0 0 252
0 0 254
0 0 252
0 0 248
0 0 253
0 0 252
0 0 252
0 0 252
0 0 250
0 0 250
0 0 253
0 0 252
0 0 255
0 0 250
0 0 253
0 0 249
0 0 252
0 0 249
0 0 253
0 0 252
0 0 252
0 0 248
0 0 248
0 0 250
0 0 250
0 0 254
0 0 253
0 0 249
0 0 250
0 0 246
0 0 249
0 0 248
0 0 250
0 0 250
0 0 249
0 0 250
0 0 249
0 0 248
0 0 248
0 0 241
0 0 250
0 0 246
0 0 252
0 0 250
0 0 248
0 0 248
0 0 245
0 0 244
0 0 246
0 0 252
0 0 246
0 0 242
0 0 244
0 0 248
0 0 248
0 0 245
0 0 245
0 0 244
0 0 245
0 0 244
0 0 234
0 0 245
0 0 241
0 0 242
0 0 242
0 0 242
0 0 240
0 0 242
0 0 246
0 0 237
0 0 244
0 0 244
0 0 236
0 0 237
0 0 233
0 0 233
0 0 244
0 0 231
0 0 238
0 0 231
0 0 226
0 0 231
0 0 242
0 0 234
0 0 236
0 0 228
0 0 226
0 0 221
0 0 224
0 0 234
0 0 226
0 0 223
0 0 233
0 0 221
0 0 209
0 0 230
0 0 237
0 0 226
0 0 221
0 0 226
78 81 220
229 237 252
236 244 255
236 244 255
236 244 255
236 244 255
236 244 255
236 244 255
236 244 255
236 244 255
236 244 255
236 244 255
236 244 255
236 244 255
236 244 255
236 244 255
236 244 255
236 244 255
236 244 255
236 244 255
236 244 255
236 244 255
236 244 255
236 244 255
236 244 255
236 244 255
236 244 255
236 244 255
236 244 255
236 244 255
236 244 255
236 244 255
236 244 255
236 244 255
236 244 255
236 244 255
230 230 241
213 59 62
218 0 0
196 0 0
207 0 0
206 0 0
199 0 0
200 0 0
209 0 0
206 0 0
204 0 0
217 0 0
218 0 0
201 0 0
212 0 0
215 0 0
215 0 0
213 0 0
214 0 0
212 0 0
212 0 0
214 0 0
222 0 0
215 0 0
213 0 0
216 0 0
214 0 0
211 0 0
215 0 0
211 0 0
210 0 0
215 0 0
218 0 0
221 0 0
219 0 0
220 0 0
221 0 0
222 0 0
211 0 0
223 0 0
215 0 0
213 0 0
213 0 0
220 0 0
220 0 0
220 0 0
219 0 0
220 0 0
215 0 0
226 0 0
220 0 0
220 0 0
226 0 0
222 0 0
220 0 0
223 0 0
221 0 0
224 0 0
217 0 0
221 0 0
225 0 0
226 0 0
222 0 0
222 0 0
224 0 0
222 0 0
225 0 0
223 0 0
226 0 0
222 0 0
220 0 0
223 0 0
215 0 0
221 0 0
217 0 0
224 0 0
226 0 0
224 0 0
225 0 0
218 0 0
218 0 0
218 0 0
221 0 0
222 0 0
221 0 0
224 0 0
226 0 0
226 0 0
226 0 0
224 0 0
225 0 0
226 0 0
220 0 0
223 0 0
225 0 0
221 0 0
229 0 0
224 0 0
225 0 0
220 0 0
225 0 0
226 0 0
218 0 0
218 0 0
228 0 0
222 0 0
228 0 0
221 0 0
224 0 0
227 0 0
226 0 0
223 0 0
227 0 0
227 0 0
227 0 0
226 0 0
226 0 0
223 0 0
226 0 0
227 0 0
224 0 0
227 0 0
228 0 0
229 0 0
225 0 0
227 0 0
225 0 0
227 0 0
224 0 0
221 0 0
224 0 0
226 0 0
227 0 0
227 0 0
226 0 0
224 0 0
221 0 0
227 0 0
224 0 0
224 0 0
224 0 0
225 0 0
229 0 0
222 0 0
229 0 0
224 0 0
226 0 0
225 0 0
225 0 0
228 0 0
223 0 0
226 0 0
227 0 0
227 0 0
228 0 0
230 0 0
228 0 0
226 0 0
226 0 0
224 0 0
225 0 0
229 0 0
227 0 0
224 0 0
231 0 0
224 0 0
230 0 0
229 0 0
227 0 0
224 0 0
222 0 0
228 0 0
226 0 0
228 0 0
230 0 0
223 0 0
224 0 0
227 0 0
224 0 0
228 0 0
227 0 0
225 0 0
227 0 0
0 0 254
0 0 254
0 0 255
0 0 255
0 0 255
0 0 255
0 0 255
0 0 255
0 0 255
0 0 255
0 0 255
0 0 255
0 0 255
0 0 255
0 0 254
0 0 255
0 0 255
0 0 255
0 0 255
0 0 255
0 0 255
0 0 255
0 0 255
0 0 253
0 0 253
0 0 254
0 0 254
0 0 254
0 0 255
0 0 254
0 0 254
0 0 253
0 0 254
0 0 254
0 0 253
0 0 254
0 0 255
0 0 250
0 0 255
0 0 245
0 0 252
0 0 252
0 0 255
0 0 252
0 0 255
0 0 255
0 0 253
0 0 254
0 0 254
0 0 254
0 0 253
0 0 253
0 0 252
0 0 254
0 0 254
0 0 253
0 0 255
0 0 254
0 0 255
0 0 253
0 0 255
0 0 255
0 0 253
0 0 254
0 0 252
0 0 254
0 0 253
0 0 254
0 0 249
0 0 250
0 0 252
0 0 254
0 0 254
0 0 254
0 0 252
0 0 253
0 0 250
0 0 248
0 0 253
0 0 253
0 0 253
0 0 252
0 0 248
0 0 253
0 0 250
0 0 254
0 0 252
0 0 252
0 0 253
0 0 253
0 0 249
0 0 249
0 0 254
0 0 250
0 0 249
0 0 252
0 0 252
0 0 252
0 0 252
0 0 254
0 0 252
0 0 252
0 0 253
0 0 249
0 0 250
0 0 254
0 0 248
0 0 249
0 0 252
0 0 248
0 0 248
0 0 252
0 0 249
0 0 250
0 0 240
0 0 248
0 0 250
0 0 250
0 0 246
0 0 244
0 0 248
0 0 249
0 0 248
0 0 246
0 0 244
0 0 246
0 0 240
0 0 249
0 0 252
0 0 245
0 0 246
0 0 246
0 0 246
0 0 248
0 0 242
0 0 244
0 0 240
0 0 244
0 0 244
0 0 242
0 0 244
0 0 245
0 0 242
0 0 234
0 0 240
0 0 246
0 0 241
0 0 238
0 0 242
0 0 242
0 0 240
0 0 244
0 0 241
0 0 240
0 0 241
0 0 233
0 0 226
0 0 240
0 0 242
0 0 236
0 0 238
0 0 228
0 0 237
0 0 230
0 0 234
0 0 240
0 0 227
0 0 220
0 0 228
0 0 224
0 0 234
0 0 224
0 0 226
0 0 230
0 0 228
0 0 226
0 0 221
0 0 233
0 0 236
0 0 217
23 24 224
198 204 248
236 244 255
236 244 255
236 244 255
236 244 255
236 244 255
236 244 255
236 244 255
236 244 255
236 244 255
236 244 255
236 244 255
236 244 255
236 244 255
236 244 255
236 244 255
236 244 255
236 244 255
236 244 255
236 244 255
236 244 255
236 244 255
236 244 255
236 244 255
236 244 255
236 244 255
236 244 255
236 244 255
236 244 255
236 244 255
236 244 255
236 244 255
236 244 255
236 244 255
236 244 255
236 244 255
236 244 255
225 203 212
208 42 44
193 0 0
209 0 0
203 0 0
198 0 0
201 0 0
217 0 0
205 0 0
201 0 0
201 0 0
203 0 0
196 0 0
206 0 0
209 0 0
209 0 0
210 0 0
202 0 0
204 0 0
212 0 0
216 0 0
211 0 0
212 0 0
221 0 0
211 0 0
218 0 0
216 0 0
214 0 0
220 0 0
210 0 0
201 0 0
212 0 0
212 0 0
208 0 0
214 0 0
215 0 0
217 0 0
218 0 0
224 0 0
217 0 0
218 0 0
217 0 0
220 0 0
218 0 0
217 0 0
216 0 0
214 0 0
222 0 0
216 0 0
223 0 0
223 0 0
222 0 0
223 0 0
226 0 0
217 0 0
232 0 0
224 0 0
223 0 0
222 0 0
225 0 0
221 0 0
217 0 0
221 0 0
226 0 0
219 0 0
223 0 0
222 0 0
221 0 0
222 0 0
220 0 0
218 0 0
224 0 0
219 0 0
222 0 0
220 0 0
226 0 0
218 0 0
222 0 0
229 0 0
226 0 0
222 0 0
221 0 0
223 0 0
226 0 0
223 0 0
228 0 0
226 0 0
221 0 0
224 0 0
222 0 0
220 0 0
222 0 0
225 0 0
225 0 0
219 0 0
225 0 0
224 0 0
226 0 0
221 0 0
224 0 0
222 0 0
223 0 0
220 0 0
225 0 0
226 0 0
225 0 0
227 0 0
221 0 0
224 0 0
223 0 0
224 0 0
229 0 0
225 0 0
229 0 0
229 0 0
228 0 0
225 0 0
226 0 0
229 0 0
226 0 0
229 0 0
223 0 0
226 0 0
225 0 0
224 0 0
222 0 0
227 0 0
227 0 0
223 0 0
225 0 0
225 0 0
224 0 0
225 0 0
222 0 0
227 0 0
226 0 0
226 0 0
224 0 0
223 0 0
228 0 0
228 0 0
226 0 0
229 0 0
227 0 0
227 0 0
222 0 0
225 0 0
227 0 0
227 0 0
228 0 0
227 0 0
224 0 0
226 0 0
225 0 0
225 0 0
225 0 0
225 0 0
225 0 0
230 0 0
227 0 0
226 0 0
224 0 0
225 0 0
225 0 0
224 0 0
228 0 0
225 0 0
225 0 0
224 0 0
227 0 0
223 0 0
226 0 0
226 0 0
226 0 0
225 0 0
225 0 0
227 0 0
229 0 0
224 0 0
229 0 0
227 0 0
227 0 0
0 0 255
0 0 255
0 0 255
0 0 255
0 0 255
0 0 255
0 0 255
0 0 255
0 0 255
0 0 254
0 0 254
0 0 255
0 0 255
0 0 255
0 0 255
0 0 254
0 0 255
0 0 255
0 0 255
0 0 255
0 0 254
0 0 254
0 0 255
0 0 253
0 0 253
0 0 254
0 0 255
0 0 255
0 0 254
0 0 254
0 0 255
0 0 255
0 0 254
0 0 255
0 0 255
0 0 255
0 0 255
0 0 254
0 0 255
0 0 253
0 0 254
0 0 254
0 0 255
0 0 255
0 0 254
0 0 255
0 0 255
0 0 255
0 0 254
0 0 252
0 0 253
0 0 255
0 0 254
0 0 254
0 0 253
0 0 254
0 0 253
0 0 254
0 0 253
0 0 253
0 0 252
0 0 255
0 0 253
0 0 255
0 0 252
0 0 250
0 0 250
0 0 255
0 0 254
0 0 253
0 0 253
0 0 255
0 0 254
0 0 252
0 0 250
0 0 246
0 0 250
0 0 254
0 0 250
0 0 252
0 0 253
0 0 255
0 0 248
0 0 253
0 0 254
0 0 255
0 0 254
0 0 254
0 0 253
0 0 252
0 0 250
0 0 250
0 0 252
0 0 252
0 0 250
0 0 254
0 0 252
0 0 250
0 0 250
0 0 249
0 0 250
0 0 254
0 0 252
0 0 253
0 0 246
0 0 250
0 0 249
0 0 252
0 0 248
0 0 249
0 0 250
0 0 250
0 0 244
0 0 253
0 0 249
0 0 250
0 0 248
0 0 253
0 0 245
0 0 250
0 0 240
0 0 250
0 0 253
0 0 250
0 0 248
0 0 248
0 0 244
0 0 245
0 0 248
0 0 252
0 0 246
0 0 249
0 0 248
0 0 244
0 0 246
0 0 248
0 0 245
0 0 244
0 0 244
0 0 241
0 0 241
0 0 242
0 0 249
0 0 248
0 0 242
0 0 234
0 0 246
0 0 238
0 0 236
0 0 230
0 0 242
0 0 242
0 0 237
0 0 238
0 0 237
0 0 245
0 0 241
0 0 233
0 0 244
0 0 233
0 0 238
0 0 236
0 0 241
0 0 236
0 0 227
0 0 233
0 0 228
0 0 227
0 0 237
0 0 240
0 0 233
0 0 234
0 0 223
0 0 230
0 0 228
0 0 231
0 0 214
0 0 220
0 0 214
0 0 224
175 181 242
236 244 255
237 244 255
237 244 255
237 244 255
237 244 255
237 244 255
237 244 255
237 244 255
237 244 255
237 244 255
237 244 255
237 244 255
237 244 255
237 244 255
237 244 255
237 244 255
237 244 255
237 244 255
237 244 255
237 244 255
237 244 255
237 244 255
237 244 255
237 244 255
237 244 255
237 244 255
237 244 255
237 244 255
237 244 255
237 244 255
237 244 255
237 244 255
237 244 255
237 244 255
237 244 255
237 244 255
237 244 255
236 244 255
230 200 209
201 0 0
209 0 0
209 0 0
207 0 0
218 0 0
202 0 0
206 0 0
197 0 0
204 0 0
214 0 0
217 0 0
204 0 0
213 0 0
205 0 0
217 0 0
217 0 0
217 0 0
207 0 0
216 0 0
215 0 0
214 0 0
210 0 0
221 0 0
209 0 0
212 0 0
217 0 0
220 0 0
208 0 0
218 0 0
219 0 0
213 0 0
216 0 0
217 0 0
207 0 0
222 0 0
215 0 0
221 0 0
218 0 0
221 0 0
223 0 0
216 0 0
221 0 0
215 0 0
218 0 0
218 0 0
223 0 0
228 0 0
221 0 0
217 0 0
224 0 0
221 0 0
218 0 0
220 0 0
225 0 0
222 0 0
215 0 0
220 0 0
228 0 0
225 0 0
224 0 0
227 0 0
222 0 0
221 0 0
224 0 0
221 0 0
222 0 0
224 0 0
225 0 0
224 0 0
224 0 0
227 0 0
222 0 0
223 0 0
222 0 0
226 0 0
226 0 0
227 0 0
226 0 0
226 0 0
225 0 0
226 0 0
221 0 0
222 0 0
228 0 0
225 0 0
225 0 0
226 0 0
223 0 0
223 0 0
229 0 0
225 0 0
224 0 0
224 0 0
226 0 0
221 0 0
227 0 0
228 0 0
223 0 0
222 0 0
221 0 0
220 0 0
222 0 0
219 0 0
224 0 0
230 0 0
223 0 0
228 0 0
228 0 0
226 0 0
229 0 0
224 0 0
225 0 0
224 0 0
228 0 0
230 0 0
221 0 0
224 0 0
230 0 0
226 0 0
227 0 0
225 0 0
226 0 0
223 0 0
223 0 0
225 0 0
226 0 0
226 0 0
225 0 0
222 0 0
226 0 0
223 0 0
225 0 0
223 0 0
225 0 0
221 0 0
230 0 0
226 0 0
222 0 0
224 0 0
226 0 0
230 0 0
227 0 0
229 0 0
222 0 0
227 0 0
227 0 0
224 0 0
225 0 0
225 0 0
224 0 0
226 0 0
227 0 0
225 0 0
228 0 0
223 0 0
224 0 0
229 0 0
229 0 0
227 0 0
228 0 0
223 0 0
221 0 0
223 0 0
226 0 0
226 0 0
224 0 0
227 0 0
226 0 0
225 0 0
225 0 0
225 0 0
224 0 0
226 0 0
227 0 0
225 0 0
228 0 0
226 0 0
225 0 0
227 0 0
228 0 0
0 0 255
0 0 255
0 0 255
0 0 255
0 0 254
0 0 255
0 0 255
0 0 255
0 0 255
0 0 255
0 0 255
0 0 255
0 0 255
0 0 255
0 0 254
0 0 255
0 0 255
0 0 253
0 0 255
0 0 255
0 0 255
0 0 253
0 0 255
0 0 253
0 0 252
0 0 254
0 0 253
0 0 253
0 0 254
0 0 254
0 0 254
0 0 252
0 0 254
0 0 254
0 0 254
0 0 253
0 0 254
0 0 254
0 0 255
0 0 255
0 0 255
0 0 249
0 0 254
0 0 255
0 0 252
0 0 255
0 0 253
0 0 254
0 0 252
0 0 254
0 0 254
0 0 249
0 0 253
0 0 250
0 0 253
0 0 254
0 0 254
0 0 253
0 0 250
0 0 255
0 0 250
0 0 253
0 0 252
0 0 254
0 0 248
0 0 252
0 0 252
0 0 253
0 0 254
0 0 255
0 0 250
0 0 250
0 0 254
0 0 250
0 0 253
0 0 254
0 0 253
0 0 250
0 0 252
0 0 252
0 0 252
0 0 252
0 0 253
0 0 252
0 0 252
0 0 252
0 0 249
0 0 252
0 0 252
0 0 253
0 0 252
0 0 250
0 0 252
0 0 252
0 0 241
0 0 252
0 0 242
0 0 246
0 0 249
0 0 254
0 0 253
0 0 252
0 0 252
0 0 254
0 0 249
0 0 253
0 0 253
0 0 246
0 0 246
0 0 252
0 0 254
0 0 248
0 0 245
0 0 245
0 0 248
0 0 246
0 0 249
0 0 252
0 0 248
0 0 241
0 0 249
0 0 241
0 0 245
0 0 245
0 0 244
0 0 246
0 0 245
0 0 249
0 0 250
0 0 246
0 0 253
0 0 249
0 0 248
0 0 240
0 0 244
0 0 250
0 0 248
0 0 237
0 0 253
0 0 249
0 0 234
0 0 241
0 0 241
0 0 237
0 0 233
0 0 244
0 0 246
0 0 241
0 0 244
0 0 241
0 0 236
0 0 242
0 0 248
0 0 240
0 0 236
0 0 241
0 0 240
0 0 234
0 0 244
0 0 226
0 0 233
0 0 241
0 0 230
0 0 230
0 0 227
0 0 244
0 0 230
0 0 226
0 0 242
0 0 237
0 0 227
0 0 215
0 0 237
0 0 214
0 0 233
0 0 224
0 0 220
0 0 211
0 0 228
134 138 230
237 244 255
237 244 255
237 244 255
237 244 255
237 244 255
237 244 255
237 244 255
237 244 255
237 244 255
237 244 255
237 244 255
237 244 255
237 244 255
237 244 255
237 244 255
237 244 255
237 244 255
237 244 255
237 244 255
237 244 255
237 244 255
237 244 255
237 245 255
237 244 255
237 244 255
237 244 255
237 244 255
237 244 255
237 244 255
237 244 255
237 244 255
237 244 255
237 244 255
237 244 255
237 244 255
237 244 255
237 244 255
237 244 255
237 244 255
237 244 255
220 129 135
212 0 0
199 0 0
211 0 0
213 0 0
207 0 0
202 0 0
210 0 0
209 0 0
209 0 0
214 0 0
213 0 0
213 0 0
208 0 0
216 0 0
222 0 0
212 0 0
216 0 0
216 0 0
214 0 0
208 0 0
212 0 0
217 0 0
215 0 0
217 0 0
222 0 0
215 0 0
214 0 0
210 0 0
220 0 0
224 0 0
220 0 0
221 0 0
217 0 0
216 0 0
214 0 0
220 0 0
216 0 0
223 0 0
213 0 0
218 0 0
220 0 0
221 0 0
217 0 0
222 0 0
217 0 0
218 0 0
221 0 0
227 0 0
220 0 0
216 0 0
224 0 0
218 0 0
222 0 0
226 0 0
224 0 0
224 0 0
223 0 0
223 0 0
220 0 0
218 0 0
224 0 0
222 0 0
227 0 0
226 0 0
226 0 0
222 0 0
222 0 0
220 0 0
221 0 0
221 0 0
225 0 0
223 0 0
226 0 0
224 0 0
220 0 0
226 0 0
223 0 0
220 0 0
227 0 0
221 0 0
226 0 0
224 0 0
225 0 0
223 0 0
218 0 0
225 0 0
228 0 0
225 0 0
221 0 0
225 0 0
224 0 0
227 0 0
225 0 0
227 0 0
227 0 0
225 0 0
226 0 0
223 0 0
219 0 0
230 0 0
228 0 0
223 0 0
220 0 0
224 0 0
220 0 0
224 0 0
223 0 0
225 0 0
226 0 0
224 0 0
223 0 0
228 0 0
222 0 0
223 0 0
223 0 0
225 0 0
223 0 0
225 0 0
222 0 0
227 0 0
228 0 0
224 0 0
225 0 0
226 0 0
229 0 0
226 0 0
228 0 0
223 0 0
222 0 0
224 0 0
229 0 0
226 0 0
228 0 0
226 0 0
227 0 0
225 0 0
229 0 0
227 0 0
227 0 0
225 0 0
225 0 0
224 0 0
229 0 0
228 0 0
227 0 0
225 0 0
229 0 0
226 0 0
228 0 0
226 0 0
230 0 0
225 0 0
225 0 0
226 0 0
225 0 0
224 0 0
228 0 0
225 0 0
230 0 0
228 0 0
229 0 0
228 0 0
225 0 0
227 0 0
227 0 0
224 0 0
223 0 0
229 0 0
227 0 0
225 0 0
229 0 0
228 0 0
225 0 0
228 0 0
225 0 0
224 0 0
226 0 0
224 0 0
225 0 0
0 0 255
0 0 255
0 0 255
0 0 255
0 0 255
0 0 254
0 0 250
0 0 253
0 0 253
0 0 254
0 0 254
0 0 254
0 0 253
0 0 255
0 0 254
0 0 253
0 0 255
0 0 254
0 0 254
0 0 255
0 0 254
0 0 254
0 0 255
0 0 255
0 0 255
0 0 255
0 0 255
0 0 255
0 0 255
0 0 254
0 0 253
0 0 254
0 0 254
0 0 255
0 0 255
0 0 253
0 0 255
0 0 255
0 0 255
0 0 254
0 0 254
0 0 255
0 0 255
0 0 254
0 0 253
0 0 255
0 0 255
0 0 255
0 0 254
0 0 255
0 0 254
0 0 255
0 0 255
0 0 254
0 0 254
0 0 254
0 0 255
0 0 252
0 0 255
0 0 253
0 0 254
0 0 254
0 0 249
0 0 255
0 0 255
0 0 253
0 0 254
0 0 254
0 0 252
0 0 252
0 0 252
0 0 253
0 0 254
0 0 254
0 0 253
0 0 253
0 0 253
0 0 252
0 0 254
0 0 253
0 0 249
0 0 253
0 0 249
0 0 255
0 0 254
0 0 248
0 0 250
0 0 252
0 0 255
0 0 253
0 0 254
0 0 253
0 0 249
0 0 253
0 0 246
0 0 255
0 0 254
0 0 250
0 0 253
0 0 249
0 0 252
0 0 252
0 0 250
0 0 245
0 0 246
0 0 250
0 0 252
0 0 246
0 0 250
0 0 253
0 0 248
0 0 246
0 0 254
0 0 249
0 0 250
0 0 249
0 0 244
0 0 250
0 0 244
0 0 250
0 0 242
0 0 248
0 0 244
0 0 245
0 0 248
0 0 250
0 0 246
0 0 250
0 0 246
0 0 252
0 0 242
0 0 242
0 0 238
0 0 246
0 0 236
0 0 240
0 0 244
0 0 244
0 0 246
0 0 248
0 0 242
0 0 245
0 0 245
0 0 237
0 0 236
0 0 244
0 0 245
0 0 236
0 0 238
0 0 238
0 0 236
0 0 245
0 0 233
0 0 236
0 0 241
0 0 244
0 0 234
0 0 241
0 0 237
0 0 228
0 0 233
0 0 242
0 0 236
0 0 238
0 0 234
0 0 237
0 0 224
0 0 224
0 0 228
0 0 224
0 0 236
0 0 238
0 0 234
0 0 237
0 0 227
0 0 233
0 0 226
0 0 221
103 106 227
232 240 254
237 245 255
237 245 255
237 245 255
237 245 255
237 245 255
237 245 255
237 245 255
237 245 255
237 245 255
237 245 255
237 245 255
237 245 255
237 245 255
237 245 255
237 245 255
237 245 255
237 245 255
237 245 255
237 245 255
237 245 255
237 245 255
237 245 255
237 245 255
237 245 255
237 245 255
237 245 255
237 245 255
237 245 255
237 245 255
237 245 255
237 245 255
237 245 255
237 245 255
237 245 255
237 245 255
237 245 255
237 245 255
237 245 255
237 245 255
237 245 255
237 241 252
212 101 105
210 0 0
198 0 0
204 0 0
204 0 0
200 0 0
213 0 0
211 0 0
209 0 0
206 0 0
221 0 0
204 0 0
216 0 0
211 0 0
213 0 0
205 0 0
213 0 0
209 0 0
216 0 0
220 0 0
215 0 0
218 0 0
217 0 0
217 0 0
216 0 0
216 0 0
217 0 0
219 0 0
217 0 0
220 0 0
225 0 0
220 0 0
221 0 0
215 0 0
218 0 0
225 0 0
218 0 0
215 0 0
217 0 0
217 0 0
213 0 0
220 0 0
223 0 0
212 0 0
217 0 0
218 0 0
225 0 0
225 0 0
221 0 0
225 0 0
223 0 0
223 0 0
223 0 0
222 0 0
222 0 0
225 0 0
219 0 0
222 0 0
227 0 0
225 0 0
223 0 0
221 0 0
219 0 0
219 0 0
223 0 0
228 0 0
222 0 0
223 0 0
224 0 0
218 0 0
221 0 0
219 0 0
225 0 0
224 0 0
222 0 0
221 0 0
216 0 0
224 0 0
223 0 0
226 0 0
227 0 0
222 0 0
226 0 0
221 0 0
214 0 0
225 0 0
226 0 0
225 0 0
221 0 0
226 0 0
223 0 0
221 0 0
228 0 0
228 0 0
229 0 0
227 0 0
222 0 0
225 0 0
224 0 0
227 0 0
229 0 0
225 0 0
226 0 0
228 0 0
227 0 0
225 0 0
224 0 0
225 0 0
228 0 0
226 0 0
224 0 0
229 0 0
227 0 0
225 0 0
228 0 0
224 0 0
229 0 0
222 0 0
223 0 0
226 0 0
226 0 0
227 0 0
224 0 0
227 0 0
228 0 0
228 0 0
225 0 0
226 0 0
228 0 0
222 0 0
226 0 0
221 0 0
223 0 0
230 0 0
225 0 0
228 0 0
226 0 0
225 0 0
229 0 0
226 0 0
221 0 0
228 0 0
225 0 0
226 0 0
228 0 0
227 0 0
228 0 0
227 0 0
224 0 0
225 0 0
229 0 0
229 0 0
226 0 0
223 0 0
227 0 0
229 0 0
228 0 0
226 0 0
226 0 0
224 0 0
226 0 0
223 0 0
227 0 0
225 0 0
228 0 0
223 0 0
225 0 0
227 0 0
228 0 0
227 0 0
227 0 0
227 0 0
222 0 0
228 0 0
228 0 0
226 0 0
225 0 0
227 0 0
230 0 0
0 0 254
0 0 254
0 0 254
0 0 255
0 0 255
0 0 255
0 0 255
0 0 255
0 0 254
0 0 253
0 0 255
0 0 254
0 0 255
0 0 255
0 0 254
0 0 255
0 0 254
0 0 255
0 0 255
0 0 255
0 0 255
0 0 255
0 0 254
0 0 254
0 0 252
0 0 254
0 0 254
0 0 254
0 0 250
0 0 255
0 0 255
0 0 253
0 0 250
0 0 255
0 0 255
0 0 255
0 0 252
0 0 254
0 0 255
0 0 253
0 0 253
0 0 252
0 0 253
0 0 254
0 0 254
0 0 254
0 0 252
0 0 252
0 0 254
0 0 253
0 0 252
0 0 254
0 0 253
0 0 253
0 0 250
0 0 255
0 0 255
0 0 255
0 0 255
0 0 255
0 0 254
0 0 254
0 0 254
0 0 250
0 0 253
0 0 250
0 0 254
0 0 249
0 0 255
0 0 253
0 0 249
0 0 255
0 0 252
0 0 252
0 0 255
0 0 250
0 0 248
0 0 254
0 0 254
0 0 253
0 0 253
0 0 255
0 0 254
0 0 254
0 0 253
0 0 253
0 0 250
0 0 253
0 0 248
0 0 253
0 0 250
0 0 250
0 0 252
0 0 250
0 0 249
0 0 249
0 0 248
0 0 253
0 0 253
0 0 250
0 0 252
0 0 253
0 0 249
0 0 252
0 0 250
0 0 246
0 0 252
0 0 252
0 0 253
0 0 248
0 0 248
0 0 252
0 0 253
0 0 248
0 0 248
0 0 246
0 0 246
0 0 248
0 0 246
0 0 245
0 0 249
0 0 245
0 0 246
0 0 246
0 0 244
0 0 248
0 0 242
0 0 248
0 0 240
0 0 245
0 0 244
0 0 241
0 0 246
0 0 249
0 0 244
0 0 244
0 0 246
0 0 249
0 0 245
0 0 245
0 0 241
0 0 246
0 0 241
0 0 236
0 0 242
0 0 240
0 0 241
0 0 250
0 0 242
0 0 242
0 0 227
0 0 221
0 0 245
0 0 236
0 0 241
0 0 234
0 0 244
0 0 237
0 0 238
0 0 233
0 0 241
0 0 236
0 0 236
0 0 238
0 0 231
0 0 240
0 0 233
0 0 237
0 0 231
0 0 236
0 0 227
0 0 224
0 0 230
0 0 221
0 0 221
0 0 221
0 0 218
67 69 228
225 232 253
237 245 255
237 245 255
237 245 255
237 245 255
237 245 255
237 245 255
237 245 255
237 245 255
237 245 255
237 245 255
237 245 255
237 245 255
237 245 255
237 245 255
237 245 255
237 245 255
237 245 255
237 245 255
237 245 255
237 245 255
237 245 255
237 245 255
237 245 255
237 245 255
237 245 255
237 245 255
237 245 255
237 245 255
237 245 255
237 245 255
237 245 255
237 245 255
237 245 255
237 245 255
237 245 255
237 245 255
237 245 255
237 245 255
237 245 255
237 245 255
237 245 255
237 245 255
235 233 244
216 60 62
205 0 0
211 0 0
214 0 0
216 0 0
217 0 0
214 0 0
209 0 0
206 0 0
211 0 0
212 0 0
225 0 0
218 0 0
214 0 0
209 0 0
216 0 0
215 0 0
216 0 0
211 0 0
222 0 0
220 0 0
221 0 0
212 0 0
213 0 0
224 0 0
202 0 0
216 0 0
216 0 0
220 0 0
215 0 0
218 0 0
227 0 0
222 0 0
216 0 0
224 0 0
224 0 0
221 0 0
220 0 0
217 0 0
222 0 0
222 0 0
216 0 0
223 0 0
220 0 0
217 0 0
226 0 0
218 0 0
223 0 0
215 0 0
219 0 0
212 0 0
221 0 0
227 0 0
220 0 0
220 0 0
222 0 0
224 0 0
229 0 0
223 0 0
222 0 0
220 0 0
225 0 0
222 0 0
225 0 0
218 0 0
224 0 0
219 0 0
218 0 0
225 0 0
224 0 0
228 0 0
223 0 0
223 0 0
222 0 0
226 0 0
223 0 0
225 0 0
225 0 0
224 0 0
224 0 0
225 0 0
226 0 0
226 0 0
224 0 0
225 0 0
217 0 0
223 0 0
228 0 0
222 0 0
228 0 0
224 0 0
223 0 0
216 0 0
225 0 0
223 0 0
220 0 0
224 0 0
225 0 0
225 0 0
226 0 0
229 0 0
224 0 0
226 0 0
225 0 0
220 0 0
227 0 0
226 0 0
224 0 0
226 0 0
228 0 0
227 0 0
226 0 0
225 0 0
228 0 0
227 0 0
225 0 0
224 0 0
224 0 0
230 0 0
225 0 0
228 0 0
225 0 0
227 0 0
224 0 0
227 0 0
224 0 0
225 0 0
225 0 0
226 0 0
223 0 0
228 0 0
230 0 0
228 0 0
230 0 0
227 0 0
230 0 0
225 0 0
224 0 0
228 0 0
230 0 0
225 0 0
227 0 0
224 0 0
227 0 0
224 0 0
225 0 0
229 0 0
226 0 0
227 0 0
231 0 0
225 0 0
224 0 0
228 0 0
228 0 0
231 0 0
229 0 0
227 0 0
225 0 0
226 0 0
226 0 0
226 0 0
224 0 0
231 0 0
229 0 0
226 0 0
226 0 0
226 0 0
226 0 0
228 0 0
226 0 0
230 0 0
227 0 0
225 0 0
226 0 0
229 0 0
229 0 0
226 0 0
224 0 0
0 0 254
0 0 255
0 0 255
0 0 255
0 0 254
0 0 254
0 0 255
0 0 255
0 0 255
0 0 255
0 0 255
0 0 255
0 0 253
0 0 253
0 0 255
0 0 254
0 0 254
0 0 255
0 0 255
0 0 254
0 0 255
0 0 255
0 0 253
0 0 254
0 0 255
0 0 254
0 0 255
0 0 255
0 0 254
0 0 254
0 0 254
0 0 254
0 0 253
0 0 254
0 0 255
0 0 253
0 0 255
0 0 254
0 0 254
0 0 254
0 0 254
0 0 255
0 0 252
0 0 253
0 0 255
0 0 253
0 0 255
0 0 254
0 0 254
0 0 255
0 0 250
0 0 254
0 0 255
0 0 253
0 0 254
0 0 253
0 0 254
0 0 254
0 0 254
0 0 253
0 0 254
0 0 253
0 0 252
0 0 254
0 0 254
0 0 255
0 0 250
0 0 254
0 0 252
0 0 253
0 0 254
0 0 253
0 0 255
0 0 254
0 0 254
0 0 250
0 0 254
0 0 253
0 0 249
0 0 248
0 0 250
0 0 253
0 0 254
0 0 252
0 0 253
0 0 248
0 0 253
0 0 249
0 0 248
0 0 252
0 0 252
0 0 246
0 0 252
0 0 253
0 0 253
0 0 245
0 0 254
0 0 252
0 0 253
0 0 249
0 0 248
0 0 253
0 0 249
0 0 246
0 0 250
0 0 252
0 0 250
0 0 249
0 0 252
0 0 246
0 0 246
0 0 250
0 0 253
0 0 253
0 0 249
0 0 244
0 0 250
0 0 249
0 0 242
0 0 249
0 0 254
0 0 252
0 0 246
0 0 246
0 0 245
0 0 245
0 0 244
0 0 253
0 0 249
0 0 241
0 0 249
0 0 250
0 0 237
0 0 245
0 0 237
0 0 244
0 0 242
0 0 250
0 0 242
0 0 246
0 0 245
0 0 255
0 0 249
0 0 246
0 0 242
0 0 242
0 0 240
0 0 248
0 0 237
0 0 242
0 0 241
0 0 242
0 0 240
0 0 242
0 0 236
0 0 238
0 0 236
0 0 236
0 0 234
0 0 223
0 0 234
0 0 231
0 0 238
0 0 226
0 0 236
0 0 233
0 0 238
0 0 233
0 0 231
0 0 230
0 0 226
0 0 227
0 0 231
0 0 230
0 0 228
0 0 231
41 42 228
200 206 246
237 245 255
237 245 255
237 245 255
237 245 255
237 245 255
237 245 255
237 245 255
237 245 255
237 245 255
237 245 255
237 245 255
237 245 255
237 245 255
238 245 255
238 245 255
238 245 255
238 245 255
238 245 255
238 245 255
238 245 255
238 245 255
238 245 255
238 245 255
238 245 255
238 245 255
238 245 255
238 245 255
238 245 255
237 245 255
238 245 255
237 245 255
237 245 255
237 245 255
237 245 255
237 245 255
237 245 255
237 245 255
237 245 255
237 245 255
237 245 255
237 245 255
237 245 255
237 245 255
237 245 255
231 202 211
203 49 51
206 0 0
214 0 0
208 0 0
208 0 0
216 0 0
210 0 0
206 0 0
214 0 0
210 0 0
200 0 0
221 0 0
214 0 0
228 0 0
215 0 0
217 0 0
212 0 0
219 0 0
219 0 0
210 0 0
214 0 0
207 0 0
220 0 0
215 0 0
218 0 0
217 0 0
223 0 0
214 0 0
221 0 0
224 0 0
216 0 0
217 0 0
220 0 0
221 0 0
218 0 0
218 0 0
219 0 0
225 0 0
224 0 0
220 0 0
224 0 0
223 0 0
212 0 0
222 0 0
226 0 0
223 0 0
219 0 0
222 0 0
225 0 0
219 0 0
216 0 0
223 0 0
220 0 0
221 0 0
223 0 0
224 0 0
224 0 0
230 0 0
221 0 0
225 0 0
224 0 0
225 0 0
220 0 0
226 0 0
224 0 0
223 0 0
226 0 0
224 0 0
222 0 0
221 0 0
226 0 0
227 0 0
226 0 0
219 0 0
224 0 0
221 0 0
223 0 0
226 0 0
221 0 0
223 0 0
226 0 0
223 0 0
225 0 0
227 0 0
225 0 0
223 0 0
228 0 0
225 0 0
222 0 0
229 0 0
221 0 0
220 0 0
223 0 0
225 0 0
223 0 0
220 0 0
219 0 0
222 0 0
223 0 0
223 0 0
227 0 0
223 0 0
224 0 0
226 0 0
220 0 0
223 0 0
223 0 0
227 0 0
227 0 0
223 0 0
227 0 0
228 0 0
223 0 0
225 0 0
229 0 0
227 0 0
227 0 0
227 0 0
228 0 0
226 0 0
226 0 0
224 0 0
225 0 0
228 0 0
226 0 0
228 0 0
222 0 0
225 0 0
226 0 0
228 0 0
227 0 0
228 0 0
227 0 0
228 0 0
227 0 0
226 0 0
225 0 0
227 0 0
224 0 0
227 0 0
229 0 0
230 0 0
225 0 0
225 0 0
226 0 0
229 0 0
226 0 0
223 0 0
228 0 0
231 0 0
223 0 0
226 0 0
228 0 0
228 0 0
224 0 0
224 0 0
228 0 0
227 0 0
224 0 0
227 0 0
222 0 0
228 0 0
227 0 0
224 0 0
228 0 0
227 0 0
229 0 0
227 0 0
228 0 0
228 0 0
228 0 0
226 0 0
226 0 0
229 0 0
227 0 0
224 0 0
225 0 0
0 0 255
0 0 254
0 0 255
0 0 254
0 0 255
0 0 255
0 0 255
0 0 255
0 0 255
0 0 254
0 0 253
0 0 253
0 0 255
0 0 255
0 0 255
0 0 254
0 0 255
0 0 255
0 0 255
0 0 254
0 0 255
0 0 255
0 0 253
0 0 253
0 0 254
0 0 255
0 0 255
0 0 252
0 0 255
0 0 253
0 0 254
0 0 255
0 0 254
0 0 255
0 0 255
0 0 255
0 0 255
0 0 254
0 0 254
0 0 254
0 0 253
0 0 255
0 0 255
0 0 254
0 0 255
0 0 252
0 0 254
0 0 254
0 0 255
0 0 254
0 0 255
0 0 252
0 0 255
0 0 254
0 0 253
0 0 254
0 0 253
0 0 254
0 0 252
0 0 255
0 0 253
0 0 254
0 0 255
0 0 254
0 0 254
0 0 254
0 0 252
0 0 255
0 0 254
0 0 252
0 0 254
0 0 254
0 0 255
0 0 253
0 0 254
0 0 252
0 0 255
0 0 252
0 0 254
0 0 250
0 0 253
0 0 250
0 0 254
0 0 253
0 0 254
0 0 250
0 0 252
0 0 254
0 0 253
0 0 253
0 0 253
0 0 253
0 0 250
0 0 253
0 0 250
0 0 252
0 0 248
0 0 252
0 0 252
0 0 244
0 0 250
0 0 252
0 0 246
0 0 250
0 0 249
0 0 250
0 0 245
0 0 249
0 0 253
0 0 249
0 0 248
0 0 252
0 0 250
0 0 252
0 0 249
0 0 249
0 0 245
0 0 248
0 0 246
0 0 253
0 0 252
0 0 248
0 0 250
0 0 241
0 0 250
0 0 245
0 0 248
0 0 249
0 0 237
0 0 248
0 0 245
0 0 242
0 0 248
0 0 252
0 0 248
0 0 245
0 0 237
0 0 246
0 0 245
0 0 248
0 0 248
0 0 253
0 0 250
0 0 237
0 0 241
0 0 242
0 0 242
0 0 240
0 0 237
0 0 237
0 0 246
0 0 242
0 0 242
0 0 238
0 0 240
0 0 236
0 0 238
0 0 240
0 0 227
0 0 238
0 0 236
0 0 238
0 0 240
0 0 233
0 0 237
0 0 233
0 0 234
0 0 228
0 0 233
0 0 234
0 0 228
0 0 228
0 0 230
0 0 224
0 0 231
23 24 223
190 196 250
237 245 255
238 245 255
238 245 255
238 245 255
238 245 255
238 245 255
238 245 255
238 245 255
238 245 255
238 245 255
238 245 255
238 245 255
238 245 255
238 245 255
238 245 255
238 245 255
238 245 255
238 245 255
238 245 255
238 245 255
238 245 255
238 245 255
238 245 255
238 245 255
238 245 255
238 245 255
238 245 255
238 245 255
238 245 255
238 245 255
238 245 255
238 245 255
238 245 255
238 245 255
238 245 255
238 245 255
238 245 255
238 245 255
238 245 255
238 245 255
238 245 255
238 245 255
238 245 255
238 245 255
238 245 255
237 245 255
222 186 194
204 0 0
217 0 0
211 0 0
213 0 0
213 0 0
212 0 0
219 0 0
217 0 0
211 0 0
213 0 0
211 0 0
206 0 0
217 0 0
213 0 0
206 0 0
218 0 0
218 0 0
205 0 0
219 0 0
211 0 0
216 0 0
219 0 0
216 0 0
222 0 0
210 0 0
221 0 0
215 0 0
219 0 0
218 0 0
218 0 0
213 0 0
215 0 0
214 0 0
223 0 0
220 0 0
224 0 0
221 0 0
220 0 0
218 0 0
222 0 0
219 0 0
224 0 0
229 0 0
225 0 0
225 0 0
221 0 0
223 0 0
221 0 0
225 0 0
229 0 0
223 0 0
225 0 0
224 0 0
221 0 0
219 0 0
223 0 0
228 0 0
221 0 0
224 0 0
228 0 0
226 0 0
222 0 0
226 0 0
217 0 0
229 0 0
223 0 0
225 0 0
217 0 0
224 0 0
229 0 0
224 0 0
227 0 0
222 0 0
229 0 0
228 0 0
225 0 0
220 0 0
222 0 0
226 0 0
220 0 0
225 0 0
227 0 0
222 0 0
221 0 0
224 0 0
224 0 0
228 0 0
223 0 0
226 0 0
227 0 0
228 0 0
226 0 0
226 0 0
228 0 0
226 0 0
227 0 0
229 0 0
228 0 0
224 0 0
224 0 0
225 0 0
230 0 0
227 0 0
226 0 0
227 0 0
225 0 0
228 0 0
227 0 0
227 0 0
228 0 0
230 0 0
225 0 0
225 0 0
226 0 0
226 0 0
225 0 0
225 0 0
224 0 0
225 0 0
228 0 0
226 0 0
220 0 0
225 0 0
227 0 0
223 0 0
228 0 0
229 0 0
227 0 0
225 0 0
224 0 0
228 0 0
226 0 0
228 0 0
226 0 0
226 0 0
228 0 0
227 0 0
223 0 0
227 0 0
226 0 0
229 0 0
229 0 0
230 0 0
226 0 0
227 0 0
224 0 0
221 0 0
226 0 0
228 0 0
227 0 0
229 0 0
227 0 0
227 0 0
230 0 0
227 0 0
230 0 0
228 0 0
228 0 0
228 0 0
226 0 0
231 0 0
226 0 0
227 0 0
227 0 0
228 0 0
230 0 0
224 0 0
226 0 0
228 0 0
229 0 0
225 0 0
223 0 0
227 0 0
221 0 0
227 0 0
227 0 0
0 0 255
0 0 255
0 0 255
0 0 255
0 0 255
0 0 254
0 0 255
0 0 255
0 0 253
0 0 252
0 0 254
0 0 255
0 0 255
0 0 255
0 0 255
0 0 255
0 0 255
0 0 255
0 0 254
0 0 254
0 0 255
0 0 255
0 0 254
0 0 253
0 0 254
0 0 254
0 0 254
0 0 252
0 0 254
0 0 255
0 0 253
0 0 255
0 0 255
0 0 255
0 0 255
0 0 254
0 0 255
0 0 253
0 0 255
0 0 254
0 0 255
0 0 254
0 0 255
0 0 255
0 0 252
0 0 255
0 0 255
0 0 253
0 0 253
0 0 254
0 0 252
0 0 253
0 0 254
0 0 250
0 0 254
0 0 252
0 0 253
0 0 250
0 0 253
0 0 254
0 0 254
0 0 250
0 0 254
0 0 253
0 0 254
0 0 254
0 0 253
0 0 253
0 0 252
0 0 254
0 0 253
0 0 250
0 0 252
0 0 255
0 0 249
0 0 252
0 0 250
0 0 254
0 0 254
0 0 253
0 0 254
0 0 252
0 0 252
0 0 254
0 0 253
0 0 253
0 0 252
0 0 249
0 0 253
0 0 252
0 0 250
0 0 252
0 0 253
0 0 246
0 0 254
0 0 253
0 0 248
0 0 252
0 0 254
0 0 249
0 0 253
0 0 253
0 0 250
0 0 249
0 0 242
0 0 250
0 0 245
0 0 250
0 0 252
0 0 246
0 0 250
0 0 250
0 0 254
0 0 252
0 0 246
0 0 249
0 0 248
0 0 241
0 0 249
0 0 244
0 0 249
0 0 246
0 0 248
0 0 242
0 0 242
0 0 241
0 0 246
0 0 241
0 0 246
0 0 249
0 0 245
0 0 245
0 0 246
0 0 242
0 0 246
0 0 249
0 0 249
0 0 248
0 0 249
0 0 250
0 0 248
0 0 245
0 0 242
0 0 237
0 0 242
0 0 242
0 0 238
0 0 238
0 0 241
0 0 244
0 0 233
0 0 241
0 0 237
0 0 236
0 0 244
0 0 233
0 0 237
0 0 228
0 0 237
0 0 236
0 0 230
0 0 237
0 0 242
0 0 238
0 0 237
0 0 231
0 0 233
0 0 231
0 0 227
0 0 234
0 0 231
0 0 230
0 0 230
0 0 231
0 0 233
161 166 240
238 245 255
238 245 255
238 245 255
238 245 255
238 245 255
238 245 255
238 245 255
238 245 255
238 245 255
238 245 255
238 245 255
238 245 255
238 245 255
238 245 255
238 245 255
238 245 255
238 245 255
238 245 255
238 245 255
238 245 255
238 245 255
238 245 255
238 245 255
238 245 255
238 245 255
238 245 255
238 245 255
238 245 255
238 245 255
238 245 255
238 245 255
238 245 255
238 245 255
238 245 255
238 245 255
238 245 255
238 245 255
238 245 255
238 245 255
238 245 255
238 245 255
238 245 255
238 245 255
238 245 255
238 245 255
238 245 255
238 245 255
238 245 255
227 147 153
213 0 0
215 0 0
210 0 0
213 0 0
228 0 0
212 0 0
208 0 0
215 0 0
208 0 0
206 0 0
211 0 0
216 0 0
217 0 0
215 0 0
216 0 0
218 0 0
221 0 0
222 0 0
216 0 0
215 0 0
214 0 0
213 0 0
217 0 0
221 0 0
213 0 0
222 0 0
221 0 0
221 0 0
225 0 0
215 0 0
222 0 0
212 0 0
219 0 0
216 0 0
219 0 0
222 0 0
225 0 0
211 0 0
213 0 0
220 0 0
226 0 0
219 0 0
221 0 0
226 0 0
218 0 0
215 0 0
227 0 0
228 0 0
222 0 0
226 0 0
220 0 0
224 0 0
227 0 0
225 0 0
219 0 0
220 0 0
221 0 0
220 0 0
224 0 0
215 0 0
223 0 0
217 0 0
221 0 0
220 0 0
221 0 0
225 0 0
229 0 0
227 0 0
225 0 0
227 0 0
226 0 0
222 0 0
225 0 0
228 0 0
225 0 0
225 0 0
226 0 0
223 0 0
223 0 0
228 0 0
224 0 0
225 0 0
222 0 0
224 0 0
227 0 0
225 0 0
227 0 0
225 0 0
222 0 0
221 0 0
230 0 0
225 0 0
225 0 0
228 0 0
223 0 0
226 0 0
227 0 0
228 0 0
223 0 0
225 0 0
227 0 0
228 0 0
225 0 0
226 0 0
229 0 0
223 0 0
220 0 0
226 0 0
223 0 0
224 0 0
230 0 0
227 0 0
229 0 0
228 0 0
228 0 0
225 0 0
227 0 0
227 0 0
228 0 0
227 0 0
227 0 0
227 0 0
229 0 0
226 0 0
228 0 0
226 0 0
225 0 0
228 0 0
226 0 0
229 0 0
225 0 0
226 0 0
228 0 0
232 0 0
229 0 0
227 0 0
227 0 0
227 0 0
226 0 0
226 0 0
226 0 0
225 0 0
232 0 0
227 0 0
222 0 0
227 0 0
229 0 0
226 0 0
224 0 0
225 0 0
225 0 0
228 0 0
227 0 0
223 0 0
226 0 0
225 0 0
221 0 0
227 0 0
224 0 0
226 0 0
230 0 0
225 0 0
225 0 0
224 0 0
227 0 0
231 0 0
228 0 0
225 0 0
226 0 0
226 0 0
229 0 0
226 0 0
225 0 0
226 0 0
227 0 0
0 0 255
0 0 255
0 0 254
0 0 255
0 0 255
0 0 255
0 0 255
0 0 255
0 0 254
0 0 254
0 0 255
0 0 255
0 0 252
0 0 255
0 0 255
0 0 255
0 0 255
0 0 253
0 0 254
0 0 255
0 0 254
0 0 255
0 0 254
0 0 255
0 0 255
0 0 255
0 0 255
0 0 255
0 0 255
0 0 254
0 0 255
0 0 253
0 0 254
0 0 255
0 0 254
0 0 254
0 0 254
0 0 255
0 0 255
0 0 255
0 0 255
0 0 252
0 0 255
0 0 253
0 0 255
0 0 255
0 0 254
0 0 254
0 0 255
0 0 255
0 0 252
0 0 252
0 0 255
0 0 254
0 0 255
0 0 253
0 0 253
0 0 254
0 0 253
0 0 254
0 0 255
0 0 252
0 0 253
0 0 254
0 0 252
0 0 255
0 0 255
0 0 250
0 0 253
0 0 249
0 0 253
0 0 254
0 0 254
0 0 254
0 0 253
0 0 254
0 0 254
0 0 253
0 0 254
0 0 252
0 0 253
0 0 249
0 0 250
0 0 253
0 0 252
0 0 254
0 0 252
0 0 252
0 0 252
0 0 252
0 0 249
0 0 252
0 0 254
0 0 253
0 0 246
0 0 255
0 0 252
0 0 248
0 0 250
0 0 253
0 0 253
0 0 246
0 0 253
0 0 249
0 0 249
0 0 249
0 0 250
0 0 248
0 0 250
0 0 250
0 0 250
0 0 249
0 0 248
0 0 249
0 0 253
0 0 250
0 0 246
0 0 249
0 0 250
0 0 244
0 0 250
0 0 248
0 0 250
0 0 246
0 0 244
0 0 250
0 0 245
0 0 246
0 0 250
0 0 246
0 0 249
0 0 244
0 0 245
0 0 245
0 0 241
0 0 245
0 0 246
0 0 250
0 0 246
0 0 245
0 0 244
0 0 240
0 0 237
0 0 241
0 0 245
0 0 238
0 0 242
0 0 236
0 0 240
0 0 244
0 0 242
0 0 238
0 0 238
0 0 233
0 0 236
0 0 244
0 0 227
0 0 237
0 0 228
0 0 234
0 0 237
0 0 237
0 0 242
0 0 228
0 0 231
0 0 238
0 0 236
0 0 236
0 0 231
0 0 242
0 0 228
0 0 223
0 0 230
0 0 240
150 155 238
238 245 255
238 245 255
238 245 255
238 245 255
238 245 255
238 245 255
238 245 255
238 245 255
238 245 255
238 245 255
238 245 255
238 245 255
238 245 255
238 245 255
238 245 255
238 245 255
238 245 255
238 245 255
238 245 255
238 245 255
238 245 255
238 245 255
238 245 255
238 245 255
238 245 255
238 245 255
238 245 255
238 245 255
238 245 255
238 245 255
238 245 255
238 245 255
238 245 255
238 245 255
238 245 255
238 245 255
238 245 255
238 245 255
238 245 255
238 245 255
238 245 255
238 245 255
238 245 255
238 245 255
238 245 255
238 245 255
238 245 255
238 245 255
238 245 255
238 245 255
226 151 157
222 0 0
223 0 0
213 0 0
206 0 0
217 0 0
205 0 0
200 0 0
212 0 0
220 0 0
223 0 0
217 0 0
210 0 0
215 0 0
218 0 0
221 0 0
218 0 0
216 0 0
217 0 0
219 0 0
217 0 0
211 0 0
224 0 0
216 0 0
219 0 0
218 0 0
217 0 0
224 0 0
215 0 0
211 0 0
221 0 0
221 0 0
216 0 0
219 0 0
215 0 0
223 0 0
220 0 0
216 0 0
219 0 0
223 0 0
229 0 0
222 0 0
225 0 0
219 0 0
219 0 0
220 0 0
225 0 0
217 0 0
222 0 0
223 0 0
224 0 0
223 0 0
218 0 0
229 0 0
221 0 0
228 0 0
223 0 0
228 0 0
225 0 0
221 0 0
220 0 0
225 0 0
218 0 0
219 0 0
224 0 0
224 0 0
222 0 0
226 0 0
225 0 0
222 0 0
222 0 0
222 0 0
228 0 0
229 0 0
223 0 0
227 0 0
222 0 0
226 0 0
224 0 0
231 0 0
224 0 0
223 0 0
227 0 0
219 0 0
225 0 0
226 0 0
224 0 0
226 0 0
222 0 0
224 0 0
226 0 0
226 0 0
224 0 0
225 0 0
227 0 0
227 0 0
224 0 0
224 0 0
225 0 0
224 0 0
227 0 0
227 0 0
222 0 0
226 0 0
227 0 0
229 0 0
222 0 0
227 0 0
228 0 0
228 0 0
224 0 0
224 0 0
223 0 0
226 0 0
227 0 0
225 0 0
226 0 0
228 0 0
228 0 0
226 0 0
226 0 0
228 0 0
224 0 0
225 0 0
230 0 0
225 0 0
224 0 0
227 0 0
227 0 0
229 0 0
230 0 0
228 0 0
225 0 0
227 0 0
225 0 0
226 0 0
226 0 0
230 0 0
228 0 0
228 0 0
227 0 0
227 0 0
227 0 0
227 0 0
226 0 0
227 0 0
224 0 0
228 0 0
228 0 0
229 0 0
229 0 0
228 0 0
225 0 0
228 0 0
227 0 0
227 0 0
227 0 0
228 0 0
226 0 0
228 0 0
225 0 0
226 0 0
229 0 0
226 0 0
225 0 0
230 0 0
228 0 0
225 0 0
228 0 0
227 0 0
226 0 0
229 0 0
228 0 0
228 0 0
230 0 0
0 0 255
0 0 255
0 0 255
0 0 255
0 0 255
0 0 253
0 0 255
0 0 255
0 0 254
0 0 253
0 0 254
0 0 255
0 0 255
0 0 253
0 0 255
0 0 255
0 0 255
0 0 255
0 0 255
0 0 255
0 0 254
0 0 255
0 0 255
0 0 255
0 0 254
0 0 255
0 0 254
0 0 255
0 0 255
0 0 255
0 0 255
0 0 253
0 0 255
0 0 255
0 0 254
0 0 253
0 0 254
0 0 254
0 0 255
0 0 255
0 0 254
0 0 254
0 0 254
0 0 255
0 0 255
0 0 255
0 0 255
0 0 255
0 0 253
0 0 254
0 0 254
0 0 255
0 0 254
0 0 255
0 0 249
0 0 254
0 0 254
0 0 254
0 0 252
0 0 252
0 0 252
0 0 252
0 0 253
0 0 254
0 0 255
0 0 255
0 0 252
0 0 255
0 0 254
0 0 254
0 0 250
0 0 254
0 0 253
0 0 255
0 0 254
0 0 254
0 0 252
0 0 252
0 0 252
0 0 254
0 0 252
0 0 253
0 0 253
0 0 254
0 0 252
0 0 249
0 0 253
0 0 246
0 0 252
0 0 246
0 0 249
0 0 249
0 0 249
0 0 249
0 0 253
0 0 252
0 0 253
0 0 253
0 0 253
0 0 248
0 0 252
0 0 254
0 0 249
0 0 244
0 0 249
0 0 248
0 0 244
0 0 249
0 0 249
0 0 253
0 0 253
0 0 246
0 0 253
0 0 246
0 0 245
0 0 250
0 0 253
0 0 248
0 0 252
0 0 254
0 0 245
0 0 250
0 0 250
0 0 249
0 0 248
0 0 245
0 0 245
0 0 249
0 0 246
0 0 242
0 0 246
0 0 248
0 0 248
0 0 249
0 0 245
0 0 244
0 0 242
0 0 249
0 0 249
0 0 240
0 0 241
0 0 234
0 0 249
0 0 240
0 0 238
0 0 249
0 0 242
0 0 237
0 0 245
0 0 240
0 0 242
0 0 234
0 0 242
0 0 238
0 0 230
0 0 234
0 0 244
0 0 242
0 0 236
0 0 236
0 0 224
0 0 234
0 0 234
0 0 238
0 0 228
0 0 234
0 0 241
0 0 233
0 0 234
0 0 237
0 0 236
0 0 234
0 0 221
145 149 234
236 243 255
238 245 255
238 245 255
238 245 255
238 245 255
238 245 255
238 245 255
238 245 255
238 245 255
238 245 255
238 245 255
238 245 255
238 245 255
238 245 255
238 245 255
238 245 255
238 245 255
238 245 255
238 245 255
238 245 255
238 245 255
238 245 255
238 245 255
238 245 255
238 245 255
238 245 255
238 245 255
238 245 255
238 245 255
238 245 255
238 245 255
238 245 255
238 245 255
238 245 255
238 245 255
238 245 255
238 245 255
238 245 255
238 245 255
238 245 255
238 245 255
238 245 255
238 245 255
238 245 255
238 245 255
238 245 255
238 245 255
238 245 255
238 245 255
238 245 255
238 245 255
238 245 255
223 147 153
218 0 0
226 0 0
214 0 0
224 0 0
218 0 0
222 0 0
211 0 0
217 0 0
213 0 0
225 0 0
224 0 0
212 0 0
220 0 0
223 0 0
213 0 0
220 0 0
225 0 0
219 0 0
221 0 0
216 0 0
220 0 0
220 0 0
219 0 0
224 0 0
214 0 0
219 0 0
216 0 0
215 0 0
227 0 0
225 0 0
220 0 0
215 0 0
221 0 0
221 0 0
221 0 0
219 0 0
222 0 0
217 0 0
226 0 0
218 0 0
216 0 0
215 0 0
219 0 0
223 0 0
226 0 0
224 0 0
226 0 0
220 0 0
222 0 0
224 0 0
226 0 0
223 0 0
224 0 0
221 0 0
219 0 0
219 0 0
225 0 0
219 0 0
224 0 0
225 0 0
226 0 0
228 0 0
222 0 0
220 0 0
221 0 0
227 0 0
228 0 0
224 0 0
220 0 0
220 0 0
220 0 0
227 0 0
230 0 0
227 0 0
226 0 0
224 0 0
227 0 0
226 0 0
222 0 0
222 0 0
226 0 0
228 0 0
225 0 0
230 0 0
224 0 0
229 0 0
226 0 0
227 0 0
228 0 0
224 0 0
223 0 0
228 0 0
227 0 0
223 0 0
222 0 0
226 0 0
228 0 0
228 0 0
229 0 0
227 0 0
221 0 0
225 0 0
224 0 0
227 0 0
223 0 0
225 0 0
222 0 0
228 0 0
230 0 0
222 0 0
225 0 0
228 0 0
228 0 0
223 0 0
230 0 0
227 0 0
222 0 0
224 0 0
224 0 0
225 0 0
225 0 0
220 0 0
227 0 0
231 0 0
226 0 0
228 0 0
226 0 0
229 0 0
225 0 0
223 0 0
226 0 0
225 0 0
223 0 0
227 0 0
224 0 0
227 0 0
226 0 0
225 0 0
229 0 0
224 0 0
231 0 0
226 0 0
226 0 0
228 0 0
229 0 0
225 0 0
226 0 0
227 0 0
226 0 0
224 0 0
227 0 0
226 0 0
228 0 0
228 0 0
227 0 0
229 0 0
229 0 0
225 0 0
229 0 0
227 0 0
226 0 0
228 0 0
226 0 0
227 0 0
226 0 0
227 0 0
225 0 0
227 0 0
228 0 0
228 0 0
227 0 0
228 0 0
227 0 0
0 0 255
0 0 255
0 0 253
0 0 255
0 0 253
0 0 254
0 0 255
0 0 255
0 0 254
0 0 255
0 0 254
0 0 254
0 0 255
0 0 255
0 0 255
0 0 255
0 0 255
0 0 255
0 0 255
0 0 255
0 0 255
0 0 252
0 0 255
0 0 254
0 0 254
0 0 254
0 0 255
0 0 255
0 0 250
0 0 254
0 0 255
0 0 254
0 0 252
0 0 255
0 0 255
0 0 254
0 0 255
0 0 254
0 0 255
0 0 254
0 0 250
0 0 254
0 0 255
0 0 253
0 0 254
0 0 254
0 0 255
0 0 253
0 0 253
0 0 252
0 0 253
0 0 253
0 0 254
0 0 253
0 0 255
0 0 255
0 0 253
0 0 253
0 0 255
0 0 254
0 0 255
0 0 255
0 0 250
0 0 255
0 0 252
0 0 252
0 0 254
0 0 255
0 0 254
0 0 254
0 0 252
0 0 253
0 0 253
0 0 253
0 0 248
0 0 254
0 0 253
0 0 255
0 0 255
0 0 252
0 0 250
0 0 252
0 0 254
0 0 250
0 0 254
0 0 255
0 0 252
0 0 254
0 0 249
0 0 254
0 0 252
0 0 254
0 0 248
0 0 252
0 0 252
0 0 252
0 0 250
0 0 249
0 0 249
0 0 252
0 0 250
0 0 250
0 0 248
0 0 253
0 0 249
0 0 252
0 0 252
0 0 249
0 0 249
0 0 250
0 0 248
0 0 249
0 0 246
0 0 249
0 0 252
0 0 254
0 0 252
0 0 246
0 0 248
0 0 245
0 0 249
0 0 248
0 0 252
0 0 241
0 0 246
0 0 241
0 0 242
0 0 252
0 0 242
0 0 253
0 0 244
0 0 240
0 0 242
0 0 245
0 0 249
0 0 248
0 0 249
0 0 249
0 0 246
0 0 245
0 0 241
0 0 244
0 0 240
0 0 236
0 0 237
0 0 242
0 0 240
0 0 237
0 0 240
0 0 240
0 0 231
0 0 240
0 0 244
0 0 242
0 0 241
0 0 234
0 0 234
0 0 241
0 0 236
0 0 244
0 0 238
0 0 236
0 0 230
0 0 233
0 0 240
0 0 231
0 0 238
0 0 249
0 0 231
0 0 234
0 0 227
0 0 224
145 149 242
232 239 255
238 245 255
238 245 255
238 245 255
238 245 255
238 245 255
238 245 255
238 245 255
238 245 255
238 245 255
238 245 255
238 245 255
238 245 255
238 245 255
238 245 255
239 245 255
239 245 255
239 245 255
239 245 255
239 245 255
239 245 255
239 245 255
239 245 255
239 245 255
239 245 255
239 245 255
239 245 255
239 245 255
239 245 255
239 245 255
239 245 255
239 245 255
239 245 255
239 245 255
239 245 255
239 245 255
239 245 255
239 245 255
239 245 255
239 245 255
238 245 255
238 245 255
238 245 255
238 245 255
238 245 255
238 245 255
238 245 255
238 245 255
238 245 255
238 245 255
238 245 255
238 245 255
238 245 255
238 242 252
223 134 140
218 0 0
223 0 0
208 0 0
222 0 0
216 0 0
217 0 0
218 0 0
216 0 0
220 0 0
219 0 0
229 0 0
215 0 0
214 0 0
224 0 0
220 0 0
222 0 0
229 0 0
215 0 0
214 0 0
220 0 0
217 0 0
222 0 0
229 0 0
218 0 0
224 0 0
225 0 0
226 0 0
223 0 0
224 0 0
226 0 0
218 0 0
220 0 0
227 0 0
222 0 0
220 0 0
224 0 0
220 0 0
226 0 0
222 0 0
222 0 0
219 0 0
227 0 0
226 0 0
226 0 0
220 0 0
223 0 0
223 0 0
220 0 0
225 0 0
225 0 0
225 0 0
228 0 0
224 0 0
224 0 0
228 0 0
231 0 0
226 0 0
228 0 0
229 0 0
224 0 0
224 0 0
222 0 0
222 0 0
227 0 0
218 0 0
225 0 0
222 0 0
223 0 0
225 0 0
222 0 0
228 0 0
225 0 0
226 0 0
228 0 0
226 0 0
225 0 0
228 0 0
227 0 0
222 0 0
228 0 0
231 0 0
228 0 0
231 0 0
225 0 0
228 0 0
225 0 0
229 0 0
229 0 0
226 0 0
222 0 0
225 0 0
225 0 0
228 0 0
225 0 0
224 0 0
224 0 0
229 0 0
227 0 0
225 0 0
229 0 0
226 0 0
229 0 0
222 0 0
229 0 0
231 0 0
224 0 0
223 0 0
227 0 0
227 0 0
225 0 0
226 0 0
224 0 0
226 0 0
228 0 0
232 0 0
226 0 0
227 0 0
229 0 0
224 0 0
223 0 0
227 0 0
230 0 0
228 0 0
229 0 0
223 0 0
229 0 0
228 0 0
231 0 0
223 0 0
227 0 0
230 0 0
226 0 0
229 0 0
226 0 0
232 0 0
229 0 0
226 0 0
229 0 0
227 0 0
226 0 0
229 0 0
226 0 0
226 0 0
223 0 0
228 0 0
229 0 0
227 0 0
228 0 0
229 0 0
229 0 0
226 0 0
224 0 0
227 0 0
227 0 0
224 0 0
225 0 0
227 0 0
230 0 0
228 0 0
228 0 0
226 0 0
226 0 0
227 0 0
226 0 0
227 0 0
226 0 0
227 0 0
224 0 0
227 0 0
226 0 0
227 0 0
229 0 0
0 0 255
0 0 253
0 0 255
0 0 255
0 0 254
0 0 255
0 0 254
0 0 255
0 0 255
0 0 254
0 0 255
0 0 255
0 0 254
0 0 255
0 0 253
0 0 255
0 0 255
0 0 255
0 0 255
0 0 253
0 0 253
0 0 255
0 0 253
0 0 254
0 0 255
0 0 255
0 0 254
0 0 255
0 0 255
0 0 254
0 0 255
0 0 255
0 0 254
0 0 255
0 0 252
0 0 254
0 0 255
0 0 255
0 0 255
0 0 255
0 0 254
0 0 254
0 0 253
0 0 254
0 0 253
0 0 254
0 0 253
0 0 253
0 0 255
0 0 252
0 0 252
0 0 254
0 0 254
0 0 254
0 0 255
0 0 254
0 0 252
0 0 253
0 0 253
0 0 253
0 0 255
0 0 252
0 0 252
0 0 250
0 0 253
0 0 252
0 0 255
0 0 253
0 0 254
0 0 254
0 0 253
0 0 255
0 0 250
0 0 254
0 0 254
0 0 254
0 0 253
0 0 253
0 0 253
0 0 254
0 0 254
0 0 250
0 0 253
0 0 254
0 0 253
0 0 252
0 0 253
0 0 248
0 0 252
0 0 252
0 0 250
0 0 252
0 0 249
0 0 252
0 0 248
0 0 252
0 0 252
0 0 253
0 0 254
0 0 249
0 0 250
0 0 242
0 0 249
0 0 253
0 0 254
0 0 250
0 0 252
0 0 253
0 0 249
0 0 245
0 0 250
0 0 245
0 0 245
0 0 249
0 0 246
0 0 246
0 0 244
0 0 245
0 0 248
0 0 245
0 0 249
0 0 248
0 0 244
0 0 250
0 0 249
0 0 250
0 0 246
0 0 249
0 0 249
0 0 253
0 0 249
0 0 246
0 0 237
0 0 246
0 0 245
0 0 245
0 0 241
0 0 245
0 0 244
0 0 245
0 0 241
0 0 244
0 0 245
0 0 240
0 0 240
0 0 241
0 0 241
0 0 244
0 0 242
0 0 241
0 0 244
0 0 244
0 0 242
0 0 238
0 0 244
0 0 236
0 0 241
0 0 240
0 0 236
0 0 246
0 0 234
0 0 228
0 0 237
0 0 236
0 0 234
0 0 226
0 0 233
0 0 238
0 0 230
0 0 234
0 0 236
137 141 241
234 240 254
238 245 255
238 245 255
238 245 255
239 245 255
239 245 255
239 245 255
239 245 255
239 245 255
239 246 255
239 246 255
239 246 255
239 246 255
239 246 255
239 246 255
239 246 255
239 246 255
239 246 255
239 246 255
239 246 255
239 246 255
239 246 255
239 246 255
239 246 255
239 246 255
239 246 255
239 246 255
239 246 255
239 246 255
239 246 255
239 246 255
239 246 255
239 246 255
239 246 255
239 246 255
239 246 255
239 246 255
239 246 255
239 246 255
239 246 255
239 246 255
239 246 255
239 246 255
239 246 255
239 246 255
239 246 255
239 245 255
239 245 255
239 245 255
239 245 255
239 245 255
238 245 255
238 245 255
238 245 255
238 245 255
237 244 254
231 115 120
223 0 0
228 0 0
224 0 0
211 0 0
218 0 0
215 0 0
218 0 0
219 0 0
225 0 0
219 0 0
225 0 0
221 0 0
222 0 0
219 0 0
220 0 0
215 0 0
213 0 0
218 0 0
219 0 0
220 0 0
215 0 0
218 0 0
218 0 0
222 0 0
225 0 0
223 0 0
218 0 0
226 0 0
224 0 0
226 0 0
217 0 0
222 0 0
222 0 0
212 0 0
219 0 0
220 0 0
225 0 0
226 0 0
222 0 0
225 0 0
215 0 0
220 0 0
218 0 0
224 0 0
226 0 0
224 0 0
223 0 0
226 0 0
219 0 0
226 0 0
221 0 0
229 0 0
223 0 0
228 0 0
225 0 0
224 0 0
224 0 0
226 0 0
226 0 0
220 0 0
224 0 0
225 0 0
222 0 0
228 0 0
229 0 0
226 0 0
225 0 0
223 0 0
224 0 0
221 0 0
224 0 0
225 0 0
223 0 0
223 0 0
225 0 0
224 0 0
227 0 0
225 0 0
229 0 0
221 0 0
224 0 0
223 0 0
227 0 0
224 0 0
224 0 0
226 0 0
225 0 0
226 0 0
228 0 0
226 0 0
227 0 0
226 0 0
232 0 0
224 0 0
227 0 0
227 0 0
225 0 0
225 0 0
223 0 0
228 0 0
227 0 0
231 0 0
231 0 0
225 0 0
228 0 0
228 0 0
226 0 0
229 0 0
231 0 0
228 0 0
229 0 0
228 0 0
227 0 0
224 0 0
226 0 0
222 0 0
232 0 0
226 0 0
228 0 0
230 0 0
228 0 0
227 0 0
232 0 0
229 0 0
228 0 0
223 0 0
231 0 0
224 0 0
226 0 0
226 0 0
228 0 0
231 0 0
229 0 0
229 0 0
226 0 0
226 0 0
225 0 0
228 0 0
228 0 0
228 0 0
227 0 0
228 0 0
227 0 0
225 0 0
226 0 0
230 0 0
229 0 0
225 0 0
228 0 0
227 0 0
225 0 0
226 0 0
228 0 0
224 0 0
227 0 0
228 0 0
227 0 0
227 0 0
228 0 0
229 0 0
231 0 0
229 0 0
229 0 0
227 0 0
227 0 0
230 0 0
226 0 0
226 0 0
226 0 0
228 0 0
225 0 0
0 0 255
0 0 255
0 0 255
0 0 254
0 0 255
0 0 255
0 0 255
0 0 255
0 0 255
0 0 253
0 0 255
0 0 254
0 0 255
0 0 253
0 0 254
0 0 254
0 0 254
0 0 255
0 0 255
0 0 255
0 0 254
0 0 255
0 0 254
0 0 254
0 0 253
0 0 254
0 0 254
0 0 255
0 0 255
0 0 254
0 0 254
0 0 252
0 0 255
0 0 255
0 0 255
0 0 255
0 0 255
0 0 254
0 0 255
0 0 253
0 0 253
0 0 255
0 0 253
0 0 254
0 0 255
0 0 255
0 0 255
0 0 253
0 0 255
0 0 253
0 0 254
0 0 252
0 0 252
0 0 255
0 0 254
0 0 254
0 0 255
0 0 253
0 0 255
0 0 254
0 0 254
0 0 253
0 0 255
0 0 254
0 0 254
0 0 253
0 0 253
0 0 253
0 0 253
0 0 250
0 0 254
0 0 255
0 0 254
0 0 253
0 0 250
0 0 255
0 0 252
0 0 252
0 0 250
0 0 250
0 0 252
0 0 252
0 0 254
0 0 254
0 0 252
0 0 252
0 0 253
0 0 250
0 0 254
0 0 248
0 0 249
0 0 250
0 0 252
0 0 246
0 0 255
0 0 248
0 0 250
0 0 248
0 0 250
0 0 244
0 0 249
0 0 249
0 0 253
0 0 250
0 0 253
0 0 245
0 0 248
0 0 252
0 0 252
0 0 253
0 0 249
0 0 245
0 0 245
0 0 252
0 0 248
0 0 248
0 0 250
0 0 242
0 0 246
0 0 249
0 0 250
0 0 252
0 0 250
0 0 244
0 0 252
0 0 248
0 0 238
0 0 241
0 0 249
0 0 244
0 0 249
0 0 252
0 0 245
0 0 244
0 0 248
0 0 246
0 0 249
0 0 248
0 0 249
0 0 236
0 0 241
0 0 245
0 0 245
0 0 244
0 0 240
0 0 240
0 0 246
0 0 246
0 0 252
0 0 245
0 0 231
0 0 241
0 0 242
0 0 244
0 0 241
0 0 241
0 0 246
0 0 240
0 0 240
0 0 236
0 0 236
0 0 234
0 0 244
0 0 233
0 0 238
0 0 230
0 0 234
0 0 233
0 0 236
0 0 233
128 132 241
235 242 255
239 246 255
239 246 255
239 246 255
239 246 255
239 246 255
239 246 255
239 246 255
239 246 255
239 246 255
239 246 255
239 246 255
239 246 255
239 246 255
239 246 255
239 246 255
239 246 255
239 246 255
239 246 255
239 246 255
239 246 255
239 246 255
239 246 255
239 246 255
239 246 255
239 246 255
239 246 255
239 246 255
239 246 255
239 246 255
239 246 255
239 246 255
239 246 255
239 246 255
239 246 255
239 246 255
239 246 255
239 246 255
239 246 255
239 246 255
239 246 255
239 246 255
239 246 255
239 246 255
239 246 255
239 246 255
239 246 255
239 246 255
239 246 255
239 246 255
239 246 255
239 246 255
239 246 255
239 246 255
239 246 255
239 246 255
239 246 255
236 239 249
227 130 135
217 0 0
222 0 0
222 0 0
217 0 0
213 0 0
211 0 0
214 0 0
221 0 0
212 0 0
223 0 0
226 0 0
224 0 0
218 0 0
229 0 0
213 0 0
220 0 0
219 0 0
215 0 0
223 0 0
209 0 0
224 0 0
217 0 0
216 0 0
217 0 0
217 0 0
225 0 0
216 0 0
225 0 0
222 0 0
226 0 0
220 0 0
229 0 0
227 0 0
222 0 0
231 0 0
226 0 0
228 0 0
228 0 0
226 0 0
219 0 0
220 0 0
224 0 0
220 0 0
224 0 0
223 0 0
228 0 0
224 0 0
214 0 0
225 0 0
221 0 0
230 0 0
223 0 0
226 0 0
227 0 0
226 0 0
225 0 0
225 0 0
227 0 0
223 0 0
229 0 0
225 0 0
224 0 0
222 0 0
229 0 0
229 0 0
228 0 0
227 0 0
223 0 0
225 0 0
222 0 0
226 0 0
229 0 0
229 0 0
223 0 0
224 0 0
224 0 0
225 0 0
228 0 0
225 0 0
225 0 0
225 0 0
226 0 0
228 0 0
227 0 0
224 0 0
226 0 0
222 0 0
227 0 0
227 0 0
223 0 0
222 0 0
227 0 0
226 0 0
221 0 0
229 0 0
227 0 0
226 0 0
226 0 0
223 0 0
223 0 0
228 0 0
228 0 0
222 0 0
228 0 0
228 0 0
226 0 0
223 0 0
228 0 0
223 0 0
223 0 0
227 0 0
225 0 0
227 0 0
230 0 0
224 0 0
223 0 0
230 0 0
223 0 0
226 0 0
225 0 0
227 0 0
228 0 0
227 0 0
229 0 0
229 0 0
228 0 0
226 0 0
226 0 0
228 0 0
230 0 0
222 0 0
226 0 0
227 0 0
224 0 0
228 0 0
228 0 0
226 0 0
224 0 0
230 0 0
226 0 0
230 0 0
228 0 0
229 0 0
229 0 0
226 0 0
223 0 0
227 0 0
228 0 0
226 0 0
228 0 0
230 0 0
227 0 0
229 0 0
226 0 0
228 0 0
226 0 0
226 0 0
230 0 0
228 0 0
227 0 0
227 0 0
227 0 0
226 0 0
226 0 0
230 0 0
227 0 0
229 0 0
226 0 0
225 0 0
226 0 0
0 0 254
0 0 255
0 0 255
0 0 255
0 0 255
0 0 255
0 0 255
0 0 255
0 0 255
0 0 255
0 0 254
0 0 255
0 0 255
0 0 254
0 0 252
0 0 255
0 0 254
0 0 255
0 0 254
0 0 254
0 0 255
0 0 254
0 0 255
0 0 255
0 0 255
0 0 253
0 0 255
0 0 255
0 0 253
0 0 253
0 0 253
0 0 253
0 0 255
0 0 252
0 0 255
0 0 255
0 0 255
0 0 254
0 0 253
0 0 253
0 0 255
0 0 254
0 0 255
0 0 254
0 0 254
0 0 254
0 0 255
0 0 254
0 0 253
0 0 252
0 0 253
0 0 253
0 0 249
0 0 255
0 0 254
0 0 253
0 0 253
0 0 255
0 0 255
0 0 254
0 0 253
0 0 254
0 0 253
0 0 253
0 0 255
0 0 254
0 0 255
0 0 254
0 0 253
0 0 255
0 0 254
0 0 253
0 0 252
0 0 253
0 0 253
0 0 252
0 0 254
0 0 253
0 0 249
0 0 254
0 0 254
0 0 249
0 0 253
0 0 253
0 0 254
0 0 253
0 0 254
0 0 246
0 0 250
0 0 253
0 0 255
0 0 250
0 0 254
0 0 249
0 0 254
0 0 249
0 0 253
0 0 252
0 0 253
0 0 250
0 0 250
0 0 248
0 0 250
0 0 250
0 0 253
0 0 253
0 0 250
0 0 248
0 0 249
0 0 249
0 0 252
0 0 248
0 0 249
0 0 249
0 0 252
0 0 253
0 0 240
0 0 252
0 0 249
0 0 249
0 0 245
0 0 248
0 0 246
0 0 244
0 0 242
0 0 246
0 0 240
0 0 249
0 0 246
0 0 249
0 0 242
0 0 245
0 0 248
0 0 240
0 0 244
0 0 245
0 0 248
0 0 250
0 0 248
0 0 242
0 0 248
0 0 246
0 0 246
0 0 246
0 0 249
0 0 237
0 0 244
0 0 248
0 0 241
0 0 237
0 0 244
0 0 234
0 0 241
0 0 241
0 0 234
0 0 240
0 0 238
0 0 250
0 0 241
0 0 234
0 0 241
0 0 246
0 0 228
0 0 244
0 0 226
0 0 242
0 0 234
0 0 236
0 0 228
133 137 246
238 244 255
239 246 255
239 246 255
239 246 255
239 246 255
239 246 255
239 246 255
239 246 255
239 246 255
239 246 255
239 246 255
239 246 255
239 246 255
239 246 255
239 246 255
239 246 255
239 246 255
239 246 255
239 246 255
239 246 255
239 246 255
239 246 255
239 246 255
239 246 255
239 246 255
239 246 255
239 246 255
239 246 255
239 246 255
239 246 255
239 246 255
239 246 255
239 246 255
239 246 255
239 246 255
239 246 255
239 246 255
239 246 255
239 246 255
239 246 255
239 246 255
239 246 255
239 246 255
239 246 255
239 246 255
239 246 255
239 246 255
239 246 255
239 246 255
239 246 255
239 246 255
239 246 255
239 246 255
239 246 255
239 246 255
239 246 255
239 246 255
239 246 255
239 246 255
239 241 250
235 123 128
230 0 0
220 0 0
224 0 0
220 0 0
220 0 0
217 0 0
215 0 0
220 0 0
222 0 0
218 0 0
224 0 0
225 0 0
222 0 0
226 0 0
218 0 0
222 0 0
223 0 0
228 0 0
228 0 0
225 0 0
223 0 0
220 0 0
227 0 0
218 0 0
221 0 0
221 0 0
225 0 0
223 0 0
220 0 0
224 0 0
232 0 0
232 0 0
226 0 0
221 0 0
224 0 0
220 0 0
221 0 0
226 0 0
224 0 0
226 0 0
227 0 0
223 0 0
230 0 0
223 0 0
228 0 0
225 0 0
223 0 0
228 0 0
226 0 0
226 0 0
229 0 0
222 0 0
224 0 0
226 0 0
222 0 0
226 0 0
226 0 0
225 0 0
224 0 0
221 0 0
223 0 0
225 0 0
225 0 0
226 0 0
225 0 0
227 0 0
228 0 0
226 0 0
226 0 0
222 0 0
226 0 0
227 0 0
223 0 0
227 0 0
227 0 0
230 0 0
225 0 0
227 0 0
227 0 0
227 0 0
225 0 0
231 0 0
229 0 0
229 0 0
223 0 0
229 0 0
225 0 0
228 0 0
225 0 0
227 0 0
228 0 0
224 0 0
227 0 0
219 0 0
227 0 0
228 0 0
232 0 0
230 0 0
229 0 0
227 0 0
231 0 0
231 0 0
225 0 0
224 0 0
229 0 0
227 0 0
228 0 0
225 0 0
230 0 0
225 0 0
228 0 0
227 0 0
227 0 0
227 0 0
229 0 0
226 0 0
229 0 0
228 0 0
227 0 0
224 0 0
224 0 0
226 0 0
229 0 0
230 0 0
227 0 0
230 0 0
226 0 0
226 0 0
227 0 0
227 0 0
226 0 0
228 0 0
229 0 0
227 0 0
227 0 0
227 0 0
227 0 0
230 0 0
227 0 0
229 0 0
227 0 0
229 0 0
226 0 0
228 0 0
227 0 0
225 0 0
228 0 0
227 0 0
229 0 0
227 0 0
230 0 0
229 0 0
226 0 0
230 0 0
231 0 0
226 0 0
228 0 0
225 0 0
231 0 0
230 0 0
227 0 0
228 0 0
226 0 0
230 0 0
232 0 0
228 0 0
227 0 0
232 0 0
227 0 0
0 0 255
0 0 254
0 0 255
0 0 255
0 0 255
0 0 254
0 0 255
0 0 255
0 0 255
0 0 255
0 0 252
0 0 255
0 0 254
0 0 255
0 0 254
0 0 255
0 0 255
0 0 254
0 0 255
0 0 255
0 0 255
0 0 254
0 0 254
0 0 253
0 0 254
0 0 255
0 0 255
0 0 255
0 0 254
0 0 255
0 0 255
0 0 254
0 0 250
0 0 255
0 0 255
0 0 252
0 0 255
0 0 254
0 0 254
0 0 254
0 0 254
0 0 254
0 0 254
0 0 255
0 0 254
0 0 254
0 0 254
0 0 255
0 0 255
0 0 253
0 0 254
0 0 253
0 0 253
0 0 254
0 0 254
0 0 255
0 0 255
0 0 255
0 0 253
0 0 254
0 0 254
0 0 252
0 0 255
0 0 252
0 0 253
0 0 253
0 0 250
0 0 253
0 0 252
0 0 254
0 0 253
0 0 250
0 0 253
0 0 252
0 0 252
0 0 252
0 0 253
0 0 252
0 0 252
0 0 252
0 0 254
0 0 255
0 0 253
0 0 255
0 0 252
0 0 253
0 0 254
0 0 254
0 0 253
0 0 250
0 0 253
0 0 254
0 0 252
0 0 252
0 0 252
0 0 250
0 0 254
0 0 248
0 0 253
0 0 250
0 0 255
0 0 252
0 0 250
0 0 250
0 0 254
0 0 250
0 0 249
0 0 249
0 0 250
0 0 249
0 0 249
0 0 250
0 0 252
0 0 253
0 0 250
0 0 249
0 0 248
0 0 240
0 0 248
0 0 249
0 0 246
0 0 248
0 0 248
0 0 250
0 0 252
0 0 245
0 0 249
0 0 249
0 0 253
0 0 248
0 0 246
0 0 248
0 0 242
0 0 241
0 0 241
0 0 248
0 0 248
0 0 246
0 0 244
0 0 242
0 0 246
0 0 249
0 0 250
0 0 249
0 0 241
0 0 245
0 0 244
0 0 246
0 0 237
0 0 242
0 0 234
0 0 238
0 0 241
0 0 246
0 0 234
0 0 241
0 0 240
0 0 238
0 0 240
0 0 240
0 0 241
0 0 234
0 0 230
0 0 236
0 0 237
0 0 237
0 0 234
0 0 238
131 134 246
234 241 253
239 246 255
239 246 255
239 246 255
239 246 255
239 246 255
239 246 255
239 246 255
239 246 255
239 246 255
239 246 255
239 246 255
239 246 255
239 246 255
239 246 255
239 246 255
239 246 255
239 246 255
239 246 255
239 246 255
239 246 255
239 246 255
239 246 255
239 246 255
239 246 255
239 246 255
239 246 255
239 246 255
239 246 255
239 246 255
239 246 255
239 246 255
239 246 255
239 246 255
239 246 255
239 246 255
239 246 255
239 246 255
239 246 255
239 246 255
239 246 255
239 246 255
239 246 255
239 246 255
239 246 255
239 246 255
239 246 255
239 246 255
239 246 255
239 246 255
239 246 255
239 246 255
239 246 255
239 246 255
239 246 255
239 246 255
239 246 255
239 246 255
239 246 255
239 246 255
239 246 255
238 242 252
219 137 142
226 0 0
214 0 0
218 0 0
218 0 0
216 0 0
219 0 0
217 0 0
225 0 0
219 0 0
223 0 0
216 0 0
217 0 0
220 0 0
220 0 0
216 0 0
212 0 0
223 0 0
220 0 0
218 0 0
223 0 0
219 0 0
223 0 0
223 0 0
224 0 0
227 0 0
226 0 0
222 0 0
226 0 0
226 0 0
219 0 0
228 0 0
230 0 0
228 0 0
221 0 0
220 0 0
220 0 0
227 0 0
223 0 0
222 0 0
224 0 0
227 0 0
226 0 0
221 0 0
228 0 0
225 0 0
221 0 0
226 0 0
222 0 0
224 0 0
227 0 0
225 0 0
221 0 0
224 0 0
225 0 0
226 0 0
223 0 0
228 0 0
224 0 0
222 0 0
228 0 0
228 0 0
220 0 0
223 0 0
224 0 0
226 0 0
229 0 0
226 0 0
227 0 0
225 0 0
229 0 0
226 0 0
230 0 0
227 0 0
228 0 0
228 0 0
225 0 0
227 0 0
231 0 0
231 0 0
226 0 0
229 0 0
229 0 0
224 0 0
225 0 0
232 0 0
226 0 0
228 0 0
224 0 0
226 0 0
228 0 0
227 0 0
225 0 0
227 0 0
229 0 0
231 0 0
226 0 0
229 0 0
226 0 0
226 0 0
228 0 0
229 0 0
223 0 0
226 0 0
225 0 0
227 0 0
229 0 0
227 0 0
228 0 0
229 0 0
222 0 0
231 0 0
230 0 0
226 0 0
227 0 0
225 0 0
228 0 0
229 0 0
227 0 0
232 0 0
228 0 0
228 0 0
225 0 0
230 0 0
227 0 0
227 0 0
227 0 0
229 0 0
227 0 0
229 0 0
226 0 0
228 0 0
228 0 0
229 0 0
231 0 0
226 0 0
228 0 0
229 0 0
228 0 0
231 0 0
228 0 0
225 0 0
228 0 0
224 0 0
227 0 0
227 0 0
223 0 0
228 0 0
226 0 0
229 0 0
229 0 0
227 0 0
229 0 0
228 0 0
226 0 0
227 0 0
227 0 0
230 0 0
227 0 0
230 0 0
226 0 0
227 0 0
226 0 0
227 0 0
226 0 0
232 0 0
226 0 0
230 0 0
229 0 0
0 0 255
0 0 255
0 0 255
0 0 255
0 0 255
0 0 255
0 0 255
0 0 255
0 0 255
0 0 255
0 0 255
0 0 255
0 0 255
0 0 255
0 0 255
0 0 254
0 0 255
0 0 255
0 0 254
0 0 254
0 0 255
0 0 255
0 0 254
0 0 255
0 0 254
0 0 255
0 0 252
0 0 255
0 0 255
0 0 255
0 0 254
0 0 255
0 0 255
0 0 254
0 0 255
0 0 248
0 0 255
0 0 253
0 0 255
0 0 255
0 0 254
0 0 255
0 0 254
0 0 252
0 0 255
0 0 252
0 0 253
0 0 254
0 0 254
0 0 255
0 0 255
0 0 254
0 0 254
0 0 254
0 0 254
0 0 255
0 0 255
0 0 255
0 0 252
0 0 253
0 0 253
0 0 252
0 0 252
0 0 253
0 0 253
0 0 253
0 0 253
0 0 253
0 0 254
0 0 254
0 0 253
0 0 253
0 0 252
0 0 255
0 0 255
0 0 254
0 0 249
0 0 254
0 0 255
0 0 253
0 0 254
0 0 254
0 0 250
0 0 249
0 0 254
0 0 253
0 0 250
0 0 254
0 0 252
0 0 253
0 0 250
0 0 253
0 0 252
0 0 255
0 0 249
0 0 248
0 0 254
0 0 252
0 0 252
0 0 249
0 0 255
0 0 254
0 0 252
0 0 249
0 0 252
0 0 250
0 0 248
0 0 252
0 0 245
0 0 253
0 0 250
0 0 248
0 0 246
0 0 248
0 0 246
0 0 248
0 0 249
0 0 246
0 0 252
0 0 241
0 0 248
0 0 249
0 0 241
0 0 246
0 0 250
0 0 250
0 0 244
0 0 242
0 0 248
0 0 245
0 0 244
0 0 241
0 0 246
0 0 245
0 0 246
0 0 241
0 0 249
0 0 244
0 0 237
0 0 245
0 0 241
0 0 242
0 0 244
0 0 245
0 0 245
0 0 242
0 0 242
0 0 246
0 0 242
0 0 246
0 0 238
0 0 244
0 0 241
0 0 246
0 0 241
0 0 240
0 0 244
0 0 242
0 0 241
0 0 245
0 0 240
0 0 241
0 0 240
0 0 233
0 0 241
0 0 237
0 0 231
157 161 242
238 245 255
239 246 255
239 246 255
239 246 255
239 246 255
239 246 255
239 246 255
239 246 255
239 246 255
239 246 255
239 246 255
239 246 255
239 246 255
239 246 255
239 246 255
239 246 255
239 246 255
239 246 255
239 246 255
239 246 255
239 246 255
239 246 255
240 246 255
240 246 255
240 246 255
240 246 255
240 246 255
240 246 255
240 246 255
240 246 255
240 246 255
240 246 255
240 246 255
240 246 255
240 246 255
240 246 255
240 246 255
240 246 255
240 246 255
240 246 255
240 246 255
240 246 255
240 246 255
239 246 255
239 246 255
239 246 255
239 246 255
239 246 255
239 246 255
239 246 255
239 246 255
239 246 255
239 246 255
239 246 255
239 246 255
239 246 255
239 246 255
239 246 255
239 246 255
239 246 255
239 246 255
239 246 255
239 246 255
239 245 254
231 132 137
226 0 0
230 0 0
222 0 0
226 0 0
212 0 0
222 0 0
227 0 0
222 0 0
225 0 0
224 0 0
227 0 0
225 0 0
225 0 0
221 0 0
230 0 0
220 0 0
217 0 0
217 0 0
216 0 0
219 0 0
215 0 0
216 0 0
225 0 0
222 0 0
222 0 0
222 0 0
223 0 0
223 0 0
218 0 0
221 0 0
217 0 0
231 0 0
227 0 0
230 0 0
226 0 0
221 0 0
223 0 0
224 0 0
225 0 0
223 0 0
225 0 0
232 0 0
223 0 0
226 0 0
227 0 0
227 0 0
230 0 0
227 0 0
226 0 0
226 0 0
226 0 0
225 0 0
220 0 0
228 0 0
226 0 0
224 0 0
229 0 0
225 0 0
231 0 0
231 0 0
226 0 0
223 0 0
227 0 0
231 0 0
225 0 0
226 0 0
230 0 0
225 0 0
230 0 0
226 0 0
229 0 0
229 0 0
222 0 0
228 0 0
227 0 0
226 0 0
226 0 0
223 0 0
222 0 0
231 0 0
227 0 0
224 0 0
225 0 0
229 0 0
227 0 0
226 0 0
221 0 0
228 0 0
227 0 0
224 0 0
228 0 0
229 0 0
227 0 0
229 0 0
232 0 0
229 0 0
223 0 0
225 0 0
225 0 0
229 0 0
227 0 0
227 0 0
229 0 0
229 0 0
229 0 0
228 0 0
230 0 0
231 0 0
227 0 0
226 0 0
226 0 0
228 0 0
221 0 0
230 0 0
224 0 0
226 0 0
231 0 0
230 0 0
228 0 0
224 0 0
227 0 0
229 0 0
229 0 0
230 0 0
230 0 0
229 0 0
230 0 0
230 0 0
228 0 0
228 0 0
228 0 0
228 0 0
228 0 0
230 0 0
227 0 0
226 0 0
227 0 0
225 0 0
226 0 0
230 0 0
231 0 0
230 0 0
229 0 0
225 0 0
229 0 0
230 0 0
227 0 0
225 0 0
228 0 0
231 0 0
229 0 0
227 0 0
230 0 0
227 0 0
229 0 0
229 0 0
231 0 0
230 0 0
227 0 0
229 0 0
229 0 0
226 0 0
227 0 0
228 0 0
226 0 0
226 0 0
226 0 0
0 0 255
0 0 255
0 0 255
0 0 255
0 0 255
0 0 254
0 0 255
0 0 255
0 0 255
0 0 255
0 0 255
0 0 254
0 0 255
0 0 255
0 0 254
0 0 255
0 0 255
0 0 255
0 0 253
0 0 254
0 0 254
0 0 255
0 0 254
0 0 253
0 0 255
0 0 255
0 0 255
0 0 254
0 0 254
0 0 253
0 0 254
0 0 255
0 0 255
0 0 254
0 0 255
0 0 255
0 0 255
0 0 253
0 0 255
0 0 253
0 0 255
0 0 255
0 0 252
0 0 255
0 0 255
0 0 254
0 0 255
0 0 253
0 0 254
0 0 255
0 0 255
0 0 255
0 0 255
0 0 252
0 0 255
0 0 255
0 0 254
0 0 253
0 0 253
0 0 254
0 0 255
0 0 254
0 0 255
0 0 255
0 0 253
0 0 253
0 0 255
0 0 254
0 0 254
0 0 250
0 0 253
0 0 255
0 0 255
0 0 252
0 0 252
0 0 252
0 0 250
0 0 254
0 0 253
0 0 254
0 0 255
0 0 253
0 0 250
0 0 252
0 0 250
0 0 255
0 0 254
0 0 252
0 0 253
0 0 250
0 0 250
0 0 255
0 0 253
0 0 254
0 0 248
0 0 255
0 0 252
0 0 254
0 0 253
0 0 248
0 0 253
0 0 253
0 0 253
0 0 250
0 0 252
0 0 252
0 0 249
0 0 255
0 0 248
0 0 246
0 0 250
0 0 253
0 0 246
0 0 246
0 0 248
0 0 249
0 0 248
0 0 253
0 0 245
0 0 249
0 0 252
0 0 246
0 0 248
0 0 246
0 0 250
0 0 252
0 0 246
0 0 246
0 0 244
0 0 245
0 0 245
0 0 246
0 0 246
0 0 244
0 0 242
0 0 249
0 0 245
0 0 244
0 0 245
0 0 245
0 0 238
0 0 245
0 0 242
0 0 241
0 0 246
0 0 245
0 0 246
0 0 249
0 0 242
0 0 246
0 0 241
0 0 238
0 0 242
0 0 242
0 0 244
0 0 234
0 0 248
0 0 237
0 0 240
0 0 242
0 0 237
0 0 245
0 0 237
0 0 230
0 0 246
0 0 246
160 165 245
239 246 255
239 246 255
239 246 255
239 246 255
239 246 255
239 246 255
239 246 255
239 246 255
239 246 255
239 246 255
239 246 255
240 246 255
240 246 255
240 246 255
240 246 255
240 246 255
240 246 255
240 246 255
240 246 255
240 246 255
240 246 255
240 246 255
240 246 255
240 246 255
240 246 255
240 246 255
240 246 255
240 246 255
240 246 255
240 246 255
240 246 255
240 246 255
240 246 255
240 246 255
240 246 255
240 246 255
240 246 255
240 246 255
240 246 255
240 246 255
240 246 255
240 246 255
240 246 255
240 246 255
240 246 255
240 246 255
240 246 255
240 246 255
240 246 255
240 246 255
240 246 255
240 246 255
240 246 255
240 246 255
240 246 255
239 246 255
239 246 255
239 246 255
239 246 255
239 246 255
239 246 255
239 246 255
239 246 255
239 246 255
239 246 255
239 246 255
227 165 171
226 0 0
221 0 0
227 0 0
221 0 0
229 0 0
223 0 0
225 0 0
226 0 0
221 0 0
227 0 0
222 0 0
219 0 0
221 0 0
223 0 0
215 0 0
230 0 0
216 0 0
229 0 0
221 0 0
221 0 0
222 0 0
220 0 0
223 0 0
223 0 0
226 0 0
225 0 0
227 0 0
223 0 0
231 0 0
225 0 0
225 0 0
223 0 0
224 0 0
225 0 0
223 0 0
221 0 0
227 0 0
230 0 0
218 0 0
224 0 0
222 0 0
228 0 0
233 0 0
222 0 0
225 0 0
227 0 0
226 0 0
230 0 0
226 0 0
223 0 0
223 0 0
224 0 0
224 0 0
228 0 0
225 0 0
228 0 0
222 0 0
220 0 0
223 0 0
225 0 0
229 0 0
225 0 0
226 0 0
231 0 0
227 0 0
227 0 0
226 0 0
228 0 0
226 0 0
227 0 0
229 0 0
232 0 0
227 0 0
231 0 0
226 0 0
225 0 0
227 0 0
228 0 0
226 0 0
226 0 0
227 0 0
225 0 0
226 0 0
225 0 0
230 0 0
226 0 0
228 0 0
223 0 0
229 0 0
231 0 0
229 0 0
228 0 0
229 0 0
228 0 0
227 0 0
226 0 0
225 0 0
228 0 0
225 0 0
230 0 0
226 0 0
230 0 0
227 0 0
227 0 0
227 0 0
227 0 0
226 0 0
227 0 0
227 0 0
226 0 0
224 0 0
229 0 0
228 0 0
230 0 0
227 0 0
227 0 0
227 0 0
226 0 0
228 0 0
228 0 0
227 0 0
229 0 0
225 0 0
225 0 0
230 0 0
225 0 0
230 0 0
228 0 0
228 0 0
228 0 0
223 0 0
228 0 0
227 0 0
226 0 0
227 0 0
228 0 0
227 0 0
226 0 0
227 0 0
225 0 0
228 0 0
229 0 0
228 0 0
227 0 0
228 0 0
229 0 0
225 0 0
228 0 0
230 0 0
228 0 0
231 0 0
230 0 0
223 0 0
230 0 0
227 0 0
230 0 0
227 0 0
227 0 0
226 0 0
227 0 0
229 0 0
229 0 0
228 0 0
229 0 0
228 0 0
229 0 0
0 0 254
0 0 255
0 0 255
0 0 255
0 0 255
0 0 255
0 0 255
0 0 255
0 0 255
0 0 255
0 0 255
0 0 255
0 0 254
0 0 255
0 0 255
0 0 255
0 0 253
0 0 255
0 0 255
0 0 255
0 0 254
0 0 255
0 0 254
0 0 255
0 0 255
0 0 255
0 0 255
0 0 255
0 0 254
0 0 255
0 0 255
0 0 254
0 0 255
0 0 250
0 0 255
0 0 253
0 0 255
0 0 254
0 0 254
0 0 254
0 0 253
0 0 255
0 0 252
0 0 254
0 0 255
0 0 254
0 0 254
0 0 255
0 0 254
0 0 255
0 0 255
0 0 255
0 0 255
0 0 254
0 0 255
0 0 255
0 0 254
0 0 255
0 0 254
0 0 254
0 0 254
0 0 250
0 0 253
0 0 250
0 0 253
0 0 253
0 0 255
0 0 253
0 0 254
0 0 253
0 0 254
0 0 255
0 0 250
0 0 248
0 0 254
0 0 253
0 0 254
0 0 249
0 0 252
0 0 249
0 0 250
0 0 252
0 0 249
0 0 249
0 0 248
0 0 246
0 0 254
0 0 250
0 0 254
0 0 253
0 0 254
0 0 254
0 0 250
0 0 252
0 0 252
0 0 254
0 0 252
0 0 252
0 0 252
0 0 250
0 0 250
0 0 253
0 0 253
0 0 254
0 0 242
0 0 248
0 0 252
0 0 253
0 0 252
0 0 246
0 0 253
0 0 252
0 0 245
0 0 252
0 0 248
0 0 252
0 0 252
0 0 250
0 0 249
0 0 252
0 0 246
0 0 253
0 0 244
0 0 248
0 0 252
0 0 250
0 0 249
0 0 244
0 0 249
0 0 245
0 0 245
0 0 248
0 0 248
0 0 249
0 0 249
0 0 246
0 0 244
0 0 240
0 0 245
0 0 244
0 0 248
0 0 248
0 0 245
0 0 242
0 0 240
0 0 240
0 0 244
0 0 248
0 0 245
0 0 241
0 0 234
0 0 246
0 0 246
0 0 248
0 0 244
0 0 237
0 0 246
0 0 242
0 0 242
0 0 233
0 0 240
0 0 237
0 0 242
0 0 249
0 0 244
167 172 248
239 246 255
239 246 255
239 246 255
239 246 255
240 246 255
240 246 255
240 246 255
240 246 255
240 246 255
240 246 255
240 246 255
240 246 255
240 246 255
240 246 255
240 246 255
240 246 255
240 246 255
240 246 255
240 246 255
240 246 255
240 246 255
240 246 255
240 246 255
240 246 255
240 246 255
240 246 255
240 246 255
240 246 255
240 246 255
240 246 255
240 246 255
240 246 255
240 246 255
240 246 255
240 246 255
240 246 255
240 246 255
240 246 255
240 246 255
240 246 255
240 246 255
240 246 255
240 246 255
240 246 255
240 246 255
240 246 255
240 246 255
240 246 255
240 246 255
240 246 255
240 246 255
240 246 255
240 246 255
240 246 255
240 246 255
240 246 255
240 246 255
240 246 255
240 246 255
240 246 255
240 246 255
240 246 255
240 246 255
240 246 255
239 246 255
239 246 255
239 246 255
239 246 255
231 187 194
226 0 0
218 0 0
227 0 0
223 0 0
222 0 0
227 0 0
221 0 0
218 0 0
228 0 0
227 0 0
225 0 0
225 0 0
219 0 0
226 0 0
224 0 0
226 0 0
228 0 0
223 0 0
215 0 0
217 0 0
216 0 0
220 0 0
221 0 0
225 0 0
223 0 0
220 0 0
226 0 0
222 0 0
221 0 0
221 0 0
221 0 0
228 0 0
225 0 0
221 0 0
221 0 0
229 0 0
227 0 0
222 0 0
222 0 0
223 0 0
224 0 0
225 0 0
222 0 0
223 0 0
227 0 0
225 0 0
224 0 0
228 0 0
224 0 0
229 0 0
227 0 0
227 0 0
223 0 0
226 0 0
230 0 0
224 0 0
224 0 0
228 0 0
226 0 0
226 0 0
228 0 0
227 0 0
230 0 0
229 0 0
230 0 0
231 0 0
231 0 0
228 0 0
224 0 0
232 0 0
226 0 0
226 0 0
228 0 0
229 0 0
229 0 0
225 0 0
227 0 0
228 0 0
226 0 0
229 0 0
226 0 0
232 0 0
228 0 0
227 0 0
224 0 0
228 0 0
228 0 0
225 0 0
223 0 0
232 0 0
228 0 0
231 0 0
226 0 0
225 0 0
232 0 0
224 0 0
226 0 0
227 0 0
229 0 0
229 0 0
221 0 0
227 0 0
225 0 0
229 0 0
230 0 0
226 0 0
228 0 0
228 0 0
228 0 0
226 0 0
230 0 0
227 0 0
224 0 0
228 0 0
225 0 0
227 0 0
229 0 0
230 0 0
228 0 0
230 0 0
227 0 0
227 0 0
230 0 0
232 0 0
229 0 0
230 0 0
228 0 0
230 0 0
226 0 0
227 0 0
227 0 0
228 0 0
230 0 0
231 0 0
227 0 0
230 0 0
230 0 0
232 0 0
229 0 0
227 0 0
227 0 0
230 0 0
227 0 0
226 0 0
230 0 0
227 0 0
228 0 0
227 0 0
229 0 0
228 0 0
229 0 0
230 0 0
226 0 0
229 0 0
227 0 0
227 0 0
226 0 0
226 0 0
229 0 0
227 0 0
227 0 0
231 0 0
227 0 0
229 0 0
230 0 0
0 0 255
0 0 255
0 0 255
0 0 255
0 0 255
0 0 255
0 0 255
0 0 254
0 0 255
0 0 255
0 0 255
0 0 254
0 0 255
0 0 254
0 0 254
0 0 255
0 0 255
0 0 255
0 0 255
0 0 255
0 0 254
0 0 254
0 0 254
0 0 255
0 0 255
0 0 255
0 0 254
0 0 253
0 0 254
0 0 255
0 0 255
0 0 254
0 0 254
0 0 254
0 0 254
0 0 255
0 0 254
0 0 254
0 0 254
0 0 255
0 0 254
0 0 254
0 0 254
0 0 255
0 0 255
0 0 255
0 0 255
0 0 255
0 0 254
0 0 254
0 0 254
0 0 254
0 0 252
0 0 253
0 0 254
0 0 255
0 0 255
0 0 254
0 0 254
0 0 250
0 0 254
0 0 253
0 0 254
0 0 254
0 0 254
0 0 254
0 0 254
0 0 254
0 0 254
0 0 254
0 0 253
0 0 254
0 0 254
0 0 249
0 0 254
0 0 249
0 0 253
0 0 254
0 0 253
0 0 254
0 0 253
0 0 254
0 0 254
0 0 254
0 0 254
0 0 254
0 0 255
0 0 253
0 0 253
0 0 252
0 0 252
0 0 253
0 0 253
0 0 253
0 0 248
0 0 254
0 0 250
0 0 250
0 0 252
0 0 253
0 0 252
0 0 250
0 0 250
0 0 248
0 0 253
0 0 252
0 0 252
0 0 254
0 0 252
0 0 252
0 0 252
0 0 254
0 0 254
0 0 250
0 0 249
0 0 249
0 0 249
0 0 245
0 0 253
0 0 248
0 0 241
0 0 253
0 0 248
0 0 252
0 0 246
0 0 250
0 0 246
0 0 249
0 0 244
0 0 245
0 0 252
0 0 250
0 0 249
0 0 252
0 0 249
0 0 249
0 0 246
0 0 248
0 0 244
0 0 248
0 0 246
0 0 250
0 0 242
0 0 245
0 0 245
0 0 248
0 0 236
0 0 237
0 0 246
0 0 242
0 0 242
0 0 241
0 0 242
0 0 245
0 0 230
0 0 249
0 0 234
0 0 244
0 0 236
0 0 246
0 0 237
0 0 240
0 0 238
41 42 242
194 200 253
240 246 255
240 246 255
240 246 255
240 246 255
240 246 255
240 246 255
240 246 255
240 246 255
240 246 255
240 246 255
240 246 255
240 246 255
240 246 255
240 246 255
240 246 255
240 246 255
240 246 255
240 246 255
240 246 255
240 246 255
240 246 255
240 246 255
240 246 255
240 246 255
240 246 255
240 246 255
240 246 255
240 246 255
240 246 255
240 246 255
240 246 255
240 246 255
240 246 255
240 246 255
240 246 255
240 246 255
240 246 255
240 246 255
240 246 255
240 246 255
240 246 255
240 246 255
240 246 255
240 246 255
240 246 255
240 246 255
240 246 255
240 246 255
240 246 255
240 246 255
240 246 255
240 246 255
240 246 255
240 246 255
240 246 255
240 246 255
240 246 255
240 246 255
240 246 255
240 246 255
240 246 255
240 246 255
240 246 255
240 246 255
240 246 255
240 246 255
240 246 255
240 246 255
240 246 255
240 246 255
238 198 206
226 34 36
224 0 0
221 0 0
232 0 0
221 0 0
227 0 0
228 0 0
223 0 0
222 0 0
223 0 0
223 0 0
229 0 0
225 0 0
219 0 0
221 0 0
216 0 0
216 0 0
222 0 0
218 0 0
231 0 0
224 0 0
223 0 0
223 0 0
223 0 0
224 0 0
224 0 0
215 0 0
230 0 0
221 0 0
225 0 0
225 0 0
224 0 0
224 0 0
227 0 0
225 0 0
227 0 0
223 0 0
228 0 0
225 0 0
228 0 0
231 0 0
228 0 0
225 0 0
222 0 0
233 0 0
233 0 0
221 0 0
226 0 0
220 0 0
223 0 0
226 0 0
227 0 0
229 0 0
231 0 0
231 0 0
229 0 0
223 0 0
226 0 0
223 0 0
226 0 0
228 0 0
226 0 0
227 0 0
227 0 0
228 0 0
221 0 0
231 0 0
227 0 0
223 0 0
230 0 0
229 0 0
231 0 0
229 0 0
230 0 0
232 0 0
229 0 0
226 0 0
230 0 0
224 0 0
227 0 0
229 0 0
224 0 0
230 0 0
225 0 0
231 0 0
227 0 0
222 0 0
219 0 0
229 0 0
230 0 0
225 0 0
230 0 0
226 0 0
229 0 0
229 0 0
228 0 0
226 0 0
226 0 0
228 0 0
229 0 0
227 0 0
231 0 0
231 0 0
228 0 0
231 0 0
227 0 0
230 0 0
225 0 0
229 0 0
227 0 0
229 0 0
228 0 0
227 0 0
226 0 0
226 0 0
227 0 0
229 0 0
224 0 0
227 0 0
228 0 0
225 0 0
226 0 0
225 0 0
228 0 0
226 0 0
229 0 0
228 0 0
227 0 0
232 0 0
230 0 0
227 0 0
226 0 0
227 0 0
226 0 0
228 0 0
228 0 0
229 0 0
229 0 0
229 0 0
228 0 0
230 0 0
229 0 0
229 0 0
227 0 0
230 0 0
225 0 0
230 0 0
229 0 0
223 0 0
228 0 0
228 0 0
226 0 0
226 0 0
228 0 0
230 0 0
229 0 0
231 0 0
229 0 0
227 0 0
230 0 0
226 0 0
229 0 0
227 0 0
230 0 0
0 0 255
0 0 255
0 0 255
0 0 255
0 0 255
0 0 255
0 0 255
0 0 255
0 0 255
0 0 254
0 0 254
0 0 255
0 0 255
0 0 254
0 0 255
0 0 255
0 0 254
0 0 255
0 0 255
0 0 255
0 0 255
0 0 255
0 0 255
0 0 254
0 0 255
0 0 255
0 0 253
0 0 254
0 0 255
0 0 253
0 0 254
0 0 254
0 0 252
0 0 254
0 0 255
0 0 255
0 0 253
0 0 255
0 0 254
0 0 254
0 0 253
0 0 253
0 0 253
0 0 254
0 0 254
0 0 254
0 0 255
0 0 252
0 0 255
0 0 254
0 0 253
0 0 254
0 0 253
0 0 253
0 0 254
0 0 254
0 0 255
0 0 255
0 0 255
0 0 254
0 0 254
0 0 254
0 0 253
0 0 253
0 0 254
0 0 252
0 0 253
0 0 254
0 0 253
0 0 254
0 0 254
0 0 248
0 0 253
0 0 253
0 0 254
0 0 254
0 0 255
0 0 253
0 0 252
0 0 253
0 0 250
0 0 254
0 0 254
0 0 253
0 0 253
0 0 250
0 0 252
0 0 253
0 0 250
0 0 250
0 0 252
0 0 250
0 0 249
0 0 254
0 0 253
0 0 253
0 0 246
0 0 252
0 0 249
0 0 249
0 0 253
0 0 252
0 0 254
0 0 250
0 0 248
0 0 253
0 0 250
0 0 254
0 0 246
0 0 252
0 0 254
0 0 249
0 0 250
0 0 249
0 0 253
0 0 254
0 0 250
0 0 249
0 0 252
0 0 248
0 0 249
0 0 245
0 0 252
0 0 244
0 0 246
0 0 252
0 0 246
0 0 248
0 0 252
0 0 249
0 0 250
0 0 238
0 0 246
0 0 244
0 0 244
0 0 248
0 0 250
0 0 237
0 0 236
0 0 250
0 0 246
0 0 246
0 0 249
0 0 245
0 0 241
0 0 245
0 0 245
0 0 241
0 0 245
0 0 244
0 0 237
0 0 248
0 0 245
0 0 228
0 0 237
0 0 237
0 0 240
0 0 238
0 0 241
0 0 242
0 0 242
0 0 236
67 69 237
207 213 255
240 246 255
240 246 255
240 246 255
240 246 255
240 246 255
240 246 255
240 246 255
240 246 255
240 246 255
240 246 255
240 246 255
240 246 255
240 246 255
240 246 255
240 246 255
240 246 255
240 246 255
240 246 255
240 246 255
240 246 255
240 246 255
240 246 255
240 246 255
240 246 255
240 246 255
240 246 255
240 246 255
240 246 255
240 246 255
240 246 255
240 246 255
240 246 255
240 246 255
240 246 255
240 246 255
240 246 255
240 246 255
240 246 255
240 246 255
240 246 255
240 246 255
240 246 255
240 246 255
240 246 255
240 246 255
240 246 255
240 246 255
240 246 255
240 246 255
240 246 255
240 246 255
240 246 255
240 246 255
240 246 255
240 246 255
240 246 255
240 246 255
240 246 255
240 246 255
240 246 255
240 246 255
240 246 255
240 246 255
240 246 255
240 246 255
240 246 255
240 246 255
240 246 255
240 246 255
240 246 255
240 246 255
240 246 255
240 230 238
224 81 84
231 0 0
223 0 0
225 0 0
227 0 0
220 0 0
219 0 0
225 0 0
229 0 0
221 0 0
222 0 0
227 0 0
233 0 0
230 0 0
223 0 0
225 0 0
224 0 0
229 0 0
219 0 0
223 0 0
229 0 0
227 0 0
229 0 0
230 0 0
218 0 0
227 0 0
227 0 0
222 0 0
228 0 0
223 0 0
229 0 0
220 0 0
217 0 0
226 0 0
225 0 0
226 0 0
227 0 0
225 0 0
229 0 0
221 0 0
231 0 0
226 0 0
227 0 0
228 0 0
224 0 0
226 0 0
229 0 0
229 0 0
229 0 0
223 0 0
228 0 0
227 0 0
232 0 0
226 0 0
224 0 0
229 0 0
228 0 0
226 0 0
235 0 0
225 0 0
226 0 0
231 0 0
231 0 0
225 0 0
229 0 0
224 0 0
230 0 0
227 0 0
227 0 0
226 0 0
230 0 0
231 0 0
228 0 0
232 0 0
223 0 0
227 0 0
226 0 0
229 0 0
227 0 0
226 0 0
228 0 0
228 0 0
223 0 0
232 0 0
227 0 0
227 0 0
229 0 0
228 0 0
229 0 0
228 0 0
228 0 0
230 0 0
229 0 0
230 0 0
225 0 0
224 0 0
229 0 0
228 0 0
231 0 0
227 0 0
227 0 0
226 0 0
228 0 0
229 0 0
228 0 0
225 0 0
227 0 0
230 0 0
232 0 0
230 0 0
227 0 0
232 0 0
228 0 0
225 0 0
227 0 0
230 0 0
229 0 0
227 0 0
227 0 0
229 0 0
227 0 0
227 0 0
227 0 0
227 0 0
232 0 0
226 0 0
230 0 0
230 0 0
229 0 0
227 0 0
230 0 0
227 0 0
227 0 0
228 0 0
228 0 0
225 0 0
224 0 0
228 0 0
229 0 0
228 0 0
227 0 0
231 0 0
223 0 0
230 0 0
231 0 0
228 0 0
227 0 0
227 0 0
227 0 0
228 0 0
230 0 0
230 0 0
230 0 0
232 0 0
226 0 0
227 0 0
229 0 0
231 0 0
227 0 0
230 0 0
230 0 0
227 0 0
227 0 0
0 0 255
0 0 255
0 0 254
0 0 255
0 0 255
0 0 255
0 0 255
0 0 254
0 0 255
0 0 255
0 0 255
0 0 255
0 0 255
0 0 255
0 0 255
0 0 255
0 0 255
0 0 255
0 0 254
0 0 254
0 0 254
0 0 254
0 0 255
0 0 255
0 0 255
0 0 255
0 0 255
0 0 253
0 0 255
0 0 255
0 0 254
0 0 254
0 0 255
0 0 254
0 0 253
0 0 255
0 0 255
0 0 254
0 0 254
0 0 255
0 0 254
0 0 255
0 0 255
0 0 254
0 0 250
0 0 255
0 0 255
0 0 255
0 0 252
0 0 255
0 0 255
0 0 255
0 0 254
0 0 254
0 0 255
0 0 254
0 0 253
0 0 253
0 0 253
0 0 254
0 0 255
0 0 253
0 0 255
0 0 253
0 0 254
0 0 253
0 0 255
0 0 253
0 0 255
0 0 253
0 0 255
0 0 254
0 0 250
0 0 253
0 0 254
0 0 255
0 0 253
0 0 253
0 0 250
0 0 250
0 0 255
0 0 253
0 0 255
0 0 250
0 0 252
0 0 252
0 0 253
0 0 250
0 0 252
0 0 252
0 0 253
0 0 253
0 0 252
0 0 253
0 0 252
0 0 250
0 0 252
0 0 254
0 0 249
0 0 252
0 0 248
0 0 244
0 0 250
0 0 253
0 0 246
0 0 252
0 0 254
0 0 252
0 0 249
0 0 254
0 0 250
0 0 250
0 0 248
0 0 253
0 0 249
0 0 250
0 0 250
0 0 252
0 0 248
0 0 246
0 0 242
0 0 249
0 0 252
0 0 249
0 0 249
0 0 250
0 0 249
0 0 246
0 0 253
0 0 248
0 0 250
0 0 241
0 0 249
0 0 245
0 0 244
0 0 250
0 0 248
0 0 252
0 0 244
0 0 238
0 0 248
0 0 246
0 0 253
0 0 240
0 0 246
0 0 246
0 0 246
0 0 248
0 0 240
0 0 245
0 0 249
0 0 245
0 0 245
0 0 245
0 0 242
0 0 244
0 0 245
0 0 240
0 0 238
0 0 242
0 0 246
86 88 240
227 234 255
240 246 255
240 246 255
240 246 255
240 246 255
240 246 255
240 246 255
240 246 255
240 246 255
240 246 255
240 246 255
240 246 255
240 246 255
240 246 255
240 246 255
240 246 255
240 246 255
240 246 255
240 246 255
240 246 255
240 247 255
240 247 255
240 247 255
240 247 255
240 247 255
240 247 255
240 247 255
240 247 255
240 247 255
240 247 255
240 247 255
240 247 255
240 247 255
240 247 255
240 247 255
240 247 255
240 247 255
240 247 255
240 247 255
240 247 255
240 247 255
240 247 255
240 247 255
240 247 255
240 247 255
240 247 255
240 247 255
240 247 255
240 247 255
240 247 255
240 247 255
240 247 255
240 247 255
240 247 255
240 247 255
240 247 255
240 246 255
240 246 255
240 246 255
240 246 255
240 246 255
240 246 255
240 246 255
240 246 255
240 246 255
240 246 255
240 246 255
240 246 255
240 246 255
240 246 255
240 246 255
240 246 255
240 246 255
240 246 255
240 246 255
239 230 238
234 101 105
226 0 0
229 0 0
232 0 0
225 0 0
223 0 0
217 0 0
225 0 0
225 0 0
225 0 0
227 0 0
228 0 0
226 0 0
218 0 0
222 0 0
221 0 0
224 0 0
229 0 0
227 0 0
225 0 0
225 0 0
228 0 0
220 0 0
227 0 0
222 0 0
229 0 0
223 0 0
224 0 0
227 0 0
226 0 0
232 0 0
229 0 0
223 0 0
225 0 0
230 0 0
225 0 0
232 0 0
224 0 0
228 0 0
224 0 0
221 0 0
222 0 0
227 0 0
228 0 0
230 0 0
227 0 0
227 0 0
219 0 0
225 0 0
224 0 0
229 0 0
228 0 0
232 0 0
230 0 0
228 0 0
229 0 0
233 0 0
227 0 0
229 0 0
226 0 0
222 0 0
225 0 0
227 0 0
226 0 0
223 0 0
228 0 0
228 0 0
228 0 0
231 0 0
228 0 0
227 0 0
228 0 0
226 0 0
229 0 0
229 0 0
225 0 0
229 0 0
228 0 0
228 0 0
225 0 0
230 0 0
226 0 0
232 0 0
223 0 0
226 0 0
228 0 0
228 0 0
228 0 0
225 0 0
228 0 0
229 0 0
222 0 0
230 0 0
228 0 0
230 0 0
229 0 0
228 0 0
229 0 0
222 0 0
229 0 0
231 0 0
228 0 0
227 0 0
223 0 0
229 0 0
228 0 0
228 0 0
227 0 0
230 0 0
230 0 0
228 0 0
232 0 0
225 0 0
225 0 0
232 0 0
230 0 0
226 0 0
227 0 0
231 0 0
226 0 0
228 0 0
227 0 0
228 0 0
231 0 0
227 0 0
228 0 0
227 0 0
231 0 0
228 0 0
226 0 0
231 0 0
230 0 0
226 0 0
227 0 0
229 0 0
230 0 0
224 0 0
228 0 0
225 0 0
229 0 0
227 0 0
227 0 0
231 0 0
229 0 0
229 0 0
230 0 0
227 0 0
227 0 0
228 0 0
229 0 0
230 0 0
228 0 0
227 0 0
230 0 0
228 0 0
226 0 0
227 0 0
229 0 0
227 0 0
226 0 0
230 0 0
230 0 0
0 0 254
0 0 255
0 0 255
0 0 254
0 0 255
0 0 255
0 0 255
0 0 255
0 0 255
0 0 255
0 0 255
0 0 255
0 0 255
0 0 255
0 0 254
0 0 254
0 0 255
0 0 255
0 0 255
0 0 254
0 0 255
0 0 255
0 0 254
0 0 255
0 0 254
0 0 255
0 0 255
0 0 254
0 0 255
0 0 254
0 0 254
0 0 253
0 0 254
0 0 255
0 0 255
0 0 255
0 0 255
0 0 254
0 0 254
0 0 254
0 0 255
0 0 250
0 0 255
0 0 253
0 0 255
0 0 255
0 0 255
0 0 255
0 0 254
0 0 255
0 0 255
0 0 255
0 0 255
0 0 253
0 0 252
0 0 254
0 0 253
0 0 255
0 0 254
0 0 253
0 0 252
0 0 254
0 0 253
0 0 252
0 0 255
0 0 255
0 0 252
0 0 252
0 0 253
0 0 252
0 0 249
0 0 252
0 0 254
0 0 255
0 0 252
0 0 254
0 0 253
0 0 250
0 0 254
0 0 250
0 0 252
0 0 254
0 0 252
0 0 252
0 0 255
0 0 252
0 0 254
0 0 250
0 0 248
0 0 252
0 0 252
0 0 252
0 0 250
0 0 250
0 0 253
0 0 249
0 0 249
0 0 252
0 0 253
0 0 255
0 0 248
0 0 244
0 0 252
0 0 252
0 0 253
0 0 249
0 0 248
0 0 254
0 0 250
0 0 249
0 0 252
0 0 248
0 0 248
0 0 248
0 0 248
0 0 250
0 0 253
0 0 250
0 0 253
0 0 250
0 0 249
0 0 248
0 0 249
0 0 248
0 0 245
0 0 246
0 0 245
0 0 250
0 0 253
0 0 250
0 0 253
0 0 245
0 0 250
0 0 246
0 0 244
0 0 246
0 0 246
0 0 244
0 0 240
0 0 244
0 0 245
0 0 249
0 0 240
0 0 244
0 0 249
0 0 242
0 0 250
0 0 237
0 0 241
0 0 246
0 0 245
0 0 249
0 0 248
0 0 241
0 0 246
0 0 241
0 0 241
0 0 249
0 0 245
0 0 240
127 130 246
235 241 255
240 246 255
240 246 255
240 246 255
240 246 255
240 246 255
240 246 255
240 246 255
240 246 255
240 246 255
240 246 255
240 246 255
240 246 255
240 247 255
240 247 255
240 247 255
240 247 255
240 247 255
240 247 255
240 247 255
240 247 255
241 247 255
241 247 255
241 247 255
241 247 255
241 247 255
241 247 255
241 247 255
241 247 255
241 247 255
241 247 255
241 247 255
241 247 255
241 247 255
241 247 255
241 247 255
241 247 255
241 247 255
241 247 255
241 247 255
241 247 255
241 247 255
241 247 255
241 247 255
241 247 255
241 247 255
241 247 255
241 247 255
241 247 255
241 247 255
241 247 255
241 247 255
241 247 255
241 247 255
241 247 255
241 247 255
240 247 255
240 247 255
240 247 255
240 247 255
240 247 255
240 247 255
240 247 255
240 247 255
240 247 255
240 246 255
240 246 255
240 246 255
240 246 255
240 246 255
240 246 255
240 246 255
240 246 255
240 246 255
240 246 255
240 246 255
240 246 255
240 241 250
233 169 175
232 0 0
219 0 0
227 0 0
221 0 0
226 0 0
229 0 0
227 0 0
222 0 0
233 0 0
226 0 0
226 0 0
224 0 0
223 0 0
230 0 0
230 0 0
227 0 0
230 0 0
225 0 0
229 0 0
229 0 0
223 0 0
220 0 0
223 0 0
231 0 0
232 0 0
227 0 0
227 0 0
223 0 0
223 0 0
225 0 0
221 0 0
227 0 0
225 0 0
225 0 0
227 0 0
230 0 0
229 0 0
228 0 0
222 0 0
222 0 0
227 0 0
226 0 0
226 0 0
230 0 0
229 0 0
232 0 0
221 0 0
228 0 0
224 0 0
226 0 0
227 0 0
226 0 0
224 0 0
225 0 0
233 0 0
232 0 0
229 0 0
223 0 0
228 0 0
226 0 0
227 0 0
228 0 0
227 0 0
227 0 0
229 0 0
228 0 0
230 0 0
226 0 0
230 0 0
228 0 0
225 0 0
226 0 0
229 0 0
231 0 0
229 0 0
229 0 0
227 0 0
227 0 0
227 0 0
226 0 0
230 0 0
230 0 0
227 0 0
227 0 0
231 0 0
226 0 0
227 0 0
224 0 0
228 0 0
221 0 0
231 0 0
228 0 0
227 0 0
227 0 0
232 0 0
231 0 0
225 0 0
225 0 0
228 0 0
227 0 0
230 0 0
228 0 0
225 0 0
229 0 0
232 0 0
229 0 0
227 0 0
225 0 0
229 0 0
227 0 0
230 0 0
225 0 0
230 0 0
228 0 0
230 0 0
230 0 0
230 0 0
226 0 0
229 0 0
233 0 0
231 0 0
226 0 0
225 0 0
227 0 0
229 0 0
228 0 0
231 0 0
227 0 0
225 0 0
228 0 0
229 0 0
231 0 0
229 0 0
229 0 0
227 0 0
227 0 0
229 0 0
227 0 0
230 0 0
229 0 0
228 0 0
227 0 0
229 0 0
229 0 0
233 0 0
229 0 0
226 0 0
229 0 0
227 0 0
233 0 0
228 0 0
225 0 0
227 0 0
229 0 0
232 0 0
229 0 0
228 0 0
228 0 0
227 0 0
228 0 0
0 0 254
0 0 254
0 0 254
0 0 255
0 0 255
0 0 255
0 0 255
0 0 255
0 0 255
0 0 255
0 0 254
0 0 255
0 0 255
0 0 255
0 0 255
0 0 255
0 0 253
0 0 254
0 0 254
0 0 255
0 0 255
0 0 255
0 0 255
0 0 255
0 0 255
0 0 254
0 0 254
0 0 255
0 0 254
0 0 255
0 0 255
0 0 255
0 0 255
0 0 253
0 0 255
0 0 255
0 0 255
0 0 255
0 0 255
0 0 254
0 0 255
0 0 253
0 0 254
0 0 254
0 0 253
0 0 254
0 0 254
0 0 253
0 0 255
0 0 253
0 0 254
0 0 250
0 0 254
0 0 250
0 0 254
0 0 252
0 0 254
0 0 255
0 0 255
0 0 253
0 0 254
0 0 253
0 0 254
0 0 254
0 0 253
0 0 254
0 0 252
0 0 254
0 0 253
0 0 254
0 0 255
0 0 253
0 0 253
0 0 253
0 0 253
0 0 255
0 0 250
0 0 253
0 0 252
0 0 255
0 0 250
0 0 252
0 0 254
0 0 249
0 0 254
0 0 252
0 0 253
0 0 255
0 0 253
0 0 250
0 0 253
0 0 254
0 0 253
0 0 254
0 0 252
0 0 254
0 0 249
0 0 252
0 0 248
0 0 248
0 0 252
0 0 250
0 0 250
0 0 252
0 0 249
0 0 254
0 0 254
0 0 245
0 0 252
0 0 254
0 0 248
0 0 249
0 0 248
0 0 253
0 0 248
0 0 254
0 0 252
0 0 252
0 0 250
0 0 250
0 0 252
0 0 248
0 0 246
0 0 248
0 0 252
0 0 252
0 0 249
0 0 248
0 0 249
0 0 250
0 0 252
0 0 249
0 0 249
0 0 250
0 0 240
0 0 250
0 0 246
0 0 252
0 0 249
0 0 245
0 0 250
0 0 245
0 0 242
0 0 245
0 0 236
0 0 240
0 0 245
0 0 244
0 0 252
0 0 245
0 0 246
0 0 250
0 0 242
0 0 241
0 0 246
0 0 245
0 0 246
0 0 241
41 42 249
186 191 252
240 246 255
240 246 255
240 246 255
240 246 255
240 246 255
240 246 255
240 246 255
240 246 255
240 247 255
240 247 255
240 247 255
240 247 255
240 247 255
240 247 255
241 247 255
241 247 255
241 247 255
241 247 255
241 247 255
241 247 255
241 247 255
241 247 255
241 247 255
241 247 255
241 247 255
241 247 255
241 247 255
241 247 255
241 247 255
241 247 255
241 247 255
241 247 255
241 247 255
241 247 255
241 247 255
241 247 255
241 247 255
241 247 255
241 247 255
241 247 255
241 247 255
241 247 255
241 247 255
241 247 255
241 247 255
241 247 255
241 247 255
241 247 255
241 247 255
241 247 255
241 247 255
241 247 255
241 247 255
241 247 255
241 247 255
241 247 255
241 247 255
241 247 255
241 247 255
241 247 255
241 247 255
241 247 255
241 247 255
241 247 255
241 247 255
241 247 255
240 247 255
240 247 255
240 247 255
240 247 255
240 247 255
240 247 255
240 246 255
240 246 255
240 246 255
240 246 255
240 246 255
240 246 255
240 246 255
240 245 254
228 178 184
222 24 25
225 0 0
227 0 0
230 0 0
223 0 0
222 0 0
227 0 0
219 0 0
227 0 0
229 0 0
228 0 0
231 0 0
232 0 0
230 0 0
224 0 0
229 0 0
224 0 0
229 0 0
226 0 0
224 0 0
231 0 0
227 0 0
230 0 0
225 0 0
231 0 0
225 0 0
230 0 0
232 0 0
228 0 0
221 0 0
224 0 0
231 0 0
228 0 0
221 0 0
229 0 0
220 0 0
228 0 0
229 0 0
228 0 0
227 0 0
227 0 0
225 0 0
226 0 0
231 0 0
227 0 0
222 0 0
228 0 0
223 0 0
230 0 0
222 0 0
226 0 0
224 0 0
231 0 0
224 0 0
224 0 0
225 0 0
231 0 0
228 0 0
228 0 0
230 0 0
229 0 0
224 0 0
224 0 0
226 0 0
227 0 0
230 0 0
232 0 0
230 0 0
231 0 0
232 0 0
231 0 0
231 0 0
233 0 0
228 0 0
228 0 0
228 0 0
226 0 0
223 0 0
228 0 0
226 0 0
232 0 0
226 0 0
229 0 0
223 0 0
227 0 0
226 0 0
228 0 0
229 0 0
230 0 0
233 0 0
231 0 0
228 0 0
230 0 0
229 0 0
229 0 0
231 0 0
230 0 0
229 0 0
226 0 0
229 0 0
233 0 0
229 0 0
228 0 0
228 0 0
225 0 0
229 0 0
229 0 0
229 0 0
225 0 0
228 0 0
227 0 0
229 0 0
228 0 0
229 0 0
228 0 0
231 0 0
228 0 0
228 0 0
230 0 0
227 0 0
228 0 0
227 0 0
229 0 0
227 0 0
226 0 0
227 0 0
233 0 0
230 0 0
228 0 0
233 0 0
228 0 0
226 0 0
230 0 0
231 0 0
227 0 0
224 0 0
230 0 0
228 0 0
228 0 0
231 0 0
230 0 0
227 0 0
227 0 0
231 0 0
229 0 0
227 0 0
228 0 0
225 0 0
230 0 0
227 0 0
225 0 0
230 0 0
228 0 0
228 0 0
228 0 0
228 0 0
230 0 0
228 0 0
230 0 0
0 0 255
0 0 255
0 0 255
0 0 254
0 0 255
0 0 255
0 0 255
0 0 255
0 0 255
0 0 254
0 0 255
0 0 255
0 0 254
0 0 254
0 0 255
0 0 254
0 0 255
0 0 255
0 0 255
0 0 255
0 0 255
0 0 255
0 0 255
0 0 254
0 0 253
0 0 254
0 0 255
0 0 255
0 0 255
0 0 255
0 0 255
0 0 254
0 0 254
0 0 255
0 0 255
0 0 254
0 0 255
0 0 254
0 0 255
0 0 254
0 0 255
0 0 255
0 0 255
0 0 255
0 0 254
0 0 254
0 0 250
0 0 255
0 0 255
0 0 255
0 0 255
0 0 255
0 0 255
0 0 254
0 0 254
0 0 252
0 0 254
0 0 254
0 0 255
0 0 255
0 0 254
0 0 255
0 0 252
0 0 255
0 0 253
0 0 254
0 0 252
0 0 255
0 0 254
0 0 250
0 0 255
0 0 254
0 0 253
0 0 252
0 0 253
0 0 253
0 0 254
0 0 249
0 0 253
0 0 254
0 0 254
0 0 253
0 0 246
0 0 252
0 0 252
0 0 254
0 0 254
0 0 250
0 0 249
0 0 252
0 0 248
0 0 249
0 0 252
0 0 250
0 0 252
0 0 252
0 0 252
0 0 254
0 0 249
0 0 252
0 0 252
0 0 250
0 0 254
0 0 250
0 0 249
0 0 250
0 0 253
0 0 252
0 0 244
0 0 252
0 0 246
0 0 253
0 0 248
0 0 249
0 0 248
0 0 249
0 0 252
0 0 248
0 0 249
0 0 250
0 0 252
0 0 248
0 0 252
0 0 252
0 0 246
0 0 249
0 0 250
0 0 249
0 0 248
0 0 252
0 0 248
0 0 248
0 0 249
0 0 250
0 0 254
0 0 242
0 0 250
0 0 250
0 0 248
0 0 248
0 0 242
0 0 246
0 0 240
0 0 246
0 0 249
0 0 244
0 0 242
0 0 248
0 0 240
0 0 248
0 0 245
0 0 248
0 0 245
0 0 244
0 0 244
0 0 248
0 0 249
79 81 248
198 203 252
240 246 255
240 246 255
240 246 255
240 247 255
240 247 255
240 247 255
240 247 255
240 247 255
240 247 255
241 247 255
241 247 255
241 247 255
241 247 255
241 247 255
241 247 255
241 247 255
241 247 255
241 247 255
241 247 255
241 247 255
241 247 255
241 247 255
241 247 255
241 247 255
241 247 255
241 247 255
241 247 255
241 247 255
241 247 255
241 247 255
241 247 255
241 247 255
241 247 255
241 247 255
241 247 255
241 247 255
241 247 255
241 247 255
241 247 255
241 247 255
241 247 255
241 247 255
241 247 255
241 247 255
241 247 255
241 247 255
241 247 255
241 247 255
241 247 255
241 247 255
241 247 255
241 247 255
241 247 255
241 247 255
241 247 255
241 247 255
241 247 255
241 247 255
241 247 255
241 247 255
241 247 255
241 247 255
241 247 255
241 247 255
241 247 255
241 247 255
241 247 255
241 247 255
241 247 255
241 247 255
241 247 255
241 247 255
241 247 255
240 247 255
240 247 255
240 247 255
240 247 255
240 247 255
240 246 255
240 246 255
240 246 255
240 246 255
234 206 214
230 49 51
237 0 0
223 0 0
228 0 0
230 0 0
226 0 0
231 0 0
231 0 0
233 0 0
218 0 0
225 0 0
222 0 0
223 0 0
229 0 0
221 0 0
228 0 0
227 0 0
230 0 0
226 0 0
230 0 0
231 0 0
226 0 0
231 0 0
226 0 0
230 0 0
218 0 0
224 0 0
225 0 0
227 0 0
225 0 0
227 0 0
230 0 0
229 0 0
225 0 0
223 0 0
225 0 0
230 0 0
223 0 0
230 0 0
226 0 0
229 0 0
225 0 0
226 0 0
228 0 0
225 0 0
226 0 0
229 0 0
231 0 0
228 0 0
229 0 0
232 0 0
230 0 0
227 0 0
223 0 0
227 0 0
227 0 0
230 0 0
222 0 0
228 0 0
229 0 0
226 0 0
228 0 0
232 0 0
228 0 0
228 0 0
229 0 0
230 0 0
231 0 0
226 0 0
227 0 0
227 0 0
230 0 0
231 0 0
229 0 0
229 0 0
228 0 0
231 0 0
232 0 0
227 0 0
228 0 0
231 0 0
230 0 0
228 0 0
229 0 0
229 0 0
229 0 0
223 0 0
233 0 0
229 0 0
228 0 0
231 0 0
232 0 0
228 0 0
231 0 0
229 0 0
230 0 0
228 0 0
229 0 0
233 0 0
227 0 0
229 0 0
229 0 0
229 0 0
227 0 0
229 0 0
232 0 0
229 0 0
230 0 0
227 0 0
232 0 0
229 0 0
231 0 0
229 0 0
229 0 0
229 0 0
226 0 0
228 0 0
232 0 0
231 0 0
229 0 0
228 0 0
230 0 0
229 0 0
229 0 0
227 0 0
228 0 0
229 0 0
231 0 0
227 0 0
226 0 0
226 0 0
228 0 0
231 0 0
229 0 0
229 0 0
230 0 0
232 0 0
228 0 0
229 0 0
228 0 0
226 0 0
232 0 0
228 0 0
227 0 0
227 0 0
229 0 0
228 0 0
227 0 0
230 0 0
233 0 0
231 0 0
228 0 0
230 0 0
229 0 0
230 0 0
228 0 0
230 0 0
228 0 0
0 0 255
0 0 255
0 0 255
0 0 254
0 0 255
0 0 255
0 0 255
0 0 255
0 0 254
0 0 254
0 0 255
0 0 253
0 0 255
0 0 255
0 0 255
0 0 255
0 0 255
0 0 255
0 0 255
0 0 254
0 0 255
0 0 255
0 0 255
0 0 255
0 0 254
0 0 255
0 0 254
0 0 255
0 0 255
0 0 255
0 0 253
0 0 254
0 0 253
0 0 255
0 0 254
0 0 254
0 0 255
0 0 253
0 0 253
0 0 255
0 0 254
0 0 253
0 0 255
0 0 254
0 0 255
0 0 254
0 0 255
0 0 255
0 0 255
0 0 254
0 0 254
0 0 254
0 0 255
0 0 253
0 0 254
0 0 250
0 0 254
0 0 253
0 0 253
0 0 254
0 0 254
0 0 253
0 0 254
0 0 254
0 0 253
0 0 253
0 0 253
0 0 250
0 0 253
0 0 253
0 0 252
0 0 255
0 0 254
0 0 254
0 0 253
0 0 254
0 0 253
0 0 255
0 0 254
0 0 252
0 0 250
0 0 250
0 0 254
0 0 254
0 0 253
0 0 254
0 0 250
0 0 249
0 0 253
0 0 250
0 0 252
0 0 250
0 0 252
0 0 253
0 0 252
0 0 252
0 0 253
0 0 254
0 0 248
0 0 250
0 0 250
0 0 254
0 0 255
0 0 254
0 0 253
0 0 252
0 0 253
0 0 252
0 0 250
0 0 252
0 0 254
0 0 250
0 0 246
0 0 254
0 0 249
0 0 253
0 0 250
0 0 252
0 0 253
0 0 252
0 0 248
0 0 249
0 0 249
0 0 246
0 0 250
0 0 245
0 0 249
0 0 250
0 0 248
0 0 250
0 0 246
0 0 249
0 0 250
0 0 249
0 0 248
0 0 242
0 0 246
0 0 249
0 0 240
0 0 241
0 0 248
0 0 241
0 0 248
0 0 242
0 0 249
0 0 241
0 0 237
0 0 242
0 0 246
0 0 244
0 0 245
0 0 248
0 0 246
0 0 241
0 0 249
0 0 238
102 104 253
220 226 255
240 247 255
240 247 255
240 247 255
240 247 255
240 247 255
241 247 255
241 247 255
241 247 255
241 247 255
241 247 255
241 247 255
241 247 255
241 247 255
241 247 255
241 247 255
241 247 255
241 247 255
241 247 255
241 247 255
241 247 255
241 247 255
241 247 255
241 247 255
241 247 255
241 247 255
241 247 255
241 247 255
241 247 255
241 247 255
241 247 255
241 247 255
241 247 255
241 247 255
241 247 255
241 247 255
241 247 255
241 247 255
241 247 255
241 247 255
241 247 255
241 247 255
241 247 255
241 247 255
241 247 255
241 247 255
241 247 255
241 247 255
241 247 255
241 247 255
241 247 255
241 247 255
241 247 255
241 247 255
241 247 255
241 247 255
241 247 255
241 247 255
241 247 255
241 247 255
241 247 255
241 247 255
241 247 255
241 247 255
241 247 255
241 247 255
241 247 255
241 247 255
241 247 255
241 247 255
241 247 255
241 247 255
241 247 255
241 247 255
241 247 255
241 247 255
241 247 255
241 247 255
241 247 255
241 247 255
240 247 255
240 247 255
240 247 255
240 247 255
240 247 255
241 234 242
235 95 99
230 0 0
223 0 0
233 0 0
228 0 0
228 0 0
231 0 0
224 0 0
222 0 0
227 0 0
231 0 0
221 0 0
226 0 0
234 0 0
232 0 0
227 0 0
223 0 0
225 0 0
228 0 0
226 0 0
232 0 0
230 0 0
230 0 0
231 0 0
225 0 0
231 0 0
220 0 0
227 0 0
230 0 0
229 0 0
229 0 0
229 0 0
225 0 0
230 0 0
231 0 0
230 0 0
228 0 0
225 0 0
228 0 0
227 0 0
226 0 0
229 0 0
228 0 0
226 0 0
233 0 0
225 0 0
231 0 0
228 0 0
229 0 0
226 0 0
228 0 0
227 0 0
228 0 0
224 0 0
228 0 0
225 0 0
229 0 0
226 0 0
227 0 0
230 0 0
232 0 0
230 0 0
225 0 0
226 0 0
229 0 0
230 0 0
222 0 0
233 0 0
230 0 0
227 0 0
231 0 0
229 0 0
227 0 0
228 0 0
229 0 0
223 0 0
227 0 0
228 0 0
229 0 0
229 0 0
231 0 0
230 0 0
229 0 0
227 0 0
228 0 0
227 0 0
227 0 0
229 0 0
229 0 0
232 0 0
230 0 0
228 0 0
224 0 0
228 0 0
230 0 0
228 0 0
224 0 0
232 0 0
229 0 0
233 0 0
227 0 0
228 0 0
231 0 0
227 0 0
227 0 0
229 0 0
231 0 0
227 0 0
230 0 0
227 0 0
229 0 0
233 0 0
228 0 0
232 0 0
232 0 0
230 0 0
227 0 0
230 0 0
231 0 0
230 0 0
230 0 0
232 0 0
225 0 0
229 0 0
230 0 0
227 0 0
229 0 0
226 0 0
227 0 0
231 0 0
227 0 0
229 0 0
230 0 0
230 0 0
228 0 0
224 0 0
229 0 0
232 0 0
231 0 0
229 0 0
227 0 0
227 0 0
228 0 0
230 0 0
228 0 0
231 0 0
229 0 0
231 0 0
228 0 0
230 0 0
231 0 0
232 0 0
230 0 0
228 0 0
227 0 0
230 0 0
229 0 0
0 0 255
0 0 255
0 0 255
0 0 254
0 0 255
0 0 255
0 0 255
0 0 255
0 0 255
0 0 254
0 0 255
0 0 255
0 0 255
0 0 254
0 0 254
0 0 255
0 0 254
0 0 255
0 0 253
0 0 255
0 0 254
0 0 254
0 0 255
0 0 254
0 0 255
0 0 255
0 0 254
0 0 255
0 0 255
0 0 254
0 0 254
0 0 255
0 0 254
0 0 254
0 0 254
0 0 255
0 0 254
0 0 254
0 0 255
0 0 255
0 0 255
0 0 253
0 0 255
0 0 254
0 0 255
0 0 254
0 0 254
0 0 255
0 0 254
0 0 254
0 0 254
0 0 254
0 0 254
0 0 253
0 0 254
0 0 254
0 0 255
0 0 254
0 0 254
0 0 250
0 0 254
0 0 255
0 0 255
0 0 254
0 0 252
0 0 254
0 0 252
0 0 253
0 0 254
0 0 254
0 0 253
0 0 249
0 0 253
0 0 255
0 0 249
0 0 252
0 0 252
0 0 255
0 0 253
0 0 254
0 0 250
0 0 254
0 0 254
0 0 254
0 0 255
0 0 255
0 0 253
0 0 252
0 0 254
0 0 254
0 0 253
0 0 252
0 0 252
0 0 252
0 0 254
0 0 253
0 0 253
0 0 252
0 0 252
0 0 250
0 0 252
0 0 253
0 0 253
0 0 252
0 0 252
0 0 252
0 0 246
0 0 252
0 0 246
0 0 250
0 0 250
0 0 248
0 0 250
0 0 250
0 0 249
0 0 248
0 0 248
0 0 244
0 0 249
0 0 245
0 0 250
0 0 250
0 0 246
0 0 253
0 0 249
0 0 248
0 0 253
0 0 252
0 0 248
0 0 250
0 0 250
0 0 248
0 0 245
0 0 245
0 0 244
0 0 245
0 0 248
0 0 245
0 0 250
0 0 244
0 0 233
0 0 250
0 0 245
0 0 246
0 0 252
0 0 246
0 0 248
0 0 242
0 0 246
0 0 248
0 0 244
0 0 245
0 0 242
0 0 244
0 0 237
159 163 253
236 242 254
240 247 255
241 247 255
241 247 255
241 247 255
241 247 255
241 247 255
241 247 255
241 247 255
241 247 255
241 247 255
241 247 255
241 247 255
241 247 255
241 247 255
241 247 255
241 247 255
241 247 255
241 247 255
241 247 255
241 247 255
241 247 255
241 247 255
241 247 255
241 247 255
241 247 255
241 247 255
241 247 255
241 247 255
241 247 255
241 247 255
241 247 255
241 247 255
241 247 255
241 247 255
241 247 255
241 247 255
241 247 255
241 247 255
241 247 255
241 247 255
241 247 255
241 247 255
241 247 255
241 247 255
241 247 255
241 247 255
241 247 255
241 247 255
241 247 255
241 247 255
241 247 255
241 247 255
241 247 255
241 247 255
241 247 255
241 247 255
241 247 255
241 247 255
241 247 255
241 247 255
241 247 255
241 247 255
241 247 255
241 247 255
241 247 255
241 247 255
241 247 255
241 247 255
241 247 255
241 247 255
241 247 255
241 247 255
241 247 255
241 247 255
241 247 255
241 247 255
241 247 255
241 247 255
241 247 255
241 247 255
241 247 255
241 247 255
241 247 255
241 247 255
241 247 255
240 247 255
240 247 255
238 174 181
237 0 0
235 0 0
229 0 0
228 0 0
228 0 0
226 0 0
225 0 0
230 0 0
230 0 0
224 0 0
224 0 0
221 0 0
223 0 0
227 0 0
226 0 0
223 0 0
226 0 0
225 0 0
229 0 0
222 0 0
223 0 0
229 0 0
226 0 0
228 0 0
225 0 0
233 0 0
226 0 0
228 0 0
224 0 0
224 0 0
227 0 0
229 0 0
227 0 0
229 0 0
231 0 0
226 0 0
229 0 0
230 0 0
228 0 0
230 0 0
221 0 0
225 0 0
227 0 0
227 0 0
228 0 0
225 0 0
229 0 0
231 0 0
228 0 0
232 0 0
232 0 0
227 0 0
229 0 0
228 0 0
230 0 0
234 0 0
222 0 0
225 0 0
222 0 0
227 0 0
230 0 0
231 0 0
227 0 0
234 0 0
226 0 0
226 0 0
229 0 0
231 0 0
226 0 0
229 0 0
231 0 0
230 0 0
230 0 0
229 0 0
229 0 0
229 0 0
227 0 0
227 0 0
229 0 0
225 0 0
228 0 0
227 0 0
231 0 0
231 0 0
226 0 0
223 0 0
232 0 0
228 0 0
226 0 0
230 0 0
229 0 0
230 0 0
229 0 0
228 0 0
230 0 0
228 0 0
228 0 0
228 0 0
234 0 0
230 0 0
231 0 0
230 0 0
231 0 0
229 0 0
230 0 0
228 0 0
230 0 0
228 0 0
229 0 0
230 0 0
226 0 0
230 0 0
227 0 0
227 0 0
231 0 0
229 0 0
228 0 0
229 0 0
229 0 0
228 0 0
231 0 0
227 0 0
230 0 0
232 0 0
231 0 0
228 0 0
230 0 0
229 0 0
232 0 0
229 0 0
231 0 0
231 0 0
230 0 0
231 0 0
231 0 0
229 0 0
233 0 0
226 0 0
228 0 0
228 0 0
225 0 0
227 0 0
229 0 0
231 0 0
232 0 0
231 0 0
227 0 0
230 0 0
234 0 0
229 0 0
231 0 0
230 0 0
230 0 0
231 0 0
231 0 0
0 0 254
0 0 255
0 0 253
0 0 255
0 0 255
0 0 255
0 0 253
0 0 255
0 0 255
0 0 255
0 0 255
0 0 255
0 0 255
0 0 255
0 0 255
0 0 255
0 0 254
0 0 252
0 0 255
0 0 254
0 0 255
0 0 255
0 0 255
0 0 255
0 0 254
0 0 255
0 0 254
0 0 255
0 0 254
0 0 255
0 0 255
0 0 255
0 0 255
0 0 255
0 0 255
0 0 255
0 0 254
0 0 253
0 0 255
0 0 253
0 0 255
0 0 254
0 0 254
0 0 254
0 0 252
0 0 254
0 0 255
0 0 253
0 0 255
0 0 253
0 0 255
0 0 254
0 0 254
0 0 254
0 0 254
0 0 255
0 0 255
0 0 255
0 0 255
0 0 253
0 0 254
0 0 253
0 0 254
0 0 254
0 0 254
0 0 254
0 0 249
0 0 255
0 0 255
0 0 253
0 0 254
0 0 253
0 0 253
0 0 253
0 0 253
0 0 254
0 0 255
0 0 255
0 0 255
0 0 254
0 0 252
0 0 250
0 0 250
0 0 253
0 0 254
0 0 253
0 0 254
0 0 250
0 0 254
0 0 254
0 0 253
0 0 254
0 0 253
0 0 250
0 0 249
0 0 246
0 0 252
0 0 255
0 0 253
0 0 252
0 0 250
0 0 248
0 0 254
0 0 253
0 0 246
0 0 249
0 0 250
0 0 252
0 0 246
0 0 254
0 0 249
0 0 249
0 0 250
0 0 245
0 0 245
0 0 250
0 0 249
0 0 250
0 0 248
0 0 252
0 0 242
0 0 253
0 0 245
0 0 249
0 0 249
0 0 250
0 0 250
0 0 246
0 0 252
0 0 249
0 0 248
0 0 245
0 0 250
0 0 249
0 0 248
0 0 248
0 0 250
0 0 245
0 0 252
0 0 245
0 0 252
0 0 248
0 0 246
0 0 248
0 0 246
0 0 244
0 0 246
0 0 245
0 0 240
0 0 244
0 0 242
0 0 246
0 0 248
76 78 244
200 205 255
241 247 255
241 247 255
241 247 255
241 247 255
241 247 255
241 247 255
241 247 255
241 247 255
241 247 255
241 247 255
241 247 255
241 247 255
241 247 255
241 247 255
241 247 255
241 247 255
241 247 255
241 247 255
241 247 255
241 247 255
241 247 255
241 247 255
241 247 255
241 247 255
241 247 255
241 247 255
241 247 255
241 247 255
241 247 255
241 247 255
241 247 255
241 247 255
241 247 255
241 247 255
241 247 255
241 247 255
241 247 255
241 247 255
241 247 255
241 247 255
241 247 255
242 247 255
242 247 255
242 247 255
242 247 255
242 247 255
242 247 255
242 247 255
242 247 255
241 247 255
241 247 255
241 247 255
241 247 255
241 247 255
241 247 255
241 247 255
241 247 255
241 247 255
241 247 255
241 247 255
241 247 255
241 247 255
241 247 255
241 247 255
241 247 255
241 247 255
241 247 255
241 247 255
241 247 255
241 247 255
241 247 255
241 247 255
241 247 255
241 247 255
241 247 255
241 247 255
241 247 255
241 247 255
241 247 255
241 247 255
241 247 255
241 247 255
241 247 255
241 247 255
241 247 255
241 247 255
241 247 255
241 247 255
241 247 255
241 247 255
241 212 220
229 81 84
217 0 0
230 0 0
230 0 0
227 0 0
227 0 0
227 0 0
228 0 0
227 0 0
230 0 0
234 0 0
230 0 0
229 0 0
232 0 0
225 0 0
226 0 0
226 0 0
230 0 0
230 0 0
228 0 0
229 0 0
232 0 0
230 0 0
222 0 0
230 0 0
227 0 0
225 0 0
230 0 0
229 0 0
227 0 0
227 0 0
231 0 0
228 0 0
229 0 0
229 0 0
223 0 0
226 0 0
226 0 0
227 0 0
230 0 0
232 0 0
230 0 0
224 0 0
229 0 0
230 0 0
230 0 0
229 0 0
230 0 0
231 0 0
230 0 0
230 0 0
234 0 0
229 0 0
230 0 0
233 0 0
231 0 0
230 0 0
234 0 0
227 0 0
230 0 0
232 0 0
232 0 0
228 0 0
229 0 0
230 0 0
230 0 0
231 0 0
227 0 0
231 0 0
227 0 0
228 0 0
230 0 0
231 0 0
229 0 0
228 0 0
231 0 0
231 0 0
228 0 0
230 0 0
229 0 0
229 0 0
232 0 0
230 0 0
229 0 0
230 0 0
231 0 0
231 0 0
228 0 0
228 0 0
232 0 0
230 0 0
228 0 0
229 0 0
231 0 0
229 0 0
229 0 0
232 0 0
228 0 0
232 0 0
229 0 0
228 0 0
233 0 0
228 0 0
230 0 0
230 0 0
229 0 0
227 0 0
231 0 0
228 0 0
232 0 0
225 0 0
227 0 0
231 0 0
228 0 0
229 0 0
234 0 0
231 0 0
227 0 0
228 0 0
229 0 0
227 0 0
229 0 0
228 0 0
227 0 0
225 0 0
232 0 0
231 0 0
231 0 0
233 0 0
230 0 0
228 0 0
233 0 0
230 0 0
230 0 0
230 0 0
229 0 0
229 0 0
229 0 0
228 0 0
231 0 0
232 0 0
230 0 0
229 0 0
231 0 0
227 0 0
230 0 0
226 0 0
230 0 0
228 0 0
228 0 0
230 0 0
228 0 0
229 0 0
230 0 0
0 0 255
0 0 255
0 0 255
0 0 255
0 0 255
0 0 255
0 0 255
0 0 255
0 0 255
0 0 255
0 0 255
0 0 255
0 0 255
0 0 255
0 0 255
0 0 255
0 0 255
0 0 255
0 0 254
0 0 255
0 0 255
0 0 255
0 0 255
0 0 254
0 0 252
0 0 255
0 0 255
0 0 255
0 0 255
0 0 255
0 0 255
0 0 253
0 0 255
0 0 254
0 0 253
0 0 254
0 0 255
0 0 255
0 0 255
0 0 254
0 0 255
0 0 253
0 0 255
0 0 255
0 0 255
0 0 252
0 0 254
0 0 254
0 0 254
0 0 255
0 0 255
0 0 254
0 0 255
0 0 254
0 0 254
0 0 253
0 0 254
0 0 253
0 0 253
0 0 253
0 0 255
0 0 255
0 0 250
0 0 255
0 0 253
0 0 252
0 0 254
0 0 253
0 0 254
0 0 250
0 0 254
0 0 253
0 0 253
0 0 252
0 0 253
0 0 253
0 0 253
0 0 255
0 0 254
0 0 249
0 0 250
0 0 253
0 0 252
0 0 253
0 0 253
0 0 254
0 0 252
0 0 254
0 0 253
0 0 249
0 0 254
0 0 253
0 0 254
0 0 254
0 0 252
0 0 253
0 0 252
0 0 253
0 0 250
0 0 249
0 0 253
0 0 255
0 0 253
0 0 253
0 0 250
0 0 248
0 0 253
0 0 253
0 0 254
0 0 252
0 0 250
0 0 252
0 0 250
0 0 253
0 0 252
0 0 253
0 0 248
0 0 254
0 0 246
0 0 249
0 0 241
0 0 248
0 0 244
0 0 250
0 0 249
0 0 248
0 0 245
0 0 253
0 0 252
0 0 249
0 0 252
0 0 245
0 0 252
0 0 246
0 0 244
0 0 250
0 0 246
0 0 244
0 0 246
0 0 246
0 0 245
0 0 248
0 0 249
0 0 249
0 0 241
0 0 249
0 0 250
0 0 249
0 0 244
0 0 250
0 0 242
0 0 249
132 135 249
224 230 255
241 247 255
241 247 255
241 247 255
241 247 255
241 247 255
241 247 255
241 247 255
241 247 255
241 247 255
241 247 255
241 247 255
241 247 255
241 247 255
241 247 255
241 247 255
241 247 255
241 247 255
241 247 255
241 247 255
241 247 255
241 247 255
241 247 255
241 247 255
241 247 255
241 247 255
241 247 255
241 247 255
241 247 255
242 247 255
242 247 255
242 247 255
242 247 255
242 247 255
242 247 255
242 247 255
242 247 255
242 247 255
242 247 255
242 247 255
242 247 255
242 247 255
242 247 255
242 247 255
242 247 255
242 247 255
242 247 255
242 247 255
242 247 255
242 247 255
242 247 255
242 247 255
242 247 255
242 247 255
242 247 255
242 247 255
242 247 255
242 247 255
242 247 255
242 247 255
242 247 255
242 247 255
242 247 255
242 247 255
242 247 255
241 247 255
241 247 255
241 247 255
241 247 255
241 247 255
241 247 255
241 247 255
241 247 255
241 247 255
241 247 255
241 247 255
241 247 255
241 247 255
241 247 255
241 247 255
241 247 255
241 247 255
241 247 255
241 247 255
241 247 255
241 247 255
241 247 255
241 247 255
241 247 255
241 247 255
241 247 255
241 247 255
241 247 255
239 239 248
240 144 149
230 0 0
228 0 0
227 0 0
230 0 0
224 0 0
229 0 0
233 0 0
229 0 0
230 0 0
230 0 0
224 0 0
221 0 0
225 0 0
232 0 0
227 0 0
228 0 0
227 0 0
233 0 0
233 0 0
227 0 0
221 0 0
228 0 0
229 0 0
229 0 0
233 0 0
230 0 0
231 0 0
229 0 0
230 0 0
233 0 0
230 0 0
233 0 0
231 0 0
234 0 0
231 0 0
224 0 0
231 0 0
229 0 0
229 0 0
230 0 0
232 0 0
229 0 0
227 0 0
230 0 0
228 0 0
229 0 0
229 0 0
228 0 0
231 0 0
233 0 0
230 0 0
234 0 0
230 0 0
228 0 0
228 0 0
226 0 0
229 0 0
226 0 0
230 0 0
229 0 0
229 0 0
232 0 0
232 0 0
229 0 0
229 0 0
226 0 0
228 0 0
231 0 0
230 0 0
230 0 0
231 0 0
229 0 0
231 0 0
230 0 0
230 0 0
230 0 0
230 0 0
229 0 0
234 0 0
232 0 0
227 0 0
230 0 0
231 0 0
230 0 0
230 0 0
228 0 0
230 0 0
229 0 0
235 0 0
227 0 0
231 0 0
235 0 0
229 0 0
231 0 0
227 0 0
228 0 0
232 0 0
230 0 0
229 0 0
229 0 0
227 0 0
229 0 0
229 0 0
229 0 0
230 0 0
232 0 0
234 0 0
227 0 0
229 0 0
228 0 0
233 0 0
229 0 0
230 0 0
231 0 0
229 0 0
232 0 0
228 0 0
230 0 0
233 0 0
231 0 0
230 0 0
232 0 0
231 0 0
227 0 0
228 0 0
232 0 0
227 0 0
229 0 0
227 0 0
228 0 0
232 0 0
230 0 0
233 0 0
231 0 0
228 0 0
228 0 0
231 0 0
228 0 0
228 0 0
231 0 0
230 0 0
229 0 0
232 0 0
229 0 0
229 0 0
228 0 0
231 0 0
226 0 0
229 0 0
227 0 0
229 0 0
230 0 0
0 0 255
0 0 255
0 0 255
0 0 255
0 0 255
0 0 255
0 0 255
0 0 255
0 0 254
0 0 255
0 0 255
0 0 255
0 0 255
0 0 255
0 0 253
0 0 255
0 0 254
0 0 255
0 0 255
0 0 254
0 0 255
0 0 254
0 0 255
0 0 255
0 0 255
0 0 255
0 0 255
0 0 254
0 0 255
0 0 255
0 0 255
0 0 254
0 0 254
0 0 255
0 0 255
0 0 254
0 0 255
0 0 255
0 0 255
0 0 255
0 0 253
0 0 255
0 0 255
0 0 255
0 0 254
0 0 254
0 0 254
0 0 252
0 0 255
0 0 254
0 0 254
0 0 254
0 0 254
0 0 255
0 0 254
0 0 254
0 0 254
0 0 254
0 0 254
0 0 254
0 0 254
0 0 253
0 0 254
0 0 252
0 0 254
0 0 254
0 0 250
0 0 255
0 0 254
0 0 253
0 0 253
0 0 253
0 0 255
0 0 254
0 0 252
0 0 254
0 0 253
0 0 253
0 0 255
0 0 254
0 0 254
0 0 255
0 0 253
0 0 255
0 0 253
0 0 252
0 0 253
0 0 252
0 0 254
0 0 253
0 0 249
0 0 250
0 0 255
0 0 254
0 0 250
0 0 250
0 0 248
0 0 249
0 0 249
0 0 254
0 0 250
0 0 249
0 0 248
0 0 250
0 0 250
0 0 250
0 0 250
0 0 252
0 0 249
0 0 250
0 0 250
0 0 252
0 0 254
0 0 253
0 0 253
0 0 254
0 0 252
0 0 249
0 0 252
0 0 248
0 0 246
0 0 250
0 0 250
0 0 249
0 0 246
0 0 249
0 0 248
0 0 246
0 0 250
0 0 250
0 0 249
0 0 249
0 0 250
0 0 244
0 0 253
0 0 250
0 0 248
0 0 248
0 0 245
0 0 249
0 0 250
0 0 250
0 0 241
0 0 244
0 0 248
0 0 238
0 0 240
0 0 246
0 0 252
0 0 244
63 65 250
183 188 253
241 247 255
241 247 255
241 247 255
241 247 255
241 247 255
241 247 255
241 247 255
241 247 255
241 247 255
241 247 255
241 247 255
241 247 255
241 247 255
241 247 255
241 247 255
241 247 255
241 247 255
241 247 255
241 247 255
241 247 255
241 247 255
241 247 255
241 247 255
242 247 255
242 247 255
242 247 255
242 247 255
242 247 255
242 247 255
242 247 255
242 247 255
242 247 255
242 247 255
242 247 255
242 247 255
242 247 255
242 247 255
242 247 255
242 247 255
242 247 255
242 247 255
242 247 255
242 247 255
242 247 255
242 247 255
242 247 255
242 247 255
242 247 255
242 247 255
242 247 255
242 247 255
242 247 255
242 247 255
242 247 255
242 247 255
242 247 255
242 247 255
242 247 255
242 247 255
242 247 255
242 247 255
242 247 255
242 247 255
242 247 255
242 247 255
242 247 255
242 247 255
242 247 255
242 247 255
242 247 255
242 247 255
242 247 255
242 247 255
242 247 255
241 247 255
241 247 255
241 247 255
241 247 255
241 247 255
241 247 255
241 247 255
241 247 255
241 247 255
241 247 255
241 247 255
241 247 255
241 247 255
241 247 255
241 247 255
241 247 255
241 247 255
241 247 255
241 247 255
241 247 255
241 247 255
241 247 255
240 181 188
234 55 57
233 0 0
223 0 0
234 0 0
235 0 0
227 0 0
232 0 0
229 0 0
231 0 0
230 0 0
231 0 0
228 0 0
229 0 0
230 0 0
232 0 0
223 0 0
227 0 0
230 0 0
229 0 0
234 0 0
228 0 0
230 0 0
229 0 0
231 0 0
231 0 0
224 0 0
229 0 0
227 0 0
234 0 0
229 0 0
232 0 0
235 0 0
229 0 0
228 0 0
226 0 0
226 0 0
229 0 0
229 0 0
230 0 0
228 0 0
230 0 0
231 0 0
225 0 0
227 0 0
233 0 0
222 0 0
225 0 0
227 0 0
229 0 0
231 0 0
225 0 0
222 0 0
232 0 0
231 0 0
225 0 0
233 0 0
232 0 0
231 0 0
232 0 0
230 0 0
230 0 0
233 0 0
225 0 0
227 0 0
231 0 0
232 0 0
233 0 0
227 0 0
229 0 0
229 0 0
228 0 0
230 0 0
229 0 0
231 0 0
226 0 0
233 0 0
233 0 0
226 0 0
230 0 0
229 0 0
229 0 0
226 0 0
227 0 0
230 0 0
227 0 0
231 0 0
231 0 0
232 0 0
229 0 0
232 0 0
227 0 0
231 0 0
230 0 0
229 0 0
226 0 0
228 0 0
228 0 0
231 0 0
231 0 0
230 0 0
230 0 0
226 0 0
226 0 0
230 0 0
230 0 0
230 0 0
228 0 0
234 0 0
227 0 0
232 0 0
231 0 0
230 0 0
227 0 0
228 0 0
228 0 0
230 0 0
228 0 0
228 0 0
229 0 0
232 0 0
229 0 0
230 0 0
228 0 0
230 0 0
229 0 0
229 0 0
229 0 0
227 0 0
228 0 0
230 0 0
232 0 0
231 0 0
231 0 0
231 0 0
230 0 0
232 0 0
231 0 0
231 0 0
231 0 0
228 0 0
227 0 0
230 0 0
231 0 0
229 0 0
229 0 0
228 0 0
227 0 0
230 0 0
229 0 0
228 0 0
235 0 0
0 0 255
0 0 255
0 0 255
0 0 255
0 0 255
0 0 255
0 0 255
0 0 255
0 0 254
0 0 255
0 0 255
0 0 255
0 0 255
0 0 255
0 0 255
0 0 255
0 0 255
0 0 254
0 0 255
0 0 254
0 0 255
0 0 255
0 0 254
0 0 255
0 0 255
0 0 255
0 0 255
0 0 255
0 0 255
0 0 254
0 0 255
0 0 255
0 0 255
0 0 254
0 0 254
0 0 255
0 0 254
0 0 254
0 0 255
0 0 255
0 0 255
0 0 255
0 0 253
0 0 254
0 0 253
0 0 254
0 0 255
0 0 253
0 0 255
0 0 254
0 0 255
0 0 255
0 0 252
0 0 254
0 0 255
0 0 255
0 0 255
0 0 255
0 0 255
0 0 254
0 0 255
0 0 255
0 0 253
0 0 254
0 0 253
0 0 255
0 0 253
0 0 252
0 0 255
0 0 255
0 0 252
0 0 253
0 0 253
0 0 252
0 0 249
0 0 253
0 0 252
0 0 253
0 0 253
0 0 253
0 0 252
0 0 253
0 0 255
0 0 253
0 0 254
0 0 255
0 0 253
0 0 252
0 0 254
0 0 249
0 0 250
0 0 255
0 0 253
0 0 252
0 0 250
0 0 253
0 0 249
0 0 252
0 0 252
0 0 250
0 0 252
0 0 252
0 0 253
0 0 253
0 0 254
0 0 252
0 0 252
0 0 254
0 0 249
0 0 250
0 0 250
0 0 250
0 0 250
0 0 248
0 0 252
0 0 252
0 0 252
0 0 250
0 0 253
0 0 252
0 0 248
0 0 250
0 0 249
0 0 249
0 0 244
0 0 249
0 0 252
0 0 249
0 0 249
0 0 241
0 0 252
0 0 250
0 0 244
0 0 250
0 0 252
0 0 252
0 0 244
0 0 249
0 0 250
0 0 254
0 0 246
0 0 253
0 0 246
0 0 246
0 0 246
0 0 245
0 0 250
0 0 248
0 0 248
107 110 246
232 238 255
241 247 255
241 247 255
241 247 255
241 247 255
241 247 255
241 247 255
241 247 255
241 247 255
241 247 255
241 247 255
241 247 255
241 247 255
241 247 255
241 247 255
241 247 255
241 247 255
241 247 255
242 247 255
242 247 255
242 247 255
242 247 255
242 247 255
242 247 255
242 247 255
242 247 255
242 247 255
242 247 255
242 247 255
242 247 255
242 247 255
242 247 255
242 247 255
242 247 255
242 247 255
242 247 255
242 247 255
242 247 255
242 247 255
242 247 255
242 247 255
242 247 255
242 247 255
242 247 255
242 247 255
242 247 255
242 247 255
242 247 255
242 247 255
242 247 255
242 247 255
242 247 255
242 247 255
242 247 255
242 247 255
242 247 255
242 247 255
242 247 255
242 247 255
242 247 255
242 247 255
242 247 255
242 247 255
242 247 255
242 247 255
242 247 255
242 247 255
242 247 255
242 247 255
242 247 255
242 247 255
242 247 255
242 247 255
242 247 255
242 247 255
242 247 255
242 247 255
242 247 255
242 247 255
242 247 255
242 247 255
242 247 255
241 247 255
241 247 255
241 247 255
241 247 255
241 247 255
241 247 255
241 247 255
241 247 255
241 247 255
241 247 255
241 247 255
241 247 255
241 247 255
241 247 255
241 247 255
241 247 255
241 247 255
240 234 242
237 137 142
234 0 0
232 0 0
234 0 0
230 0 0
229 0 0
233 0 0
234 0 0
230 0 0
229 0 0
229 0 0
231 0 0
226 0 0
227 0 0
231 0 0
236 0 0
231 0 0
229 0 0
233 0 0
232 0 0
230 0 0
229 0 0
229 0 0
228 0 0
223 0 0
231 0 0
225 0 0
231 0 0
229 0 0
226 0 0
231 0 0
230 0 0
229 0 0
230 0 0
232 0 0
229 0 0
232 0 0
230 0 0
228 0 0
232 0 0
231 0 0
226 0 0
226 0 0
228 0 0
232 0 0
228 0 0
233 0 0
231 0 0
232 0 0
231 0 0
234 0 0
229 0 0
227 0 0
231 0 0
231 0 0
234 0 0
230 0 0
231 0 0
231 0 0
222 0 0
232 0 0
229 0 0
228 0 0
232 0 0
232 0 0
226 0 0
229 0 0
231 0 0
226 0 0
224 0 0
228 0 0
230 0 0
229 0 0
231 0 0
228 0 0
230 0 0
226 0 0
231 0 0
231 0 0
231 0 0
231 0 0
230 0 0
228 0 0
231 0 0
226 0 0
229 0 0
230 0 0
232 0 0
231 0 0
228 0 0
228 0 0
228 0 0
227 0 0
225 0 0
232 0 0
231 0 0
230 0 0
233 0 0
230 0 0
228 0 0
230 0 0
229 0 0
229 0 0
226 0 0
232 0 0
229 0 0
225 0 0
229 0 0
227 0 0
232 0 0
231 0 0
230 0 0
231 0 0
232 0 0
234 0 0
229 0 0
227 0 0
226 0 0
230 0 0
228 0 0
234 0 0
232 0 0
230 0 0
227 0 0
231 0 0
233 0 0
229 0 0
230 0 0
231 0 0
229 0 0
230 0 0
229 0 0
230 0 0
229 0 0
227 0 0
229 0 0
228 0 0
231 0 0
227 0 0
229 0 0
228 0 0
229 0 0
229 0 0
230 0 0
229 0 0
231 0 0
233 0 0
230 0 0
231 0 0
229 0 0
0 0 255
0 0 254
0 0 255
0 0 255
0 0 255
0 0 255
0 0 255
0 0 255
0 0 255
0 0 255
0 0 255
0 0 255
0 0 255
0 0 255
0 0 255
0 0 255
0 0 255
0 0 255
0 0 255
0 0 255
0 0 254
0 0 254
0 0 255
0 0 254
0 0 254
0 0 255
0 0 255
0 0 255
0 0 255
0 0 255
0 0 255
0 0 255
0 0 255
0 0 255
0 0 255
0 0 250
0 0 255
0 0 255
0 0 255
0 0 255
0 0 255
0 0 253
0 0 254
0 0 254
0 0 255
0 0 253
0 0 254
0 0 255
0 0 254
0 0 255
0 0 254
0 0 253
0 0 254
0 0 254
0 0 250
0 0 253
0 0 255
0 0 255
0 0 254
0 0 255
0 0 255
0 0 254
0 0 254
0 0 254
0 0 255
0 0 254
0 0 253
0 0 253
0 0 255
0 0 252
0 0 249
0 0 253
0 0 255
0 0 254
0 0 254
0 0 254
0 0 253
0 0 252
0 0 250
0 0 254
0 0 253
0 0 254
0 0 249
0 0 252
0 0 254
0 0 252
0 0 254
0 0 253
0 0 252
0 0 253
0 0 255
0 0 253
0 0 249
0 0 253
0 0 249
0 0 253
0 0 250
0 0 254
0 0 255
0 0 252
0 0 254
0 0 252
0 0 253
0 0 252
0 0 253
0 0 246
0 0 253
0 0 253
0 0 252
0 0 250
0 0 246
0 0 248
0 0 253
0 0 250
0 0 252
0 0 254
0 0 249
0 0 253
0 0 249
0 0 250
0 0 253
0 0 249
0 0 252
0 0 245
0 0 254
0 0 246
0 0 249
0 0 250
0 0 252
0 0 248
0 0 252
0 0 245
0 0 252
0 0 248
0 0 246
0 0 250
0 0 246
0 0 248
0 0 245
0 0 249
0 0 250
0 0 248
0 0 252
0 0 248
0 0 244
0 0 249
0 0 248
72 74 248
188 193 252
241 247 255
241 247 255
241 247 255
241 247 255
241 247 255
241 247 255
241 247 255
241 247 255
241 247 255
241 247 255
241 247 255
241 247 255
241 247 255
241 247 255
241 247 255
242 247 255
242 247 255
242 247 255
242 247 255
242 247 255
242 247 255
242 247 255
242 247 255
242 247 255
242 247 255
242 247 255
242 247 255
242 247 255
242 247 255
242 247 255
242 247 255
242 247 255
242 247 255
242 247 255
242 247 255
242 247 255
242 248 255
242 248 255
242 248 255
242 248 255
242 248 255
242 248 255
242 248 255
242 248 255
242 248 255
242 248 255
242 248 255
242 248 255
242 248 255
242 248 255
242 248 255
242 248 255
242 248 255
242 248 255
242 248 255
242 248 255
242 248 255
242 248 255
242 248 255
242 248 255
242 248 255
242 248 255
242 248 255
242 248 255
242 248 255
242 248 255
242 248 255
242 247 255
242 247 255
242 247 255
242 247 255
242 247 255
242 247 255
242 247 255
242 247 255
242 247 255
242 247 255
242 247 255
242 247 255
242 247 255
242 247 255
242 247 255
242 247 255
242 247 255
242 247 255
242 247 255
242 247 255
241 247 255
241 247 255
241 247 255
241 247 255
241 247 255
241 247 255
241 247 255
241 247 255
241 247 255
241 247 255
241 247 255
241 247 255
241 247 255
241 247 255
241 247 255
238 188 194
232 49 51
233 0 0
237 0 0
233 0 0
230 0 0
232 0 0
232 0 0
230 0 0
231 0 0
231 0 0
236 0 0
226 0 0
233 0 0
228 0 0
231 0 0
234 0 0
228 0 0
225 0 0
227 0 0
230 0 0
229 0 0
230 0 0
234 0 0
230 0 0
228 0 0
228 0 0
225 0 0
229 0 0
230 0 0
230 0 0
231 0 0
230 0 0
233 0 0
228 0 0
231 0 0
230 0 0
227 0 0
228 0 0
230 0 0
230 0 0
232 0 0
231 0 0
231 0 0
231 0 0
228 0 0
233 0 0
229 0 0
233 0 0
226 0 0
228 0 0
228 0 0
232 0 0
228 0 0
234 0 0
228 0 0
229 0 0
235 0 0
228 0 0
236 0 0
230 0 0
231 0 0
227 0 0
235 0 0
228 0 0
233 0 0
233 0 0
234 0 0
230 0 0
230 0 0
228 0 0
230 0 0
230 0 0
231 0 0
229 0 0
225 0 0
232 0 0
230 0 0
228 0 0
228 0 0
230 0 0
228 0 0
229 0 0
231 0 0
230 0 0
229 0 0
230 0 0
227 0 0
233 0 0
228 0 0
228 0 0
230 0 0
233 0 0
232 0 0
231 0 0
229 0 0
228 0 0
229 0 0
232 0 0
227 0 0
228 0 0
230 0 0
229 0 0
234 0 0
227 0 0
227 0 0
229 0 0
231 0 0
229 0 0
231 0 0
229 0 0
228 0 0
229 0 0
231 0 0
228 0 0
230 0 0
231 0 0
231 0 0
231 0 0
228 0 0
230 0 0
231 0 0
230 0 0
228 0 0
230 0 0
228 0 0
230 0 0
231 0 0
230 0 0
233 0 0
230 0 0
230 0 0
228 0 0
231 0 0
228 0 0
232 0 0
231 0 0
230 0 0
228 0 0
231 0 0
228 0 0
229 0 0
227 0 0
233 0 0
232 0 0
228 0 0
229 0 0
233 0 0
231 0 0
0 0 255
0 0 255
0 0 255
0 0 255
0 0 255
0 0 255
0 0 255
0 0 255
0 0 255
0 0 255
0 0 254
0 0 254
0 0 255
0 0 254
0 0 255
0 0 254
0 0 255
0 0 255
0 0 255
0 0 255
0 0 255
0 0 255
0 0 255
0 0 255
0 0 255
0 0 255
0 0 254
0 0 254
0 0 255
0 0 255
0 0 254
0 0 254
0 0 254
0 0 255
0 0 255
0 0 255
0 0 255
0 0 255
0 0 255
0 0 254
0 0 253
0 0 254
0 0 255
0 0 254
0 0 255
0 0 255
0 0 255
0 0 253
0 0 255
0 0 253
0 0 255
0 0 255
0 0 253
0 0 255
0 0 255
0 0 255
0 0 255
0 0 255
0 0 254
0 0 253
0 0 255
0 0 255
0 0 255
0 0 253
0 0 253
0 0 253
0 0 254
0 0 254
0 0 253
0 0 253
0 0 254
0 0 254
0 0 255
0 0 255
0 0 253
0 0 252
0 0 250
0 0 255
0 0 254
0 0 252
0 0 254
0 0 254
0 0 252
0 0 254
0 0 253
0 0 252
0 0 250
0 0 255
0 0 253
0 0 254
0 0 253
0 0 252
0 0 252
0 0 253
0 0 253
0 0 252
0 0 253
0 0 253
0 0 253
0 0 250
0 0 255
0 0 253
0 0 252
0 0 252
0 0 250
0 0 252
0 0 252
0 0 250
0 0 248
0 0 246
0 0 248
0 0 252
0 0 252
0 0 255
0 0 253
0 0 252
0 0 253
0 0 250
0 0 252
0 0 250
0 0 246
0 0 253
0 0 248
0 0 250
0 0 249
0 0 252
0 0 253
0 0 246
0 0 246
0 0 249
0 0 250
0 0 245
0 0 252
0 0 248
0 0 250
0 0 237
0 0 249
0 0 249
0 0 248
0 0 246
0 0 245
0 0 249
0 0 249
0 0 250
0 0 252
0 0 249
123 126 254
227 233 255
241 247 255
241 247 255
241 247 255
241 247 255
241 247 255
241 247 255
241 247 255
241 247 255
241 247 255
241 247 255
241 247 255
242 247 255
242 247 255
242 247 255
242 247 255
242 247 255
242 247 255
242 247 255
242 247 255
242 247 255
242 247 255
242 247 255
242 247 255
242 247 255
242 247 255
242 247 255
242 247 255
242 247 255
242 248 255
242 248 255
242 248 255
242 248 255
242 248 255
242 248 255
242 248 255
242 248 255
242 248 255
242 248 255
242 248 255
242 248 255
242 248 255
242 248 255
242 248 255
242 248 255
242 248 255
242 248 255
242 248 255
242 248 255
242 248 255
242 248 255
242 248 255
242 248 255
242 248 255
242 248 255
242 248 255
242 248 255
242 248 255
242 248 255
242 248 255
242 248 255
242 248 255
242 248 255
242 248 255
242 248 255
242 248 255
242 248 255
242 248 255
242 248 255
242 248 255
242 248 255
242 248 255
242 248 255
242 248 255
242 248 255
242 248 255
242 248 255
242 247 255
242 247 255
242 247 255
242 247 255
242 247 255
242 247 255
242 247 255
242 247 255
242 247 255
242 247 255
242 247 255
242 247 255
242 247 255
242 247 255
242 247 255
242 247 255
242 247 255
241 247 255
241 247 255
241 247 255
241 247 255
241 247 255
241 247 255
241 247 255
241 247 255
241 247 255
241 247 255
241 247 255
241 238 246
236 150 155
236 24 25
236 0 0
232 0 0
235 0 0
233 0 0
230 0 0
229 0 0
231 0 0
220 0 0
230 0 0
225 0 0
229 0 0
227 0 0
233 0 0
236 0 0
230 0 0
227 0 0
228 0 0
230 0 0
231 0 0
234 0 0
232 0 0
223 0 0
231 0 0
231 0 0
224 0 0
231 0 0
230 0 0
231 0 0
229 0 0
227 0 0
234 0 0
231 0 0
228 0 0
231 0 0
232 0 0
236 0 0
230 0 0
229 0 0
228 0 0
228 0 0
233 0 0
231 0 0
231 0 0
225 0 0
233 0 0
230 0 0
228 0 0
230 0 0
232 0 0
232 0 0
228 0 0
226 0 0
232 0 0
229 0 0
227 0 0
230 0 0
231 0 0
229 0 0
231 0 0
230 0 0
234 0 0
227 0 0
234 0 0
227 0 0
224 0 0
230 0 0
230 0 0
235 0 0
226 0 0
232 0 0
227 0 0
230 0 0
230 0 0
227 0 0
233 0 0
227 0 0
231 0 0
231 0 0
227 0 0
232 0 0
229 0 0
227 0 0
231 0 0
229 0 0
230 0 0
233 0 0
228 0 0
230 0 0
231 0 0
228 0 0
230 0 0
229 0 0
230 0 0
230 0 0
233 0 0
230 0 0
230 0 0
229 0 0
228 0 0
230 0 0
231 0 0
230 0 0
230 0 0
229 0 0
230 0 0
230 0 0
229 0 0
230 0 0
228 0 0
234 0 0
228 0 0
231 0 0
231 0 0
231 0 0
228 0 0
228 0 0
230 0 0
231 0 0
230 0 0
233 0 0
229 0 0
230 0 0
229 0 0
227 0 0
233 0 0
230 0 0
230 0 0
230 0 0
228 0 0
225 0 0
233 0 0
229 0 0
227 0 0
232 0 0
228 0 0
228 0 0
229 0 0
230 0 0
231 0 0
231 0 0
229 0 0
230 0 0
230 0 0
228 0 0
229 0 0
0 0 255
0 0 255
0 0 255
0 0 255
0 0 255
0 0 255
0 0 255
0 0 255
0 0 255
0 0 255
0 0 254
0 0 255
0 0 254
0 0 255
0 0 255
0 0 255
0 0 254
0 0 255
0 0 255
0 0 255
0 0 255
0 0 255
0 0 254
0 0 255
0 0 255
0 0 255
0 0 255
0 0 254
0 0 254
0 0 254
0 0 255
0 0 255
0 0 255
0 0 255
0 0 255
0 0 254
0 0 255
0 0 255
0 0 255
0 0 255
0 0 255
0 0 252
0 0 255
0 0 254
0 0 255
0 0 255
0 0 254
0 0 255
0 0 254
0 0 253
0 0 254
0 0 254
0 0 254
0 0 255
0 0 255
0 0 253
0 0 254
0 0 252
0 0 254
0 0 254
0 0 253
0 0 253
0 0 254
0 0 254
0 0 253
0 0 253
0 0 255
0 0 255
0 0 253
0 0 255
0 0 253
0 0 253
0 0 254
0 0 253
0 0 252
0 0 255
0 0 252
0 0 252
0 0 253
0 0 254
0 0 254
0 0 252
0 0 254
0 0 253
0 0 255
0 0 250
0 0 255
0 0 254
0 0 254
0 0 253
0 0 255
0 0 252
0 0 253
0 0 253
0 0 253
0 0 253
0 0 252
0 0 253
0 0 254
0 0 252
0 0 255
0 0 253
0 0 252
0 0 254
0 0 252
0 0 252
0 0 250
0 0 249
0 0 253
0 0 248
0 0 253
0 0 253
0 0 253
0 0 255
0 0 248
0 0 249
0 0 253
0 0 249
0 0 252
0 0 252
0 0 253
0 0 249
0 0 250
0 0 252
0 0 254
0 0 246
0 0 245
0 0 248
0 0 252
0 0 248
0 0 252
0 0 253
0 0 246
0 0 252
0 0 246
0 0 250
0 0 250
0 0 245
0 0 248
0 0 242
0 0 252
0 0 250
0 0 248
0 0 253
99 102 254
216 221 254
241 247 255
241 247 255
241 247 255
241 247 255
241 247 255
241 247 255
241 247 255
241 247 255
241 247 255
242 247 255
242 247 255
242 247 255
242 247 255
242 247 255
242 247 255
242 247 255
242 247 255
242 247 255
242 247 255
242 247 255
242 247 255
242 247 255
242 247 255
242 247 255
242 248 255
242 248 255
242 248 255
242 248 255
242 248 255
242 248 255
242 248 255
242 248 255
242 248 255
242 248 255
242 248 255
242 248 255
242 248 255
242 248 255
242 248 255
242 248 255
242 248 255
242 248 255
242 248 255
242 248 255
242 248 255
242 248 255
242 248 255
242 248 255
242 248 255
242 248 255
242 248 255
242 248 255
242 248 255
242 248 255
242 248 255
242 248 255
242 248 255
242 248 255
242 248 255
242 248 255
242 248 255
242 248 255
242 248 255
242 248 255
242 248 255
242 248 255
242 248 255
242 248 255
242 248 255
242 248 255
242 248 255
242 248 255
242 248 255
242 248 255
242 248 255
242 248 255
242 248 255
242 248 255
242 248 255
242 248 255
242 248 255
242 248 255
242 248 255
242 248 255
242 247 255
242 247 255
242 247 255
242 247 255
242 247 255
242 247 255
242 247 255
242 247 255
242 247 255
242 247 255
242 247 255
242 247 255
242 247 255
242 247 255
242 247 255
241 247 255
241 247 255
241 247 255
241 247 255
241 247 255
241 247 255
241 247 255
241 247 255
241 247 255
240 212 220
236 89 92
237 0 0
231 0 0
230 0 0
233 0 0
229 0 0
227 0 0
233 0 0
232 0 0
229 0 0
226 0 0
230 0 0
230 0 0
233 0 0
231 0 0
229 0 0
230 0 0
231 0 0
233 0 0
231 0 0
233 0 0
226 0 0
226 0 0
234 0 0
231 0 0
232 0 0
232 0 0
228 0 0
229 0 0
229 0 0
232 0 0
231 0 0
229 0 0
232 0 0
229 0 0
229 0 0
229 0 0
233 0 0
235 0 0
230 0 0
230 0 0
229 0 0
232 0 0
231 0 0
232 0 0
235 0 0
234 0 0
230 0 0
228 0 0
230 0 0
231 0 0
229 0 0
229 0 0
229 0 0
229 0 0
234 0 0
234 0 0
232 0 0
227 0 0
232 0 0
227 0 0
230 0 0
231 0 0
232 0 0
232 0 0
233 0 0
227 0 0
231 0 0
232 0 0
229 0 0
230 0 0
228 0 0
229 0 0
228 0 0
231 0 0
228 0 0
229 0 0
231 0 0
230 0 0
231 0 0
229 0 0
231 0 0
230 0 0
231 0 0
230 0 0
229 0 0
232 0 0
230 0 0
231 0 0
234 0 0
227 0 0
230 0 0
229 0 0
228 0 0
226 0 0
232 0 0
230 0 0
233 0 0
230 0 0
229 0 0
231 0 0
230 0 0
231 0 0
231 0 0
229 0 0
231 0 0
232 0 0
230 0 0
230 0 0
230 0 0
230 0 0
229 0 0
227 0 0
233 0 0
226 0 0
231 0 0
228 0 0
231 0 0
231 0 0
231 0 0
232 0 0
230 0 0
233 0 0
230 0 0
231 0 0
230 0 0
229 0 0
233 0 0
233 0 0
230 0 0
229 0 0
228 0 0
232 0 0
229 0 0
231 0 0
228 0 0
232 0 0
228 0 0
231 0 0
228 0 0
230 0 0
229 0 0
230 0 0
230 0 0
232 0 0
0 0 255
0 0 254
0 0 255
0 0 255
0 0 255
0 0 255
0 0 255
0 0 255
0 0 255
0 0 254
0 0 255
0 0 255
0 0 255
0 0 255
0 0 255
0 0 254
0 0 255
0 0 255
0 0 254
0 0 254
0 0 255
0 0 255
0 0 255
0 0 255
0 0 255
0 0 255
0 0 253
0 0 255
0 0 255
0 0 255
0 0 255
0 0 255
0 0 254
0 0 254
0 0 254
0 0 255
0 0 254
0 0 255
0 0 255
0 0 255
0 0 255
0 0 255
0 0 255
0 0 254
0 0 255
0 0 255
0 0 252
0 0 255
0 0 255
0 0 254
0 0 254
0 0 253
0 0 254
0 0 254
0 0 254
0 0 254
0 0 254
0 0 254
0 0 254
0 0 252
0 0 254
0 0 254
0 0 253
0 0 255
0 0 252
0 0 255
0 0 254
0 0 254
0 0 253
0 0 253
0 0 255
0 0 250
0 0 252
0 0 254
0 0 254
0 0 255
0 0 254
0 0 254
0 0 254
0 0 254
0 0 252
0 0 255
0 0 253
0 0 253
0 0 254
0 0 254
0 0 252
0 0 254
0 0 254
0 0 254
0 0 253
0 0 253
0 0 250
0 0 252
0 0 254
0 0 252
0 0 252
0 0 253
0 0 253
0 0 250
0 0 253
0 0 249
0 0 253
0 0 253
0 0 253
0 0 252
0 0 250
0 0 255
0 0 250
0 0 250
0 0 252
0 0 250
0 0 253
0 0 253
0 0 255
0 0 253
0 0 253
0 0 252
0 0 253
0 0 252
0 0 253
0 0 254
0 0 252
0 0 248
0 0 252
0 0 254
0 0 248
0 0 248
0 0 246
0 0 253
0 0 254
0 0 249
0 0 246
0 0 248
0 0 252
0 0 250
0 0 248
0 0 248
0 0 246
0 0 252
0 0 249
0 0 250
63 65 250
182 186 253
238 243 255
241 247 255
241 247 255
241 247 255
241 247 255
241 247 255
241 247 255
241 247 255
242 247 255
242 247 255
242 247 255
242 247 255
242 247 255
242 247 255
242 247 255
242 247 255
242 247 255
242 247 255
242 247 255
242 247 255
242 247 255
242 248 255
242 248 255
242 248 255
242 248 255
242 248 255
242 248 255
242 248 255
242 248 255
242 248 255
242 248 255
242 248 255
242 248 255
242 248 255
242 248 255
242 248 255
242 248 255
242 248 255
242 248 255
242 248 255
242 248 255
243 248 255
243 248 255
243 248 255
243 248 255
243 248 255
243 248 255
243 248 255
243 248 255
243 248 255
243 248 255
243 248 255
243 248 255
243 248 255
243 248 255
243 248 255
243 248 255
243 248 255
243 248 255
243 248 255
243 248 255
243 248 255
243 248 255
243 248 255
243 248 255
243 248 255
243 248 255
243 248 255
243 248 255
243 248 255
243 248 255
242 248 255
242 248 255
242 248 255
242 248 255
242 248 255
242 248 255
242 248 255
242 248 255
242 248 255
242 248 255
242 248 255
242 248 255
242 248 255
242 248 255
242 248 255
242 248 255
242 248 255
242 248 255
242 248 255
242 248 255
242 247 255
242 247 255
242 247 255
242 247 255
242 247 255
242 247 255
242 247 255
242 247 255
242 247 255
242 247 255
242 247 255
242 247 255
242 247 255
242 247 255
241 247 255
241 247 255
241 247 255
241 247 255
241 247 255
241 247 255
241 245 253
242 180 186
236 60 62
233 0 0
230 0 0
232 0 0
234 0 0
235 0 0
236 0 0
230 0 0
229 0 0
231 0 0
223 0 0
229 0 0
234 0 0
227 0 0
228 0 0
230 0 0
229 0 0
229 0 0
238 0 0
231 0 0
235 0 0
231 0 0
228 0 0
226 0 0
233 0 0
229 0 0
229 0 0
233 0 0
234 0 0
231 0 0
233 0 0
230 0 0
226 0 0
232 0 0
233 0 0
233 0 0
227 0 0
231 0 0
229 0 0
232 0 0
234 0 0
228 0 0
230 0 0
227 0 0
231 0 0
227 0 0
231 0 0
231 0 0
229 0 0
232 0 0
229 0 0
226 0 0
236 0 0
231 0 0
232 0 0
228 0 0
228 0 0
229 0 0
229 0 0
230 0 0
231 0 0
230 0 0
231 0 0
231 0 0
233 0 0
232 0 0
229 0 0
230 0 0
228 0 0
231 0 0
233 0 0
228 0 0
229 0 0
231 0 0
233 0 0
229 0 0
228 0 0
232 0 0
232 0 0
231 0 0
229 0 0
233 0 0
233 0 0
231 0 0
229 0 0
231 0 0
229 0 0
232 0 0
229 0 0
231 0 0
229 0 0
229 0 0
229 0 0
229 0 0
235 0 0
232 0 0
229 0 0
227 0 0
231 0 0
228 0 0
234 0 0
226 0 0
228 0 0
232 0 0
230 0 0
230 0 0
227 0 0
229 0 0
233 0 0
232 0 0
232 0 0
230 0 0
232 0 0
230 0 0
231 0 0
228 0 0
231 0 0
230 0 0
227 0 0
228 0 0
229 0 0
230 0 0
232 0 0
230 0 0
231 0 0
227 0 0
226 0 0
230 0 0
231 0 0
233 0 0
229 0 0
229 0 0
230 0 0
230 0 0
232 0 0
231 0 0
230 0 0
233 0 0
228 0 0
232 0 0
230 0 0
232 0 0
229 0 0
0 0 255
0 0 255
0 0 255
0 0 255
0 0 255
0 0 254
0 0 255
0 0 255
0 0 255
0 0 254
0 0 255
0 0 255
0 0 255
0 0 255
0 0 255
0 0 253
0 0 254
0 0 255
0 0 255
0 0 254
0 0 254
0 0 255
0 0 254
0 0 255
0 0 255
0 0 254
0 0 255
0 0 255
0 0 253
0 0 255
0 0 254
0 0 254
0 0 254
0 0 255
0 0 255
0 0 252
0 0 253
0 0 255
0 0 255
0 0 255
0 0 255
0 0 255
0 0 255
0 0 254
0 0 254
0 0 254
0 0 254
0 0 255
0 0 254
0 0 254
0 0 254
0 0 253
0 0 255
0 0 255
0 0 255
0 0 253
0 0 255
0 0 255
0 0 254
0 0 255
0 0 252
0 0 253
0 0 253
0 0 255
0 0 255
0 0 254
0 0 255
0 0 254
0 0 254
0 0 255
0 0 253
0 0 255
0 0 255
0 0 253
0 0 252
0 0 254
0 0 254
0 0 254
0 0 252
0 0 253
0 0 255
0 0 255
0 0 253
0 0 253
0 0 253
0 0 252
0 0 252
0 0 252
0 0 254
0 0 253
0 0 252
0 0 250
0 0 254
0 0 254
0 0 254
0 0 252
0 0 254
0 0 250
0 0 253
0 0 255
0 0 252
0 0 252
0 0 252
0 0 254
0 0 253
0 0 250
0 0 252
0 0 254
0 0 250
0 0 253
0 0 246
0 0 249
0 0 253
0 0 250
0 0 249
0 0 252
0 0 252
0 0 253
0 0 248
0 0 248
0 0 250
0 0 253
0 0 249
0 0 254
0 0 250
0 0 248
0 0 252
0 0 250
0 0 250
0 0 242
0 0 250
0 0 249
0 0 250
0 0 252
0 0 249
0 0 250
0 0 252
0 0 252
0 0 253
0 0 248
0 0 248
138 142 252
228 233 255
241 247 255
241 247 255
241 247 255
241 247 255
241 247 255
242 247 255
242 247 255
242 247 255
242 247 255
242 247 255
242 247 255
242 247 255
242 247 255
242 247 255
242 247 255
242 247 255
242 247 255
242 247 255
242 248 255
242 248 255
242 248 255
242 248 255
242 248 255
242 248 255
242 248 255
242 248 255
242 248 255
242 248 255
242 248 255
242 248 255
242 248 255
242 248 255
242 248 255
242 248 255
243 248 255
243 248 255
243 248 255
243 248 255
243 248 255
243 248 255
243 248 255
243 248 255
243 248 255
243 248 255
243 248 255
243 248 255
243 248 255
243 248 255
243 248 255
243 248 255
243 248 255
243 248 255
243 248 255
243 248 255
243 248 255
243 248 255
243 248 255
243 248 255
243 248 255
243 248 255
243 248 255
243 248 255
243 248 255
243 248 255
243 248 255
243 248 255
243 248 255
243 248 255
243 248 255
243 248 255
243 248 255
243 248 255
243 248 255
243 248 255
243 248 255
243 248 255
243 248 255
243 248 255
243 248 255
243 248 255
242 248 255
242 248 255
242 248 255
242 248 255
242 248 255
242 248 255
242 248 255
242 248 255
242 248 255
242 248 255
242 248 255
242 248 255
242 248 255
242 248 255
242 248 255
242 248 255
242 247 255
242 247 255
242 247 255
242 247 255
242 247 255
242 247 255
242 247 255
242 247 255
242 247 255
242 247 255
242 247 255
242 247 255
242 247 255
241 247 255
241 247 255
241 247 255
241 247 255
241 247 255
241 228 236
238 154 159
238 0 0
234 0 0
234 0 0
233 0 0
232 0 0
232 0 0
230 0 0
240 0 0
233 0 0
229 0 0
232 0 0
233 0 0
231 0 0
227 0 0
230 0 0
232 0 0
232 0 0
233 0 0
233 0 0
237 0 0
229 0 0
228 0 0
230 0 0
229 0 0
229 0 0
234 0 0
232 0 0
227 0 0
233 0 0
228 0 0
234 0 0
235 0 0
233 0 0
230 0 0
232 0 0
228 0 0
233 0 0
228 0 0
228 0 0
234 0 0
231 0 0
233 0 0
234 0 0
230 0 0
232 0 0
231 0 0
233 0 0
232 0 0
230 0 0
230 0 0
230 0 0
228 0 0
230 0 0
232 0 0
234 0 0
233 0 0
230 0 0
231 0 0
226 0 0
234 0 0
233 0 0
229 0 0
234 0 0
229 0 0
228 0 0
233 0 0
231 0 0
231 0 0
232 0 0
230 0 0
229 0 0
228 0 0
229 0 0
229 0 0
229 0 0
229 0 0
229 0 0
230 0 0
232 0 0
228 0 0
229 0 0
230 0 0
232 0 0
231 0 0
232 0 0
228 0 0
231 0 0
229 0 0
231 0 0
229 0 0
231 0 0
232 0 0
230 0 0
230 0 0
230 0 0
231 0 0
232 0 0
232 0 0
233 0 0
231 0 0
230 0 0
232 0 0
228 0 0
230 0 0
230 0 0
231 0 0
231 0 0
228 0 0
229 0 0
230 0 0
225 0 0
231 0 0
232 0 0
231 0 0
232 0 0
230 0 0
230 0 0
230 0 0
233 0 0
231 0 0
230 0 0
231 0 0
228 0 0
227 0 0
231 0 0
230 0 0
232 0 0
231 0 0
229 0 0
229 0 0
229 0 0
229 0 0
229 0 0
230 0 0
232 0 0
228 0 0
229 0 0
231 0 0
232 0 0
231 0 0
232 0 0
0 0 255
0 0 255
0 0 255
0 0 255
0 0 255
0 0 255
0 0 253
0 0 255
0 0 255
0 0 255
0 0 255
0 0 255
0 0 254
0 0 254
0 0 255
0 0 255
0 0 255
0 0 255
0 0 255
0 0 253
0 0 255
0 0 254
0 0 255
0 0 255
0 0 255
0 0 255
0 0 255
0 0 254
0 0 255
0 0 255
0 0 254
0 0 254
0 0 254
0 0 255
0 0 255
0 0 255
0 0 253
0 0 255
0 0 254
0 0 254
0 0 254
0 0 254
0 0 253
0 0 255
0 0 254
0 0 255
0 0 255
0 0 255
0 0 254
0 0 255
0 0 254
0 0 255
0 0 254
0 0 252
0 0 255
0 0 255
0 0 254
0 0 254
0 0 254
0 0 254
0 0 255
0 0 255
0 0 254
0 0 252
0 0 255
0 0 254
0 0 254
0 0 254
0 0 255
0 0 253
0 0 253
0 0 253
0 0 253
0 0 254
0 0 254
0 0 253
0 0 254
0 0 255
0 0 254
0 0 250
0 0 253
0 0 254
0 0 254
0 0 252
0 0 255
0 0 253
0 0 253
0 0 253
0 0 253
0 0 252
0 0 252
0 0 250
0 0 253
0 0 253
0 0 250
0 0 253
0 0 254
0 0 253
0 0 254
0 0 253
0 0 254
0 0 255
0 0 253
0 0 252
0 0 252
0 0 250
0 0 254
0 0 252
0 0 249
0 0 255
0 0 248
0 0 245
0 0 249
0 0 254
0 0 246
0 0 253
0 0 254
0 0 253
0 0 248
0 0 250
0 0 250
0 0 254
0 0 248
0 0 249
0 0 250
0 0 253
0 0 250
0 0 248
0 0 249
0 0 248
0 0 252
0 0 252
0 0 250
0 0 249
0 0 250
0 0 246
0 0 246
0 0 254
0 0 246
132 135 254
226 232 254
241 247 255
241 247 255
241 247 255
241 247 255
242 247 255
242 247 255
242 247 255
242 247 255
242 247 255
242 247 255
242 247 255
242 247 255
242 247 255
242 247 255
242 247 255
242 247 255
242 248 255
242 248 255
242 248 255
242 248 255
242 248 255
242 248 255
242 248 255
242 248 255
242 248 255
242 248 255
242 248 255
242 248 255
242 248 255
242 248 255
243 248 255
243 248 255
243 248 255
243 248 255
243 248 255
243 248 255
243 248 255
243 248 255
243 248 255
243 248 255
243 248 255
243 248 255
243 248 255
243 248 255
243 248 255
243 248 255
243 248 255
243 248 255
243 248 255
243 248 255
243 248 255
243 248 255
243 248 255
243 248 255
243 248 255
243 248 255
243 248 255
243 248 255
243 248 255
243 248 255
243 248 255
243 248 255
243 248 255
243 248 255
243 248 255
243 248 255
243 248 255
243 248 255
243 248 255
243 248 255
243 248 255
243 248 255
243 248 255
243 248 255
243 248 255
243 248 255
243 248 255
243 248 255
243 248 255
243 248 255
243 248 255
243 248 255
243 248 255
243 248 255
243 248 255
243 248 255
243 248 255
243 248 255
242 248 255
242 248 255
242 248 255
242 248 255
242 248 255
242 248 255
242 248 255
242 248 255
242 248 255
242 248 255
242 248 255
242 248 255
242 248 255
242 248 255
242 247 255
242 247 255
242 247 255
242 247 255
242 247 255
242 247 255
242 247 255
242 247 255
242 247 255
242 247 255
242 247 255
242 247 255
241 247 255
241 247 255
241 247 255
241 247 255
241 217 224
236 133 137
235 0 0
236 0 0
234 0 0
230 0 0
234 0 0
235 0 0
233 0 0
236 0 0
232 0 0
237 0 0
232 0 0
239 0 0
230 0 0
230 0 0
235 0 0
230 0 0
232 0 0
227 0 0
229 0 0
233 0 0
234 0 0
234 0 0
229 0 0
227 0 0
233 0 0
233 0 0
227 0 0
231 0 0
234 0 0
231 0 0
232 0 0
233 0 0
227 0 0
229 0 0
236 0 0
233 0 0
230 0 0
229 0 0
231 0 0
234 0 0
231 0 0
234 0 0
232 0 0
234 0 0
234 0 0
233 0 0
231 0 0
232 0 0
232 0 0
231 0 0
231 0 0
230 0 0
233 0 0
227 0 0
229 0 0
237 0 0
232 0 0
230 0 0
233 0 0
232 0 0
231 0 0
233 0 0
224 0 0
230 0 0
231 0 0
228 0 0
233 0 0
232 0 0
232 0 0
230 0 0
231 0 0
232 0 0
232 0 0
228 0 0
232 0 0
229 0 0
229 0 0
231 0 0
231 0 0
233 0 0
231 0 0
229 0 0
229 0 0
231 0 0
231 0 0
228 0 0
233 0 0
233 0 0
231 0 0
230 0 0
229 0 0
233 0 0
233 0 0
229 0 0
229 0 0
230 0 0
231 0 0
232 0 0
232 0 0
231 0 0
233 0 0
230 0 0
232 0 0
231 0 0
230 0 0
227 0 0
231 0 0
229 0 0
232 0 0
231 0 0
233 0 0
228 0 0
229 0 0
229 0 0
230 0 0
233 0 0
232 0 0
227 0 0
231 0 0
228 0 0
230 0 0
233 0 0
232 0 0
233 0 0
233 0 0
229 0 0
232 0 0
231 0 0
232 0 0
232 0 0
231 0 0
230 0 0
232 0 0
228 0 0
233 0 0
228 0 0
229 0 0
229 0 0
231 0 0
0 0 255
0 0 255
0 0 255
0 0 255
0 0 254
0 0 255
0 0 255
0 0 255
0 0 255
0 0 255
0 0 255
0 0 254
0 0 254
0 0 255
0 0 255
0 0 254
0 0 255
0 0 255
0 0 255
0 0 255
0 0 254
0 0 255
0 0 255
0 0 255
0 0 255
0 0 254
0 0 254
0 0 255
0 0 255
0 0 254
0 0 254
0 0 255
0 0 254
0 0 254
0 0 255
0 0 255
0 0 255
0 0 255
0 0 255
0 0 255
0 0 255
0 0 253
0 0 255
0 0 254
0 0 255
0 0 253
0 0 254
0 0 255
0 0 255
0 0 255
0 0 254
0 0 254
0 0 254
0 0 253
0 0 254
0 0 255
0 0 253
0 0 254
0 0 253
0 0 253
0 0 255
0 0 253
0 0 253
0 0 255
0 0 253
0 0 252
0 0 253
0 0 253
0 0 255
0 0 254
0 0 255
0 0 253
0 0 255
0 0 255
0 0 255
0 0 255
0 0 253
0 0 250
0 0 255
0 0 253
0 0 253
0 0 254
0 0 252
0 0 253
0 0 254
0 0 254
0 0 254
0 0 254
0 0 255
0 0 253
0 0 252
0 0 255
0 0 254
0 0 255
0 0 250
0 0 252
0 0 254
0 0 249
0 0 249
0 0 252
0 0 249
0 0 253
0 0 254
0 0 254
0 0 250
0 0 252
0 0 248
0 0 255
0 0 253
0 0 249
0 0 253
0 0 254
0 0 252
0 0 249
0 0 250
0 0 254
0 0 248
0 0 253
0 0 252
0 0 252
0 0 250
0 0 255
0 0 252
0 0 250
0 0 252
0 0 253
0 0 248
0 0 252
0 0 248
0 0 250
0 0 249
0 0 254
0 0 246
0 0 249
0 0 248
0 0 249
0 0 250
96 99 253
200 205 253
241 247 255
241 247 255
242 247 255
242 247 255
242 247 255
242 247 255
242 247 255
242 247 255
242 247 255
242 247 255
242 247 255
242 247 255
242 247 255
242 247 255
242 248 255
242 248 255
242 248 255
242 248 255
242 248 255
242 248 255
242 248 255
242 248 255
242 248 255
242 248 255
242 248 255
242 248 255
242 248 255
243 248 255
243 248 255
243 248 255
243 248 255
243 248 255
243 248 255
243 248 255
243 248 255
243 248 255
243 248 255
243 248 255
243 248 255
243 248 255
243 248 255
243 248 255
243 248 255
243 248 255
243 248 255
243 248 255
243 248 255
243 248 255
243 248 255
243 248 255
243 248 255
243 248 255
243 248 255
243 248 255
243 248 255
243 248 255
243 248 255
243 248 255
243 248 255
243 248 255
243 248 255
243 248 255
243 248 255
243 248 255
243 248 255
243 248 255
243 248 255
243 248 255
243 248 255
243 248 255
243 248 255
243 248 255
243 248 255
243 248 255
243 248 255
243 248 255
243 248 255
243 248 255
243 248 255
243 248 255
243 248 255
243 248 255
243 248 255
243 248 255
243 248 255
243 248 255
243 248 255
243 248 255
243 248 255
243 248 255
243 248 255
243 248 255
243 248 255
243 248 255
243 248 255
242 248 255
242 248 255
242 248 255
242 248 255
242 248 255
242 248 255
242 248 255
242 248 255
242 248 255
242 248 255
242 248 255
242 248 255
242 248 255
242 247 255
242 247 255
242 247 255
242 247 255
242 247 255
242 247 255
242 247 255
242 247 255
242 247 255
242 247 255
242 247 255
242 247 255
241 247 255
241 246 254
242 196 203
239 92 95
237 0 0
233 0 0
236 0 0
235 0 0
236 0 0
230 0 0
235 0 0
234 0 0
233 0 0
235 0 0
230 0 0
229 0 0
233 0 0
231 0 0
236 0 0
231 0 0
233 0 0
228 0 0
236 0 0
228 0 0
230 0 0
228 0 0
234 0 0
232 0 0
237 0 0
229 0 0
228 0 0
234 0 0
231 0 0
233 0 0
231 0 0
237 0 0
229 0 0
231 0 0
229 0 0
232 0 0
231 0 0
231 0 0
227 0 0
231 0 0
234 0 0
231 0 0
231 0 0
235 0 0
229 0 0
222 0 0
232 0 0
233 0 0
232 0 0
232 0 0
231 0 0
228 0 0
233 0 0
234 0 0
229 0 0
236 0 0
230 0 0
232 0 0
225 0 0
230 0 0
231 0 0
227 0 0
230 0 0
231 0 0
233 0 0
235 0 0
231 0 0
230 0 0
232 0 0
233 0 0
231 0 0
227 0 0
233 0 0
234 0 0
233 0 0
231 0 0
233 0 0
233 0 0
234 0 0
228 0 0
230 0 0
232 0 0
229 0 0
231 0 0
230 0 0
232 0 0
230 0 0
228 0 0
225 0 0
234 0 0
232 0 0
233 0 0
228 0 0
230 0 0
230 0 0
230 0 0
230 0 0
234 0 0
231 0 0
230 0 0
230 0 0
232 0 0
232 0 0
231 0 0
230 0 0
232 0 0
231 0 0
231 0 0
234 0 0
230 0 0
230 0 0
234 0 0
233 0 0
230 0 0
232 0 0
230 0 0
229 0 0
232 0 0
228 0 0
231 0 0
231 0 0
232 0 0
230 0 0
231 0 0
232 0 0
233 0 0
232 0 0
233 0 0
232 0 0
231 0 0
232 0 0
231 0 0
231 0 0
233 0 0
231 0 0
230 0 0
231 0 0
0 0 255
0 0 255
0 0 255
0 0 255
0 0 255
0 0 255
0 0 255
0 0 255
0 0 255
0 0 255
0 0 255
0 0 255
0 0 255
0 0 254
0 0 255
0 0 253
0 0 255
0 0 255
0 0 255
0 0 255
0 0 255
0 0 254
0 0 255
0 0 255
0 0 255
0 0 255
0 0 255
0 0 255
0 0 254
0 0 255
0 0 255
0 0 255
0 0 255
0 0 255
0 0 255
0 0 255
0 0 255
0 0 255
0 0 254
0 0 255
0 0 255
0 0 255
0 0 255
0 0 255
0 0 254
0 0 255
0 0 255
0 0 255
0 0 255
0 0 255
0 0 255
0 0 253
0 0 255
0 0 255
0 0 255
0 0 254
0 0 255
0 0 254
0 0 254
0 0 254
0 0 254
0 0 253
0 0 254
0 0 253
0 0 254
0 0 253
0 0 255
0 0 254
0 0 254
0 0 253
0 0 253
0 0 254
0 0 254
0 0 254
0 0 253
0 0 252
0 0 254
0 0 253
0 0 254
0 0 253
0 0 253
0 0 252
0 0 255
0 0 252
0 0 254
0 0 250
0 0 255
0 0 253
0 0 254
0 0 254
0 0 253
0 0 255
0 0 253
0 0 254
0 0 250
0 0 254
0 0 254
0 0 253
0 0 254
0 0 253
0 0 253
0 0 254
0 0 253
0 0 252
0 0 254
0 0 254
0 0 250
0 0 252
0 0 252
0 0 248
0 0 253
0 0 254
0 0 250
0 0 254
0 0 253
0 0 250
0 0 253
0 0 249
0 0 254
0 0 254
0 0 253
0 0 254
0 0 252
0 0 250
0 0 254
0 0 252
0 0 249
0 0 249
0 0 245
0 0 250
0 0 253
0 0 250
0 0 253
0 0 253
0 0 250
59 60 254
182 186 253
238 243 255
242 247 255
242 247 255
242 247 255
242 247 255
242 247 255
242 247 255
242 247 255
242 247 255
242 247 255
242 247 255
242 247 255
242 247 255
242 248 255
242 248 255
242 248 255
242 248 255
242 248 255
242 248 255
242 248 255
242 248 255
242 248 255
242 248 255
242 248 255
242 248 255
243 248 255
243 248 255
243 248 255
243 248 255
243 248 255
243 248 255
243 248 255
243 248 255
243 248 255
243 248 255
243 248 255
243 248 255
243 248 255
243 248 255
243 248 255
243 248 255
243 248 255
243 248 255
243 248 255
243 248 255
243 248 255
243 248 255
243 248 255
243 248 255
243 248 255
243 248 255
243 248 255
243 248 255
243 248 255
243 248 255
243 248 255
243 248 255
243 248 255
243 248 255
243 248 255
243 248 255
243 248 255
243 248 255
243 248 255
243 248 255
243 248 255
243 248 255
243 248 255
243 248 255
243 248 255
243 248 255
243 248 255
243 248 255
243 248 255
243 248 255
243 248 255
243 248 255
243 248 255
243 248 255
243 248 255
243 248 255
243 248 255
243 248 255
243 248 255
243 248 255
243 248 255
243 248 255
243 248 255
243 248 255
243 248 255
243 248 255
243 248 255
243 248 255
243 248 255
243 248 255
243 248 255
243 248 255
243 248 255
243 248 255
243 248 255
243 248 255
242 248 255
242 248 255
242 248 255
242 248 255
242 248 255
242 248 255
242 248 255
242 248 255
242 248 255
242 248 255
242 248 255
242 248 255
242 247 255
242 247 255
242 247 255
242 247 255
242 247 255
242 247 255
242 247 255
242 247 255
242 247 255
242 247 255
242 247 255
242 247 255
242 241 249
240 183 189
238 74 76
234 0 0
238 0 0
238 0 0
232 0 0
233 0 0
235 0 0
236 0 0
234 0 0
238 0 0
233 0 0
236 0 0
233 0 0
234 0 0
230 0 0
235 0 0
233 0 0
227 0 0
236 0 0
230 0 0
231 0 0
231 0 0
230 0 0
224 0 0
234 0 0
235 0 0
230 0 0
232 0 0
228 0 0
234 0 0
229 0 0
234 0 0
233 0 0
226 0 0
231 0 0
235 0 0
233 0 0
232 0 0
235 0 0
234 0 0
233 0 0
233 0 0
232 0 0
233 0 0
229 0 0
231 0 0
237 0 0
230 0 0
232 0 0
230 0 0
232 0 0
228 0 0
231 0 0
227 0 0
237 0 0
231 0 0
230 0 0
236 0 0
232 0 0
233 0 0
231 0 0
228 0 0
231 0 0
232 0 0
231 0 0
231 0 0
233 0 0
230 0 0
228 0 0
230 0 0
231 0 0
232 0 0
231 0 0
230 0 0
229 0 0
229 0 0
233 0 0
232 0 0
234 0 0
231 0 0
230 0 0
234 0 0
233 0 0
230 0 0
229 0 0
231 0 0
232 0 0
231 0 0
236 0 0
232 0 0
228 0 0
230 0 0
235 0 0
232 0 0
231 0 0
231 0 0
230 0 0
232 0 0
229 0 0
233 0 0
228 0 0
230 0 0
232 0 0
230 0 0
227 0 0
233 0 0
227 0 0
231 0 0
229 0 0
231 0 0
228 0 0
232 0 0
231 0 0
232 0 0
229 0 0
231 0 0
231 0 0
229 0 0
232 0 0
230 0 0
231 0 0
231 0 0
229 0 0
229 0 0
231 0 0
232 0 0
233 0 0
225 0 0
229 0 0
230 0 0
231 0 0
230 0 0
235 0 0
230 0 0
234 0 0
231 0 0
0 0 255
0 0 255
0 0 255
0 0 255
0 0 255
0 0 255
0 0 255
0 0 255
0 0 255
0 0 255
0 0 255
0 0 255
0 0 255
0 0 255
0 0 255
0 0 255
0 0 254
0 0 254
0 0 255
0 0 255
0 0 255
0 0 255
0 0 255
0 0 255
0 0 255
0 0 254
0 0 255
0 0 253
0 0 255
0 0 255
0 0 255
0 0 255
0 0 255
0 0 255
0 0 255
0 0 255
0 0 253
0 0 255
0 0 255
0 0 255
0 0 255
0 0 254
0 0 254
0 0 253
0 0 254
0 0 255
0 0 255
0 0 255
0 0 255
0 0 254
0 0 253
0 0 254
0 0 253
0 0 255
0 0 255
0 0 254
0 0 255
0 0 255
0 0 254
0 0 255
0 0 252
0 0 254
0 0 253
0 0 254
0 0 254
0 0 254
0 0 254
0 0 250
0 0 255
0 0 254
0 0 253
0 0 253
0 0 255
0 0 255
0 0 254
0 0 254
0 0 255
0 0 252
0 0 253
0 0 252
0 0 254
0 0 252
0 0 254
0 0 254
0 0 254
0 0 253
0 0 253
0 0 252
0 0 253
0 0 255
0 0 252
0 0 253
0 0 248
0 0 253
0 0 253
0 0 255
0 0 255
0 0 253
0 0 255
0 0 250
0 0 253
0 0 252
0 0 253
0 0 254
0 0 253
0 0 254
0 0 252
0 0 250
0 0 253
0 0 255
0 0 252
0 0 245
0 0 254
0 0 246
0 0 253
0 0 249
0 0 252
0 0 252
0 0 255
0 0 250
0 0 250
0 0 249
0 0 253
0 0 253
0 0 252
0 0 253
0 0 245
0 0 252
0 0 249
0 0 250
0 0 255
0 0 254
0 0 253
59 60 254
177 182 254
240 246 255
242 247 255
242 247 255
242 247 255
242 247 255
242 247 255
242 247 255
242 247 255
242 247 255
242 247 255
242 247 255
242 248 255
242 248 255
242 248 255
242 248 255
242 248 255
242 248 255
242 248 255
242 248 255
242 248 255
242 248 255
242 248 255
242 248 255
243 248 255
243 248 255
243 248 255
243 248 255
243 248 255
243 248 255
243 248 255
243 248 255
243 248 255
243 248 255
243 248 255
243 248 255
243 248 255
243 248 255
243 248 255
243 248 255
243 248 255
243 248 255
243 248 255
243 248 255
243 248 255
243 248 255
243 248 255
243 248 255
243 248 255
243 248 255
243 248 255
243 248 255
243 248 255
243 248 255
243 248 255
243 248 255
243 248 255
243 248 255
243 248 255
243 248 255
243 248 255
243 248 255
243 248 255
243 248 255
243 248 255
243 248 255
243 248 255
243 248 255
243 248 255
243 248 255
243 248 255
243 248 255
243 248 255
243 248 255
243 248 255
243 248 255
243 248 255
243 248 255
243 248 255
243 248 255
243 248 255
243 248 255
243 248 255
243 248 255
243 248 255
243 248 255
243 248 255
243 248 255
243 248 255
243 248 255
243 248 255
243 248 255
243 248 255
243 248 255
243 248 255
243 248 255
243 248 255
243 248 255
243 248 255
243 248 255
243 248 255
243 248 255
243 248 255
243 248 255
243 248 255
243 248 255
243 248 255
243 248 255
242 248 255
242 248 255
242 248 255
242 248 255
242 248 255
242 248 255
242 248 255
242 248 255
242 248 255
242 248 255
242 248 255
242 247 255
242 247 255
242 247 255
242 247 255
242 247 255
242 247 255
242 247 255
242 247 255
242 247 255
242 247 255
242 247 255
241 242 250
238 169 175
240 60 62
237 0 0
235 0 0
234 0 0
231 0 0
234 0 0
234 0 0
233 0 0
233 0 0
232 0 0
230 0 0
231 0 0
235 0 0
235 0 0
236 0 0
233 0 0
235 0 0
234 0 0
230 0 0
235 0 0
234 0 0
236 0 0
233 0 0
233 0 0
233 0 0
230 0 0
237 0 0
232 0 0
231 0 0
235 0 0
234 0 0
231 0 0
231 0 0
233 0 0
232 0 0
225 0 0
234 0 0
231 0 0
232 0 0
231 0 0
231 0 0
233 0 0
233 0 0
229 0 0
231 0 0
230 0 0
231 0 0
233 0 0
235 0 0
228 0 0
228 0 0
229 0 0
234 0 0
229 0 0
232 0 0
231 0 0
234 0 0
234 0 0
232 0 0
232 0 0
232 0 0
232 0 0
228 0 0
233 0 0
232 0 0
231 0 0
230 0 0
229 0 0
234 0 0
231 0 0
230 0 0
231 0 0
232 0 0
231 0 0
234 0 0
232 0 0
231 0 0
233 0 0
231 0 0
229 0 0
226 0 0
233 0 0
233 0 0
231 0 0
234 0 0
235 0 0
231 0 0
234 0 0
233 0 0
234 0 0
232 0 0
230 0 0
230 0 0
231 0 0
233 0 0
232 0 0
232 0 0
232 0 0
231 0 0
230 0 0
231 0 0
231 0 0
233 0 0
229 0 0
231 0 0
230 0 0
230 0 0
233 0 0
232 0 0
231 0 0
231 0 0
231 0 0
228 0 0
230 0 0
230 0 0
230 0 0
233 0 0
232 0 0
231 0 0
234 0 0
230 0 0
231 0 0
230 0 0
234 0 0
230 0 0
229 0 0
233 0 0
231 0 0
229 0 0
236 0 0
230 0 0
232 0 0
230 0 0
234 0 0
0 0 255
0 0 255
0 0 255
0 0 255
0 0 254
0 0 255
0 0 255
0 0 255
0 0 255
0 0 255
0 0 255
0 0 255
0 0 255
0 0 255
0 0 255
0 0 255
0 0 255
0 0 254
0 0 255
0 0 255
0 0 255
0 0 255
0 0 255
0 0 255
0 0 255
0 0 255
0 0 255
0 0 255
0 0 255
0 0 255
0 0 255
0 0 255
0 0 255
0 0 254
0 0 254
0 0 255
0 0 255
0 0 254
0 0 255
0 0 254
0 0 254
0 0 255
0 0 254
0 0 255
0 0 255
0 0 255
0 0 254
0 0 254
0 0 255
0 0 255
0 0 253
0 0 255
0 0 255
0 0 254
0 0 255
0 0 255
0 0 254
0 0 254
0 0 255
0 0 255
0 0 253
0 0 255
0 0 255
0 0 255
0 0 255
0 0 255
0 0 253
0 0 254
0 0 255
0 0 255
0 0 254
0 0 253
0 0 254
0 0 254
0 0 255
0 0 255
0 0 254
0 0 253
0 0 252
0 0 253
0 0 254
0 0 255
0 0 253
0 0 254
0 0 253
0 0 252
0 0 255
0 0 252
0 0 254
0 0 254
0 0 252
0 0 255
0 0 252
0 0 252
0 0 252
0 0 250
0 0 253
0 0 253
0 0 253
0 0 253
0 0 253
0 0 254
0 0 254
0 0 255
0 0 254
0 0 254
0 0 250
0 0 252
0 0 248
0 0 252
0 0 250
0 0 254
0 0 252
0 0 253
0 0 255
0 0 252
0 0 250
0 0 252
0 0 253
0 0 250
0 0 250
0 0 249
0 0 254
0 0 250
0 0 246
0 0 255
0 0 250
0 0 253
0 0 252
0 0 250
0 0 250
105 107 252
189 193 254
238 243 255
242 247 255
242 247 255
242 247 255
242 247 255
242 247 255
242 247 255
242 247 255
242 247 255
242 247 255
242 248 255
242 248 255
242 248 255
242 248 255
242 248 255
242 248 255
242 248 255
242 248 255
242 248 255
242 248 255
242 248 255
243 248 255
243 248 255
243 248 255
243 248 255
243 248 255
243 248 255
243 248 255
243 248 255
243 248 255
243 248 255
243 248 255
243 248 255
243 248 255
243 248 255
243 248 255
243 248 255
243 248 255
243 248 255
243 248 255
243 248 255
243 248 255
243 248 255
243 248 255
243 248 255
243 248 255
243 248 255
243 248 255
243 248 255
243 248 255
243 248 255
243 248 255
243 248 255
243 248 255
243 248 255
243 248 255
243 248 255
243 248 255
243 248 255
243 248 255
243 248 255
243 248 255
243 248 255
243 248 255
243 248 255
243 248 255
243 248 255
243 248 255
243 248 255
243 248 255
243 248 255
243 248 255
243 248 255
243 248 255
243 248 255
243 248 255
243 248 255
243 248 255
243 248 255
243 248 255
243 248 255
243 248 255
243 248 255
243 248 255
243 248 255
243 248 255
243 248 255
243 248 255
243 248 255
243 248 255
243 248 255
243 248 255
243 248 255
243 248 255
243 248 255
243 248 255
243 248 255
243 248 255
243 248 255
243 248 255
243 248 255
243 248 255
243 248 255
243 248 255
243 248 255
243 248 255
243 248 255
243 248 255
243 248 255
243 248 255
243 248 255
243 248 255
242 248 255
242 248 255
242 248 255
242 248 255
242 248 255
242 248 255
242 248 255
242 248 255
242 248 255
242 248 255
242 248 255
242 248 255
242 247 255
242 247 255
242 247 255
242 247 255
242 247 255
242 247 255
242 247 255
242 247 255
242 247 255
242 247 255
239 171 177
240 55 57
241 0 0
232 0 0
232 0 0
231 0 0
234 0 0
235 0 0
233 0 0
236 0 0
229 0 0
227 0 0
236 0 0
235 0 0
235 0 0
228 0 0
231 0 0
237 0 0
234 0 0
230 0 0
233 0 0
227 0 0
235 0 0
230 0 0
234 0 0
230 0 0
233 0 0
236 0 0
232 0 0
230 0 0
235 0 0
232 0 0
229 0 0
231 0 0
234 0 0
229 0 0
231 0 0
232 0 0
229 0 0
229 0 0
233 0 0
233 0 0
232 0 0
237 0 0
231 0 0
233 0 0
232 0 0
230 0 0
229 0 0
230 0 0
234 0 0
229 0 0
230 0 0
232 0 0
229 0 0
234 0 0
228 0 0
235 0 0
234 0 0
235 0 0
230 0 0
233 0 0
232 0 0
234 0 0
232 0 0
232 0 0
233 0 0
234 0 0
233 0 0
229 0 0
232 0 0
234 0 0
230 0 0
231 0 0
234 0 0
231 0 0
232 0 0
233 0 0
232 0 0
233 0 0
231 0 0
228 0 0
229 0 0
233 0 0
232 0 0
233 0 0
233 0 0
230 0 0
233 0 0
230 0 0
229 0 0
230 0 0
231 0 0
235 0 0
231 0 0
230 0 0
229 0 0
230 0 0
234 0 0
232 0 0
230 0 0
231 0 0
231 0 0
231 0 0
232 0 0
232 0 0
229 0 0
230 0 0
227 0 0
231 0 0
230 0 0
231 0 0
234 0 0
231 0 0
233 0 0
231 0 0
231 0 0
232 0 0
230 0 0
232 0 0
231 0 0
229 0 0
234 0 0
234 0 0
231 0 0
232 0 0
230 0 0
233 0 0
231 0 0
233 0 0
234 0 0
230 0 0
230 0 0
0 0 255
0 0 255
0 0 255
0 0 255
0 0 255
0 0 255
0 0 255
0 0 255
0 0 255
0 0 255
0 0 255
0 0 255
0 0 255
0 0 253
0 0 255
0 0 255
0 0 254
0 0 254
0 0 255
0 0 255
0 0 255
0 0 255
0 0 255
0 0 255
0 0 255
0 0 254
0 0 255
0 0 254
0 0 255
0 0 255
0 0 255
0 0 255
0 0 255
0 0 255
0 0 255
0 0 254
0 0 255
0 0 255
0 0 255
0 0 255
0 0 255
0 0 255
0 0 255
0 0 255
0 0 255
0 0 255
0 0 255
0 0 255
0 0 254
0 0 254
0 0 255
0 0 255
0 0 254
0 0 254
0 0 255
0 0 255
0 0 255
0 0 254
0 0 253
0 0 254
0 0 252
0 0 254
0 0 255
0 0 253
0 0 253
0 0 254
0 0 254
0 0 255
0 0 252
0 0 253
0 0 254
0 0 253
0 0 253
0 0 255
0 0 255
0 0 254
0 0 254
0 0 253
0 0 250
0 0 249
0 0 252
0 0 253
0 0 255
0 0 255
0 0 254
0 0 255
0 0 254
0 0 254
0 0 254
0 0 253
0 0 254
0 0 253
0 0 252
0 0 250
0 0 250
0 0 252
0 0 252
0 0 252
0 0 253
0 0 254
0 0 250
0 0 254
0 0 250
0 0 252
0 0 253
0 0 255
0 0 254
0 0 250
0 0 253
0 0 253
0 0 253
0 0 254
0 0 254
0 0 250
0 0 253
0 0 250
0 0 250
0 0 253
0 0 253
0 0 254
0 0 252
0 0 252
0 0 246
0 0 254
0 0 252
0 0 246
0 0 253
0 0 249
0 0 249
87 89 253
174 178 254
240 246 255
242 247 255
242 247 255
242 247 255
242 247 255
242 247 255
242 247 255
242 247 255
242 247 255
242 248 255
242 248 255
242 248 255
242 248 255
242 248 255
242 248 255
242 248 255
242 248 255
242 248 255
242 248 255
242 248 255
243 248 255
243 248 255
243 248 255
243 248 255
243 248 255
243 248 255
243 248 255
243 248 255
243 248 255
243 248 255
243 248 255
243 248 255
243 248 255
243 248 255
243 248 255
243 248 255
243 248 255
243 248 255
243 248 255
243 248 255
243 248 255
243 248 255
243 248 255
243 248 255
243 248 255
243 248 255
243 248 255
243 248 255
243 248 255
243 248 255
243 248 255
243 248 255
243 248 255
243 248 255
244 248 255
244 248 255
244 248 255
244 248 255
244 248 255
244 248 255
244 248 255
244 248 255
244 248 255
244 248 255
244 248 255
244 248 255
244 248 255
244 248 255
244 248 255
244 248 255
244 248 255
244 248 255
244 248 255
244 248 255
244 248 255
244 248 255
244 248 255
244 248 255
244 248 255
244 248 255
244 248 255
244 248 255
244 248 255
244 248 255
243 248 255
243 248 255
243 248 255
243 248 255
243 248 255
243 248 255
243 248 255
243 248 255
243 248 255
243 248 255
243 248 255
243 248 255
243 248 255
243 248 255
243 248 255
243 248 255
243 248 255
243 248 255
243 248 255
243 248 255
243 248 255
243 248 255
243 248 255
243 248 255
243 248 255
243 248 255
243 248 255
243 248 255
243 248 255
243 248 255
243 248 255
243 248 255
243 248 255
243 248 255
242 248 255
242 248 255
242 248 255
242 248 255
242 248 255
242 248 255
242 248 255
242 248 255
242 248 255
242 248 255
242 248 255
242 247 255
242 247 255
242 247 255
242 247 255
242 247 255
242 247 255
242 247 255
242 247 255
242 243 252
240 178 184
237 74 76
239 0 0
236 0 0
236 0 0
236 0 0
235 0 0
233 0 0
232 0 0
234 0 0
235 0 0
233 0 0
233 0 0
230 0 0
237 0 0
230 0 0
234 0 0
237 0 0
232 0 0
235 0 0
233 0 0
232 0 0
231 0 0
234 0 0
232 0 0
231 0 0
237 0 0
231 0 0
232 0 0
229 0 0
232 0 0
232 0 0
232 0 0
229 0 0
234 0 0
232 0 0
233 0 0
238 0 0
234 0 0
232 0 0
236 0 0
231 0 0
228 0 0
228 0 0
229 0 0
234 0 0
232 0 0
231 0 0
233 0 0
231 0 0
233 0 0
234 0 0
234 0 0
231 0 0
233 0 0
233 0 0
231 0 0
231 0 0
235 0 0
233 0 0
232 0 0
232 0 0
230 0 0
232 0 0
232 0 0
231 0 0
236 0 0
229 0 0
230 0 0
233 0 0
235 0 0
230 0 0
226 0 0
233 0 0
228 0 0
234 0 0
233 0 0
232 0 0
231 0 0
229 0 0
232 0 0
230 0 0
231 0 0
231 0 0
233 0 0
234 0 0
234 0 0
233 0 0
234 0 0
229 0 0
232 0 0
229 0 0
232 0 0
231 0 0
232 0 0
228 0 0
234 0 0
231 0 0
231 0 0
232 0 0
230 0 0
231 0 0
230 0 0
229 0 0
233 0 0
230 0 0
229 0 0
234 0 0
233 0 0
233 0 0
233 0 0
231 0 0
230 0 0
230 0 0
229 0 0
231 0 0
233 0 0
234 0 0
228 0 0
227 0 0
231 0 0
232 0 0
231 0 0
232 0 0
231 0 0
234 0 0
229 0 0
232 0 0
229 0 0
231 0 0
232 0 0
0 0 255
0 0 255
0 0 254
0 0 255
0 0 255
0 0 254
0 0 255
0 0 255
0 0 255
0 0 255
0 0 254
0 0 255
0 0 255
0 0 255
0 0 255
0 0 255
0 0 255
0 0 255
0 0 255
0 0 255
0 0 255
0 0 253
0 0 255
0 0 255
0 0 255
0 0 255
0 0 255
0 0 255
0 0 255
0 0 254
0 0 254
0 0 254
0 0 255
0 0 255
0 0 255
0 0 254
0 0 255
0 0 255
0 0 255
0 0 254
0 0 252
0 0 255
0 0 255
0 0 253
0 0 255
0 0 255
0 0 255
0 0 255
0 0 255
0 0 254
0 0 255
0 0 254
0 0 254
0 0 255
0 0 252
0 0 254
0 0 254
0 0 254
0 0 255
0 0 255
0 0 255
0 0 252
0 0 255
0 0 253
0 0 254
0 0 255
0 0 254
0 0 254
0 0 255
0 0 255
0 0 255
0 0 255
0 0 254
0 0 253
0 0 252
0 0 255
0 0 255
0 0 255
0 0 253
0 0 252
0 0 253
0 0 255
0 0 254
0 0 250
0 0 249
0 0 255
0 0 253
0 0 255
0 0 254
0 0 254
0 0 255
0 0 253
0 0 253
0 0 255
0 0 253
0 0 254
0 0 252
0 0 250
0 0 255
0 0 254
0 0 249
0 0 253
0 0 250
0 0 254
0 0 252
0 0 254
0 0 253
0 0 252
0 0 253
0 0 250
0 0 252
0 0 254
0 0 250
0 0 254
0 0 253
0 0 253
0 0 253
0 0 255
0 0 254
0 0 249
0 0 253
0 0 254
0 0 254
0 0 246
0 0 255
0 0 249
0 0 248
93 95 255
193 198 255
237 242 255
242 247 255
242 247 255
242 247 255
242 247 255
242 247 255
242 247 255
242 247 255
242 248 255
242 248 255
242 248 255
242 248 255
242 248 255
242 248 255
242 248 255
242 248 255
242 248 255
242 248 255
242 248 255
243 248 255
243 248 255
243 248 255
243 248 255
243 248 255
243 248 255
243 248 255
243 248 255
243 248 255
243 248 255
243 248 255
243 248 255
243 248 255
243 248 255
243 248 255
243 248 255
243 248 255
243 248 255
243 248 255
243 248 255
243 248 255
243 248 255
243 248 255
243 248 255
243 248 255
243 248 255
243 248 255
243 248 255
243 248 255
243 248 255
244 248 255
244 248 255
244 248 255
244 248 255
244 248 255
244 248 255
244 248 255
244 248 255
244 248 255
244 248 255
244 248 255
244 248 255
244 248 255
244 248 255
244 248 255
244 248 255
244 249 255
244 249 255
244 249 255
244 249 255
244 249 255
244 249 255
244 249 255
244 249 255
244 249 255
244 249 255
244 249 255
244 249 255
244 248 255
244 248 255
244 248 255
244 248 255
244 248 255
244 248 255
244 248 255
244 248 255
244 248 255
244 248 255
244 248 255
244 248 255
244 248 255
244 248 255
244 248 255
244 248 255
243 248 255
243 248 255
243 248 255
243 248 255
243 248 255
243 248 255
243 248 255
243 248 255
243 248 255
243 248 255
243 248 255
243 248 255
243 248 255
243 248 255
243 248 255
243 248 255
243 248 255
243 248 255
243 248 255
243 248 255
243 248 255
243 248 255
243 248 255
243 248 255
243 248 255
243 248 255
243 248 255
243 248 255
243 248 255
243 248 255
242 248 255
242 248 255
242 248 255
242 248 255
242 248 255
242 248 255
242 248 255
242 248 255
242 248 255
242 248 255
242 248 255
242 247 255
242 247 255
242 247 255
242 247 255
242 247 255
242 247 255
242 247 255
240 242 250
238 188 194
236 82 84
238 0 0
235 0 0
230 0 0
233 0 0
236 0 0
237 0 0
235 0 0
237 0 0
234 0 0
237 0 0
238 0 0
233 0 0
235 0 0
234 0 0
234 0 0
234 0 0
231 0 0
236 0 0
234 0 0
231 0 0
234 0 0
230 0 0
234 0 0
233 0 0
235 0 0
236 0 0
236 0 0
233 0 0
235 0 0
234 0 0
237 0 0
233 0 0
233 0 0
234 0 0
234 0 0
235 0 0
235 0 0
232 0 0
239 0 0
232 0 0
233 0 0
233 0 0
234 0 0
233 0 0
231 0 0
232 0 0
232 0 0
231 0 0
232 0 0
233 0 0
232 0 0
231 0 0
228 0 0
235 0 0
231 0 0
235 0 0
231 0 0
228 0 0
234 0 0
233 0 0
231 0 0
233 0 0
230 0 0
233 0 0
232 0 0
236 0 0
232 0 0
233 0 0
232 0 0
231 0 0
232 0 0
231 0 0
229 0 0
231 0 0
228 0 0
232 0 0
233 0 0
233 0 0
231 0 0
233 0 0
231 0 0
231 0 0
230 0 0
235 0 0
230 0 0
232 0 0
233 0 0
231 0 0
230 0 0
231 0 0
229 0 0
231 0 0
232 0 0
228 0 0
234 0 0
232 0 0
232 0 0
231 0 0
236 0 0
231 0 0
231 0 0
230 0 0
230 0 0
231 0 0
232 0 0
232 0 0
230 0 0
230 0 0
232 0 0
230 0 0
232 0 0
229 0 0
232 0 0
233 0 0
229 0 0
232 0 0
233 0 0
233 0 0
233 0 0
232 0 0
231 0 0
232 0 0
229 0 0
232 0 0
236 0 0
233 0 0
232 0 0
0 0 255
0 0 255
0 0 255
0 0 255
0 0 255
0 0 255
0 0 255
0 0 255
0 0 255
0 0 255
0 0 254
0 0 255
0 0 255
0 0 255
0 0 255
0 0 255
0 0 255
0 0 254
0 0 255
0 0 255
0 0 255
0 0 255
0 0 255
0 0 254
0 0 255
0 0 255
0 0 255
0 0 255
0 0 255
0 0 255
0 0 255
0 0 255
0 0 255
0 0 255
0 0 255
0 0 254
0 0 255
0 0 254
0 0 255
0 0 253
0 0 255
0 0 255
0 0 255
0 0 254
0 0 255
0 0 254
0 0 254
0 0 254
0 0 255
0 0 252
0 0 255
0 0 254
0 0 255
0 0 253
0 0 254
0 0 255
0 0 255
0 0 254
0 0 255
0 0 253
0 0 255
0 0 255
0 0 253
0 0 255
0 0 255
0 0 255
0 0 255
0 0 253
0 0 255
0 0 255
0 0 253
0 0 254
0 0 254
0 0 252
0 0 252
0 0 250
0 0 254
0 0 253
0 0 255
0 0 254
0 0 255
0 0 253
0 0 255
0 0 255
0 0 255
0 0 254
0 0 253
0 0 254
0 0 253
0 0 253
0 0 250
0 0 254
0 0 252
0 0 253
0 0 254
0 0 254
0 0 253
0 0 253
0 0 252
0 0 255
0 0 253
0 0 249
0 0 255
0 0 253
0 0 254
0 0 252
0 0 254
0 0 253
0 0 254
0 0 254
0 0 252
0 0 255
0 0 253
0 0 252
0 0 246
0 0 253
0 0 249
0 0 249
0 0 255
0 0 253
0 0 252
0 0 252
0 0 250
0 0 254
0 0 253
110 113 253
202 207 254
242 247 255
242 247 255
242 247 255
242 247 255
242 247 255
242 247 255
242 247 255
242 247 255
242 248 255
242 248 255
242 248 255
242 248 255
242 248 255
242 248 255
242 248 255
242 248 255
242 248 255
242 248 255
243 248 255
243 248 255
243 248 255
243 248 255
243 248 255
243 248 255
243 248 255
243 248 255
243 248 255
243 248 255
243 248 255
243 248 255
243 248 255
243 248 255
243 248 255
243 248 255
243 248 255
243 248 255
243 248 255
243 248 255
243 248 255
243 248 255
243 248 255
243 248 255
243 248 255
243 248 255
243 248 255
244 248 255
244 248 255
244 248 255
244 248 255
244 248 255
244 248 255
244 248 255
244 248 255
244 248 255
244 248 255
244 249 255
244 249 255
244 249 255
244 249 255
244 249 255
244 249 255
244 249 255
244 249 255
244 249 255
244 249 255
244 249 255
244 249 255
244 249 255
244 249 255
244 249 255
244 249 255
244 249 255
244 249 255
244 249 255
244 249 255
244 249 255
244 249 255
244 249 255
244 249 255
244 249 255
244 249 255
244 249 255
244 249 255
244 249 255
244 249 255
244 249 255
244 249 255
244 249 255
244 249 255
244 249 255
244 249 255
244 248 255
244 248 255
244 248 255
244 248 255
244 248 255
244 248 255
244 248 255
244 248 255
244 248 255
244 248 255
243 248 255
243 248 255
243 248 255
243 248 255
243 248 255
243 248 255
243 248 255
243 248 255
243 248 255
243 248 255
243 248 255
243 248 255
243 248 255
243 248 255
243 248 255
243 248 255
243 248 255
243 248 255
243 248 255
243 248 255
243 248 255
243 248 255
243 248 255
243 248 255
243 248 255
243 248 255
243 248 255
242 248 255
242 248 255
242 248 255
242 248 255
242 248 255
242 248 255
242 248 255
242 248 255
242 248 255
242 248 255
242 247 255
242 247 255
242 247 255
242 247 255
242 247 255
242 247 255
242 247 255
242 247 255
236 188 194
237 113 117
239 0 0
236 0 0
238 0 0
230 0 0
234 0 0
231 0 0
236 0 0
229 0 0
235 0 0
236 0 0
236 0 0
234 0 0
236 0 0
236 0 0
236 0 0
238 0 0
233 0 0
236 0 0
231 0 0
234 0 0
236 0 0
235 0 0
232 0 0
236 0 0
233 0 0
233 0 0
232 0 0
235 0 0
234 0 0
233 0 0
235 0 0
234 0 0
230 0 0
235 0 0
232 0 0
234 0 0
232 0 0
231 0 0
235 0 0
231 0 0
235 0 0
230 0 0
233 0 0
235 0 0
233 0 0
231 0 0
232 0 0
234 0 0
230 0 0
231 0 0
232 0 0
233 0 0
234 0 0
235 0 0
230 0 0
232 0 0
232 0 0
231 0 0
231 0 0
233 0 0
231 0 0
232 0 0
234 0 0
233 0 0
232 0 0
233 0 0
231 0 0
231 0 0
232 0 0
235 0 0
233 0 0
233 0 0
233 0 0
233 0 0
234 0 0
234 0 0
234 0 0
229 0 0
228 0 0
233 0 0
232 0 0
233 0 0
231 0 0
232 0 0
232 0 0
232 0 0
233 0 0
233 0 0
235 0 0
234 0 0
232 0 0
233 0 0
235 0 0
235 0 0
231 0 0
232 0 0
235 0 0
231 0 0
232 0 0
231 0 0
232 0 0
232 0 0
232 0 0
232 0 0
232 0 0
234 0 0
232 0 0
236 0 0
232 0 0
232 0 0
229 0 0
232 0 0
233 0 0
231 0 0
230 0 0
232 0 0
233 0 0
232 0 0
231 0 0
231 0 0
232 0 0
232 0 0
231 0 0
232 0 0
230 0 0
0 0 255
0 0 255
0 0 255
0 0 255
0 0 255
0 0 255
0 0 255
0 0 255
0 0 255
0 0 255
0 0 255
0 0 255
0 0 255
0 0 255
0 0 255
0 0 255
0 0 254
0 0 255
0 0 255
0 0 255
0 0 255
0 0 255
0 0 255
0 0 255
0 0 254
0 0 255
0 0 255
0 0 254
0 0 255
0 0 255
0 0 255
0 0 255
0 0 255
0 0 255
0 0 255
0 0 255
0 0 255
0 0 254
0 0 255
0 0 253
0 0 254
0 0 255
0 0 255
0 0 255
0 0 255
0 0 254
0 0 254
0 0 255
0 0 255
0 0 254
0 0 253
0 0 253
0 0 253
0 0 254
0 0 254
0 0 255
0 0 254
0 0 255
0 0 254
0 0 254
0 0 252
0 0 253
0 0 255
0 0 255
0 0 254
0 0 254
0 0 254
0 0 254
0 0 254
0 0 253
0 0 254
0 0 253
0 0 254
0 0 254
0 0 255
0 0 254
0 0 255
0 0 253
0 0 253
0 0 252
0 0 250
0 0 253
0 0 254
0 0 254
0 0 252
0 0 254
0 0 254
0 0 249
0 0 250
0 0 254
0 0 254
0 0 255
0 0 254
0 0 249
0 0 253
0 0 254
0 0 254
0 0 254
0 0 255
0 0 253
0 0 254
0 0 255
0 0 254
0 0 252
0 0 250
0 0 254
0 0 254
0 0 250
0 0 250
0 0 254
0 0 252
0 0 252
0 0 253
0 0 253
0 0 254
0 0 255
0 0 250
0 0 252
0 0 252
0 0 253
0 0 254
0 0 255
41 42 255
162 166 254
204 208 254
242 247 255
242 247 255
242 247 255
242 247 255
242 247 255
242 247 255
242 247 255
242 248 255
242 248 255
242 248 255
242 248 255
242 248 255
242 248 255
242 248 255
242 248 255
242 248 255
242 248 255
243 248 255
243 248 255
243 248 255
243 248 255
243 248 255
243 248 255
243 248 255
243 248 255
243 248 255
243 248 255
243 248 255
243 248 255
243 248 255
243 248 255
243 248 255
243 248 255
243 248 255
243 248 255
243 248 255
243 248 255
243 248 255
243 248 255
243 248 255
243 248 255
243 248 255
244 248 255
244 248 255
244 248 255
244 248 255
244 248 255
244 248 255
244 248 255
244 248 255
244 248 255
244 249 255
244 249 255
244 249 255
244 249 255
244 249 255
244 249 255
244 249 255
244 249 255
244 249 255
244 249 255
244 249 255
244 249 255
244 249 255
244 249 255
244 249 255
244 249 255
244 249 255
244 249 255
244 249 255
244 249 255
244 249 255
244 249 255
244 249 255
244 249 255
244 249 255
244 249 255
244 249 255
244 249 255
244 249 255
244 249 255
244 249 255
244 249 255
244 249 255
244 249 255
244 249 255
244 249 255
244 249 255
244 249 255
244 249 255
244 249 255
244 249 255
244 249 255
244 249 255
244 249 255
244 249 255
244 249 255
244 249 255
244 249 255
244 248 255
244 248 255
244 248 255
244 248 255
244 248 255
244 248 255
244 248 255
244 248 255
244 248 255
243 248 255
243 248 255
243 248 255
243 248 255
243 248 255
243 248 255
243 248 255
243 248 255
243 248 255
243 248 255
243 248 255
243 248 255
243 248 255
243 248 255
243 248 255
243 248 255
243 248 255
243 248 255
243 248 255
243 248 255
243 248 255
243 248 255
243 248 255
243 248 255
243 248 255
242 248 255
242 248 255
242 248 255
242 248 255
242 248 255
242 248 255
242 248 255
242 248 255
242 248 255
242 248 255
242 247 255
242 247 255
242 247 255
242 247 255
242 247 255
242 247 255
242 247 255
241 225 233
240 146 151
241 42 44
238 0 0
238 0 0
235 0 0
236 0 0
236 0 0
236 0 0
235 0 0
235 0 0
235 0 0
235 0 0
236 0 0
237 0 0
237 0 0
233 0 0
235 0 0
235 0 0
237 0 0
235 0 0
240 0 0
233 0 0
234 0 0
237 0 0
232 0 0
233 0 0
235 0 0
232 0 0
234 0 0
234 0 0
233 0 0
237 0 0
234 0 0
231 0 0
231 0 0
234 0 0
236 0 0
232 0 0
231 0 0
236 0 0
233 0 0
231 0 0
236 0 0
233 0 0
233 0 0
235 0 0
235 0 0
234 0 0
235 0 0
234 0 0
231 0 0
232 0 0
234 0 0
232 0 0
233 0 0
231 0 0
233 0 0
235 0 0
231 0 0
233 0 0
232 0 0
232 0 0
231 0 0
228 0 0
231 0 0
230 0 0
233 0 0
234 0 0
228 0 0
234 0 0
230 0 0
233 0 0
233 0 0
233 0 0
231 0 0
235 0 0
231 0 0
234 0 0
232 0 0
230 0 0
230 0 0
230 0 0
234 0 0
229 0 0
233 0 0
234 0 0
231 0 0
233 0 0
231 0 0
232 0 0
235 0 0
231 0 0
232 0 0
234 0 0
233 0 0
231 0 0
230 0 0
233 0 0
231 0 0
232 0 0
231 0 0
232 0 0
233 0 0
232 0 0
230 0 0
232 0 0
233 0 0
233 0 0
230 0 0
231 0 0
233 0 0
233 0 0
234 0 0
232 0 0
232 0 0
230 0 0
232 0 0
233 0 0
233 0 0
235 0 0
231 0 0
233 0 0
231 0 0
230 0 0
0 0 255
0 0 255
0 0 255
0 0 255
0 0 255
0 0 255
0 0 255
0 0 255
0 0 255
0 0 255
0 0 255
0 0 255
0 0 255
0 0 255
0 0 255
0 0 255
0 0 255
0 0 255
0 0 255
0 0 255
0 0 255
0 0 255
0 0 255
0 0 254
0 0 255
0 0 255
0 0 255
0 0 255
0 0 255
0 0 255
0 0 255
0 0 254
0 0 255
0 0 254
0 0 254
0 0 254
0 0 255
0 0 255
0 0 254
0 0 255
0 0 255
0 0 253
0 0 255
0 0 255
0 0 255
0 0 255
0 0 255
0 0 255
0 0 255
0 0 255
0 0 255
0 0 255
0 0 255
0 0 255
0 0 255
0 0 255
0 0 254
0 0 254
0 0 254
0 0 255
0 0 253
0 0 253
0 0 254
0 0 254
0 0 255
0 0 255
0 0 253
0 0 255
0 0 255
0 0 254
0 0 253
0 0 254
0 0 253
0 0 255
0 0 255
0 0 254
0 0 255
0 0 255
0 0 254
0 0 253
0 0 254
0 0 255
0 0 252
0 0 254
0 0 254
0 0 254
0 0 252
0 0 254
0 0 254
0 0 254
0 0 255
0 0 255
0 0 253
0 0 254
0 0 254
0 0 253
0 0 253
0 0 255
0 0 253
0 0 253
0 0 254
0 0 253
0 0 253
0 0 254
0 0 254
0 0 252
0 0 253
0 0 253
0 0 253
0 0 253
0 0 253
0 0 252
0 0 252
0 0 250
0 0 250
0 0 249
0 0 253
0 0 254
0 0 249
0 0 252
83 85 255
172 176 254
228 233 255
242 247 255
242 247 255
242 247 255
242 247 255
242 247 255
242 247 255
242 247 255
242 248 255
242 248 255
242 248 255
242 248 255
242 248 255
242 248 255
242 248 255
242 248 255
242 248 255
243 248 255
243 248 255
243 248 255
243 248 255
243 248 255
243 248 255
243 248 255
243 248 255
243 248 255
243 248 255
243 248 255
243 248 255
243 248 255
243 248 255
243 248 255
243 248 255
243 248 255
243 248 255
243 248 255
243 248 255
243 248 255
243 248 255
243 248 255
243 248 255
244 248 255
244 248 255
244 248 255
244 248 255
244 248 255
244 248 255
244 248 255
244 249 255
244 249 255
244 249 255
244 249 255
244 249 255
244 249 255
244 249 255
244 249 255
244 249 255
244 249 255
244 249 255
244 249 255
244 249 255
244 249 255
244 249 255
244 249 255
244 249 255
244 249 255
244 249 255
244 249 255
244 249 255
244 249 255
244 249 255
244 249 255
244 249 255
244 249 255
244 249 255
244 249 255
244 249 255
244 249 255
244 249 255
244 249 255
244 249 255
244 249 255
244 249 255
244 249 255
244 249 255
244 249 255
244 249 255
244 249 255
244 249 255
244 249 255
244 249 255
244 249 255
244 249 255
244 249 255
244 249 255
244 249 255
244 249 255
244 249 255
244 249 255
244 249 255
244 249 255
244 249 255
244 249 255
244 249 255
244 249 255
244 249 255
244 249 255
244 249 255
244 248 255
244 248 255
244 248 255
244 248 255
244 248 255
244 248 255
244 248 255
243 248 255
243 248 255
243 248 255
243 248 255
243 248 255
243 248 255
243 248 255
243 248 255
243 248 255
243 248 255
243 248 255
243 248 255
243 248 255
243 248 255
243 248 255
243 248 255
243 248 255
243 248 255
243 248 255
243 248 255
243 248 255
243 248 255
243 248 255
243 248 255
242 248 255
242 248 255
242 248 255
242 248 255
242 248 255
242 248 255
242 248 255
242 248 255
242 248 255
242 247 255
242 247 255
242 247 255
242 247 255
242 247 255
242 247 255
242 247 255
241 236 244
240 162 167
235 95 99
240 0 0
238 0 0
235 0 0
236 0 0
237 0 0
232 0 0
235 0 0
236 0 0
232 0 0
237 0 0
234 0 0
238 0 0
235 0 0
232 0 0
233 0 0
235 0 0
232 0 0
233 0 0
233 0 0
233 0 0
229 0 0
236 0 0
233 0 0
236 0 0
235 0 0
235 0 0
232 0 0
231 0 0
232 0 0
230 0 0
235 0 0
235 0 0
237 0 0
233 0 0
233 0 0
235 0 0
233 0 0
233 0 0
234 0 0
229 0 0
233 0 0
233 0 0
232 0 0
232 0 0
234 0 0
236 0 0
230 0 0
235 0 0
232 0 0
234 0 0
233 0 0
235 0 0
233 0 0
231 0 0
234 0 0
229 0 0
234 0 0
235 0 0
234 0 0
232 0 0
231 0 0
232 0 0
233 0 0
233 0 0
233 0 0
232 0 0
236 0 0
229 0 0
233 0 0
232 0 0
232 0 0
231 0 0
235 0 0
230 0 0
236 0 0
230 0 0
232 0 0
234 0 0
234 0 0
235 0 0
232 0 0
234 0 0
233 0 0
233 0 0
234 0 0
234 0 0
232 0 0
231 0 0
229 0 0
234 0 0
231 0 0
230 0 0
233 0 0
232 0 0
233 0 0
232 0 0
235 0 0
231 0 0
233 0 0
234 0 0
233 0 0
231 0 0
234 0 0
232 0 0
233 0 0
230 0 0
232 0 0
233 0 0
232 0 0
229 0 0
232 0 0
230 0 0
233 0 0
235 0 0
233 0 0
232 0 0
232 0 0
234 0 0
230 0 0
232 0 0
0 0 255
0 0 255
0 0 255
0 0 255
0 0 255
0 0 255
0 0 255
0 0 255
0 0 255
0 0 255
0 0 255
0 0 255
0 0 255
0 0 255
0 0 255
0 0 254
0 0 254
0 0 255
0 0 255
0 0 255
0 0 255
0 0 255
0 0 255
0 0 255
0 0 255
0 0 255
0 0 255
0 0 255
0 0 255
0 0 255
0 0 255
0 0 254
0 0 255
0 0 255
0 0 255
0 0 254
0 0 255
0 0 255
0 0 254
0 0 255
0 0 255
0 0 255
0 0 255
0 0 255
0 0 255
0 0 255
0 0 254
0 0 254
0 0 255
0 0 254
0 0 255
0 0 254
0 0 255
0 0 255
0 0 255
0 0 254
0 0 255
0 0 255
0 0 254
0 0 254
0 0 255
0 0 255
0 0 255
0 0 255
0 0 254
0 0 255
0 0 253
0 0 254
0 0 254
0 0 252
0 0 254
0 0 255
0 0 255
0 0 254
0 0 255
0 0 252
0 0 254
0 0 254
0 0 253
0 0 254
0 0 253
0 0 255
0 0 255
0 0 255
0 0 253
0 0 253
0 0 255
0 0 254
0 0 252
0 0 253
0 0 255
0 0 254
0 0 253
0 0 253
0 0 254
0 0 255
0 0 249
0 0 254
0 0 255
0 0 253
0 0 255
0 0 255
0 0 250
0 0 253
0 0 252
0 0 255
0 0 253
0 0 249
0 0 252
0 0 254
0 0 255
0 0 252
0 0 254
0 0 254
0 0 252
0 0 255
0 0 254
24 24 250
121 123 252
205 210 254
242 247 255
242 247 255
242 247 255
242 247 255
242 247 255
242 247 255
242 247 255
242 248 255
242 248 255
242 248 255
242 248 255
242 248 255
242 248 255
242 248 255
242 248 255
242 248 255
243 248 255
243 248 255
243 248 255
243 248 255
243 248 255
243 248 255
243 248 255
243 248 255
243 248 255
243 248 255
243 248 255
243 248 255
243 248 255
243 248 255
243 248 255
243 248 255
243 248 255
243 248 255
243 248 255
243 248 255
243 248 255
243 248 255
243 248 255
244 248 255
244 248 255
244 248 255
244 248 255
244 248 255
244 248 255
244 248 255
244 249 255
244 249 255
244 249 255
244 249 255
244 249 255
244 249 255
244 249 255
244 249 255
244 249 255
244 249 255
244 249 255
244 249 255
244 249 255
244 249 255
244 249 255
244 249 255
244 249 255
244 249 255
244 249 255
244 249 255
244 249 255
244 249 255
244 249 255
244 249 255
244 249 255
244 249 255
244 249 255
244 249 255
244 249 255
244 249 255
244 249 255
244 249 255
244 249 255
244 249 255
244 249 255
244 249 255
244 249 255
244 249 255
244 249 255
244 249 255
244 249 255
244 249 255
244 249 255
244 249 255
244 249 255
244 249 255
244 249 255
244 249 255
244 249 255
244 249 255
244 249 255
244 249 255
244 249 255
244 249 255
244 249 255
244 249 255
244 249 255
244 249 255
244 249 255
244 249 255
244 249 255
244 249 255
244 249 255
244 249 255
244 249 255
244 249 255
244 249 255
244 249 255
244 248 255
244 248 255
244 248 255
244 248 255
244 248 255
244 248 255
244 248 255
243 248 255
243 248 255
243 248 255
243 248 255
243 248 255
243 248 255
243 248 255
243 248 255
243 248 255
243 248 255
243 248 255
243 248 255
243 248 255
243 248 255
243 248 255
243 248 255
243 248 255
243 248 255
243 248 255
243 248 255
243 248 255
243 248 255
243 248 255
242 248 255
242 248 255
242 248 255
242 248 255
242 248 255
242 248 255
242 248 255
242 248 255
242 248 255
242 247 255
242 247 255
242 247 255
242 247 255
242 247 255
242 247 255
241 245 253
242 211 218
240 142 147
239 42 44
238 0 0
235 0 0
239 0 0
236 0 0
234 0 0
237 0 0
236 0 0
236 0 0
238 0 0
236 0 0
235 0 0
234 0 0
233 0 0
234 0 0
233 0 0
235 0 0
237 0 0
232 0 0
236 0 0
237 0 0
230 0 0
238 0 0
234 0 0
229 0 0
233 0 0
235 0 0
235 0 0
230 0 0
237 0 0
233 0 0
236 0 0
232 0 0
231 0 0
235 0 0
236 0 0
233 0 0
235 0 0
232 0 0
233 0 0
233 0 0
233 0 0
234 0 0
234 0 0
231 0 0
230 0 0
232 0 0
232 0 0
234 0 0
235 0 0
233 0 0
234 0 0
231 0 0
232 0 0
232 0 0
232 0 0
233 0 0
236 0 0
231 0 0
232 0 0
230 0 0
234 0 0
232 0 0
230 0 0
232 0 0
233 0 0
234 0 0
231 0 0
232 0 0
235 0 0
231 0 0
235 0 0
229 0 0
231 0 0
231 0 0
235 0 0
234 0 0
233 0 0
232 0 0
234 0 0
228 0 0
232 0 0
229 0 0
233 0 0
233 0 0
232 0 0
234 0 0
229 0 0
233 0 0
232 0 0
233 0 0
232 0 0
230 0 0
230 0 0
233 0 0
233 0 0
233 0 0
232 0 0
233 0 0
236 0 0
230 0 0
234 0 0
232 0 0
232 0 0
233 0 0
232 0 0
234 0 0
234 0 0
235 0 0
231 0 0
232 0 0
230 0 0
231 0 0
234 0 0
231 0 0
233 0 0
234 0 0
234 0 0
0 0 255
0 0 255
0 0 255
0 0 255
0 0 255
0 0 255
0 0 255
0 0 255
0 0 255
0 0 255
0 0 255
0 0 255
0 0 255
0 0 255
0 0 255
0 0 255
0 0 255
0 0 255
0 0 255
0 0 255
0 0 254
0 0 255
0 0 255
0 0 254
0 0 255
0 0 255
0 0 254
0 0 255
0 0 255
0 0 254
0 0 255
0 0 255
0 0 255
0 0 255
0 0 254
0 0 255
0 0 254
0 0 254
0 0 255
0 0 255
0 0 255
0 0 253
0 0 255
0 0 254
0 0 255
0 0 255
0 0 253
0 0 254
0 0 254
0 0 255
0 0 255
0 0 253
0 0 255
0 0 255
0 0 255
0 0 254
0 0 254
0 0 252
0 0 255
0 0 254
0 0 254
0 0 254
0 0 255
0 0 253
0 0 255
0 0 253
0 0 255
0 0 253
0 0 253
0 0 255
0 0 255
0 0 255
0 0 254
0 0 254
0 0 253
0 0 255
0 0 254
0 0 254
0 0 254
0 0 254
0 0 252
0 0 255
0 0 254
0 0 254
0 0 255
0 0 255
0 0 255
0 0 253
0 0 253
0 0 253
0 0 249
0 0 255
0 0 254
0 0 249
0 0 255
0 0 255
0 0 254
0 0 253
0 0 254
0 0 254
0 0 254
0 0 254
0 0 252
0 0 253
0 0 254
0 0 253
0 0 253
0 0 253
0 0 255
0 0 254
0 0 253
0 0 255
0 0 253
0 0 254
0 0 253
96 99 250
174 178 253
227 232 255
242 247 255
242 247 255
242 247 255
242 247 255
242 247 255
242 247 255
242 248 255
242 248 255
242 248 255
242 248 255
242 248 255
242 248 255
242 248 255
242 248 255
242 248 255
242 248 255
243 248 255
243 248 255
243 248 255
243 248 255
243 248 255
243 248 255
243 248 255
243 248 255
243 248 255
243 248 255
243 248 255
243 248 255
243 248 255
243 248 255
243 248 255
243 248 255
243 248 255
243 248 255
243 248 255
243 248 255
243 248 255
243 248 255
244 248 255
244 248 255
244 248 255
244 248 255
244 248 255
244 248 255
244 249 255
244 249 255
244 249 255
244 249 255
244 249 255
244 249 255
244 249 255
244 249 255
244 249 255
244 249 255
244 249 255
244 249 255
244 249 255
244 249 255
244 249 255
244 249 255
244 249 255
244 249 255
244 249 255
244 249 255
244 249 255
244 249 255
244 249 255
244 249 255
244 249 255
244 249 255
244 249 255
244 249 255
244 249 255
244 249 255
244 249 255
244 249 255
244 249 255
244 249 255
244 249 255
244 249 255
244 249 255
244 249 255
244 249 255
244 249 255
244 249 255
244 249 255
244 249 255
244 249 255
244 249 255
244 249 255
244 249 255
244 249 255
244 249 255
244 249 255
244 249 255
244 249 255
244 249 255
244 249 255
244 249 255
244 249 255
244 249 255
244 249 255
244 249 255
244 249 255
244 249 255
244 249 255
244 249 255
244 249 255
244 249 255
244 249 255
244 249 255
244 249 255
244 249 255
244 249 255
244 249 255
244 249 255
244 249 255
244 249 255
244 249 255
244 249 255
244 248 255
244 248 255
244 248 255
244 248 255
244 248 255
244 248 255
243 248 255
243 248 255
243 248 255
243 248 255
243 248 255
243 248 255
243 248 255
243 248 255
243 248 255
243 248 255
243 248 255
243 248 255
243 248 255
243 248 255
243 248 255
243 248 255
243 248 255
243 248 255
243 248 255
243 248 255
243 248 255
243 248 255
242 248 255
242 248 255
242 248 255
242 248 255
242 248 255
242 248 255
242 248 255
242 248 255
242 248 255
242 248 255
242 247 255
242 247 255
242 247 255
242 247 255
242 247 255
242 247 255
241 236 244
241 169 175
241 65 67
234 0 0
240 0 0
237 0 0
236 0 0
237 0 0
235 0 0
234 0 0
234 0 0
233 0 0
237 0 0
235 0 0
233 0 0
235 0 0
234 0 0
237 0 0
236 0 0
234 0 0
234 0 0
234 0 0
234 0 0
236 0 0
233 0 0
237 0 0
233 0 0
238 0 0
233 0 0
236 0 0
234 0 0
235 0 0
234 0 0
233 0 0
232 0 0
233 0 0
235 0 0
238 0 0
235 0 0
231 0 0
237 0 0
236 0 0
231 0 0
234 0 0
235 0 0
234 0 0
232 0 0
233 0 0
234 0 0
233 0 0
235 0 0
231 0 0
234 0 0
234 0 0
234 0 0
235 0 0
233 0 0
235 0 0
231 0 0
235 0 0
234 0 0
233 0 0
230 0 0
227 0 0
234 0 0
230 0 0
235 0 0
234 0 0
232 0 0
233 0 0
231 0 0
234 0 0
233 0 0
232 0 0
232 0 0
232 0 0
234 0 0
233 0 0
235 0 0
236 0 0
235 0 0
234 0 0
233 0 0
236 0 0
229 0 0
234 0 0
233 0 0
236 0 0
230 0 0
230 0 0
235 0 0
231 0 0
231 0 0
232 0 0
234 0 0
234 0 0
232 0 0
236 0 0
232 0 0
235 0 0
230 0 0
231 0 0
232 0 0
235 0 0
233 0 0
232 0 0
229 0 0
234 0 0
232 0 0
234 0 0
232 0 0
233 0 0
232 0 0
231 0 0
236 0 0
232 0 0
234 0 0
230 0 0
0 0 255
0 0 255
0 0 255
0 0 255
0 0 255
0 0 255
0 0 255
0 0 254
0 0 255
0 0 255
0 0 255
0 0 255
0 0 255
0 0 255
0 0 255
0 0 255
0 0 255
0 0 255
0 0 255
0 0 255
0 0 255
0 0 255
0 0 255
0 0 254
0 0 255
0 0 255
0 0 255
0 0 255
0 0 255
0 0 255
0 0 255
0 0 255
0 0 255
0 0 255
0 0 255
0 0 254
0 0 255
0 0 254
0 0 255
0 0 255
0 0 255
0 0 254
0 0 254
0 0 255
0 0 254
0 0 252
0 0 255
0 0 255
0 0 254
0 0 255
0 0 255
0 0 255
0 0 254
0 0 255
0 0 255
0 0 255
0 0 254
0 0 254
0 0 254
0 0 255
0 0 255
0 0 255
0 0 254
0 0 254
0 0 254
0 0 255
0 0 255
0 0 253
0 0 254
0 0 255
0 0 254
0 0 255
0 0 254
0 0 255
0 0 254
0 0 253
0 0 254
0 0 254
0 0 252
0 0 252
0 0 255
0 0 253
0 0 253
0 0 254
0 0 254
0 0 252
0 0 253
0 0 254
0 0 253
0 0 253
0 0 254
0 0 254
0 0 255
0 0 254
0 0 254
0 0 255
0 0 253
0 0 255
0 0 250
0 0 253
0 0 253
0 0 254
0 0 254
0 0 250
0 0 250
0 0 254
0 0 254
0 0 254
0 0 255
0 0 254
0 0 253
0 0 255
64 65 254
151 154 254
209 214 255
242 247 255
242 247 255
242 247 255
242 247 255
242 247 255
242 247 255
242 247 255
242 248 255
242 248 255
242 248 255
242 248 255
242 248 255
242 248 255
242 248 255
242 248 255
242 248 255
243 248 255
243 248 255
243 248 255
243 248 255
243 248 255
243 248 255
243 248 255
243 248 255
243 248 255
243 248 255
243 248 255
243 248 255
243 248 255
243 248 255
243 248 255
243 248 255
243 248 255
243 248 255
243 248 255
243 248 255
243 248 255
243 248 255
244 248 255
244 248 255
244 248 255
244 248 255
244 248 255
244 249 255
244 249 255
244 249 255
244 249 255
244 249 255
244 249 255
244 249 255
244 249 255
244 249 255
244 249 255
244 249 255
244 249 255
244 249 255
244 249 255
244 249 255
244 249 255
244 249 255
244 249 255
244 249 255
244 249 255
244 249 255
244 249 255
244 249 255
244 249 255
244 249 255
244 249 255
244 249 255
244 249 255
244 249 255
244 249 255
244 249 255
244 249 255
244 249 255
244 249 255
244 249 255
244 249 255
245 249 255
245 249 255
245 249 255
245 249 255
245 249 255
245 249 255
245 249 255
245 249 255
245 249 255
245 249 255
245 249 255
245 249 255
245 249 255
244 249 255
244 249 255
244 249 255
244 249 255
244 249 255
244 249 255
244 249 255
244 249 255
244 249 255
244 249 255
244 249 255
244 249 255
244 249 255
244 249 255
244 249 255
244 249 255
244 249 255
244 249 255
244 249 255
244 249 255
244 249 255
244 249 255
244 249 255
244 249 255
244 249 255
244 249 255
244 249 255
244 249 255
244 249 255
244 249 255
244 249 255
244 249 255
244 249 255
244 249 255
244 249 255
244 248 255
244 248 255
244 248 255
244 248 255
244 248 255
243 248 255
243 248 255
243 248 255
243 248 255
243 248 255
243 248 255
243 248 255
243 248 255
243 248 255
243 248 255
243 248 255
243 248 255
243 248 255
243 248 255
243 248 255
243 248 255
243 248 255
243 248 255
243 248 255
243 248 255
243 248 255
243 248 255
242 248 255
242 248 255
242 248 255
242 248 255
242 248 255
242 248 255
242 248 255
242 248 255
242 248 255
242 247 255
242 247 255
242 247 255
242 247 255
242 247 255
242 247 255
242 247 255
242 210 217
240 148 153
237 70 72
238 0 0
238 0 0
236 0 0
236 0 0
235 0 0
239 0 0
235 0 0
237 0 0
236 0 0
234 0 0
238 0 0
236 0 0
233 0 0
236 0 0
237 0 0
237 0 0
236 0 0
237 0 0
234 0 0
237 0 0
232 0 0
234 0 0
235 0 0
237 0 0
236 0 0
231 0 0
232 0 0
235 0 0
235 0 0
234 0 0
237 0 0
237 0 0
235 0 0
234 0 0
236 0 0
234 0 0
231 0 0
234 0 0
232 0 0
237 0 0
238 0 0
235 0 0
234 0 0
235 0 0
238 0 0
233 0 0
237 0 0
233 0 0
229 0 0
235 0 0
235 0 0
229 0 0
232 0 0
233 0 0
237 0 0
234 0 0
233 0 0
233 0 0
233 0 0
233 0 0
235 0 0
237 0 0
232 0 0
235 0 0
235 0 0
232 0 0
231 0 0
232 0 0
235 0 0
231 0 0
235 0 0
236 0 0
235 0 0
234 0 0
232 0 0
230 0 0
233 0 0
234 0 0
236 0 0
235 0 0
232 0 0
234 0 0
236 0 0
232 0 0
232 0 0
233 0 0
233 0 0
233 0 0
235 0 0
232 0 0
232 0 0
231 0 0
233 0 0
232 0 0
234 0 0
234 0 0
233 0 0
233 0 0
233 0 0
234 0 0
233 0 0
232 0 0
233 0 0
233 0 0
234 0 0
229 0 0
235 0 0
231 0 0
234 0 0
235 0 0
235 0 0
235 0 0
0 0 255
0 0 255
0 0 255
0 0 255
0 0 255
0 0 255
0 0 255
0 0 255
0 0 255
0 0 255
0 0 255
0 0 255
0 0 255
0 0 255
0 0 255
0 0 255
0 0 255
0 0 255
0 0 255
0 0 255
0 0 255
0 0 255
0 0 255
0 0 255
0 0 255
0 0 255
0 0 254
0 0 255
0 0 255
0 0 254
0 0 254
0 0 254
0 0 255
0 0 255
0 0 255
0 0 254
0 0 255
0 0 255
0 0 255
0 0 255
0 0 255
0 0 255
0 0 254
0 0 255
0 0 255
0 0 255
0 0 254
0 0 255
0 0 255
0 0 254
0 0 254
0 0 253
0 0 255
0 0 255
0 0 255
0 0 255
0 0 254
0 0 254
0 0 255
0 0 255
0 0 255
0 0 255
0 0 254
0 0 255
0 0 255
0 0 255
0 0 255
0 0 255
0 0 255
0 0 254
0 0 254
0 0 254
0 0 252
0 0 255
0 0 255
0 0 255
0 0 255
0 0 255
0 0 254
0 0 255
0 0 255
0 0 253
0 0 255
0 0 253
0 0 255
0 0 255
0 0 255
0 0 254
0 0 253
0 0 255
0 0 254
0 0 254
0 0 252
0 0 254
0 0 254
0 0 254
0 0 255
0 0 254
0 0 254
0 0 254
0 0 252
0 0 254
0 0 253
0 0 252
0 0 254
0 0 254
0 0 253
0 0 252
0 0 250
54 55 255
149 152 255
201 205 255
239 245 255
242 247 255
242 247 255
242 247 255
242 247 255
242 247 255
242 247 255
242 247 255
242 248 255
242 248 255
242 248 255
242 248 255
242 248 255
242 248 255
242 248 255
242 248 255
242 248 255
243 248 255
243 248 255
243 248 255
243 248 255
243 248 255
243 248 255
243 248 255
243 248 255
243 248 255
243 248 255
243 248 255
243 248 255
243 248 255
243 248 255
243 248 255
243 248 255
243 248 255
243 248 255
243 248 255
243 248 255
243 248 255
244 248 255
244 248 255
244 248 255
244 248 255
244 248 255
244 249 255
244 249 255
244 249 255
244 249 255
244 249 255
244 249 255
244 249 255
244 249 255
244 249 255
244 249 255
244 249 255
244 249 255
244 249 255
244 249 255
244 249 255
244 249 255
244 249 255
244 249 255
244 249 255
244 249 255
244 249 255
244 249 255
244 249 255
244 249 255
244 249 255
244 249 255
244 249 255
244 249 255
245 249 255
245 249 255
245 249 255
245 249 255
245 249 255
245 249 255
245 249 255
245 249 255
245 249 255
245 249 255
245 249 255
245 249 255
245 249 255
245 249 255
245 249 255
245 249 255
245 249 255
245 249 255
245 249 255
245 249 255
245 249 255
245 249 255
245 249 255
245 249 255
245 249 255
245 249 255
245 249 255
245 249 255
245 249 255
245 249 255
245 249 255
245 249 255
245 249 255
245 249 255
244 249 255
244 249 255
244 249 255
244 249 255
244 249 255
244 249 255
244 249 255
244 249 255
244 249 255
244 249 255
244 249 255
244 249 255
244 249 255
244 249 255
244 249 255
244 249 255
244 249 255
244 249 255
244 249 255
244 249 255
244 249 255
244 249 255
244 249 255
244 249 255
244 249 255
244 249 255
244 249 255
244 249 255
244 248 255
244 248 255
244 248 255
244 248 255
244 248 255
243 248 255
243 248 255
243 248 255
243 248 255
243 248 255
243 248 255
243 248 255
243 248 255
243 248 255
243 248 255
243 248 255
243 248 255
243 248 255
243 248 255
243 248 255
243 248 255
243 248 255
243 248 255
243 248 255
243 248 255
243 248 255
243 248 255
242 248 255
242 248 255
242 248 255
242 248 255
242 248 255
242 248 255
242 248 255
242 248 255
242 247 255
242 247 255
242 247 255
242 247 255
242 247 255
242 247 255
242 247 255
242 244 252
241 210 217
241 154 159
236 42 44
239 0 0
239 0 0
237 0 0
238 0 0
237 0 0
235 0 0
239 0 0
238 0 0
236 0 0
231 0 0
234 0 0
235 0 0
236 0 0
237 0 0
233 0 0
235 0 0
237 0 0
234 0 0
234 0 0
233 0 0
238 0 0
232 0 0
236 0 0
236 0 0
231 0 0
230 0 0
236 0 0
235 0 0
234 0 0
233 0 0
235 0 0
235 0 0
232 0 0
235 0 0
235 0 0
236 0 0
235 0 0
238 0 0
231 0 0
232 0 0
234 0 0
236 0 0
236 0 0
235 0 0
236 0 0
235 0 0
233 0 0
231 0 0
235 0 0
234 0 0
231 0 0
233 0 0
234 0 0
234 0 0
233 0 0
231 0 0
235 0 0
233 0 0
233 0 0
235 0 0
232 0 0
231 0 0
232 0 0
231 0 0
234 0 0
234 0 0
233 0 0
231 0 0
232 0 0
233 0 0
233 0 0
233 0 0
236 0 0
233 0 0
232 0 0
233 0 0
234 0 0
234 0 0
234 0 0
235 0 0
233 0 0
232 0 0
233 0 0
235 0 0
234 0 0
232 0 0
232 0 0
234 0 0
233 0 0
236 0 0
234 0 0
231 0 0
233 0 0
232 0 0
235 0 0
234 0 0
232 0 0
231 0 0
234 0 0
236 0 0
232 0 0
234 0 0
230 0 0
235 0 0
231 0 0
233 0 0
235 0 0
234 0 0
236 0 0
0 0 255
0 0 255
0 0 255
0 0 255
0 0 255
0 0 255
0 0 255
0 0 255
0 0 255
0 0 255
0 0 255
0 0 255
0 0 255
0 0 255
0 0 255
0 0 255
0 0 255
0 0 255
0 0 255
0 0 255
0 0 255
0 0 255
0 0 255
0 0 255
0 0 255
0 0 255
0 0 255
0 0 255
0 0 255
0 0 255
0 0 255
0 0 255
0 0 255
0 0 255
0 0 255
0 0 255
0 0 255
0 0 255
0 0 255
0 0 255
0 0 255
0 0 255
0 0 255
0 0 253
0 0 255
0 0 254
0 0 255
0 0 255
0 0 254
0 0 255
0 0 255
0 0 255
0 0 254
0 0 255
0 0 255
0 0 253
0 0 255
0 0 255
0 0 255
0 0 255
0 0 253
0 0 255
0 0 254
0 0 254
0 0 255
0 0 255
0 0 253
0 0 255
0 0 255
0 0 255
0 0 255
0 0 253
0 0 255
0 0 255
0 0 254
0 0 255
0 0 254
0 0 253
0 0 254
0 0 254
0 0 253
0 0 253
0 0 255
0 0 253
0 0 255
0 0 254
0 0 254
0 0 254
0 0 254
0 0 253
0 0 253
0 0 255
0 0 254
0 0 254
0 0 255
0 0 255
0 0 254
0 0 254
0 0 253
0 0 255
0 0 255
0 0 254
0 0 255
0 0 255
0 0 255
0 0 252
41 42 254
134 137 253
203 208 253
234 240 255
242 247 255
242 247 255
242 247 255
242 247 255
242 247 255
242 247 255
242 247 255
242 248 255
242 248 255
242 248 255
242 248 255
242 248 255
242 248 255
242 248 255
242 248 255
242 248 255
243 248 255
243 248 255
243 248 255
243 248 255
243 248 255
243 248 255
243 248 255
243 248 255
243 248 255
243 248 255
243 248 255
243 248 255
243 248 255
243 248 255
243 248 255
243 248 255
243 248 255
243 248 255
243 248 255
243 248 255
243 248 255
244 248 255
244 248 255
244 248 255
244 248 255
244 248 255
244 249 255
244 249 255
244 249 255
244 249 255
244 249 255
244 249 255
244 249 255
244 249 255
244 249 255
244 249 255
244 249 255
244 249 255
244 249 255
244 249 255
244 249 255
244 249 255
244 249 255
244 249 255
244 249 255
244 249 255
244 249 255
244 249 255
244 249 255
244 249 255
245 249 255
245 249 255
245 249 255
245 249 255
245 249 255
245 249 255
245 249 255
245 249 255
245 249 255
245 249 255
245 249 255
245 249 255
245 249 255
245 249 255
245 249 255
245 249 255
245 249 255
245 249 255
245 249 255
245 249 255
245 249 255
245 249 255
245 249 255
245 249 255
245 249 255
245 249 255
245 249 255
245 249 255
245 249 255
245 249 255
245 249 255
245 249 255
245 249 255
245 249 255
245 249 255
245 249 255
245 249 255
245 249 255
245 249 255
245 249 255
245 249 255
245 249 255
245 249 255
245 249 255
245 249 255
245 249 255
245 249 255
244 249 255
244 249 255
244 249 255
244 249 255
244 249 255
244 249 255
244 249 255
244 249 255
244 249 255
244 249 255
244 249 255
244 249 255
244 249 255
244 249 255
244 249 255
244 249 255
244 249 255
244 249 255
244 249 255
244 249 255
244 249 255
244 249 255
244 249 255
244 249 255
244 249 255
244 248 255
244 248 255
244 248 255
244 248 255
244 248 255
243 248 255
243 248 255
243 248 255
243 248 255
243 248 255
243 248 255
243 248 255
243 248 255
243 248 255
243 248 255
243 248 255
243 248 255
243 248 255
243 248 255
243 248 255
243 248 255
243 248 255
243 248 255
243 248 255
243 248 255
243 248 255
242 248 255
242 248 255
242 248 255
242 248 255
242 248 255
242 248 255
242 248 255
242 248 255
242 248 255
242 247 255
242 247 255
242 247 255
242 247 255
242 247 255
242 247 255
242 247 255
241 244 252
242 201 207
239 142 147
239 55 57
238 0 0
239 0 0
239 0 0
239 0 0
238 0 0
237 0 0
236 0 0
237 0 0
237 0 0
240 0 0
236 0 0
236 0 0
236 0 0
237 0 0
234 0 0
237 0 0
239 0 0
236 0 0
234 0 0
235 0 0
237 0 0
235 0 0
235 0 0
238 0 0
236 0 0
234 0 0
233 0 0
239 0 0
237 0 0
234 0 0
234 0 0
236 0 0
232 0 0
236 0 0
234 0 0
233 0 0
233 0 0
235 0 0
232 0 0
235 0 0
231 0 0
232 0 0
233 0 0
234 0 0
234 0 0
236 0 0
233 0 0
234 0 0
236 0 0
232 0 0
233 0 0
233 0 0
237 0 0
233 0 0
234 0 0
234 0 0
234 0 0
234 0 0
236 0 0
237 0 0
232 0 0
236 0 0
233 0 0
235 0 0
233 0 0
234 0 0
233 0 0
231 0 0
236 0 0
233 0 0
235 0 0
235 0 0
235 0 0
235 0 0
235 0 0
237 0 0
233 0 0
234 0 0
235 0 0
235 0 0
232 0 0
232 0 0
232 0 0
233 0 0
231 0 0
236 0 0
235 0 0
236 0 0
232 0 0
234 0 0
233 0 0
233 0 0
234 0 0
234 0 0
233 0 0
233 0 0
232 0 0
235 0 0
231 0 0
232 0 0
232 0 0
233 0 0
234 0 0
232 0 0
233 0 0
235 0 0
0 0 255
0 0 255
0 0 255
0 0 255
0 0 255
0 0 255
0 0 255
0 0 255
0 0 255
0 0 255
0 0 255
0 0 255
0 0 255
0 0 255
0 0 254
0 0 255
0 0 255
0 0 255
0 0 255
0 0 255
0 0 254
0 0 255
0 0 255
0 0 255
0 0 255
0 0 254
0 0 255
0 0 255
0 0 254
0 0 255
0 0 255
0 0 255
0 0 255
0 0 255
0 0 254
0 0 255
0 0 255
0 0 255
0 0 254
0 0 255
0 0 255
0 0 254
0 0 255
0 0 255
0 0 255
0 0 255
0 0 254
0 0 255
0 0 255
0 0 255
0 0 255
0 0 253
0 0 255
0 0 255
0 0 255
0 0 255
0 0 255
0 0 255
0 0 255
0 0 254
0 0 255
0 0 255
0 0 255
0 0 255
0 0 254
0 0 255
0 0 254
0 0 255
0 0 255
0 0 255
0 0 253
0 0 255
0 0 255
0 0 254
0 0 255
0 0 254
0 0 255
0 0 254
0 0 255
0 0 255
0 0 254
0 0 254
0 0 254
0 0 255
0 0 255
0 0 255
0 0 252
0 0 253
0 0 255
0 0 255
0 0 255
0 0 253
0 0 254
0 0 255
0 0 253
0 0 252
0 0 255
0 0 254
0 0 255
0 0 255
0 0 253
0 0 253
0 0 252
90 92 254
143 146 254
205 210 255
239 245 255
242 247 255
242 247 255
242 247 255
242 247 255
242 247 255
242 247 255
242 247 255
242 247 255
242 248 255
242 248 255
242 248 255
242 248 255
242 248 255
242 248 255
242 248 255
242 248 255
242 248 255
243 248 255
243 248 255
243 248 255
243 248 255
243 248 255
243 248 255
243 248 255
243 248 255
243 248 255
243 248 255
243 248 255
243 248 255
243 248 255
243 248 255
243 248 255
243 248 255
243 248 255
243 248 255
243 248 255
243 248 255
244 248 255
244 248 255
244 248 255
244 248 255
244 248 255
244 249 255
244 249 255
244 249 255
244 249 255
244 249 255
244 249 255
244 249 255
244 249 255
244 249 255
244 249 255
244 249 255
244 249 255
244 249 255
244 249 255
244 249 255
244 249 255
244 249 255
244 249 255
244 249 255
244 249 255
244 249 255
244 249 255
245 249 255
245 249 255
245 249 255
245 249 255
245 249 255
245 249 255
245 249 255
245 249 255
245 249 255
245 249 255
245 249 255
245 249 255
245 249 255
245 249 255
245 249 255
245 249 255
245 249 255
245 249 255
245 249 255
245 249 255
245 249 255
245 249 255
245 249 255
245 249 255
245 249 255
245 249 255
245 249 255
245 249 255
245 249 255
245 249 255
245 249 255
245 249 255
245 249 255
245 249 255
245 249 255
245 249 255
245 249 255
245 249 255
245 249 255
245 249 255
245 249 255
245 249 255
245 249 255
245 249 255
245 249 255
245 249 255
245 249 255
245 249 255
245 249 255
245 249 255
245 249 255
245 249 255
245 249 255
245 249 255
245 249 255
245 249 255
245 249 255
245 249 255
244 249 255
244 249 255
244 249 255
244 249 255
244 249 255
244 249 255
244 249 255
244 249 255
244 249 255
244 249 255
244 249 255
244 249 255
244 249 255
244 249 255
244 249 255
244 249 255
244 249 255
244 249 255
244 249 255
244 249 255
244 249 255
244 249 255
244 248 255
244 248 255
244 248 255
244 248 255
244 248 255
243 248 255
243 248 255
243 248 255
243 248 255
243 248 255
243 248 255
243 248 255
243 248 255
243 248 255
243 248 255
243 248 255
243 248 255
243 248 255
243 248 255
243 248 255
243 248 255
243 248 255
243 248 255
243 248 255
243 248 255
242 248 255
242 248 255
242 248 255
242 248 255
242 248 255
242 248 255
242 248 255
242 248 255
242 248 255
242 247 255
242 247 255
242 247 255
242 247 255
242 247 255
242 247 255
242 247 255
242 247 255
242 242 250
242 196 203
242 146 151
241 89 92
240 0 0
239 0 0
232 0 0
237 0 0
237 0 0
236 0 0
231 0 0
236 0 0
237 0 0
234 0 0
238 0 0
236 0 0
235 0 0
237 0 0
237 0 0
235 0 0
235 0 0
239 0 0
237 0 0
236 0 0
236 0 0
237 0 0
237 0 0
235 0 0
236 0 0
237 0 0
236 0 0
234 0 0
232 0 0
233 0 0
237 0 0
237 0 0
234 0 0
234 0 0
234 0 0
238 0 0
235 0 0
234 0 0
236 0 0
238 0 0
233 0 0
234 0 0
235 0 0
236 0 0
236 0 0
233 0 0
238 0 0
233 0 0
235 0 0
235 0 0
233 0 0
236 0 0
231 0 0
235 0 0
231 0 0
232 0 0
236 0 0
234 0 0
233 0 0
235 0 0
232 0 0
234 0 0
232 0 0
235 0 0
235 0 0
231 0 0
233 0 0
234 0 0
235 0 0
231 0 0
233 0 0
233 0 0
237 0 0
233 0 0
234 0 0
235 0 0
233 0 0
235 0 0
233 0 0
234 0 0
235 0 0
235 0 0
232 0 0
233 0 0
234 0 0
235 0 0
232 0 0
234 0 0
232 0 0
231 0 0
235 0 0
233 0 0
231 0 0
230 0 0
232 0 0
230 0 0
234 0 0
234 0 0
233 0 0
234 0 0
234 0 0
233 0 0
235 0 0
0 0 255
0 0 255
0 0 255
0 0 255
0 0 255
0 0 255
0 0 255
0 0 255
0 0 255
0 0 255
0 0 255
0 0 255
0 0 255
0 0 255
0 0 255
0 0 255
0 0 255
0 0 255
0 0 255
0 0 255
0 0 255
0 0 255
0 0 255
0 0 255
0 0 255
0 0 255
0 0 254
0 0 255
0 0 255
0 0 255
0 0 255
0 0 255
0 0 255
0 0 255
0 0 255
0 0 255
0 0 255
0 0 255
0 0 255
0 0 255
0 0 255
0 0 255
0 0 255
0 0 255
0 0 255
0 0 255
0 0 255
0 0 255
0 0 255
0 0 255
0 0 255
0 0 255
0 0 254
0 0 255
0 0 255
0 0 254
0 0 254
0 0 255
0 0 255
0 0 254
0 0 255
0 0 254
0 0 253
0 0 255
0 0 255
0 0 254
0 0 255
0 0 250
0 0 255
0 0 255
0 0 255
0 0 254
0 0 255
0 0 255
0 0 255
0 0 255
0 0 253
0 0 253
0 0 255
0 0 255
0 0 254
0 0 254
0 0 254
0 0 255
0 0 254
0 0 254
0 0 254
0 0 255
0 0 253
0 0 255
0 0 254
0 0 254
0 0 253
0 0 255
0 0 255
0 0 254
0 0 254
0 0 254
0 0 255
0 0 254
110 113 254
165 169 255
216 221 254
240 246 255
242 247 255
242 247 255
242 247 255
242 247 255
242 247 255
242 247 255
242 247 255
242 247 255
242 247 255
242 248 255
242 248 255
242 248 255
242 248 255
242 248 255
242 248 255
242 248 255
242 248 255
243 248 255
243 248 255
243 248 255
243 248 255
243 248 255
243 248 255
243 248 255
243 248 255
243 248 255
243 248 255
243 248 255
243 248 255
243 248 255
243 248 255
243 248 255
243 248 255
243 248 255
243 248 255
243 248 255
243 248 255
244 248 255
244 248 255
244 248 255
244 248 255
244 248 255
244 249 255
244 249 255
244 249 255
244 249 255
244 249 255
244 249 255
244 249 255
244 249 255
244 249 255
244 249 255
244 249 255
244 249 255
244 249 255
244 249 255
244 249 255
244 249 255
244 249 255
244 249 255
244 249 255
244 249 255
244 249 255
245 249 255
245 249 255
245 249 255
245 249 255
245 249 255
245 249 255
245 249 255
245 249 255
245 249 255
245 249 255
245 249 255
245 249 255
245 249 255
245 249 255
245 249 255
245 249 255
245 249 255
245 249 255
245 249 255
245 249 255
245 249 255
245 249 255
245 249 255
245 249 255
245 249 255
245 249 255
245 249 255
245 249 255
245 249 255
245 249 255
245 249 255
245 249 255
245 249 255
245 249 255
245 249 255
245 249 255
245 249 255
245 249 255
245 249 255
245 249 255
245 249 255
245 249 255
245 249 255
245 249 255
245 249 255
245 249 255
245 249 255
245 249 255
245 249 255
245 249 255
245 249 255
245 249 255
245 249 255
245 249 255
245 249 255
245 249 255
245 249 255
245 249 255
245 249 255
245 249 255
245 249 255
245 249 255
245 249 255
245 249 255
245 249 255
245 249 255
244 249 255
244 249 255
244 249 255
244 249 255
244 249 255
244 249 255
244 249 255
244 249 255
244 249 255
244 249 255
244 249 255
244 249 255
244 249 255
244 249 255
244 249 255
244 249 255
244 249 255
244 249 255
244 249 255
244 249 255
244 249 255
244 248 255
244 248 255
244 248 255
244 248 255
244 248 255
243 248 255
243 248 255
243 248 255
243 248 255
243 248 255
243 248 255
243 248 255
243 248 255
243 248 255
243 248 255
243 248 255
243 248 255
243 248 255
243 248 255
243 248 255
243 248 255
243 248 255
243 248 255
243 248 255
243 248 255
242 248 255
242 248 255
242 248 255
242 248 255
242 248 255
242 248 255
242 248 255
242 248 255
242 247 255
242 247 255
242 247 255
242 247 255
242 247 255
242 247 255
242 247 255
242 247 255
242 247 255
242 246 254
240 222 230
237 171 177
238 110 114
238 0 0
239 0 0
236 0 0
236 0 0
238 0 0
238 0 0
239 0 0
239 0 0
238 0 0
236 0 0
238 0 0
234 0 0
236 0 0
234 0 0
238 0 0
237 0 0
234 0 0
237 0 0
234 0 0
235 0 0
238 0 0
233 0 0
236 0 0
235 0 0
235 0 0
236 0 0
235 0 0
237 0 0
236 0 0
236 0 0
236 0 0
234 0 0
236 0 0
234 0 0
232 0 0
234 0 0
235 0 0
236 0 0
236 0 0
234 0 0
234 0 0
232 0 0
233 0 0
235 0 0
234 0 0
233 0 0
235 0 0
235 0 0
233 0 0
236 0 0
237 0 0
233 0 0
233 0 0
232 0 0
235 0 0
232 0 0
233 0 0
233 0 0
236 0 0
233 0 0
231 0 0
234 0 0
236 0 0
235 0 0
237 0 0
236 0 0
232 0 0
234 0 0
234 0 0
237 0 0
232 0 0
236 0 0
235 0 0
232 0 0
231 0 0
233 0 0
231 0 0
233 0 0
231 0 0
233 0 0
231 0 0
233 0 0
233 0 0
233 0 0
235 0 0
232 0 0
235 0 0
233 0 0
231 0 0
234 0 0
234 0 0
234 0 0
234 0 0
233 0 0
233 0 0
232 0 0
233 0 0
232 0 0
230 0 0
232 0 0
0 0 255
0 0 255
0 0 255
0 0 255
0 0 255
0 0 255
0 0 255
0 0 255
0 0 255
0 0 255
0 0 255
0 0 255
0 0 255
0 0 255
0 0 255
0 0 255
0 0 255
0 0 255
0 0 255
0 0 255
0 0 255
0 0 255
0 0 255
0 0 255
0 0 255
0 0 255
0 0 255
0 0 255
0 0 255
0 0 255
0 0 255
0 0 255
0 0 254
0 0 255
0 0 255
0 0 255
0 0 255
0 0 255
0 0 255
0 0 255
0 0 255
0 0 255
0 0 254
0 0 255
0 0 255
0 0 255
0 0 255
0 0 254
0 0 255
0 0 254
0 0 255
0 0 255
0 0 254
0 0 255
0 0 255
0 0 254
0 0 255
0 0 254
0 0 254
0 0 255
0 0 255
0 0 255
0 0 254
0 0 254
0 0 255
0 0 255
0 0 255
0 0 255
0 0 255
0 0 255
0 0 255
0 0 254
0 0 254
0 0 255
0 0 254
0 0 255
0 0 255
0 0 254
0 0 255
0 0 254
0 0 253
0 0 255
0 0 255
0 0 253
0 0 254
0 0 255
0 0 255
0 0 254
0 0 254
0 0 255
0 0 255
0 0 253
0 0 255
0 0 254
0 0 254
0 0 255
93 95 254
136 140 254
184 188 255
232 237 255
241 247 255
242 247 255
242 247 255
242 247 255
242 247 255
242 247 255
242 247 255
242 247 255
242 247 255
242 247 255
242 248 255
242 248 255
242 248 255
242 248 255
242 248 255
242 248 255
242 248 255
242 248 255
242 248 255
243 248 255
243 248 255
243 248 255
243 248 255
243 248 255
243 248 255
243 248 255
243 248 255
243 248 255
243 248 255
243 248 255
243 248 255
243 248 255
243 248 255
243 248 255
243 248 255
243 248 255
243 248 255
243 248 255
243 248 255
244 248 255
244 248 255
244 248 255
244 248 255
244 249 255
244 249 255
244 249 255
244 249 255
244 249 255
244 249 255
244 249 255
244 249 255
244 249 255
244 249 255
244 249 255
244 249 255
244 249 255
244 249 255
244 249 255
244 249 255
244 249 255
244 249 255
244 249 255
244 249 255
245 249 255
245 249 255
245 249 255
245 249 255
245 249 255
245 249 255
245 249 255
245 249 255
245 249 255
245 249 255
245 249 255
245 249 255
245 249 255
245 249 255
245 249 255
245 249 255
245 249 255
245 249 255
245 249 255
245 249 255
245 249 255
245 249 255
245 249 255
245 249 255
245 249 255
245 249 255
245 249 255
245 249 255
245 249 255
245 249 255
245 249 255
245 249 255
245 249 255
245 249 255
245 249 255
245 249 255
245 249 255
245 249 255
245 249 255
245 249 255
245 249 255
245 249 255
245 249 255
245 249 255
245 249 255
245 249 255
245 249 255
245 249 255
245 249 255
245 249 255
245 249 255
245 249 255
245 249 255
245 249 255
245 249 255
245 249 255
245 249 255
245 249 255
245 249 255
245 249 255
245 249 255
245 249 255
245 249 255
245 249 255
245 249 255
245 249 255
245 249 255
245 249 255
245 249 255
245 249 255
245 249 255
245 249 255
245 249 255
245 249 255
244 249 255
244 249 255
244 249 255
244 249 255
244 249 255
244 249 255
244 249 255
244 249 255
244 249 255
244 249 255
244 249 255
244 249 255
244 249 255
244 249 255
244 249 255
244 249 255
244 249 255
244 249 255
244 249 255
244 249 255
244 248 255
244 248 255
244 248 255
244 248 255
243 248 255
243 248 255
243 248 255
243 248 255
243 248 255
243 248 255
243 248 255
243 248 255
243 248 255
243 248 255
243 248 255
243 248 255
243 248 255
243 248 255
243 248 255
243 248 255
243 248 255
243 248 255
243 248 255
243 248 255
242 248 255
242 248 255
242 248 255
242 248 255
242 248 255
242 248 255
242 248 255
242 248 255
242 248 255
242 247 255
242 247 255
242 247 255
242 247 255
242 247 255
242 247 255
242 247 255
242 247 255
242 247 255
241 247 255
242 233 241
240 186 193
239 135 140
238 74 76
241 0 0
239 0 0
241 0 0
240 0 0
236 0 0
233 0 0
237 0 0
236 0 0
239 0 0
237 0 0
236 0 0
241 0 0
238 0 0
237 0 0
237 0 0
236 0 0
235 0 0
236 0 0
234 0 0
235 0 0
235 0 0
237 0 0
236 0 0
234 0 0
238 0 0
234 0 0
236 0 0
234 0 0
233 0 0
234 0 0
236 0 0
234 0 0
235 0 0
238 0 0
234 0 0
233 0 0
233 0 0
234 0 0
235 0 0
235 0 0
237 0 0
232 0 0
233 0 0
234 0 0
236 0 0
232 0 0
234 0 0
237 0 0
235 0 0
234 0 0
235 0 0
234 0 0
234 0 0
233 0 0
234 0 0
233 0 0
234 0 0
233 0 0
234 0 0
235 0 0
235 0 0
236 0 0
234 0 0
235 0 0
235 0 0
230 0 0
231 0 0
232 0 0
236 0 0
234 0 0
234 0 0
234 0 0
235 0 0
237 0 0
234 0 0
233 0 0
235 0 0
233 0 0
237 0 0
234 0 0
235 0 0
233 0 0
232 0 0
232 0 0
234 0 0
235 0 0
234 0 0
232 0 0
233 0 0
235 0 0
232 0 0
234 0 0
234 0 0
236 0 0
235 0 0
239 0 0
0 0 255
0 0 255
0 0 255
0 0 255
0 0 255
0 0 255
0 0 255
0 0 255
0 0 255
0 0 255
0 0 255
0 0 255
0 0 255
0 0 255
0 0 255
0 0 255
0 0 255
0 0 255
0 0 255
0 0 255
0 0 255
0 0 255
0 0 255
0 0 254
0 0 255
0 0 255
0 0 255
0 0 255
0 0 255
0 0 254
0 0 255
0 0 255
0 0 255
0 0 255
0 0 255
0 0 255
0 0 254
0 0 255
0 0 255
0 0 255
0 0 255
0 0 255
0 0 255
0 0 255
0 0 255
0 0 255
0 0 254
0 0 255
0 0 255
0 0 254
0 0 255
0 0 255
0 0 255
0 0 254
0 0 255
0 0 254
0 0 255
0 0 255
0 0 254
0 0 255
0 0 255
0 0 255
0 0 254
0 0 255
0 0 255
0 0 255
0 0 255
0 0 254
0 0 255
0 0 255
0 0 255
0 0 254
0 0 255
0 0 255
0 0 254
0 0 255
0 0 255
0 0 255
0 0 254
0 0 255
0 0 255
0 0 255
0 0 254
0 0 255
0 0 255
0 0 255
0 0 254
0 0 254
0 0 255
0 0 254
0 0 255
0 0 255
72 74 255
120 123 254
185 190 255
222 228 255
241 247 255
241 247 255
241 247 255
242 247 255
242 247 255
242 247 255
242 247 255
242 247 255
242 247 255
242 247 255
242 247 255
242 247 255
242 248 255
242 248 255
242 248 255
242 248 255
242 248 255
242 248 255
242 248 255
242 248 255
242 248 255
243 248 255
243 248 255
243 248 255
243 248 255
243 248 255
243 248 255
243 248 255
243 248 255
243 248 255
243 248 255
243 248 255
243 248 255
243 248 255
243 248 255
243 248 255
243 248 255
243 248 255
243 248 255
243 248 255
244 248 255
244 248 255
244 248 255
244 248 255
244 248 255
244 249 255
244 249 255
244 249 255
244 249 255
244 249 255
244 249 255
244 249 255
244 249 255
244 249 255
244 249 255
244 249 255
244 249 255
244 249 255
244 249 255
244 249 255
244 249 255
244 249 255
244 249 255
244 249 255
245 249 255
245 249 255
245 249 255
245 249 255
245 249 255
245 249 255
245 249 255
245 249 255
245 249 255
245 249 255
245 249 255
245 249 255
245 249 255
245 249 255
245 249 255
245 249 255
245 249 255
245 249 255
245 249 255
245 249 255
245 249 255
245 249 255
245 249 255
245 249 255
245 249 255
245 249 255
245 249 255
245 249 255
245 249 255
245 249 255
245 249 255
245 249 255
245 249 255
245 249 255
245 249 255
245 249 255
245 249 255
245 249 255
245 249 255
245 249 255
245 249 255
245 249 255
245 249 255
245 249 255
245 249 255
245 249 255
245 249 255
245 249 255
245 249 255
245 249 255
245 249 255
245 249 255
245 249 255
245 249 255
245 249 255
245 249 255
245 249 255
245 249 255
245 249 255
245 249 255
245 249 255
245 249 255
245 249 255
245 249 255
245 249 255
245 249 255
245 249 255
245 249 255
245 249 255
245 249 255
245 249 255
245 249 255
245 249 255
245 249 255
245 249 255
245 249 255
245 249 255
245 249 255
245 249 255
245 249 255
244 249 255
244 249 255
244 249 255
244 249 255
244 249 255
244 249 255
244 249 255
244 249 255
244 249 255
244 249 255
244 249 255
244 249 255
244 249 255
244 249 255
244 249 255
244 249 255
244 249 255
244 249 255
244 249 255
244 248 255
244 248 255
244 248 255
244 248 255
244 248 255
243 248 255
243 248 255
243 248 255
243 248 255
243 248 255
243 248 255
243 248 255
243 248 255
243 248 255
243 248 255
243 248 255
243 248 255
243 248 255
243 248 255
243 248 255
243 248 255
243 248 255
243 248 255
243 248 255
242 248 255
242 248 255
242 248 255
242 248 255
242 248 255
242 248 255
242 248 255
242 248 255
242 248 255
242 247 255
242 247 255
242 247 255
242 247 255
242 247 255
242 247 255
242 247 255
242 247 255
242 247 255
241 247 255
241 247 255
241 246 254
241 221 228
241 176 182
240 148 153
237 65 67
236 0 0
237 0 0
239 0 0
237 0 0
239 0 0
235 0 0
241 0 0
238 0 0
240 0 0
237 0 0
235 0 0
235 0 0
238 0 0
234 0 0
237 0 0
239 0 0
239 0 0
238 0 0
235 0 0
235 0 0
237 0 0
237 0 0
239 0 0
237 0 0
237 0 0
235 0 0
235 0 0
234 0 0
236 0 0
232 0 0
233 0 0
234 0 0
234 0 0
237 0 0
237 0 0
235 0 0
235 0 0
237 0 0
236 0 0
236 0 0
232 0 0
236 0 0
236 0 0
236 0 0
234 0 0
239 0 0
236 0 0
238 0 0
231 0 0
237 0 0
235 0 0
236 0 0
235 0 0
234 0 0
234 0 0
234 0 0
233 0 0
235 0 0
236 0 0
235 0 0
231 0 0
234 0 0
234 0 0
233 0 0
233 0 0
236 0 0
232 0 0
235 0 0
235 0 0
234 0 0
235 0 0
235 0 0
235 0 0
235 0 0
236 0 0
237 0 0
237 0 0
236 0 0
235 0 0
234 0 0
236 0 0
235 0 0
235 0 0
233 0 0
237 0 0
235 0 0
234 0 0
233 0 0
235 0 0
236 0 0
235 0 0
234 0 0
0 0 255
0 0 255
0 0 255
0 0 255
0 0 255
0 0 255
0 0 255
0 0 255
0 0 255
0 0 255
0 0 255
0 0 255
0 0 255
0 0 255
0 0 255
0 0 255
0 0 255
0 0 255
0 0 255
0 0 255
0 0 255
0 0 255
0 0 255
0 0 255
0 0 255
0 0 254
0 0 255
0 0 255
0 0 255
0 0 255
0 0 255
0 0 255
0 0 255
0 0 255
0 0 255
0 0 255
0 0 255
0 0 255
0 0 255
0 0 255
0 0 254
0 0 255
0 0 255
0 0 255
0 0 255
0 0 255
0 0 255
0 0 255
0 0 255
0 0 255
0 0 255
0 0 255
0 0 255
0 0 255
0 0 255
0 0 255
0 0 255
0 0 255
0 0 255
0 0 255
0 0 254
0 0 255
0 0 255
0 0 255
0 0 254
0 0 254
0 0 255
0 0 255
0 0 254
0 0 255
0 0 254
0 0 255
0 0 254
0 0 255
0 0 255
0 0 254
0 0 255
0 0 255
0 0 253
0 0 254
0 0 254
0 0 254
0 0 255
0 0 255
0 0 255
0 0 253
0 0 255
24 24 254
108 110 254
148 152 255
197 202 255
220 225 255
240 246 255
241 247 255
241 247 255
241 247 255
241 247 255
242 247 255
242 247 255
242 247 255
242 247 255
242 247 255
242 247 255
242 247 255
242 247 255
242 247 255
242 248 255
242 248 255
242 248 255
242 248 255
242 248 255
242 248 255
242 248 255
242 248 255
242 248 255
243 248 255
243 248 255
243 248 255
243 248 255
243 248 255
243 248 255
243 248 255
243 248 255
243 248 255
243 248 255
243 248 255
243 248 255
243 248 255
243 248 255
243 248 255
243 248 255
243 248 255
243 248 255
243 248 255
244 248 255
244 248 255
244 248 255
244 248 255
244 249 255
244 249 255
244 249 255
244 249 255
244 249 255
244 249 255
244 249 255
244 249 255
244 249 255
244 249 255
244 249 255
244 249 255
244 249 255
244 249 255
244 249 255
244 249 255
244 249 255
244 249 255
244 249 255
245 249 255
245 249 255
245 249 255
245 249 255
245 249 255
245 249 255
245 249 255
245 249 255
245 249 255
245 249 255
245 249 255
245 249 255
245 249 255
245 249 255
245 249 255
245 249 255
245 249 255
245 249 255
245 249 255
245 249 255
245 249 255
245 249 255
245 249 255
245 249 255
245 249 255
245 249 255
245 249 255
245 249 255
245 249 255
245 249 255
245 249 255
245 249 255
245 249 255
245 249 255
245 249 255
245 249 255
245 249 255
245 249 255
245 249 255
245 249 255
245 249 255
245 249 255
245 249 255
245 249 255
245 249 255
245 249 255
245 249 255
245 249 255
245 249 255
245 249 255
245 249 255
245 249 255
245 249 255
245 249 255
245 249 255
245 249 255
245 249 255
245 249 255
245 249 255
245 249 255
245 249 255
245 249 255
245 249 255
245 249 255
245 249 255
245 249 255
245 249 255
245 249 255
245 249 255
245 249 255
245 249 255
245 249 255
245 249 255
245 249 255
245 249 255
245 249 255
245 249 255
245 249 255
245 249 255
245 249 255
245 249 255
245 249 255
245 249 255
245 249 255
245 249 255
245 249 255
244 249 255
244 249 255
244 249 255
244 249 255
244 249 255
244 249 255
244 249 255
244 249 255
244 249 255
244 249 255
244 249 255
244 249 255
244 249 255
244 249 255
244 249 255
244 249 255
244 249 255
244 249 255
244 249 255
244 248 255
244 248 255
244 248 255
244 248 255
243 248 255
243 248 255
243 248 255
243 248 255
243 248 255
243 248 255
243 248 255
243 248 255
243 248 255
243 248 255
243 248 255
243 248 255
243 248 255
243 248 255
243 248 255
243 248 255
243 248 255
243 248 255
243 248 255
242 248 255
242 248 255
242 248 255
242 248 255
242 248 255
242 248 255
242 248 255
242 248 255
242 248 255
242 247 255
242 247 255
242 247 255
242 247 255
242 247 255
242 247 255
242 247 255
242 247 255
242 247 255
241 247 255
241 247 255
241 247 255
241 247 255
241 247 255
241 229 237
240 188 194
239 144 149
239 74 76
240 34 36
237 0 0
237 0 0
238 0 0
241 0 0
237 0 0
236 0 0
237 0 0
239 0 0
237 0 0
237 0 0
236 0 0
239 0 0
235 0 0
237 0 0
237 0 0
236 0 0
238 0 0
238 0 0
237 0 0
237 0 0
236 0 0
235 0 0
236 0 0
237 0 0
234 0 0
236 0 0
234 0 0
233 0 0
238 0 0
238 0 0
232 0 0
233 0 0
237 0 0
233 0 0
237 0 0
234 0 0
237 0 0
237 0 0
235 0 0
235 0 0
234 0 0
237 0 0
236 0 0
236 0 0
234 0 0
235 0 0
234 0 0
233 0 0
231 0 0
234 0 0
235 0 0
235 0 0
234 0 0
237 0 0
237 0 0
236 0 0
237 0 0
237 0 0
235 0 0
235 0 0
233 0 0
236 0 0
235 0 0
236 0 0
234 0 0
232 0 0
235 0 0
234 0 0
236 0 0
234 0 0
235 0 0
233 0 0
234 0 0
235 0 0
236 0 0
233 0 0
232 0 0
235 0 0
235 0 0
234 0 0
236 0 0
235 0 0
232 0 0
236 0 0
232 0 0
233 0 0
235 0 0
0 0 255
0 0 255
0 0 255
0 0 255
0 0 255
0 0 255
0 0 255
0 0 255
0 0 255
0 0 255
0 0 255
0 0 255
0 0 255
0 0 255
0 0 255
0 0 255
0 0 255
0 0 255
0 0 255
0 0 255
0 0 255
0 0 255
0 0 255
0 0 255
0 0 255
0 0 255
0 0 255
0 0 255
0 0 255
0 0 255
0 0 254
0 0 255
0 0 255
0 0 255
0 0 254
0 0 255
0 0 255
0 0 255
0 0 255
0 0 255
0 0 255
0 0 254
0 0 255
0 0 255
0 0 255
0 0 255
0 0 254
0 0 255
0 0 255
0 0 255
0 0 254
0 0 254
0 0 255
0 0 254
0 0 255
0 0 255
0 0 255
0 0 255
0 0 255
0 0 255
0 0 255
0 0 255
0 0 255
0 0 255
0 0 255
0 0 254
0 0 255
0 0 254
0 0 255
0 0 255
0 0 255
0 0 255
0 0 254
0 0 255
0 0 254
0 0 255
0 0 255
0 0 255
0 0 255
0 0 252
0 0 255
0 0 255
0 0 253
76 78 255
134 137 255
160 164 253
199 204 255
235 241 255
241 247 255
241 247 255
241 247 255
241 247 255
241 247 255
241 247 255
241 247 255
242 247 255
242 247 255
242 247 255
242 247 255
242 247 255
242 247 255
242 247 255
242 247 255
242 247 255
242 248 255
242 248 255
242 248 255
242 248 255
242 248 255
242 248 255
242 248 255
242 248 255
242 248 255
243 248 255
243 248 255
243 248 255
243 248 255
243 248 255
243 248 255
243 248 255
243 248 255
243 248 255
243 248 255
243 248 255
243 248 255
243 248 255
243 248 255
243 248 255
243 248 255
243 248 255
243 248 255
244 248 255
244 248 255
244 248 255
244 248 255
244 248 255
244 249 255
244 249 255
244 249 255
244 249 255
244 249 255
244 249 255
244 249 255
244 249 255
244 249 255
244 249 255
244 249 255
244 249 255
244 249 255
244 249 255
244 249 255
244 249 255
244 249 255
245 249 255
245 249 255
245 249 255
245 249 255
245 249 255
245 249 255
245 249 255
245 249 255
245 249 255
245 249 255
245 249 255
245 249 255
245 249 255
245 249 255
245 249 255
245 249 255
245 249 255
245 249 255
245 249 255
245 249 255
245 249 255
245 249 255
245 249 255
245 249 255
245 249 255
245 249 255
245 249 255
245 249 255
245 249 255
245 249 255
245 249 255
245 249 255
245 249 255
245 249 255
245 249 255
245 249 255
245 249 255
245 250 255
245 250 255
245 250 255
245 250 255
245 250 255
245 250 255
245 250 255
245 250 255
245 250 255
245 250 255
245 250 255
245 250 255
245 250 255
245 250 255
245 250 255
245 250 255
245 250 255
245 250 255
245 250 255
245 250 255
245 249 255
245 249 255
245 249 255
245 249 255
245 249 255
245 249 255
245 249 255
245 249 255
245 249 255
245 249 255
245 249 255
245 249 255
245 249 255
245 249 255
245 249 255
245 249 255
245 249 255
245 249 255
245 249 255
245 249 255
245 249 255
245 249 255
245 249 255
245 249 255
245 249 255
245 249 255
245 249 255
245 249 255
245 249 255
245 249 255
245 249 255
245 249 255
245 249 255
245 249 255
245 249 255
245 249 255
244 249 255
244 249 255
244 249 255
244 249 255
244 249 255
244 249 255
244 249 255
244 249 255
244 249 255
244 249 255
244 249 255
244 249 255
244 249 255
244 249 255
244 249 255
244 249 255
244 249 255
244 249 255
244 248 255
244 248 255
244 248 255
244 248 255
244 248 255
243 248 255
243 248 255
243 248 255
243 248 255
243 248 255
243 248 255
243 248 255
243 248 255
243 248 255
243 248 255
243 248 255
243 248 255
243 248 255
243 248 255
243 248 255
243 248 255
243 248 255
243 248 255
242 248 255
242 248 255
242 248 255
242 248 255
242 248 255
242 248 255
242 248 255
242 248 255
242 248 255
242 247 255
242 247 255
242 247 255
242 247 255
242 247 255
242 247 255
242 247 255
242 247 255
242 247 255
241 247 255
241 247 255
241 247 255
241 247 255
241 247 255
241 247 255
241 247 255
241 242 250
240 219 227
241 181 188
239 144 149
239 82 84
238 0 0
238 0 0
237 0 0
239 0 0
237 0 0
237 0 0
237 0 0
237 0 0
236 0 0
237 0 0
238 0 0
239 0 0
237 0 0
235 0 0
236 0 0
236 0 0
237 0 0
238 0 0
237 0 0
236 0 0
233 0 0
235 0 0
237 0 0
238 0 0
238 0 0
235 0 0
236 0 0
236 0 0
236 0 0
234 0 0
235 0 0
236 0 0
233 0 0
233 0 0
234 0 0
236 0 0
234 0 0
235 0 0
236 0 0
237 0 0
238 0 0
236 0 0
236 0 0
232 0 0
236 0 0
237 0 0
236 0 0
236 0 0
234 0 0
237 0 0
235 0 0
236 0 0
236 0 0
237 0 0
236 0 0
236 0 0
233 0 0
234 0 0
232 0 0
234 0 0
236 0 0
232 0 0
234 0 0
230 0 0
236 0 0
234 0 0
232 0 0
234 0 0
235 0 0
234 0 0
237 0 0
234 0 0
237 0 0
234 0 0
235 0 0
235 0 0
235 0 0
236 0 0
232 0 0
236 0 0
233 0 0
234 0 0
235 0 0
194 200 255
162 167 255
125 129 255
91 94 255
23 24 255
0 0 255
0 0 255
0 0 255
0 0 255
0 0 255
0 0 255
0 0 255
0 0 255
0 0 255
0 0 255
0 0 255
0 0 255
0 0 255
0 0 255
0 0 255
0 0 255
0 0 255
0 0 255
0 0 255
0 0 255
0 0 255
0 0 254
0 0 255
0 0 255
0 0 255
0 0 255
0 0 255
0 0 255
0 0 255
0 0 255
0 0 255
0 0 255
0 0 255
0 0 255
0 0 255
0 0 254
0 0 255
0 0 255
0 0 255
0 0 255
0 0 255
0 0 255
0 0 254
0 0 255
0 0 255
0 0 255
0 0 255
0 0 255
0 0 255
0 0 255
0 0 255
0 0 255
0 0 254
0 0 255
0 0 255
0 0 255
0 0 255
0 0 255
0 0 255
0 0 255
0 0 255
0 0 255
0 0 255
0 0 255
0 0 255
0 0 255
0 0 255
0 0 255
0 0 255
0 0 255
0 0 255
0 0 255
0 0 255
107 110 255
138 142 255
170 174 255
197 202 255
222 228 255
241 247 255
241 247 255
241 247 255
241 247 255
241 247 255
241 247 255
241 247 255
241 247 255
241 247 255
241 247 255
242 247 255
242 247 255
242 247 255
242 247 255
242 247 255
242 247 255
242 247 255
242 247 255
242 247 255
242 248 255
242 248 255
242 248 255
242 248 255
242 248 255
242 248 255
242 248 255
242 248 255
243 248 255
243 248 255
243 248 255
243 248 255
243 248 255
243 248 255
243 248 255
243 248 255
243 248 255
243 248 255
243 248 255
243 248 255
243 248 255
243 248 255
243 248 255
243 248 255
243 248 255
243 248 255
243 248 255
244 248 255
244 248 255
244 248 255
244 248 255
244 249 255
244 249 255
244 249 255
244 249 255
244 249 255
244 249 255
244 249 255
244 249 255
244 249 255
244 249 255
244 249 255
244 249 255
244 249 255
244 249 255
244 249 255
244 249 255
244 249 255
244 249 255
245 249 255
245 249 255
245 249 255
245 249 255
245 249 255
245 249 255
245 249 255
245 249 255
245 249 255
245 249 255
245 249 255
245 249 255
245 249 255
245 249 255
245 249 255
245 249 255
245 249 255
245 249 255
245 249 255
245 249 255
245 249 255
245 249 255
245 249 255
245 249 255
245 249 255
245 249 255
245 249 255
245 249 255
245 249 255
245 249 255
245 249 255
245 250 255
245 250 255
245 250 255
245 250 255
245 250 255
245 250 255
246 250 255
246 250 255
246 250 255
246 250 255
246 250 255
246 250 255
246 250 255
246 250 255
246 250 255
246 250 255
246 250 255
246 250 255
246 250 255
246 250 255
246 250 255
246 250 255
246 250 255
246 250 255
246 250 255
246 250 255
246 250 255
246 250 255
246 250 255
246 250 255
246 250 255
245 250 255
245 250 255
245 250 255
245 250 255
245 250 255
245 249 255
245 249 255
245 249 255
245 249 255
245 249 255
245 249 255
245 249 255
245 249 255
245 249 255
245 249 255
245 249 255
245 249 255
245 249 255
245 249 255
245 249 255
245 249 255
245 249 255
245 249 255
245 249 255
245 249 255
245 249 255
245 249 255
245 249 255
245 249 255
245 249 255
245 249 255
245 249 255
245 249 255
245 249 255
245 249 255
245 249 255
244 249 255
244 249 255
244 249 255
244 249 255
244 249 255
244 249 255
244 249 255
244 249 255
244 249 255
244 249 255
244 249 255
244 249 255
244 249 255
244 249 255
244 249 255
244 249 255
244 249 255
244 249 255
244 248 255
244 248 255
244 248 255
244 248 255
243 248 255
243 248 255
243 248 255
243 248 255
243 248 255
243 248 255
243 248 255
243 248 255
243 248 255
243 248 255
243 248 255
243 248 255
243 248 255
243 248 255
243 248 255
243 248 255
243 248 255
243 248 255
243 248 255
242 248 255
242 248 255
242 248 255
242 248 255
242 248 255
242 248 255
242 248 255
242 248 255
242 247 255
242 247 255
242 247 255
242 247 255
242 247 255
242 247 255
242 247 255
242 247 255
242 247 255
241 247 255
241 247 255
241 247 255
241 247 255
241 247 255
241 247 255
241 247 255
241 247 255
241 247 255
241 247 255
241 234 242
240 205 212
240 176 182
241 164 169
240 123 128
239 55 57
239 0 0
234 0 0
238 0 0
239 0 0
238 0 0
238 0 0
239 0 0
237 0 0
241 0 0
237 0 0
239 0 0
233 0 0
237 0 0
237 0 0
238 0 0
236 0 0
237 0 0
237 0 0
236 0 0
236 0 0
239 0 0
237 0 0
237 0 0
238 0 0
235 0 0
234 0 0
239 0 0
235 0 0
236 0 0
237 0 0
235 0 0
235 0 0
233 0 0
235 0 0
237 0 0
238 0 0
236 0 0
236 0 0
235 0 0
237 0 0
237 0 0
234 0 0
234 0 0
236 0 0
236 0 0
235 0 0
236 0 0
235 0 0
236 0 0
234 0 0
235 0 0
237 0 0
234 0 0
236 0 0
236 0 0
237 0 0
237 0 0
237 0 0
236 0 0
236 0 0
236 0 0
232 0 0
230 0 0
236 0 0
235 0 0
234 0 0
235 0 0
234 0 0
235 0 0
233 0 0
234 0 0
234 0 0
236 24 25
235 112 117
237 138 144
233 169 177
236 212 221
237 244 255
237 244 255
237 244 255
237 244 255
234 242 255
220 227 255
179 185 255
159 164 255
140 145 255
127 132 255
33 34 255
0 0 255
0 0 255
0 0 255
0 0 255
0 0 255
0 0 255
0 0 255
0 0 255
0 0 255
0 0 255
0 0 255
0 0 255
0 0 255
0 0 255
0 0 255
0 0 255
0 0 255
0 0 255
0 0 255
0 0 255
0 0 255
0 0 255
0 0 255
0 0 255
0 0 255
0 0 255
0 0 254
0 0 255
0 0 255
0 0 255
0 0 255
0 0 255
0 0 255
0 0 255
0 0 255
0 0 255
0 0 255
0 0 255
0 0 255
0 0 255
0 0 255
0 0 255
0 0 255
0 0 255
0 0 255
0 0 255
0 0 255
0 0 255
0 0 255
0 0 255
0 0 255
0 0 255
0 0 255
0 0 255
0 0 254
0 0 255
0 0 255
0 0 255
0 0 255
24 24 255
63 65 255
129 133 255
148 152 255
178 183 255
198 203 255
222 227 255
240 246 255
241 247 255
241 247 255
241 247 255
241 247 255
241 247 255
241 247 255
241 247 255
241 247 255
241 247 255
241 247 255
241 247 255
241 247 255
241 247 255
242 247 255
242 247 255
242 247 255
242 247 255
242 247 255
242 247 255
242 247 255
242 247 255
242 247 255
242 248 255
242 248 255
242 248 255
242 248 255
242 248 255
242 248 255
242 248 255
242 248 255
243 248 255
243 248 255
243 248 255
243 248 255
243 248 255
243 248 255
243 248 255
243 248 255
243 248 255
243 248 255
243 248 255
243 248 255
243 248 255
243 248 255
243 248 255
243 248 255
243 248 255
243 248 255
243 248 255
244 248 255
244 248 255
244 248 255
244 248 255
244 249 255
244 249 255
244 249 255
244 249 255
244 249 255
244 249 255
244 249 255
244 249 255
244 249 255
244 249 255
244 249 255
244 249 255
244 249 255
244 249 255
244 249 255
244 249 255
244 249 255
245 249 255
245 249 255
245 249 255
245 249 255
245 249 255
245 249 255
245 249 255
245 249 255
245 249 255
245 249 255
245 249 255
245 249 255
245 249 255
245 249 255
245 249 255
245 249 255
245 249 255
245 249 255
245 249 255
245 249 255
245 249 255
245 249 255
245 249 255
245 249 255
245 249 255
245 249 255
245 249 255
245 249 255
245 250 255
245 250 255
245 250 255
245 250 255
246 250 255
246 250 255
246 250 255
246 250 255
246 250 255
246 250 255
246 250 255
246 250 255
246 250 255
246 250 255
246 250 255
246 250 255
246 250 255
246 250 255
246 250 255
246 250 255
246 250 255
246 250 255
246 250 255
246 250 255
246 250 255
246 250 255
246 250 255
246 250 255
246 250 255
246 250 255
246 250 255
246 250 255
246 250 255
246 250 255
246 250 255
246 250 255
246 250 255
246 250 255
246 250 255
246 250 255
246 250 255
246 250 255
246 250 255
246 250 255
245 250 255
245 250 255
245 250 255
245 250 255
245 249 255
245 249 255
245 249 255
245 249 255
245 249 255
245 249 255
245 249 255
245 249 255
245 249 255
245 249 255
245 249 255
245 249 255
245 249 255
245 249 255
245 249 255
245 249 255
245 249 255
245 249 255
245 249 255
245 249 255
245 249 255
245 249 255
245 249 255
245 249 255
245 249 255
245 249 255
245 249 255
245 249 255
244 249 255
244 249 255
244 249 255
244 249 255
244 249 255
244 249 255
244 249 255
244 249 255
244 249 255
244 249 255
244 249 255
244 249 255
244 249 255
244 249 255
244 249 255
244 249 255
244 249 255
244 248 255
244 248 255
244 248 255
244 248 255
243 248 255
243 248 255
243 248 255
243 248 255
243 248 255
243 248 255
243 248 255
243 248 255
243 248 255
243 248 255
243 248 255
243 248 255
243 248 255
243 248 255
243 248 255
243 248 255
243 248 255
243 248 255
243 248 255
242 248 255
242 248 255
242 248 255
242 248 255
242 248 255
242 248 255
242 248 255
242 248 255
242 247 255
242 247 255
242 247 255
242 247 255
242 247 255
242 247 255
242 247 255
242 247 255
242 247 255
241 247 255
241 247 255
241 247 255
241 247 255
241 247 255
241 247 255
241 247 255
241 247 255
241 247 255
241 247 255
241 247 255
241 247 255
241 247 255
241 246 254
241 226 234
241 208 215
241 188 194
238 158 163
240 118 122
240 78 80
238 0 0
237 0 0
238 0 0
239 0 0
239 0 0
234 0 0
240 0 0
234 0 0
238 0 0
236 0 0
238 0 0
236 0 0
236 0 0
234 0 0
241 0 0
237 0 0
237 0 0
238 0 0
238 0 0
236 0 0
234 0 0
233 0 0
237 0 0
237 0 0
238 0 0
238 0 0
238 0 0
235 0 0
234 0 0
237 0 0
236 0 0
237 0 0
236 0 0
237 0 0
234 0 0
238 0 0
236 0 0
238 0 0
237 0 0
236 0 0
234 0 0
232 0 0
234 0 0
234 0 0
235 0 0
232 0 0
236 0 0
236 0 0
235 0 0
235 0 0
237 0 0
236 0 0
237 0 0
235 0 0
235 0 0
235 0 0
235 0 0
233 0 0
234 0 0
238 0 0
236 60 62
238 112 117
237 155 161
237 181 189
237 203 212
237 213 223
237 242 253
237 244 255
237 244 255
237 244 255
237 244 255
237 244 255
237 244 255
237 244 255
237 245 255
237 245 255
237 245 255
237 245 255
237 245 255
237 245 255
237 245 255
237 245 255
229 236 255
215 222 255
203 209 255
181 186 255
166 171 255
134 138 255
130 134 255
92 95 255
63 64 255
0 0 255
0 0 255
0 0 255
0 0 255
0 0 255
0 0 255
0 0 255
0 0 255
0 0 255
0 0 255
0 0 255
0 0 255
0 0 255
0 0 255
0 0 255
0 0 255
0 0 255
0 0 255
0 0 255
0 0 255
0 0 255
0 0 255
0 0 255
0 0 255
0 0 255
0 0 255
0 0 255
0 0 255
0 0 255
0 0 255
0 0 255
0 0 255
0 0 255
0 0 255
0 0 254
0 0 255
0 0 255
0 0 255
0 0 255
0 0 255
0 0 255
0 0 254
24 24 254
90 92 255
110 113 255
142 146 255
156 160 255
181 186 255
202 208 255
223 229 255
234 240 255
241 247 255
241 247 255
241 247 255
241 247 255
241 247 255
241 247 255
241 247 255
241 247 255
241 247 255
241 247 255
241 247 255
241 247 255
241 247 255
241 247 255
241 247 255
241 247 255
241 247 255
241 247 255
242 247 255
242 247 255
242 247 255
242 247 255
242 247 255
242 247 255
242 247 255
242 247 255
242 247 255
242 248 255
242 248 255
242 248 255
242 248 255
242 248 255
242 248 255
242 248 255
242 248 255
243 248 255
243 248 255
243 248 255
243 248 255
243 248 255
243 248 255
243 248 255
243 248 255
243 248 255
243 248 255
243 248 255
243 248 255
243 248 255
243 248 255
243 248 255
243 248 255
243 248 255
243 248 255
243 248 255
244 248 255
244 248 255
244 248 255
244 248 255
244 249 255
244 249 255
244 249 255
244 249 255
244 249 255
244 249 255
244 249 255
244 249 255
244 249 255
244 249 255
244 249 255
244 249 255
244 249 255
244 249 255
244 249 255
244 249 255
245 249 255
245 249 255
245 249 255
245 249 255
245 249 255
245 249 255
245 249 255
245 249 255
245 249 255
245 249 255
245 249 255
245 249 255
245 249 255
245 249 255
245 249 255
245 249 255
245 249 255
245 249 255
245 249 255
245 249 255
245 249 255
245 249 255
245 249 255
245 249 255
245 249 255
245 249 255
245 250 255
245 250 255
245 250 255
245 250 255
246 250 255
246 250 255
246 250 255
246 250 255
246 250 255
246 250 255
246 250 255
246 250 255
246 250 255
246 250 255
246 250 255
246 250 255
246 250 255
246 250 255
246 250 255
246 250 255
246 250 255
246 250 255
246 250 255
246 250 255
246 250 255
246 250 255
246 250 255
246 250 255
246 250 255
246 250 255
246 250 255
246 250 255
246 250 255
246 250 255
246 250 255
246 250 255
246 250 255
246 250 255
246 250 255
246 250 255
246 250 255
246 250 255
246 250 255
246 250 255
246 250 255
246 250 255
246 250 255
246 250 255
246 250 255
246 250 255
246 250 255
246 250 255
246 250 255
246 250 255
245 250 255
245 250 255
245 250 255
245 249 255
245 249 255
245 249 255
245 249 255
245 249 255
245 249 255
245 249 255
245 249 255
245 249 255
245 249 255
245 249 255
245 249 255
245 249 255
245 249 255
245 249 255
245 249 255
245 249 255
245 249 255
245 249 255
245 249 255
245 249 255
245 249 255
245 249 255
245 249 255
245 249 255
245 249 255
245 249 255
244 249 255
244 249 255
244 249 255
244 249 255
244 249 255
244 249 255
244 249 255
244 249 255
244 249 255
244 249 255
244 249 255
244 249 255
244 249 255
244 249 255
244 249 255
244 249 255
244 248 255
244 248 255
244 248 255
244 248 255
243 248 255
243 248 255
243 248 255
243 248 255
243 248 255
243 248 255
243 248 255
243 248 255
243 248 255
243 248 255
243 248 255
243 248 255
243 248 255
243 248 255
243 248 255
243 248 255
243 248 255
243 248 255
243 248 255
242 248 255
242 248 255
242 248 255
242 248 255
242 248 255
242 248 255
242 248 255
242 248 255
242 247 255
242 247 255
242 247 255
242 247 255
242 247 255
242 247 255
242 247 255
242 247 255
242 247 255
241 247 255
241 247 255
241 247 255
241 247 255
241 247 255
241 247 255
241 247 255
241 247 255
241 247 255
241 247 255
241 247 255
241 247 255
241 247 255
241 247 255
241 247 255
241 247 255
241 247 255
240 247 255
240 242 250
241 227 236
239 209 217
241 197 204
241 161 167
238 150 155
240 115 120
239 74 76
239 24 25
238 0 0
237 0 0
239 0 0
239 0 0
240 0 0
238 0 0
239 0 0
235 0 0
238 0 0
237 0 0
237 0 0
237 0 0
240 0 0
234 0 0
235 0 0
239 0 0
236 0 0
236 0 0
237 0 0
235 0 0
235 0 0
238 0 0
235 0 0
239 0 0
238 0 0
237 0 0
237 0 0
234 0 0
235 0 0
237 0 0
235 0 0
234 0 0
235 0 0
235 0 0
237 0 0
237 0 0
236 0 0
237 0 0
236 0 0
238 0 0
234 0 0
238 0 0
234 42 44
235 77 80
237 127 133
235 122 128
238 162 169
238 186 194
236 200 209
238 227 237
238 231 241
237 245 255
237 245 255
237 245 255
237 245 255
237 245 255
237 245 255
237 245 255
237 245 255
237 244 255
237 244 255
237 244 255
237 244 255
237 245 255
237 245 255
237 245 255
237 245 255
237 245 255
237 245 255
237 245 255
237 245 255
237 245 255
237 245 255
237 245 255
237 245 255
237 245 255
238 245 255
238 245 255
238 245 255
238 245 255
238 245 255
238 245 255
233 240 255
218 225 255
205 211 255
200 206 255
183 188 255
158 162 255
165 170 255
137 141 255
147 151 255
112 115 255
117 120 255
101 104 255
95 98 255
86 88 255
63 65 255
58 60 255
53 55 255
41 42 255
0 0 255
0 0 255
0 0 255
0 0 254
23 24 255
33 34 255
41 42 255
58 60 255
71 73 255
71 73 255
104 107 255
107 110 255
112 115 255
133 137 255
135 139 255
120 123 255
149 154 255
161 165 255
181 186 255
179 184 255
205 210 255
216 222 255
213 219 255
225 231 255
240 246 255
240 246 255
240 246 255
240 246 255
240 247 255
240 247 255
240 247 255
240 247 255
241 247 255
241 247 255
241 247 255
241 247 255
241 247 255
241 247 255
241 247 255
241 247 255
241 247 255
241 247 255
241 247 255
241 247 255
241 247 255
241 247 255
241 247 255
241 247 255
241 247 255
242 247 255
242 247 255
242 247 255
242 247 255
242 247 255
242 247 255
242 247 255
242 247 255
242 247 255
242 248 255
242 248 255
242 248 255
242 248 255
242 248 255
242 248 255
242 248 255
242 248 255
243 248 255
243 248 255
243 248 255
243 248 255
243 248 255
243 248 255
243 248 255
243 248 255
243 248 255
243 248 255
243 248 255
243 248 255
243 248 255
243 248 255
243 248 255
243 248 255
243 248 255
243 248 255
244 248 255
244 248 255
244 248 255
244 248 255
244 248 255
244 249 255
244 249 255
244 249 255
244 249 255
244 249 255
244 249 255
244 249 255
244 249 255
244 249 255
244 249 255
244 249 255
244 249 255
244 249 255
244 249 255
244 249 255
244 249 255
245 249 255
245 249 255
245 249 255
245 249 255
245 249 255
245 249 255
245 249 255
245 249 255
245 249 255
245 249 255
245 249 255
245 249 255
245 249 255
245 249 255
245 249 255
245 249 255
245 249 255
245 249 255
245 249 255
245 249 255
245 249 255
245 249 255
245 249 255
245 249 255
245 250 255
245 250 255
245 250 255
246 250 255
246 250 255
246 250 255
246 250 255
246 250 255
246 250 255
246 250 255
246 250 255
246 250 255
246 250 255
246 250 255
246 250 255
246 250 255
246 250 255
246 250 255
246 250 255
246 250 255
246 250 255
246 250 255
246 250 255
246 250 255
246 250 255
246 250 255
246 250 255
246 250 255
246 250 255
246 250 255
246 250 255
246 250 255
246 250 255
246 250 255
246 250 255
246 250 255
246 250 255
246 250 255
246 250 255
246 250 255
246 250 255
246 250 255
246 250 255
246 250 255
246 250 255
246 250 255
246 250 255
246 250 255
246 250 255
246 250 255
246 250 255
246 250 255
246 250 255
246 250 255
246 250 255
246 250 255
246 250 255
246 250 255
246 250 255
246 250 255
246 250 255
246 250 255
246 250 255
245 250 255
245 250 255
245 250 255
245 249 255
245 249 255
245 249 255
245 249 255
245 249 255
245 249 255
245 249 255
245 249 255
245 249 255
245 249 255
245 249 255
245 249 255
245 249 255
245 249 255
245 249 255
245 249 255
245 249 255
245 249 255
245 249 255
245 249 255
245 249 255
245 249 255
245 249 255
245 249 255
244 249 255
244 249 255
244 249 255
244 249 255
244 249 255
244 249 255
244 249 255
244 249 255
244 249 255
244 249 255
244 249 255
244 249 255
244 249 255
244 249 255
244 249 255
244 249 255
244 249 255
244 248 255
244 248 255
244 248 255
244 248 255
243 248 255
243 248 255
243 248 255
243 248 255
243 248 255
243 248 255
243 248 255
243 248 255
243 248 255
243 248 255
243 248 255
243 248 255
243 248 255
243 248 255
243 248 255
243 248 255
243 248 255
243 248 255
242 248 255
242 248 255
242 248 255
242 248 255
242 248 255
242 248 255
242 248 255
242 248 255
242 247 255
242 247 255
242 247 255
242 247 255
242 247 255
242 247 255
242 247 255
242 247 255
242 247 255
241 247 255
241 247 255
241 247 255
241 247 255
241 247 255
241 247 255
241 247 255
241 247 255
241 247 255
241 247 255
241 247 255
241 247 255
241 247 255
241 247 255
241 247 255
241 247 255
241 247 255
241 247 255
240 247 255
240 247 255
240 247 255
240 246 255
240 246 255
240 246 255
240 246 255
240 239 248
240 224 233
240 219 227
240 210 218
240 192 199
240 176 182
239 176 182
239 165 171
239 154 159
239 145 151
239 101 105
239 112 117
238 118 122
239 92 95
235 73 76
237 49 51
240 34 36
240 24 25
237 34 36
236 0 0
237 0 0
239 0 0
239 0 0
236 34 36
237 42 44
235 49 51
238 65 67
239 81 84
237 81 84
237 92 95
239 77 80
238 112 117
238 122 128
239 149 155
237 147 153
237 173 181
237 182 189
238 198 206
237 193 201
237 202 211
238 214 223
238 241 252
238 245 255
238 245 255
238 245 255
238 245 255
238 245 255
238 245 255
237 245 255
237 245 255
237 245 255
237 245 255
237 245 255
237 245 255
237 245 255
237 245 255
237 245 255
237 245 255
237 245 255
237 245 255
237 245 255
237 244 255
